trix_modern/TriX_Red25_Punchy.cube
TITLE "Tri-X Red25 Punchy"
# Adobe RGB in/out. REPLACES AgX. R=0.9735 G=0.0265 B=0.0000
LUT_3D_SIZE 9
DOMAIN_MIN 0.0 0.0 0.0
DOMAIN_MAX 1.0 1.0 1.0
0.091936 0.091936 0.091936
0.091936 0.091936 0.091936
0.091936 0.091936 0.091936
0.091936 0.091936 0.091936
0.091936 0.091936 0.091936
0.091936 0.091936 0.091936
0.091936 0.091936 0.091936
0.091936 0.091936 0.091936
0.091936 0.091936 0.091936
0.091936 0.091936 0.091936
0.095614 0.095614 0.095614
0.273941 0.273941 0.273941
0.550522 0.550522 0.550522
0.748416 0.748416 0.748416
0.880254 0.880254 0.880254
0.946700 0.946700 0.946700
0.974865 0.974865 0.974865
0.984983 0.984983 0.984983
0.091936 0.091936 0.091936
0.105443 0.105443 0.105443
0.232313 0.232313 0.232313
0.465501 0.465501 0.465501
0.683760 0.683760 0.683760
0.845563 0.845563 0.845563
0.935032 0.935032 0.935032
0.972094 0.972094 0.972094
0.984445 0.984445 0.984445
0.091936 0.091936 0.091936
0.106890 0.106890 0.106890
0.271893 0.271893 0.271893
0.446159 0.446159 0.446159
0.619348 0.619348 0.619348
0.796003 0.796003 0.796003
0.909020 0.909020 0.909020
0.963042 0.963042 0.963042
0.982559 0.982559 0.982559
0.091936 0.091936 0.091936
0.104502 0.104502 0.104502
0.280590 0.280590 0.280590
0.465399 0.465399 0.465399
0.609983 0.609983 0.609983
0.754371 0.754371 0.754371
0.881469 0.881469 0.881469
0.949852 0.949852 0.949852
0.977461 0.977461 0.977461
0.091936 0.091936 0.091936
0.101950 0.101950 0.101950
0.270427 0.270427 0.270427
0.468338 0.468338 0.468338
0.618186 0.618186 0.618186
0.749342 0.749342 0.749342
0.857980 0.857980 0.857980
0.936260 0.936260 0.936260
0.972203 0.972203 0.972203
0.091936 0.091936 0.091936
0.099279 0.099279 0.099279
0.251419 0.251419 0.251419
0.457487 0.457487 0.457487
0.614291 0.614291 0.614291
0.748471 0.748471 0.748471
0.853790 0.853790 0.853790
0.926291 0.926291 0.926291
0.966453 0.966453 0.966453
0.091936 0.091936 0.091936
0.097370 0.097370 0.097370
0.228562 0.228562 0.228562
0.438024 0.438024 0.438024
0.599434 0.599434 0.599434
0.738523 0.738523 0.738523
0.847298 0.847298 0.847298
0.921507 0.921507 0.921507
0.961985 0.961985 0.961985
0.091936 0.091936 0.091936
0.095638 0.095638 0.095638
0.204790 0.204790 0.204790
0.413837 0.413837 0.413837
0.576747 0.576747 0.576747
0.720209 0.720209 0.720209
0.834486 0.834486 0.834486
0.912857 0.912857 0.912857
0.958751 0.958751 0.958751
0.091936 0.091936 0.091936
0.091936 0.091936 0.091936
0.091936 0.091936 0.091936
0.091936 0.091936 0.091936
0.091936 0.091936 0.091936
0.091936 0.091936 0.091936
0.091936 0.091936 0.091936
0.091936 0.091936 0.091936
0.091936 0.091936 0.091936
0.091936 0.091936 0.091936
0.092784 0.092784 0.092784
0.257027 0.257027 0.257027
0.532769 0.532769 0.532769
0.734206 0.734206 0.734206
0.872870 0.872870 0.872870
0.943471 0.943471 0.943471
0.973929 0.973929 0.973929
0.984715 0.984715 0.984715
0.091936 0.091936 0.091936
0.101768 0.101768 0.101768
0.201305 0.201305 0.201305
0.442067 0.442067 0.442067
0.665764 0.665764 0.665764
0.836417 0.836417 0.836417
0.931801 0.931801 0.931801
0.971170 0.971170 0.971170
0.984183 0.984183 0.984183
0.091936 0.091936 0.091936
0.104615 0.104615 0.104615
0.254772 0.254772 0.254772
0.428052 0.428052 0.428052
0.604742 0.604742 0.604742
0.786039 0.786039 0.786039
0.904420 0.904420 0.904420
0.961717 0.961717 0.961717
0.982314 0.982314 0.982314
0.091936 0.091936 0.091936
0.103553 0.103553 0.103553
0.271868 0.271868 0.271868
0.455617 0.455617 0.455617
0.599654 0.599654 0.599654
0.746642 0.746642 0.746642
0.877693 0.877693 0.877693
0.948030 0.948030 0.948030
0.976941 0.976941 0.976941
0.091936 0.091936 0.091936
0.101511 0.101511 0.101511
0.265841 0.265841 0.265841
0.463101 0.463101 0.463101
0.612290 0.612290 0.612290
0.743918 0.743918 0.743918
0.854511 0.854511 0.854511
0.934888 0.934888 0.934888
0.971797 0.971797 0.971797
0.091936 0.091936 0.091936
0.099033 0.099033 0.099033
0.248982 0.248982 0.248982
0.454638 0.454638 0.454638
0.611047 0.611047 0.611047
0.745344 0.745344 0.745344
0.851432 0.851432 0.851432
0.924948 0.924948 0.924948
0.966041 0.966041 0.966041
0.091936 0.091936 0.091936
0.097284 0.097284 0.097284
0.227238 0.227238 0.227238
0.436493 0.436493 0.436493
0.597701 0.597701 0.597701
0.736850 0.736850 0.736850
0.846014 0.846014 0.846014
0.920691 0.920691 0.920691
0.961745 0.961745 0.961745
0.091936 0.091936 0.091936
0.095594 0.095594 0.095594
0.204144 0.204144 0.204144
0.413068 0.413068 0.413068
0.575893 0.575893 0.575893
0.719413 0.719413 0.719413
0.833906 0.833906 0.833906
0.912521 0.912521 0.912521
0.958667 0.958667 0.958667
0.091936 0.091936 0.091936
0.091936 0.091936 0.091936
0.091936 0.091936 0.091936
0.091936 0.091936 0.091936
0.091936 0.091936 0.091936
0.091936 0.091936 0.091936
0.091936 0.091936 0.091936
0.091936 0.091936 0.091936
0.091936 0.091936 0.091936
0.091936 0.091936 0.091936
0.111895 0.111895 0.111895
0.323613 0.323613 0.323613
0.545200 0.545200 0.545200
0.728609 0.728609 0.728609
0.863956 0.863956 0.863956
0.938798 0.938798 0.938798
0.972235 0.972235 0.972235
0.984152 0.984152 0.984152
0.091936 0.091936 0.091936
0.097652 0.097652 0.097652
0.152941 0.152941 0.152941
0.421205 0.421205 0.421205
0.646921 0.646921 0.646921
0.823928 0.823928 0.823928
0.925991 0.925991 0.925991
0.968448 0.968448 0.968448
0.983607 0.983607 0.983607
0.091936 0.091936 0.091936
0.101027 0.101027 0.101027
0.222285 0.222285 0.222285
0.385422 0.385422 0.385422
0.577258 0.577258 0.577258
0.766341 0.766341 0.766341
0.895062 0.895062 0.895062
0.958803 0.958803 0.958803
0.981133 0.981133 0.981133
0.091936 0.091936 0.091936
0.101529 0.101529 0.101529
0.251899 0.251899 0.251899
0.432790 0.432790 0.432790
0.574573 0.574573 0.574573
0.728388 0.728388 0.728388
0.866438 0.866438 0.866438
0.943520 0.943520 0.943520
0.975604 0.975604 0.975604
0.091936 0.091936 0.091936
0.100303 0.100303 0.100303
0.253845 0.253845 0.253845
0.449463 0.449463 0.449463
0.596697 0.596697 0.596697
0.729227 0.729227 0.729227
0.845247 0.845247 0.845247
0.931156 0.931156 0.931156
0.970443 0.970443 0.970443
0.091936 0.091936 0.091936
0.098480 0.098480 0.098480
0.242031 0.242031 0.242031
0.446569 0.446569 0.446569
0.601858 0.601858 0.601858
0.736370 0.736370 0.736370
0.844563 0.844563 0.844563
0.921076 0.921076 0.921076
0.964834 0.964834 0.964834
0.091936 0.091936 0.091936
0.097020 0.097020 0.097020
0.223230 0.223230 0.223230
0.431886 0.431886 0.431886
0.592508 0.592508 0.592508
0.731819 0.731819 0.731819
0.842121 0.842121 0.842121
0.918191 0.918191 0.918191
0.961005 0.961005 0.961005
0.091936 0.091936 0.091936
0.095454 0.095454 0.095454
0.202100 0.202100 0.202100
0.410183 0.410183 0.410183
0.573217 0.573217 0.573217
0.716922 0.716922 0.716922
0.832083 0.832083 0.832083
0.911459 0.911459 0.911459
0.958396 0.958396 0.958396
0.091936 0.091936 0.091936
0.091936 0.091936 0.091936
0.091936 0.091936 0.091936
0.091936 0.091936 0.091936
0.091936 0.091936 0.091936
0.091936 0.091936 0.091936
0.091936 0.091936 0.091936
0.091936 0.091936 0.091936
0.091936 0.091936 0.091936
0.091936 0.091936 0.091936
0.113697 0.113697 0.113697
0.383496 0.383496 0.383496
0.603820 0.603820 0.603820
0.755230 0.755230 0.755230
0.871289 0.871289 0.871289
0.938702 0.938702 0.938702
0.971509 0.971509 0.971509
0.983764 0.983764 0.983764
0.091936 0.091936 0.091936
0.100685 0.100685 0.100685
0.244774 0.244774 0.244774
0.466852 0.466852 0.466852
0.664695 0.664695 0.664695
0.826187 0.826187 0.826187
0.923835 0.923835 0.923835
0.966938 0.966938 0.966938
0.983171 0.983171 0.983171
0.091936 0.091936 0.091936
0.098326 0.098326 0.098326
0.201678 0.201678 0.201678
0.338495 0.338495 0.338495
0.565430 0.565430 0.565430
0.757085 0.757085 0.757085
0.889508 0.889508 0.889508
0.956226 0.956226 0.956226
0.979898 0.979898 0.979898
0.091936 0.091936 0.091936
0.099134 0.099134 0.099134
0.230692 0.230692 0.230692
0.407609 0.407609 0.407609
0.545491 0.545491 0.545491
0.710306 0.710306 0.710306
0.855080 0.855080 0.855080
0.939168 0.939168 0.939168
0.974234 0.974234 0.974234
0.091936 0.091936 0.091936
0.098730 0.098730 0.098730
0.239265 0.239265 0.239265
0.433152 0.433152 0.433152
0.577733 0.577733 0.577733
0.710800 0.710800 0.710800
0.834323 0.834323 0.834323
0.926620 0.926620 0.926620
0.968422 0.968422 0.968422
0.091936 0.091936 0.091936
0.097856 0.097856 0.097856
0.232354 0.232354 0.232354
0.435970 0.435970 0.435970
0.589894 0.589894 0.589894
0.724512 0.724512 0.724512
0.835326 0.835326 0.835326
0.916058 0.916058 0.916058
0.963255 0.963255 0.963255
0.091936 0.091936 0.091936
0.096631 0.096631 0.096631
0.217516 0.217516 0.217516
0.425388 0.425388 0.425388
0.585281 0.585281 0.585281
0.724821 0.724821 0.724821
0.836649 0.836649 0.836649
0.914644 0.914644 0.914644
0.959974 0.959974 0.959974
0.091936 0.091936 0.091936
0.095239 0.095239 0.095239
0.199022 0.199022 0.199022
0.405616 0.405616 0.405616
0.569263 0.569263 0.569263
0.713263 0.713263 0.713263
0.829404 0.829404 0.829404
0.909893 0.909893 0.909893
0.957995 0.957995 0.957995
0.091936 0.091936 0.091936
0.091936 0.091936 0.091936
0.091936 0.091936 0.091936
0.091936 0.091936 0.091936
0.091936 0.091936 0.091936
0.091936 0.091936 0.091936
0.091936 0.091936 0.091936
0.091936 0.091936 0.091936
0.091936 0.091936 0.091936
0.091936 0.091936 0.091936
0.113697 0.113697 0.113697
0.383496 0.383496 0.383496
0.637788 0.637788 0.637788
0.799097 0.799097 0.799097
0.888649 0.888649 0.888649
0.944015 0.944015 0.944015
0.972263 0.972263 0.972263
0.983749 0.983749 0.983749
0.091936 0.091936 0.091936
0.110516 0.110516 0.110516
0.333815 0.333815 0.333815
0.543202 0.543202 0.543202
0.713364 0.713364 0.713364
0.845678 0.845678 0.845678
0.929336 0.929336 0.929336
0.967691 0.967691 0.967691
0.983095 0.983095 0.983095
0.091936 0.091936 0.091936
0.098435 0.098435 0.098435
0.224525 0.224525 0.224525
0.420564 0.420564 0.420564
0.599485 0.599485 0.599485
0.771592 0.771592 0.771592
0.892505 0.892505 0.892505
0.956112 0.956112 0.956112
0.979437 0.979437 0.979437
0.091936 0.091936 0.091936
0.097781 0.097781 0.097781
0.216547 0.216547 0.216547
0.390585 0.390585 0.390585
0.513339 0.513339 0.513339
0.703555 0.703555 0.703555
0.851072 0.851072 0.851072
0.937157 0.937157 0.937157
0.973420 0.973420 0.973420
0.091936 0.091936 0.091936
0.097717 0.097717 0.097717
0.224700 0.224700 0.224700
0.418112 0.418112 0.418112
0.559601 0.559601 0.559601
0.689551 0.689551 0.689551
0.824693 0.824693 0.824693
0.921229 0.921229 0.921229
0.966781 0.966781 0.966781
0.091936 0.091936 0.091936
0.097148 0.097148 0.097148
0.222035 0.222035 0.222035
0.424839 0.424839 0.424839
0.577515 0.577515 0.577515
0.711942 0.711942 0.711942
0.825297 0.825297 0.825297
0.911003 0.911003 0.911003
0.961699 0.961699 0.961699
0.091936 0.091936 0.091936
0.096170 0.096170 0.096170
0.210989 0.210989 0.210989
0.418051 0.418051 0.418051
0.577276 0.577276 0.577276
0.717106 0.717106 0.717106
0.830548 0.830548 0.830548
0.910664 0.910664 0.910664
0.958990 0.958990 0.958990
0.091936 0.091936 0.091936
0.094975 0.094975 0.094975
0.195323 0.195323 0.195323
0.400186 0.400186 0.400186
0.564624 0.564624 0.564624
0.709022 0.709022 0.709022
0.826312 0.826312 0.826312
0.908088 0.908088 0.908088
0.957541 0.957541 0.957541
0.091936 0.091936 0.091936
0.091936 0.091936 0.091936
0.091936 0.091936 0.091936
0.091936 0.091936 0.091936
0.091936 0.091936 0.091936
0.091936 0.091936 0.091936
0.091936 0.091936 0.091936
0.091936 0.091936 0.091936
0.091936 0.091936 0.091936
0.091936 0.091936 0.091936
0.113697 0.113697 0.113697
0.383496 0.383496 0.383496
0.637788 0.637788 0.637788
0.836949 0.836949 0.836949
0.909296 0.909296 0.909296
0.952813 0.952813 0.952813
0.974250 0.974250 0.974250
0.984101 0.984101 0.984101
0.091936 0.091936 0.091936
0.115761 0.115761 0.115761
0.395286 0.395286 0.395286
0.604370 0.604370 0.604370
0.762480 0.762480 0.762480
0.874208 0.874208 0.874208
0.938059 0.938059 0.938059
0.970536 0.970536 0.970536
0.983403 0.983403 0.983403
0.091936 0.091936 0.091936
0.101515 0.101515 0.101515
0.271192 0.271192 0.271192
0.481933 0.481933 0.481933
0.654097 0.654097 0.654097
0.803755 0.803755 0.803755
0.904012 0.904012 0.904012
0.958850 0.958850 0.958850
0.979937 0.979937 0.979937
0.091936 0.091936 0.091936
0.097466 0.097466 0.097466
0.219550 0.219550 0.219550
0.413258 0.413258 0.413258
0.567530 0.567530 0.567530
0.726457 0.726457 0.726457
0.859930 0.859930 0.859930
0.938869 0.938869 0.938869
0.973492 0.973492 0.973492
0.091936 0.091936 0.091936
0.096892 0.096892 0.096892
0.214480 0.214480 0.214480
0.408384 0.408384 0.408384
0.550106 0.550106 0.550106
0.667998 0.667998 0.667998
0.821431 0.821431 0.821431
0.919566 0.919566 0.919566
0.966086 0.966086 0.966086
0.091936 0.091936 0.091936
0.096453 0.096453 0.096453
0.212508 0.212508 0.212508
0.414850 0.414850 0.414850
0.566761 0.566761 0.566761
0.699722 0.699722 0.699722
0.815270 0.815270 0.815270
0.906724 0.906724 0.906724
0.960499 0.960499 0.960499
0.091936 0.091936 0.091936
0.095695 0.095695 0.095695
0.204343 0.204343 0.204343
0.410203 0.410203 0.410203
0.569405 0.569405 0.569405
0.709571 0.709571 0.709571
0.824441 0.824441 0.824441
0.906624 0.906624 0.906624
0.957992 0.957992 0.957992
0.091936 0.091936 0.091936
0.094683 0.094683 0.094683
0.191334 0.191334 0.191334
0.394385 0.394385 0.394385
0.559741 0.559741 0.559741
0.704631 0.704631 0.704631
0.823138 0.823138 0.823138
0.906250 0.906250 0.906250
0.957100 0.957100 0.957100
0.091936 0.091936 0.091936
0.091936 0.091936 0.091936
0.091936 0.091936 0.091936
0.091936 0.091936 0.091936
0.091936 0.091936 0.091936
0.091936 0.091936 0.091936
0.091936 0.091936 0.091936
0.091936 0.091936 0.091936
0.091936 0.091936 0.091936
0.091936 0.091936 0.091936
0.113697 0.113697 0.113697
0.383496 0.383496 0.383496
0.637788 0.637788 0.637788
0.842107 0.842107 0.842107
0.928097 0.928097 0.928097
0.960568 0.960568 0.960568
0.976858 0.976858 0.976858
0.984700 0.984700 0.984700
0.091936 0.091936 0.091936
0.115761 0.115761 0.115761
0.395286 0.395286 0.395286
0.650612 0.650612 0.650612
0.803704 0.803704 0.803704
0.896045 0.896045 0.896045
0.948339 0.948339 0.948339
0.973394 0.973394 0.973394
0.983991 0.983991 0.983991
0.091936 0.091936 0.091936
0.105681 0.105681 0.105681
0.317181 0.317181 0.317181
0.533923 0.533923 0.533923
0.705293 0.705293 0.705293
0.835326 0.835326 0.835326
0.919805 0.919805 0.919805
0.962748 0.962748 0.962748
0.981234 0.981234 0.981234
0.091936 0.091936 0.091936
0.098233 0.098233 0.098233
0.239139 0.239139 0.239139
0.447079 0.447079 0.447079
0.612475 0.612475 0.612475
0.761908 0.761908 0.761908
0.877746 0.877746 0.877746
0.944015 0.944015 0.944015
0.974462 0.974462 0.974462
0.091936 0.091936 0.091936
0.096526 0.096526 0.096526
0.212234 0.212234 0.212234
0.412627 0.412627 0.412627
0.564111 0.564111 0.564111
0.705574 0.705574 0.705574
0.833738 0.833738 0.833738
0.923899 0.923899 0.923899
0.966718 0.966718 0.966718
0.091936 0.091936 0.091936
0.095885 0.095885 0.095885
0.205337 0.205337 0.205337
0.406988 0.406988 0.406988
0.560888 0.560888 0.560888
0.692966 0.692966 0.692966
0.803966 0.803966 0.803966
0.905304 0.905304 0.905304
0.960113 0.960113 0.960113
0.091936 0.091936 0.091936
0.095252 0.095252 0.095252
0.198251 0.198251 0.198251
0.401830 0.401830 0.401830
0.562630 0.562630 0.562630
0.703036 0.703036 0.703036
0.819007 0.819007 0.819007
0.902768 0.902768 0.902768
0.957154 0.957154 0.957154
0.091936 0.091936 0.091936
0.094384 0.094384 0.094384
0.187355 0.187355 0.187355
0.388654 0.388654 0.388654
0.555000 0.555000 0.555000
0.699805 0.699805 0.699805
0.820165 0.820165 0.820165
0.904542 0.904542 0.904542
0.956659 0.956659 0.956659
0.091936 0.091936 0.091936
0.091936 0.091936 0.091936
0.091936 0.091936 0.091936
0.091936 0.091936 0.091936
0.091936 0.091936 0.091936
0.091936 0.091936 0.091936
0.091936 0.091936 0.091936
0.091936 0.091936 0.091936
0.091936 0.091936 0.091936
0.091936 0.091936 0.091936
0.113697 0.113697 0.113697
0.383496 0.383496 0.383496
0.637788 0.637788 0.637788
0.842107 0.842107 0.842107
0.938002 0.938002 0.938002
0.965943 0.965943 0.965943
0.979472 0.979472 0.979472
0.985382 0.985382 0.985382
0.091936 0.091936 0.091936
0.115761 0.115761 0.115761
0.395286 0.395286 0.395286
0.651353 0.651353 0.651353
0.830585 0.830585 0.830585
0.914068 0.914068 0.914068
0.957615 0.957615 0.957615
0.976185 0.976185 0.976185
0.984693 0.984693 0.984693
0.091936 0.091936 0.091936
0.110426 0.110426 0.110426
0.349492 0.349492 0.349492
0.571587 0.571587 0.571587
0.741558 0.741558 0.741558
0.862019 0.862019 0.862019
0.932727 0.932727 0.932727
0.967174 0.967174 0.967174
0.982477 0.982477 0.982477
0.091936 0.091936 0.091936
0.099930 0.099930 0.099930
0.263082 0.263082 0.263082
0.479816 0.479816 0.479816
0.650920 0.650920 0.650920
0.794435 0.794435 0.794435
0.893407 0.893407 0.893407
0.950784 0.950784 0.950784
0.976006 0.976006 0.976006
0.091936 0.091936 0.091936
0.096743 0.096743 0.096743
0.218796 0.218796 0.218796
0.426801 0.426801 0.426801
0.588868 0.588868 0.588868
0.734255 0.734255 0.734255
0.852390 0.852390 0.852390
0.930657 0.930657 0.930657
0.968483 0.968483 0.968483
0.091936 0.091936 0.091936
0.095576 0.095576 0.095576
0.202077 0.202077 0.202077
0.405450 0.405450 0.405450
0.563705 0.563705 0.563705
0.703074 0.703074 0.703074
0.822052 0.822052 0.822052
0.910522 0.910522 0.910522
0.960934 0.960934 0.960934
0.091936 0.091936 0.091936
0.094880 0.094880 0.094880
0.193405 0.193405 0.193405
0.395575 0.395575 0.395575
0.558193 0.558193 0.558193
0.699117 0.699117 0.699117
0.816305 0.816305 0.816305
0.899279 0.899279 0.899279
0.956831 0.956831 0.956831
0.091936 0.091936 0.091936
0.094100 0.094100 0.094100
0.183679 0.183679 0.183679
0.383430 0.383430 0.383430
0.550799 0.550799 0.550799
0.695698 0.695698 0.695698
0.817724 0.817724 0.817724
0.903143 0.903143 0.903143
0.956288 0.956288 0.956288
0.091936 0.091936 0.091936
0.091936 0.091936 0.091936
0.091936 0.091936 0.091936
0.091936 0.091936 0.091936
0.091936 0.091936 0.091936
0.091936 0.091936 0.091936
0.091936 0.091936 0.091936
0.091936 0.091936 0.091936
0.091936 0.091936 0.091936
0.091936 0.091936 0.091936
0.113697 0.113697 0.113697
0.383496 0.383496 0.383496
0.637788 0.637788 0.637788
0.842107 0.842107 0.842107
0.944505 0.944505 0.944505
0.969989 0.969989 0.969989
0.981652 0.981652 0.981652
0.986001 0.986001 0.986001
0.091936 0.091936 0.091936
0.115761 0.115761 0.115761
0.395286 0.395286 0.395286
0.651353 0.651353 0.651353
0.846986 0.846986 0.846986
0.927170 0.927170 0.927170
0.962525 0.962525 0.962525
0.978613 0.978613 0.978613
0.985356 0.985356 0.985356
0.091936 0.091936 0.091936
0.114420 0.114420 0.114420
0.372454 0.372454 0.372454
0.597597 0.597597 0.597597
0.768755 0.768755 0.768755
0.881252 0.881252 0.881252
0.941592 0.941592 0.941592
0.971206 0.971206 0.971206
0.983179 0.983179 0.983179
0.091936 0.091936 0.091936
0.101870 0.101870 0.101870
0.285496 0.285496 0.285496
0.507310 0.507310 0.507310
0.682121 0.682121 0.682121
0.819666 0.819666 0.819666
0.907464 0.907464 0.907464
0.957284 0.957284 0.957284
0.977685 0.977685 0.977685
0.091936 0.091936 0.091936
0.097340 0.097340 0.097340
0.230293 0.230293 0.230293
0.444175 0.444175 0.444175
0.612557 0.612557 0.612557
0.758499 0.758499 0.758499
0.869687 0.869687 0.869687
0.936792 0.936792 0.936792
0.970698 0.970698 0.970698
0.091936 0.091936 0.091936
0.095558 0.095558 0.095558
0.203256 0.203256 0.203256
0.411082 0.411082 0.411082
0.573501 0.573501 0.573501
0.718058 0.718058 0.718058
0.835967 0.835967 0.835967
0.918134 0.918134 0.918134
0.962507 0.962507 0.962507
0.091936 0.091936 0.091936
0.094628 0.094628 0.094628
0.190422 0.190422 0.190422
0.392476 0.392476 0.392476
0.557242 0.557242 0.557242
0.700676 0.700676 0.700676
0.819851 0.819851 0.819851
0.904824 0.904824 0.904824
0.957576 0.957576 0.957576
0.091936 0.091936 0.091936
0.093860 0.093860 0.093860
0.180572 0.180572 0.180572
0.379132 0.379132 0.379132
0.547531 0.547531 0.547531
0.692836 0.692836 0.692836
0.816267 0.816267 0.816267
0.902402 0.902402 0.902402
0.956150 0.956150 0.956150
