trix_modern/TriX_Green58_ExtraSoft.cube
TITLE "Tri-X Green58 ExtraSoft"
# Adobe RGB in/out. REPLACES AgX. R=0.1714 G=0.8069 B=0.0217
LUT_3D_SIZE 5
DOMAIN_MIN 0.0 0.0 0.0
DOMAIN_MAX 1.0 1.0 1.0
0.121260 0.121260 0.121260
0.121260 0.121260 0.121260
0.121260 0.121260 0.121260
0.121260 0.121260 0.121260
0.121260 0.121260 0.121260
0.121260 0.121260 0.121260
0.121260 0.121260 0.121260
0.121260 0.121260 0.121260
0.121260 0.121260 0.121260
0.121260 0.121260 0.121260
0.121260 0.121260 0.121260
0.121260 0.121260 0.121260
0.121260 0.121260 0.121260
0.121260 0.121260 0.121260
0.121260 0.121260 0.121260
0.121260 0.121260 0.121260
0.121260 0.121260 0.121260
0.121260 0.121260 0.121260
0.121260 0.121260 0.121260
0.121260 0.121260 0.121260
0.121260 0.121260 0.121260
0.121260 0.121260 0.121260
0.121260 0.121260 0.121260
0.121260 0.121260 0.121260
0.121260 0.121260 0.121260
0.121260 0.121260 0.121260
0.121260 0.121260 0.121260
0.121260 0.121260 0.121260
0.121260 0.121260 0.121260
0.121260 0.121260 0.121260
0.121260 0.121260 0.121260
0.262816 0.262816 0.262816
0.353873 0.353873 0.353873
0.382475 0.382475 0.382475
0.385942 0.385942 0.385942
0.121260 0.121260 0.121260
0.559427 0.559427 0.559427
0.546721 0.546721 0.546721
0.597250 0.597250 0.597250
0.635067 0.635067 0.635067
0.121260 0.121260 0.121260
0.759831 0.759831 0.759831
0.787195 0.787195 0.787195
0.792563 0.792563 0.792563
0.811333 0.811333 0.811333
0.121260 0.121260 0.121260
0.846545 0.846545 0.846545
0.888832 0.888832 0.888832
0.904837 0.904837 0.904837
0.916418 0.916418 0.916418
0.121260 0.121260 0.121260
0.121260 0.121260 0.121260
0.121260 0.121260 0.121260
0.121260 0.121260 0.121260
0.121260 0.121260 0.121260
0.121260 0.121260 0.121260
0.379244 0.379244 0.379244
0.386589 0.386589 0.386589
0.390238 0.390238 0.390238
0.388257 0.388257 0.388257
0.121260 0.121260 0.121260
0.525965 0.525965 0.525965
0.504596 0.504596 0.504596
0.591859 0.591859 0.591859
0.635619 0.635619 0.635619
0.121260 0.121260 0.121260
0.741140 0.741140 0.741140
0.772556 0.772556 0.772556
0.783689 0.783689 0.783689
0.812186 0.812186 0.812186
0.121260 0.121260 0.121260
0.845653 0.845653 0.845653
0.889756 0.889756 0.889756
0.907848 0.907848 0.907848
0.922332 0.922332 0.922332
0.121260 0.121260 0.121260
0.121260 0.121260 0.121260
0.121260 0.121260 0.121260
0.121260 0.121260 0.121260
0.121260 0.121260 0.121260
0.121260 0.121260 0.121260
0.418091 0.418091 0.418091
0.438124 0.438124 0.438124
0.411502 0.411502 0.411502
0.395963 0.395963 0.395963
0.121260 0.121260 0.121260
0.558052 0.558052 0.558052
0.595093 0.595093 0.595093
0.625781 0.625781 0.625781
0.646776 0.646776 0.646776
0.121260 0.121260 0.121260
0.721240 0.721240 0.721240
0.760598 0.760598 0.760598
0.767470 0.767470 0.767470
0.813322 0.813322 0.813322
0.121260 0.121260 0.121260
0.838614 0.838614 0.838614
0.886733 0.886733 0.886733
0.907411 0.907411 0.907411
0.925098 0.925098 0.925098
0.121260 0.121260 0.121260
0.121260 0.121260 0.121260
0.121260 0.121260 0.121260
0.121260 0.121260 0.121260
0.121260 0.121260 0.121260
0.121260 0.121260 0.121260
0.420946 0.420946 0.420946
0.474862 0.474862 0.474862
0.435637 0.435637 0.435637
0.405495 0.405495 0.405495
0.121260 0.121260 0.121260
0.619163 0.619163 0.619163
0.665299 0.665299 0.665299
0.671695 0.671695 0.671695
0.666727 0.666727 0.666727
0.121260 0.121260 0.121260
0.722140 0.722140 0.722140
0.779076 0.779076 0.779076
0.802485 0.802485 0.802485
0.823402 0.823402 0.823402
0.121260 0.121260 0.121260
0.831478 0.831478 0.831478
0.884027 0.884027 0.884027
0.907448 0.907448 0.907448
0.927107 0.927107 0.927107
