trix_modern/TriX_Green58_Soft.cube
TITLE "Tri-X Green58 Soft"
# Adobe RGB in/out. REPLACES AgX. Tri-X Green58 Soft.
LUT_3D_SIZE 33
DOMAIN_MIN 0.0 0.0 0.0
DOMAIN_MAX 1.0 1.0 1.0
0.093873 0.093873 0.093873
0.093873 0.093873 0.093873
0.093873 0.093873 0.093873
0.093873 0.093873 0.093873
0.093914 0.093914 0.093914
0.093984 0.093984 0.093984
0.094208 0.094208 0.094208
0.096940 0.096940 0.096940
0.099393 0.099393 0.099393
0.106308 0.106308 0.106308
0.124712 0.124712 0.124712
0.138724 0.138724 0.138724
0.150631 0.150631 0.150631
0.166525 0.166525 0.166525
0.188331 0.188331 0.188331
0.200612 0.200612 0.200612
0.212485 0.212485 0.212485
0.225313 0.225313 0.225313
0.240737 0.240737 0.240737
0.247022 0.247022 0.247022
0.253537 0.253537 0.253537
0.261328 0.261328 0.261328
0.267063 0.267063 0.267063
0.265807 0.265807 0.265807
0.265341 0.265341 0.265341
0.262581 0.262581 0.262581
0.244256 0.244256 0.244256
0.232101 0.232101 0.232101
0.178970 0.178970 0.178970
0.176280 0.176280 0.176280
0.173684 0.173684 0.173684
0.171136 0.171136 0.171136
0.321059 0.321059 0.321059
0.093871 0.093871 0.093871
0.093873 0.093873 0.093873
0.093873 0.093873 0.093873
0.093873 0.093873 0.093873
0.093936 0.093936 0.093936
0.094005 0.094005 0.094005
0.094232 0.094232 0.094232
0.097265 0.097265 0.097265
0.099948 0.099948 0.099948
0.107114 0.107114 0.107114
0.125885 0.125885 0.125885
0.140064 0.140064 0.140064
0.151883 0.151883 0.151883
0.167746 0.167746 0.167746
0.189566 0.189566 0.189566
0.201880 0.201880 0.201880
0.213709 0.213709 0.213709
0.226326 0.226326 0.226326
0.241748 0.241748 0.241748
0.248000 0.248000 0.248000
0.254490 0.254490 0.254490
0.262267 0.262267 0.262267
0.267993 0.267993 0.267993
0.266719 0.266719 0.266719
0.266230 0.266230 0.266230
0.263446 0.263446 0.263446
0.245057 0.245057 0.245057
0.232811 0.232811 0.232811
0.178828 0.178828 0.178828
0.176151 0.176151 0.176151
0.173567 0.173567 0.173567
0.171030 0.171030 0.171030
0.320916 0.320916 0.320916
0.093886 0.093886 0.093886
0.093861 0.093861 0.093861
0.093873 0.093873 0.093873
0.093870 0.093870 0.093870
0.094010 0.094010 0.094010
0.094091 0.094091 0.094091
0.095006 0.095006 0.095006
0.099571 0.099571 0.099571
0.102578 0.102578 0.102578
0.111510 0.111510 0.111510
0.131207 0.131207 0.131207
0.145412 0.145412 0.145412
0.156781 0.156781 0.156781
0.172454 0.172454 0.172454
0.194277 0.194277 0.194277
0.206684 0.206684 0.206684
0.217813 0.217813 0.217813
0.230105 0.230105 0.230105
0.245504 0.245504 0.245504
0.251623 0.251623 0.251623
0.258010 0.258010 0.258010
0.265728 0.265728 0.265728
0.271084 0.271084 0.271084
0.269955 0.269955 0.269955
0.269473 0.269473 0.269473
0.266628 0.266628 0.266628
0.248011 0.248011 0.248011
0.235437 0.235437 0.235437
0.178321 0.178321 0.178321
0.175689 0.175689 0.175689
0.173150 0.173150 0.173150
0.170653 0.170653 0.170653
0.320403 0.320403 0.320403
0.094375 0.094375 0.094375
0.094246 0.094246 0.094246
0.094119 0.094119 0.094119
0.094013 0.094013 0.094013
0.094196 0.094196 0.094196
0.094252 0.094252 0.094252
0.096993 0.096993 0.096993
0.105145 0.105145 0.105145
0.109960 0.109960 0.109960
0.121178 0.121178 0.121178
0.144578 0.144578 0.144578
0.157746 0.157746 0.157746
0.167677 0.167677 0.167677
0.182577 0.182577 0.182577
0.204555 0.204555 0.204555
0.216372 0.216372 0.216372
0.225690 0.225690 0.225690
0.237671 0.237671 0.237671
0.252952 0.252952 0.252952
0.258755 0.258755 0.258755
0.264901 0.264901 0.264901
0.271969 0.271969 0.271969
0.276653 0.276653 0.276653
0.275406 0.275406 0.275406
0.274783 0.274783 0.274783
0.272238 0.272238 0.272238
0.253788 0.253788 0.253788
0.240597 0.240597 0.240597
0.177406 0.177406 0.177406
0.174854 0.174854 0.174854
0.172393 0.172393 0.172393
0.169973 0.169973 0.169973
0.319466 0.319466 0.319466
0.131220 0.131220 0.131220
0.127157 0.127157 0.127157
0.117679 0.117679 0.117679
0.106023 0.106023 0.106023
0.099912 0.099912 0.099912
0.097145 0.097145 0.097145
0.102476 0.102476 0.102476
0.118243 0.118243 0.118243
0.123046 0.123046 0.123046
0.134976 0.134976 0.134976
0.160826 0.160826 0.160826
0.173099 0.173099 0.173099
0.183322 0.183322 0.183322
0.199559 0.199559 0.199559
0.222780 0.222780 0.222780
0.231384 0.231384 0.231384
0.239439 0.239439 0.239439
0.250637 0.250637 0.250637
0.265529 0.265529 0.265529
0.270446 0.270446 0.270446
0.275177 0.275177 0.275177
0.281223 0.281223 0.281223
0.285699 0.285699 0.285699
0.284242 0.284242 0.284242
0.283376 0.283376 0.283376
0.280630 0.280630 0.280630
0.263332 0.263332 0.263332
0.249194 0.249194 0.249194
0.176078 0.176078 0.176078
0.173637 0.173637 0.173637
0.171287 0.171287 0.171287
0.169036 0.169036 0.169036
0.318091 0.318091 0.318091
0.187084 0.187084 0.187084
0.182340 0.182340 0.182340
0.170074 0.170074 0.170074
0.150199 0.150199 0.150199
0.128123 0.128123 0.128123
0.115961 0.115961 0.115961
0.120654 0.120654 0.120654
0.141178 0.141178 0.141178
0.143039 0.143039 0.143039
0.155060 0.155060 0.155060
0.180375 0.180375 0.180375
0.192757 0.192757 0.192757
0.202822 0.202822 0.202822
0.218413 0.218413 0.218413
0.238526 0.238526 0.238526
0.248374 0.248374 0.248374
0.257991 0.257991 0.257991
0.271043 0.271043 0.271043
0.283031 0.283031 0.283031
0.286143 0.286143 0.286143
0.289975 0.289975 0.289975
0.295383 0.295383 0.295383
0.299442 0.299442 0.299442
0.297627 0.297627 0.297627
0.296366 0.296366 0.296366
0.293338 0.293338 0.293338
0.276774 0.276774 0.276774
0.262768 0.262768 0.262768
0.174365 0.174365 0.174365
0.172049 0.172049 0.172049
0.169842 0.169842 0.169842
0.319523 0.319523 0.319523
0.316281 0.316281 0.316281
0.274897 0.274897 0.274897
0.273306 0.273306 0.273306
0.260716 0.260716 0.260716
0.235938 0.235938 0.235938
0.206201 0.206201 0.206201
0.180926 0.180926 0.180926
0.164885 0.164885 0.164885
0.173319 0.173319 0.173319
0.170801 0.170801 0.170801
0.180384 0.180384 0.180384
0.206463 0.206463 0.206463
0.218125 0.218125 0.218125
0.224578 0.224578 0.224578
0.237732 0.237732 0.237732
0.258982 0.258982 0.258982
0.269644 0.269644 0.269644
0.275273 0.275273 0.275273
0.284848 0.284848 0.284848
0.298629 0.298629 0.298629
0.303949 0.303949 0.303949
0.310481 0.310481 0.310481
0.317170 0.317170 0.317170
0.320535 0.320535 0.320535
0.318031 0.318031 0.318031
0.316066 0.316066 0.316066
0.312539 0.312539 0.312539
0.295834 0.295834 0.295834
0.281691 0.281691 0.281691
0.172342 0.172342 0.172342
0.170125 0.170125 0.170125
0.168082 0.168082 0.168082
0.317161 0.317161 0.317161
0.314060 0.314060 0.314060
0.353325 0.353325 0.353325
0.351886 0.351886 0.351886
0.344943 0.344943 0.344943
0.320537 0.320537 0.320537
0.293130 0.293130 0.293130
0.268768 0.268768 0.268768
0.245489 0.245489 0.245489
0.229342 0.229342 0.229342
0.206780 0.206780 0.206780
0.212074 0.212074 0.212074
0.235584 0.235584 0.235584
0.243398 0.243398 0.243398
0.248315 0.248315 0.248315
0.260771 0.260771 0.260771
0.279571 0.279571 0.279571
0.286739 0.286739 0.286739
0.293083 0.293083 0.293083
0.304035 0.304035 0.304035
0.318211 0.318211 0.318211
0.321545 0.321545 0.321545
0.326525 0.326525 0.326525
0.334017 0.334017 0.334017
0.340714 0.340714 0.340714
0.342390 0.342390 0.342390
0.345032 0.345032 0.345032
0.341241 0.341241 0.341241
0.326217 0.326217 0.326217
0.310451 0.310451 0.310451
0.170311 0.170311 0.170311
0.167923 0.167923 0.167923
0.166048 0.166048 0.166048
0.314340 0.314340 0.314340
0.311463 0.311463 0.311463
0.391309 0.391309 0.391309
0.390065 0.390065 0.390065
0.380942 0.380942 0.380942
0.361185 0.361185 0.361185
0.337430 0.337430 0.337430
0.312189 0.312189 0.312189
0.290485 0.290485 0.290485
0.273024 0.273024 0.273024
0.258610 0.258610 0.258610
0.248967 0.248967 0.248967
0.267855 0.267855 0.267855
0.272583 0.272583 0.272583
0.275039 0.275039 0.275039
0.283972 0.283972 0.283972
0.300722 0.300722 0.300722
0.307008 0.307008 0.307008
0.313110 0.313110 0.313110
0.323474 0.323474 0.323474
0.337327 0.337327 0.337327
0.342163 0.342163 0.342163
0.348884 0.348884 0.348884
0.354104 0.354104 0.354104
0.359320 0.359320 0.359320
0.359720 0.359720 0.359720
0.361428 0.361428 0.361428
0.363205 0.363205 0.363205
0.357955 0.357955 0.357955
0.353462 0.353462 0.353462
0.179678 0.179678 0.179678
0.165853 0.165853 0.165853
0.163850 0.163850 0.163850
0.311167 0.311167 0.311167
0.308535 0.308535 0.308535
0.442843 0.442843 0.442843
0.440081 0.440081 0.440081
0.429280 0.429280 0.429280
0.413385 0.413385 0.413385
0.391453 0.391453 0.391453
0.367795 0.367795 0.367795
0.345152 0.345152 0.345152
0.324903 0.324903 0.324903
0.308060 0.308060 0.308060
0.295603 0.295603 0.295603
0.303074 0.303074 0.303074
0.300656 0.300656 0.300656
0.300786 0.300786 0.300786
0.308322 0.308322 0.308322
0.325106 0.325106 0.325106
0.330209 0.330209 0.330209
0.335101 0.335101 0.335101
0.344009 0.344009 0.344009
0.358087 0.358087 0.358087
0.362639 0.362639 0.362639
0.366929 0.366929 0.366929
0.374677 0.374677 0.374677
0.382753 0.382753 0.382753
0.383653 0.383653 0.383653
0.383711 0.383711 0.383711
0.384203 0.384203 0.384203
0.378016 0.378016 0.378016
0.372385 0.372385 0.372385
0.359534 0.359534 0.359534
0.343953 0.343953 0.343953
0.294856 0.294856 0.294856
0.307709 0.307709 0.307709
0.305331 0.305331 0.305331
0.509183 0.509183 0.509183
0.506107 0.506107 0.506107
0.496173 0.496173 0.496173
0.482155 0.482155 0.482155
0.462535 0.462535 0.462535
0.440391 0.440391 0.440391
0.418379 0.418379 0.418379
0.396785 0.396785 0.396785
0.377378 0.377378 0.377378
0.361472 0.361472 0.361472
0.349310 0.349310 0.349310
0.338365 0.338365 0.338365
0.329960 0.329960 0.329960
0.335792 0.335792 0.335792
0.351072 0.351072 0.351072
0.354372 0.354372 0.354372
0.357647 0.357647 0.357647
0.365863 0.365863 0.365863
0.379998 0.379998 0.379998
0.383173 0.383173 0.383173
0.388621 0.388621 0.388621
0.397064 0.397064 0.397064
0.402997 0.402997 0.402997
0.404657 0.404657 0.404657
0.408331 0.408331 0.408331
0.412605 0.412605 0.412605
0.405507 0.405507 0.405507
0.398384 0.398384 0.398384
0.384629 0.384629 0.384629
0.366675 0.366675 0.366675
0.305627 0.305627 0.305627
0.304031 0.304031 0.304031
0.301915 0.301915 0.301915
0.548224 0.548224 0.548224
0.545616 0.545616 0.545616
0.537026 0.537026 0.537026
0.524440 0.524440 0.524440
0.506825 0.506825 0.506825
0.486620 0.486620 0.486620
0.465586 0.465586 0.465586
0.444674 0.444674 0.444674
0.425558 0.425558 0.425558
0.408932 0.408932 0.408932
0.393876 0.393876 0.393876
0.382215 0.382215 0.382215
0.366917 0.366917 0.366917
0.364145 0.364145 0.364145
0.378342 0.378342 0.378342
0.379922 0.379922 0.379922
0.382295 0.382295 0.382295
0.389806 0.389806 0.389806
0.402965 0.402965 0.402965
0.405560 0.405560 0.405560
0.411344 0.411344 0.411344
0.417542 0.417542 0.417542
0.424768 0.424768 0.424768
0.427705 0.427705 0.427705
0.429156 0.429156 0.429156
0.431825 0.431825 0.431825
0.429769 0.429769 0.429769
0.428641 0.428641 0.428641
0.419845 0.419845 0.419845
0.400991 0.400991 0.400991
0.335181 0.335181 0.335181
0.300257 0.300257 0.300257
0.298460 0.298460 0.298460
0.579942 0.579942 0.579942
0.577695 0.577695 0.577695
0.570167 0.570167 0.570167
0.558558 0.558558 0.558558
0.543374 0.543374 0.543374
0.525268 0.525268 0.525268
0.505302 0.505302 0.505302
0.485016 0.485016 0.485016
0.465724 0.465724 0.465724
0.448055 0.448055 0.448055
0.432795 0.432795 0.432795
0.419845 0.419845 0.419845
0.409691 0.409691 0.409691
0.402608 0.402608 0.402608
0.407675 0.407675 0.407675
0.407959 0.407959 0.407959
0.408953 0.408953 0.408953
0.415106 0.415106 0.415106
0.426349 0.426349 0.426349
0.427895 0.427895 0.427895
0.432173 0.432173 0.432173
0.438851 0.438851 0.438851
0.446716 0.446716 0.446716
0.447882 0.447882 0.447882
0.451728 0.451728 0.451728
0.456856 0.456856 0.456856
0.453041 0.453041 0.453041
0.450299 0.450299 0.450299
0.444867 0.444867 0.444867
0.436767 0.436767 0.436767
0.424236 0.424236 0.424236
0.296557 0.296557 0.296557
0.294955 0.294955 0.294955
0.620096 0.620096 0.620096
0.618126 0.618126 0.618126
0.611438 0.611438 0.611438
0.600740 0.600740 0.600740
0.587599 0.587599 0.587599
0.570410 0.570410 0.570410
0.551504 0.551504 0.551504
0.532191 0.532191 0.532191
0.513243 0.513243 0.513243
0.494960 0.494960 0.494960
0.478425 0.478425 0.478425
0.464125 0.464125 0.464125
0.451871 0.451871 0.451871
0.442097 0.442097 0.442097
0.444899 0.444899 0.444899
0.436316 0.436316 0.436316
0.434709 0.434709 0.434709
0.439486 0.439486 0.439486
0.450062 0.450062 0.450062
0.451272 0.451272 0.451272
0.454701 0.454701 0.454701
0.461103 0.461103 0.461103
0.467832 0.467832 0.467832
0.470298 0.470298 0.470298
0.474544 0.474544 0.474544
0.477933 0.477933 0.477933
0.477419 0.477419 0.477419
0.478229 0.478229 0.478229
0.471476 0.471476 0.471476
0.461734 0.461734 0.461734
0.447177 0.447177 0.447177
0.427692 0.427692 0.427692
0.404070 0.404070 0.404070
0.669767 0.669767 0.669767
0.668079 0.668079 0.668079
0.662289 0.662289 0.662289
0.652764 0.652764 0.652764
0.641224 0.641224 0.641224
0.624918 0.624918 0.624918
0.607391 0.607391 0.607391
0.588456 0.588456 0.588456
0.569553 0.569553 0.569553
0.551184 0.551184 0.551184
0.534111 0.534111 0.534111
0.518603 0.518603 0.518603
0.504966 0.504966 0.504966
0.493230 0.493230 0.493230
0.483590 0.483590 0.483590
0.472909 0.472909 0.472909
0.464065 0.464065 0.464065
0.465822 0.465822 0.465822
0.475367 0.475367 0.475367
0.475614 0.475614 0.475614
0.478484 0.478484 0.478484
0.484404 0.484404 0.484404
0.490470 0.490470 0.490470
0.493412 0.493412 0.493412
0.496595 0.496595 0.496595
0.501875 0.501875 0.501875
0.501624 0.501624 0.501624
0.500649 0.500649 0.500649
0.498318 0.498318 0.498318
0.494179 0.494179 0.494179
0.479173 0.479173 0.479173
0.455928 0.455928 0.455928
0.409018 0.409018 0.409018
0.700685 0.700685 0.700685
0.699194 0.699194 0.699194
0.694039 0.694039 0.694039
0.685381 0.685381 0.685381
0.674489 0.674489 0.674489
0.660597 0.660597 0.660597
0.645242 0.645242 0.645242
0.626879 0.626879 0.626879
0.608566 0.608566 0.608566
0.590786 0.590786 0.590786
0.573387 0.573387 0.573387
0.557399 0.557399 0.557399
0.543114 0.543114 0.543114
0.530374 0.530374 0.530374
0.519651 0.519651 0.519651
0.510716 0.510716 0.510716
0.500271 0.500271 0.500271
0.496089 0.496089 0.496089
0.502040 0.502040 0.502040
0.501590 0.501590 0.501590
0.503302 0.503302 0.503302
0.508570 0.508570 0.508570
0.514122 0.514122 0.514122
0.516251 0.516251 0.516251
0.519847 0.519847 0.519847
0.525079 0.525079 0.525079
0.524890 0.524890 0.524890
0.526515 0.526515 0.526515
0.524131 0.524131 0.524131
0.518305 0.518305 0.518305
0.510225 0.510225 0.510225
0.499330 0.499330 0.499330
0.440386 0.440386 0.440386
0.729415 0.729415 0.729415
0.728167 0.728167 0.728167
0.723820 0.723820 0.723820
0.716396 0.716396 0.716396
0.706218 0.706218 0.706218
0.694024 0.694024 0.694024
0.678945 0.678945 0.678945
0.662788 0.662788 0.662788
0.645928 0.645928 0.645928
0.628454 0.628454 0.628454
0.611469 0.611469 0.611469
0.595286 0.595286 0.595286
0.580362 0.580362 0.580362
0.567100 0.567100 0.567100
0.555261 0.555261 0.555261
0.545187 0.545187 0.545187
0.536832 0.536832 0.536832
0.531536 0.531536 0.531536
0.532724 0.532724 0.532724
0.527615 0.527615 0.527615
0.528781 0.528781 0.528781
0.533128 0.533128 0.533128
0.538328 0.538328 0.538328
0.539881 0.539881 0.539881
0.543621 0.543621 0.543621
0.548117 0.548117 0.548117
0.549338 0.549338 0.549338
0.550285 0.550285 0.550285
0.549369 0.549369 0.549369
0.547122 0.547122 0.547122
0.538417 0.538417 0.538417
0.525223 0.525223 0.525223
0.507658 0.507658 0.507658
0.761099 0.761099 0.761099
0.759995 0.759995 0.759995
0.756130 0.756130 0.756130
0.749443 0.749443 0.749443
0.740497 0.740497 0.740497
0.730411 0.730411 0.730411
0.716785 0.716785 0.716785
0.702151 0.702151 0.702151
0.686023 0.686023 0.686023
0.669463 0.669463 0.669463
0.653298 0.653298 0.653298
0.637389 0.637389 0.637389
0.622304 0.622304 0.622304
0.608260 0.608260 0.608260
0.595832 0.595832 0.595832
0.584781 0.584781 0.584781
0.575209 0.575209 0.575209
0.567336 0.567336 0.567336
0.567469 0.567469 0.567469
0.559206 0.559206 0.559206
0.554884 0.554884 0.554884
0.558686 0.558686 0.558686
0.563292 0.563292 0.563292
0.564310 0.564310 0.564310
0.567923 0.567923 0.567923
0.572085 0.572085 0.572085
0.573493 0.573493 0.573493
0.574783 0.574783 0.574783
0.575900 0.575900 0.575900
0.572035 0.572035 0.572035
0.566883 0.566883 0.566883
0.559574 0.559574 0.559574
0.538715 0.538715 0.538715
0.793961 0.793961 0.793961
0.793116 0.793116 0.793116
0.790145 0.790145 0.790145
0.784948 0.784948 0.784948
0.777671 0.777671 0.777671
0.768234 0.768234 0.768234
0.756206 0.756206 0.756206
0.743115 0.743115 0.743115
0.728824 0.728824 0.728824
0.714144 0.714144 0.714144
0.698281 0.698281 0.698281
0.682888 0.682888 0.682888
0.667996 0.667996 0.667996
0.654140 0.654140 0.654140
0.641160 0.641160 0.641160
0.629489 0.629489 0.629489
0.619158 0.619158 0.619158
0.609952 0.609952 0.609952
0.602514 0.602514 0.602514
0.593383 0.593383 0.593383
0.587243 0.587243 0.587243
0.585021 0.585021 0.585021
0.589026 0.589026 0.589026
0.589625 0.589625 0.589625
0.592447 0.592447 0.592447
0.596539 0.596539 0.596539
0.597662 0.597662 0.597662
0.599941 0.599941 0.599941
0.600221 0.600221 0.600221
0.598805 0.598805 0.598805
0.595086 0.595086 0.595086
0.585927 0.585927 0.585927
0.573584 0.573584 0.573584
0.816409 0.816409 0.816409
0.815650 0.815650 0.815650
0.812970 0.812970 0.812970
0.808240 0.808240 0.808240
0.801659 0.801659 0.801659
0.793765 0.793765 0.793765
0.784383 0.784383 0.784383
0.772477 0.772477 0.772477
0.759260 0.759260 0.759260
0.745317 0.745317 0.745317
0.730830 0.730830 0.730830
0.716604 0.716604 0.716604
0.702054 0.702054 0.702054
0.688166 0.688166 0.688166
0.675272 0.675272 0.675272
0.663299 0.663299 0.663299
0.652799 0.652799 0.652799
0.643492 0.643492 0.643492
0.634954 0.634954 0.634954
0.628030 0.628030 0.628030
0.620783 0.620783 0.620783
0.617751 0.617751 0.617751
0.616016 0.616016 0.616016
0.615645 0.615645 0.615645
0.617925 0.617925 0.617925
0.621398 0.621398 0.621398
0.622468 0.622468 0.622468
0.624917 0.624917 0.624917
0.625666 0.625666 0.625666
0.625314 0.625314 0.625314
0.621752 0.621752 0.621752
0.616372 0.616372 0.616372
0.603717 0.603717 0.603717
0.838750 0.838750 0.838750
0.838074 0.838074 0.838074
0.835681 0.835681 0.835681
0.831425 0.831425 0.831425
0.825424 0.825424 0.825424
0.818049 0.818049 0.818049
0.809684 0.809684 0.809684
0.799254 0.799254 0.799254
0.788610 0.788610 0.788610
0.776400 0.776400 0.776400
0.762832 0.762832 0.762832
0.749157 0.749157 0.749157
0.735603 0.735603 0.735603
0.722512 0.722512 0.722512
0.710022 0.710022 0.710022
0.697989 0.697989 0.697989
0.686949 0.686949 0.686949
0.677123 0.677123 0.677123
0.668571 0.668571 0.668571
0.660911 0.660911 0.660911
0.654631 0.654631 0.654631
0.650366 0.650366 0.650366
0.648137 0.648137 0.648137
0.643500 0.643500 0.643500
0.643894 0.643894 0.643894
0.646914 0.646914 0.646914
0.647787 0.647787 0.647787
0.649684 0.649684 0.649684
0.651223 0.651223 0.651223
0.650732 0.650732 0.650732
0.649318 0.649318 0.649318
0.643923 0.643923 0.643923
0.634212 0.634212 0.634212
0.860989 0.860989 0.860989
0.860397 0.860397 0.860397
0.858294 0.858294 0.858294
0.854534 0.854534 0.854534
0.849176 0.849176 0.849176
0.842470 0.842470 0.842470
0.834898 0.834898 0.834898
0.825503 0.825503 0.825503
0.815401 0.815401 0.815401
0.804602 0.804602 0.804602
0.793386 0.793386 0.793386
0.781944 0.781944 0.781944
0.769395 0.769395 0.769395
0.756639 0.756639 0.756639
0.744397 0.744397 0.744397
0.733108 0.733108 0.733108
0.722541 0.722541 0.722541
0.712773 0.712773 0.712773
0.703557 0.703557 0.703557
0.695648 0.695648 0.695648
0.688587 0.688587 0.688587
0.682695 0.682695 0.682695
0.679389 0.679389 0.679389
0.674470 0.674470 0.674470
0.671330 0.671330 0.671330
0.672067 0.672067 0.672067
0.672970 0.672970 0.672970
0.674558 0.674558 0.674558
0.676197 0.676197 0.676197
0.676210 0.676210 0.676210
0.675247 0.675247 0.675247
0.671330 0.671330 0.671330
0.664181 0.664181 0.664181
0.882956 0.882956 0.882956
0.882432 0.882432 0.882432
0.880570 0.880570 0.880570
0.877220 0.877220 0.877220
0.872402 0.872402 0.872402
0.866275 0.866275 0.866275
0.859168 0.859168 0.859168
0.850827 0.850827 0.850827
0.841362 0.841362 0.841362
0.831483 0.831483 0.831483
0.820749 0.820749 0.820749
0.809994 0.809994 0.809994
0.799265 0.799265 0.799265
0.788471 0.788471 0.788471
0.777841 0.777841 0.777841
0.766533 0.766533 0.766533
0.756020 0.756020 0.756020
0.746270 0.746270 0.746270
0.737364 0.737364 0.737364
0.729292 0.729292 0.729292
0.722400 0.722400 0.722400
0.716315 0.716315 0.716315
0.710908 0.710908 0.710908
0.705559 0.705559 0.705559
0.701769 0.701769 0.701769
0.699722 0.699722 0.699722
0.698445 0.698445 0.698445
0.699714 0.699714 0.699714
0.701292 0.701292 0.701292
0.701850 0.701850 0.701850
0.701115 0.701115 0.701115
0.698774 0.698774 0.698774
0.691661 0.691661 0.691661
0.896360 0.896360 0.896360
0.896059 0.896059 0.896059
0.894984 0.894984 0.894984
0.893039 0.893039 0.893039
0.890209 0.890209 0.890209
0.886546 0.886546 0.886546
0.881633 0.881633 0.881633
0.873861 0.873861 0.873861
0.864932 0.864932 0.864932
0.855501 0.855501 0.855501
0.845413 0.845413 0.845413
0.835047 0.835047 0.835047
0.824683 0.824683 0.824683
0.814398 0.814398 0.814398
0.804247 0.804247 0.804247
0.794487 0.794487 0.794487
0.785342 0.785342 0.785342
0.776465 0.776465 0.776465
0.767482 0.767482 0.767482
0.759290 0.759290 0.759290
0.751965 0.751965 0.751965
0.745608 0.745608 0.745608
0.740175 0.740175 0.740175
0.735564 0.735564 0.735564
0.731267 0.731267 0.731267
0.728643 0.728643 0.728643
0.726116 0.726116 0.726116
0.724590 0.724590 0.724590
0.725936 0.725936 0.725936
0.726783 0.726783 0.726783
0.726604 0.726604 0.726604
0.724605 0.724605 0.724605
0.719674 0.719674 0.719674
0.907528 0.907528 0.907528
0.907266 0.907266 0.907266
0.906331 0.906331 0.906331
0.904632 0.904632 0.904632
0.902144 0.902144 0.902144
0.898890 0.898890 0.898890
0.894940 0.894940 0.894940
0.890439 0.890439 0.890439
0.885266 0.885266 0.885266
0.877697 0.877697 0.877697
0.868436 0.868436 0.868436
0.858687 0.858687 0.858687
0.848865 0.848865 0.848865
0.839074 0.839074 0.839074
0.829431 0.829431 0.829431
0.820047 0.820047 0.820047
0.811057 0.811057 0.811057
0.802564 0.802564 0.802564
0.794716 0.794716 0.794716
0.787534 0.787534 0.787534
0.781021 0.781021 0.781021
0.774692 0.774692 0.774692
0.768822 0.768822 0.768822
0.763968 0.763968 0.763968
0.759828 0.759828 0.759828
0.756430 0.756430 0.756430
0.754081 0.754081 0.754081
0.751284 0.751284 0.751284
0.750026 0.750026 0.750026
0.750785 0.750785 0.750785
0.751215 0.751215 0.751215
0.749827 0.749827 0.749827
0.745784 0.745784 0.745784
0.917505 0.917505 0.917505
0.917301 0.917301 0.917301
0.916567 0.916567 0.916567
0.915095 0.915095 0.915095
0.912928 0.912928 0.912928
0.910066 0.910066 0.910066
0.906542 0.906542 0.906542
0.902436 0.902436 0.902436
0.897836 0.897836 0.897836
0.892770 0.892770 0.892770
0.887355 0.887355 0.887355
0.880795 0.880795 0.880795
0.871524 0.871524 0.871524
0.862359 0.862359 0.862359
0.853200 0.853200 0.853200
0.844246 0.844246 0.844246
0.835675 0.835675 0.835675
0.827436 0.827436 0.827436
0.819654 0.819654 0.819654
0.812500 0.812500 0.812500
0.805966 0.805966 0.805966
0.800098 0.800098 0.800098
0.794844 0.794844 0.794844
0.790203 0.790203 0.790203
0.786434 0.786434 0.786434
0.783212 0.783212 0.783212
0.781455 0.781455 0.781455
0.778540 0.778540 0.778540
0.776833 0.776833 0.776833
0.775122 0.775122 0.775122
0.775498 0.775498 0.775498
0.774904 0.774904 0.774904
0.771616 0.771616 0.771616
0.929397 0.929397 0.929397
0.929212 0.929212 0.929212
0.928550 0.928550 0.928550
0.927335 0.927335 0.927335
0.925526 0.925526 0.925526
0.923094 0.923094 0.923094
0.920024 0.920024 0.920024
0.916283 0.916283 0.916283
0.911741 0.911741 0.911741
0.906989 0.906989 0.906989
0.901764 0.901764 0.901764
0.896337 0.896337 0.896337
0.890718 0.890718 0.890718
0.885016 0.885016 0.885016
0.877155 0.877155 0.877155
0.868550 0.868550 0.868550
0.860147 0.860147 0.860147
0.852118 0.852118 0.852118
0.844531 0.844531 0.844531
0.837452 0.837452 0.837452
0.830962 0.830962 0.830962
0.825078 0.825078 0.825078
0.819825 0.819825 0.819825
0.815204 0.815204 0.815204
0.811236 0.811236 0.811236
