trix_modern/TriX_Blue47_Punchy.cube
TITLE "Tri-X Blue47 Punchy"
# Adobe RGB in/out. REPLACES AgX. R=0.0336 G=0.0311 B=0.9353
LUT_3D_SIZE 9
DOMAIN_MIN 0.0 0.0 0.0
DOMAIN_MAX 1.0 1.0 1.0
0.092306 0.092306 0.092306
0.092306 0.092306 0.092306
0.092306 0.092306 0.092306
0.092306 0.092306 0.092306
0.092306 0.092306 0.092306
0.092306 0.092306 0.092306
0.092306 0.092306 0.092306
0.092306 0.092306 0.092306
0.092306 0.092306 0.092306
0.092306 0.092306 0.092306
0.092306 0.092306 0.092306
0.092306 0.092306 0.092306
0.092306 0.092306 0.092306
0.092306 0.092306 0.092306
0.092306 0.092306 0.092306
0.092306 0.092306 0.092306
0.092306 0.092306 0.092306
0.092306 0.092306 0.092306
0.092306 0.092306 0.092306
0.092306 0.092306 0.092306
0.092306 0.092306 0.092306
0.092306 0.092306 0.092306
0.092306 0.092306 0.092306
0.092306 0.092306 0.092306
0.092306 0.092306 0.092306
0.092306 0.092306 0.092306
0.092306 0.092306 0.092306
0.092306 0.092306 0.092306
0.092306 0.092306 0.092306
0.092306 0.092306 0.092306
0.092306 0.092306 0.092306
0.092306 0.092306 0.092306
0.092306 0.092306 0.092306
0.092306 0.092306 0.092306
0.092306 0.092306 0.092306
0.092306 0.092306 0.092306
0.092306 0.092306 0.092306
0.092306 0.092306 0.092306
0.092306 0.092306 0.092306
0.092306 0.092306 0.092306
0.092306 0.092306 0.092306
0.092306 0.092306 0.092306
0.092306 0.092306 0.092306
0.092306 0.092306 0.092306
0.092306 0.092306 0.092306
0.092306 0.092306 0.092306
0.092306 0.092306 0.092306
0.092306 0.092306 0.092306
0.092306 0.092306 0.092306
0.092306 0.092306 0.092306
0.092306 0.092306 0.092306
0.092306 0.092306 0.092306
0.092306 0.092306 0.092306
0.092306 0.092306 0.092306
0.092306 0.092306 0.092306
0.092306 0.092306 0.092306
0.092306 0.092306 0.092306
0.092306 0.092306 0.092306
0.092306 0.092306 0.092306
0.092306 0.092306 0.092306
0.092306 0.092306 0.092306
0.092306 0.092306 0.092306
0.092306 0.092306 0.092306
0.092306 0.092306 0.092306
0.092306 0.092306 0.092306
0.092306 0.092306 0.092306
0.092306 0.092306 0.092306
0.092306 0.092306 0.092306
0.092306 0.092306 0.092306
0.092306 0.092306 0.092306
0.092306 0.092306 0.092306
0.092306 0.092306 0.092306
0.092306 0.092306 0.092306
0.092306 0.092306 0.092306
0.092306 0.092306 0.092306
0.092306 0.092306 0.092306
0.092306 0.092306 0.092306
0.092306 0.092306 0.092306
0.092306 0.092306 0.092306
0.092306 0.092306 0.092306
0.092306 0.092306 0.092306
0.092306 0.092306 0.092306
0.092306 0.092306 0.092306
0.092306 0.092306 0.092306
0.092306 0.092306 0.092306
0.092306 0.092306 0.092306
0.092306 0.092306 0.092306
0.092306 0.092306 0.092306
0.092306 0.092306 0.092306
0.092306 0.092306 0.092306
0.092306 0.092306 0.092306
0.094164 0.094164 0.094164
0.102084 0.102084 0.102084
0.106757 0.106757 0.106757
0.107642 0.107642 0.107642
0.106807 0.106807 0.106807
0.105225 0.105225 0.105225
0.103502 0.103502 0.103502
0.101991 0.101991 0.101991
0.092306 0.092306 0.092306
0.104450 0.104450 0.104450
0.097811 0.097811 0.097811
0.099379 0.099379 0.099379
0.102283 0.102283 0.102283
0.103440 0.103440 0.103440
0.103442 0.103442 0.103442
0.102785 0.102785 0.102785
0.101745 0.101745 0.101745
0.092306 0.092306 0.092306
0.108265 0.108265 0.108265
0.102115 0.102115 0.102115
0.098594 0.098594 0.098594
0.098719 0.098719 0.098719
0.100068 0.100068 0.100068
0.100857 0.100857 0.100857
0.100913 0.100913 0.100913
0.100439 0.100439 0.100439
0.092306 0.092306 0.092306
0.107128 0.107128 0.107128
0.103758 0.103758 0.103758
0.100477 0.100477 0.100477
0.098575 0.098575 0.098575
0.098335 0.098335 0.098335
0.098761 0.098761 0.098761
0.099076 0.099076 0.099076
0.099006 0.099006 0.099006
0.092306 0.092306 0.092306
0.104390 0.104390 0.104390
0.103260 0.103260 0.103260
0.101115 0.101115 0.101115
0.099209 0.099209 0.099209
0.098272 0.098272 0.098272
0.097932 0.097932 0.097932
0.098107 0.098107 0.098107
0.098135 0.098135 0.098135
0.092306 0.092306 0.092306
0.101912 0.101912 0.101912
0.101716 0.101716 0.101716
0.100488 0.100488 0.100488
0.099173 0.099173 0.099173
0.098338 0.098338 0.098338
0.097841 0.097841 0.097841
0.097515 0.097515 0.097515
0.097531 0.097531 0.097531
0.092306 0.092306 0.092306
0.099466 0.099466 0.099466
0.099711 0.099711 0.099711
0.099227 0.099227 0.099227
0.098570 0.098570 0.098570
0.098080 0.098080 0.098080
0.097663 0.097663 0.097663
0.097345 0.097345 0.097345
0.097110 0.097110 0.097110
0.092306 0.092306 0.092306
0.097818 0.097818 0.097818
0.098122 0.098122 0.098122
0.098055 0.098055 0.098055
0.097817 0.097817 0.097817
0.097522 0.097522 0.097522
0.097239 0.097239 0.097239
0.097001 0.097001 0.097001
0.096812 0.096812 0.096812
0.092306 0.092306 0.092306
0.092306 0.092306 0.092306
0.092306 0.092306 0.092306
0.092306 0.092306 0.092306
0.092306 0.092306 0.092306
0.092306 0.092306 0.092306
0.092306 0.092306 0.092306
0.092306 0.092306 0.092306
0.092306 0.092306 0.092306
0.092306 0.092306 0.092306
0.359533 0.359533 0.359533
0.325283 0.325283 0.325283
0.314104 0.314104 0.314104
0.306400 0.306400 0.306400
0.296375 0.296375 0.296375
0.283966 0.283966 0.283966
0.270045 0.270045 0.270045
0.255366 0.255366 0.255366
0.092306 0.092306 0.092306
0.236918 0.236918 0.236918
0.160896 0.160896 0.160896
0.216802 0.216802 0.216802
0.250494 0.250494 0.250494
0.265079 0.265079 0.265079
0.267225 0.267225 0.267225
0.262067 0.262067 0.262067
0.252758 0.252758 0.252758
0.092306 0.092306 0.092306
0.277992 0.277992 0.277992
0.230162 0.230162 0.230162
0.194820 0.194820 0.194820
0.208147 0.208147 0.208147
0.229027 0.229027 0.229027
0.240293 0.240293 0.240293
0.243050 0.243050 0.243050
0.240231 0.240231 0.240231
0.092306 0.092306 0.092306
0.284110 0.284110 0.284110
0.258857 0.258857 0.258857
0.227100 0.227100 0.227100
0.207051 0.207051 0.207051
0.207860 0.207860 0.207860
0.218145 0.218145 0.218145
0.223935 0.223935 0.223935
0.224796 0.224796 0.224796
0.092306 0.092306 0.092306
0.271581 0.271581 0.271581
0.261305 0.261305 0.261305
0.240489 0.240489 0.240489
0.221109 0.221109 0.221109
0.208747 0.208747 0.208747
0.205427 0.205427 0.205427
0.209865 0.209865 0.209865
0.211613 0.211613 0.211613
0.092306 0.092306 0.092306
0.251662 0.251662 0.251662
0.249960 0.249960 0.249960
0.238730 0.238730 0.238730
0.224709 0.224709 0.224709
0.213122 0.213122 0.213122
0.205346 0.205346 0.205346
0.201192 0.201192 0.201192
0.202236 0.202236 0.202236
0.092306 0.092306 0.092306
0.229877 0.229877 0.229877
0.232839 0.232839 0.232839
0.227537 0.227537 0.227537
0.219159 0.219159 0.219159
0.210839 0.210839 0.210839
0.204144 0.204144 0.204144
0.199377 0.199377 0.199377
0.196097 0.196097 0.196097
0.092306 0.092306 0.092306
0.207103 0.207103 0.207103
0.212432 0.212432 0.212432
0.211414 0.211414 0.211414
0.207515 0.207515 0.207515
0.202752 0.202752 0.202752
0.198336 0.198336 0.198336
0.194785 0.194785 0.194785
0.192108 0.192108 0.192108
0.092306 0.092306 0.092306
0.092306 0.092306 0.092306
0.092306 0.092306 0.092306
0.092306 0.092306 0.092306
0.092306 0.092306 0.092306
0.092306 0.092306 0.092306
0.092306 0.092306 0.092306
0.092306 0.092306 0.092306
0.092306 0.092306 0.092306
0.092306 0.092306 0.092306
0.608195 0.608195 0.608195
0.624713 0.624713 0.624713
0.600642 0.600642 0.600642
0.557193 0.557193 0.557193
0.528140 0.528140 0.528140
0.505496 0.505496 0.505496
0.485609 0.485609 0.485609
0.466630 0.466630 0.466630
0.092306 0.092306 0.092306
0.492737 0.492737 0.492737
0.463904 0.463904 0.463904
0.465706 0.465706 0.465706
0.478769 0.478769 0.478769
0.484731 0.484731 0.484731
0.482615 0.482615 0.482615
0.474677 0.474677 0.474677
0.462908 0.462908 0.462908
0.092306 0.092306 0.092306
0.460644 0.460644 0.460644
0.411996 0.411996 0.411996
0.341457 0.341457 0.341457
0.397154 0.397154 0.397154
0.429117 0.429117 0.429117
0.444327 0.444327 0.444327
0.448801 0.448801 0.448801
0.445809 0.445809 0.445809
0.092306 0.092306 0.092306
0.474929 0.474929 0.474929
0.448634 0.448634 0.448634
0.409409 0.409409 0.409409
0.378878 0.378878 0.378878
0.392033 0.392033 0.392033
0.413214 0.413214 0.413214
0.422977 0.422977 0.422977
0.425736 0.425736 0.425736
0.092306 0.092306 0.092306
0.470296 0.470296 0.470296
0.459547 0.459547 0.459547
0.434495 0.434495 0.434495
0.410756 0.410756 0.410756
0.393121 0.393121 0.393121
0.393615 0.393615 0.393615
0.403505 0.403505 0.403505
0.408614 0.408614 0.408614
0.092306 0.092306 0.092306
0.453127 0.453127 0.453127
0.451779 0.451779 0.451779
0.437804 0.437804 0.437804
0.421065 0.421065 0.421065
0.405988 0.405988 0.405988
0.395126 0.395126 0.395126
0.391541 0.391541 0.391541
0.394812 0.394812 0.394812
0.092306 0.092306 0.092306
0.429657 0.429657 0.429657
0.433758 0.433758 0.433758
0.427676 0.427676 0.427676
0.417825 0.417825 0.417825
0.406731 0.406731 0.406731
0.396872 0.396872 0.396872
0.390330 0.390330 0.390330
0.386361 0.386361 0.386361
0.092306 0.092306 0.092306
0.402001 0.402001 0.402001
0.410779 0.410779 0.410779
0.409570 0.409570 0.409570
0.403817 0.403817 0.403817
0.396699 0.396699 0.396699
0.390190 0.390190 0.390190
0.385172 0.385172 0.385172
0.381642 0.381642 0.381642
0.092306 0.092306 0.092306
0.092306 0.092306 0.092306
0.092306 0.092306 0.092306
0.092306 0.092306 0.092306
0.092306 0.092306 0.092306
0.092306 0.092306 0.092306
0.092306 0.092306 0.092306
0.092306 0.092306 0.092306
0.092306 0.092306 0.092306
0.092306 0.092306 0.092306
0.810095 0.810095 0.810095
0.826334 0.826334 0.826334
0.835566 0.835566 0.835566
0.796400 0.796400 0.796400
0.743526 0.743526 0.743526
0.707016 0.707016 0.707016
0.675094 0.675094 0.675094
0.647872 0.647872 0.647872
0.092306 0.092306 0.092306
0.789123 0.789123 0.789123
0.765329 0.765329 0.765329
0.734538 0.734538 0.734538
0.711910 0.711910 0.711910
0.693940 0.693940 0.693940
0.677208 0.677208 0.677208
0.660383 0.660383 0.660383
0.642597 0.642597 0.642597
0.092306 0.092306 0.092306
0.643390 0.643390 0.643390
0.615627 0.615627 0.615627
0.591257 0.591257 0.591257
0.598902 0.598902 0.598902
0.615286 0.615286 0.615286
0.624798 0.624798 0.624798
0.625929 0.625929 0.625929
0.620325 0.620325 0.620325
0.092306 0.092306 0.092306
0.628276 0.628276 0.628276
0.604277 0.604277 0.604277
0.560345 0.560345 0.560345
0.513339 0.513339 0.513339
0.553381 0.553381 0.553381
0.577311 0.577311 0.577311
0.590087 0.590087 0.590087
0.593807 0.593807 0.593807
0.092306 0.092306 0.092306
0.627481 0.627481 0.627481
0.617578 0.617578 0.617578
0.589823 0.589823 0.589823
0.560417 0.560417 0.560417
0.542353 0.542353 0.542353
0.551447 0.551447 0.551447
0.564678 0.564678 0.564678
0.571774 0.571774 0.571774
0.092306 0.092306 0.092306
0.614323 0.614323 0.614323
0.614087 0.614087 0.614087
0.598773 0.598773 0.598773
0.579001 0.579001 0.579001
0.562183 0.562183 0.562183
0.552589 0.552589 0.552589
0.552851 0.552851 0.552851
0.557956 0.557956 0.557956
0.092306 0.092306 0.092306
0.591639 0.591639 0.591639
0.597376 0.597376 0.597376
0.590808 0.590808 0.590808
0.579237 0.579237 0.579237
0.567415 0.567415 0.567415
0.558308 0.558308 0.558308
0.552898 0.552898 0.552898
0.550863 0.550863 0.550863
0.092306 0.092306 0.092306
0.563401 0.563401 0.563401
0.572666 0.572666 0.572666
0.572040 0.572040 0.572040
0.566892 0.566892 0.566892
0.560352 0.560352 0.560352
0.554456 0.554456 0.554456
0.550193 0.550193 0.550193
0.547564 0.547564 0.547564
0.092306 0.092306 0.092306
0.092306 0.092306 0.092306
0.092306 0.092306 0.092306
0.092306 0.092306 0.092306
0.092306 0.092306 0.092306
0.092306 0.092306 0.092306
0.092306 0.092306 0.092306
0.092306 0.092306 0.092306
0.092306 0.092306 0.092306
0.092306 0.092306 0.092306
0.935047 0.935047 0.935047
0.943866 0.943866 0.943866
0.949064 0.949064 0.949064
0.949711 0.949711 0.949711
0.912362 0.912362 0.912362
0.876062 0.876062 0.876062
0.839958 0.839958 0.839958
0.810181 0.810181 0.810181
0.092306 0.092306 0.092306
0.943220 0.943220 0.943220
0.952117 0.952117 0.952117
0.932470 0.932470 0.932470
0.903482 0.903482 0.903482
0.877132 0.877132 0.877132
0.849765 0.849765 0.849765
0.826470 0.826470 0.826470
0.803984 0.803984 0.803984
0.092306 0.092306 0.092306
0.848033 0.848033 0.848033
0.840361 0.840361 0.840361
0.823817 0.823817 0.823817
0.811972 0.811972 0.811972
0.804532 0.804532 0.804532
0.798305 0.798305 0.798305
0.790044 0.790044 0.790044
0.778828 0.778828 0.778828
0.092306 0.092306 0.092306
0.776667 0.776667 0.776667
0.764074 0.764074 0.764074
0.736096 0.736096 0.736096
0.719383 0.719383 0.719383
0.726601 0.726601 0.726601
0.739599 0.739599 0.739599
0.747232 0.747232 0.747232
0.748077 0.748077 0.748077
0.092306 0.092306 0.092306
0.762635 0.762635 0.762635
0.756349 0.756349 0.756349
0.731380 0.731380 0.731380
0.700408 0.700408 0.700408
0.668691 0.668691 0.668691
0.697007 0.697007 0.697007
0.713868 0.713868 0.713868
0.721645 0.721645 0.721645
0.092306 0.092306 0.092306
0.752036 0.752036 0.752036
0.753642 0.753642 0.753642
0.739624 0.739624 0.739624
0.719881 0.719881 0.719881
0.701273 0.701273 0.701273
0.689884 0.689884 0.689884
0.696396 0.696396 0.696396
0.705070 0.705070 0.705070
0.092306 0.092306 0.092306
0.733080 0.733080 0.733080
0.740160 0.740160 0.740160
0.734469 0.734469 0.734469
0.723294 0.723294 0.723294
0.711467 0.711467 0.711467
0.702087 0.702087 0.702087
0.696818 0.696818 0.696818
0.697145 0.697145 0.697145
0.092306 0.092306 0.092306
0.707128 0.707128 0.707128
0.717648 0.717648 0.717648
0.717774 0.717774 0.717774
0.713115 0.713115 0.713115
0.706927 0.706927 0.706927
0.700930 0.700930 0.700930
0.696744 0.696744 0.696744
0.694815 0.694815 0.694815
0.092306 0.092306 0.092306
0.092306 0.092306 0.092306
0.092306 0.092306 0.092306
0.092306 0.092306 0.092306
0.092306 0.092306 0.092306
0.092306 0.092306 0.092306
0.092306 0.092306 0.092306
0.092306 0.092306 0.092306
0.092306 0.092306 0.092306
0.092306 0.092306 0.092306
0.981236 0.981236 0.981236
0.983409 0.983409 0.983409
0.984365 0.984365 0.984365
0.985044 0.985044 0.985044
0.979360 0.979360 0.979360
0.963975 0.963975 0.963975
0.943457 0.943457 0.943457
0.922866 0.922866 0.922866
0.092306 0.092306 0.092306
0.983289 0.983289 0.983289
0.984925 0.984925 0.984925
0.985813 0.985813 0.985813
0.979889 0.979889 0.979889
0.968647 0.968647 0.968647
0.953320 0.953320 0.953320
0.936094 0.936094 0.936094
0.918364 0.918364 0.918364
0.092306 0.092306 0.092306
0.965437 0.965437 0.965437
0.964281 0.964281 0.964281
0.957612 0.957612 0.957612
0.946460 0.946460 0.946460
0.935788 0.935788 0.935788
0.925945 0.925945 0.925945
0.912737 0.912737 0.912737
0.899885 0.899885 0.899885
0.092306 0.092306 0.092306
0.907993 0.907993 0.907993
0.907252 0.907252 0.907252
0.897028 0.897028 0.897028
0.887707 0.887707 0.887707
0.883315 0.883315 0.883315
0.881909 0.881909 0.881909
0.880221 0.880221 0.880221
0.876523 0.876523 0.876523
0.092306 0.092306 0.092306
0.876867 0.876867 0.876867
0.876343 0.876343 0.876343
0.860793 0.860793 0.860793
0.841834 0.841834 0.841834
0.832115 0.832115 0.832115
0.837130 0.837130 0.837130
0.844973 0.844973 0.844973
0.848835 0.848835 0.848835
0.092306 0.092306 0.092306
0.862329 0.862329 0.862329
0.865955 0.865955 0.865955
0.855482 0.855482 0.855482
0.838987 0.838987 0.838987
0.821930 0.821930 0.821930
0.806640 0.806640 0.806640
0.821731 0.821731 0.821731
0.829732 0.829732 0.829732
0.092306 0.092306 0.092306
0.846749 0.846749 0.846749
0.854535 0.854535 0.854535
0.850599 0.850599 0.850599
0.841333 0.841333 0.841333
0.830899 0.830899 0.830899
0.822529 0.822529 0.822529
0.818975 0.818975 0.818975
0.821946 0.821946 0.821946
0.092306 0.092306 0.092306
0.825425 0.825425 0.825425
0.836108 0.836108 0.836108
0.837106 0.837106 0.837106
0.833616 0.833616 0.833616
0.828599 0.828599 0.828599
0.824177 0.824177 0.824177
0.821653 0.821653 0.821653
0.821226 0.821226 0.821226
0.092306 0.092306 0.092306
0.092306 0.092306 0.092306
0.092306 0.092306 0.092306
0.092306 0.092306 0.092306
0.092306 0.092306 0.092306
0.092306 0.092306 0.092306
0.092306 0.092306 0.092306
0.092306 0.092306 0.092306
0.092306 0.092306 0.092306
0.092306 0.092306 0.092306
0.991648 0.991648 0.991648
0.993151 0.993151 0.993151
0.994032 0.994032 0.994032
0.994657 0.994657 0.994657
0.992736 0.992736 0.992736
0.987448 0.987448 0.987448
0.982680 0.982680 0.982680
0.973729 0.973729 0.973729
0.092306 0.092306 0.092306
0.993041 0.993041 0.993041
0.994547 0.994547 0.994547
0.995428 0.995428 0.995428
0.993708 0.993708 0.993708
0.989391 0.989391 0.989391
0.985152 0.985152 0.985152
0.980330 0.980330 0.980330
0.972439 0.972439 0.972439
0.092306 0.092306 0.092306
0.989999 0.989999 0.989999
0.989848 0.989848 0.989848
0.988139 0.988139 0.988139
0.985611 0.985611 0.985611
0.982929 0.982929 0.982929
0.977827 0.977827 0.977827
0.972126 0.972126 0.972126
0.964485 0.964485 0.964485
0.092306 0.092306 0.092306
0.974442 0.974442 0.974442
0.975359 0.975359 0.975359
0.973256 0.973256 0.973256
0.969737 0.969737 0.969737
0.965088 0.965088 0.965088
0.960863 0.960863 0.960863
0.956885 0.956885 0.956885
0.950918 0.950918 0.950918
0.092306 0.092306 0.092306
0.950138 0.950138 0.950138
0.952570 0.952570 0.952570
0.948239 0.948239 0.948239
0.942248 0.942248 0.942248
0.937970 0.937970 0.937970
0.936326 0.936326 0.936326
0.935849 0.935849 0.935849
0.934802 0.934802 0.934802
0.092306 0.092306 0.092306
0.934967 0.934967 0.934967
0.938233 0.938233 0.938233
0.934657 0.934657 0.934657
0.928197 0.928197 0.928197
0.919174 0.919174 0.919174
0.914868 0.914868 0.914868
0.917465 0.917465 0.917465
0.920603 0.920603 0.920603
0.092306 0.092306 0.092306
0.924957 0.924957 0.924957
0.930508 0.930508 0.930508
0.929306 0.929306 0.929306
0.924301 0.924301 0.924301
0.916801 0.916801 0.916801
0.910167 0.910167 0.910167
0.905876 0.905876 0.905876
0.911396 0.911396 0.911396
0.092306 0.092306 0.092306
0.909113 0.909113 0.909113
0.918463 0.918463 0.918463
0.920069 0.920069 0.920069
0.918068 0.918068 0.918068
0.914743 0.914743 0.914743
0.911774 0.911774 0.911774
0.910343 0.910343 0.910343
0.910909 0.910909 0.910909
0.092306 0.092306 0.092306
0.092306 0.092306 0.092306
0.092306 0.092306 0.092306
0.092306 0.092306 0.092306
0.092306 0.092306 0.092306
0.092306 0.092306 0.092306
0.092306 0.092306 0.092306
0.092306 0.092306 0.092306
0.092306 0.092306 0.092306
0.092306 0.092306 0.092306
0.996448 0.996448 0.996448
0.996757 0.996757 0.996757
0.996937 0.996937 0.996937
0.997065 0.997065 0.997065
0.996912 0.996912 0.996912
0.995790 0.995790 0.995790
0.992151 0.992151 0.992151
0.988130 0.988130 0.988130
0.092306 0.092306 0.092306
0.996734 0.996734 0.996734
0.997043 0.997043 0.997043
0.997223 0.997223 0.997223
0.997207 0.997207 0.997207
0.996310 0.996310 0.996310
0.994866 0.994866 0.994866
0.991083 0.991083 0.991083
0.987641 0.987641 0.987641
0.092306 0.092306 0.092306
0.996604 0.996604 0.996604
0.996589 0.996589 0.996589
0.996247 0.996247 0.996247
0.995687 0.995687 0.995687
0.993503 0.993503 0.993503
0.990714 0.990714 0.990714
0.988020 0.988020 0.988020
0.985357 0.985357 0.985357
0.092306 0.092306 0.092306
0.990337 0.990337 0.990337
0.990835 0.990835 0.990835
0.990128 0.990128 0.990128
0.988845 0.988845 0.988845
0.987205 0.987205 0.987205
0.985523 0.985523 0.985523
0.983881 0.983881 0.983881
0.982272 0.982272 0.982272
0.092306 0.092306 0.092306
0.982783 0.982783 0.982783
0.983543 0.983543 0.983543
0.983158 0.983158 0.983158
0.982324 0.982324 0.982324
0.980397 0.980397 0.980397
0.978485 0.978485 0.978485
0.976772 0.976772 0.976772
0.975002 0.975002 0.975002
0.092306 0.092306 0.092306
0.973342 0.973342 0.973342
0.975395 0.975395 0.975395
0.974731 0.974731 0.974731
0.972950 0.972950 0.972950
0.971119 0.971119 0.971119
0.969339 0.969339 0.969339
0.968617 0.968617 0.968617
0.968123 0.968123 0.968123
0.092306 0.092306 0.092306
0.965864 0.965864 0.965864
0.969703 0.969703 0.969703
0.969587 0.969587 0.969587
0.967653 0.967653 0.967653
0.964996 0.964996 0.964996
0.962802 0.962802 0.962802
0.962069 0.962069 0.962069
0.962657 0.962657 0.962657
0.092306 0.092306 0.092306
0.958327 0.958327 0.958327
0.963043 0.963043 0.963043
0.964191 0.964191 0.964191
0.963681 0.963681 0.963681
0.962518 0.962518 0.962518
0.961440 0.961440 0.961440
0.960994 0.960994 0.960994
0.961544 0.961544 0.961544
