trix_modern/TriX_Orange21_Hard.cube
TITLE "Tri-X Orange21 Hard"
# Adobe RGB in/out. REPLACES AgX. Tri-X Orange21 Hard.
LUT_3D_SIZE 9
DOMAIN_MIN 0.0 0.0 0.0
DOMAIN_MAX 1.0 1.0 1.0
0.093024 0.093024 0.093024
0.093273 0.093273 0.093273
0.100022 0.100022 0.100022
0.316570 0.316570 0.316570
0.815907 0.815907 0.815907
0.978513 0.978513 0.978513
0.994218 0.994218 0.994218
0.998220 0.998220 0.998220
0.998547 0.998547 0.998547
0.093066 0.093066 0.093066
0.093381 0.093381 0.093381
0.110198 0.110198 0.110198
0.366166 0.366166 0.366166
0.803751 0.803751 0.803751
0.974304 0.974304 0.974304
0.993619 0.993619 0.993619
0.998146 0.998146 0.998146
0.998494 0.998494 0.998494
0.093512 0.093512 0.093512
0.095696 0.095696 0.095696
0.116353 0.116353 0.116353
0.365515 0.365515 0.365515
0.794735 0.794735 0.794735
0.961061 0.961061 0.961061
0.991621 0.991621 0.991621
0.997941 0.997941 0.997941
0.998318 0.998318 0.998318
0.096818 0.096818 0.096818
0.104192 0.104192 0.104192
0.207546 0.207546 0.207546
0.412474 0.412474 0.412474
0.768370 0.768370 0.768370
0.950926 0.950926 0.950926
0.987844 0.987844 0.987844
0.996182 0.996182 0.996182
0.998054 0.998054 0.998054
0.119307 0.119307 0.119307
0.151018 0.151018 0.151018
0.319637 0.319637 0.319637
0.578418 0.578418 0.578418
0.813115 0.813115 0.813115
0.946946 0.946946 0.946946
0.986236 0.986236 0.986236
0.994901 0.994901 0.994901
0.998172 0.998172 0.998172
0.201869 0.201869 0.201869
0.242574 0.242574 0.242574
0.450800 0.450800 0.450800
0.714451 0.714451 0.714451
0.879199 0.879199 0.879199
0.960753 0.960753 0.960753
0.986255 0.986255 0.986255
0.994288 0.994288 0.994288
0.998013 0.998013 0.998013
0.339622 0.339622 0.339622
0.383165 0.383165 0.383165
0.573670 0.573670 0.573670
0.804441 0.804441 0.804441
0.920754 0.920754 0.920754
0.973629 0.973629 0.973629
0.988638 0.988638 0.988638
0.994425 0.994425 0.994425
0.997897 0.997897 0.997897
0.565090 0.565090 0.565090
0.583558 0.583558 0.583558
0.735412 0.735412 0.735412
0.865571 0.865571 0.865571
0.948222 0.948222 0.948222
0.979885 0.979885 0.979885
0.990629 0.990629 0.990629
0.995410 0.995410 0.995410
0.997872 0.997872 0.997872
0.517844 0.517844 0.517844
0.513245 0.513245 0.513245
0.882999 0.882999 0.882999
0.868857 0.868857 0.868857
0.965868 0.965868 0.965868
0.984099 0.984099 0.984099
0.991830 0.991830 0.991830
0.995946 0.995946 0.995946
0.997941 0.997941 0.997941
0.093024 0.093024 0.093024
0.093227 0.093227 0.093227
0.095728 0.095728 0.095728
0.228487 0.228487 0.228487
0.776523 0.776523 0.776523
0.975682 0.975682 0.975682
0.993837 0.993837 0.993837
0.998180 0.998180 0.998180
0.998519 0.998519 0.998519
0.093104 0.093104 0.093104
0.093321 0.093321 0.093321
0.097707 0.097707 0.097707
0.248639 0.248639 0.248639
0.753115 0.753115 0.753115
0.971331 0.971331 0.971331
0.993238 0.993238 0.993238
0.998106 0.998106 0.998106
0.998466 0.998466 0.998466
0.093844 0.093844 0.093844
0.095226 0.095226 0.095226
0.103481 0.103481 0.103481
0.288766 0.288766 0.288766
0.722308 0.722308 0.722308
0.952893 0.952893 0.952893
0.990788 0.990788 0.990788
0.997909 0.997909 0.997909
0.998291 0.998291 0.998291
0.098757 0.098757 0.098757
0.106142 0.106142 0.106142
0.185489 0.185489 0.185489
0.360582 0.360582 0.360582
0.721177 0.721177 0.721177
0.937690 0.937690 0.937690
0.986934 0.986934 0.986934
0.995936 0.995936 0.995936
0.998028 0.998028 0.998028
0.129664 0.129664 0.129664
0.159998 0.159998 0.159998
0.309427 0.309427 0.309427
0.545965 0.545965 0.545965
0.790466 0.790466 0.790466
0.936870 0.936870 0.936870
0.985256 0.985256 0.985256
0.994686 0.994686 0.994686
0.998149 0.998149 0.998149
0.213502 0.213502 0.213502
0.252826 0.252826 0.252826
0.448205 0.448205 0.448205
0.698494 0.698494 0.698494
0.869942 0.869942 0.869942
0.956813 0.956813 0.956813
0.985538 0.985538 0.985538
0.994102 0.994102 0.994102
0.997995 0.997995 0.997995
0.348978 0.348978 0.348978
0.391943 0.391943 0.391943
0.574649 0.574649 0.574649
0.799557 0.799557 0.799557
0.917473 0.917473 0.917473
0.972669 0.972669 0.972669
0.988234 0.988234 0.988234
0.994273 0.994273 0.994273
0.997885 0.997885 0.997885
0.561112 0.561112 0.561112
0.582162 0.582162 0.582162
0.735304 0.735304 0.735304
0.863944 0.863944 0.863944
0.946721 0.946721 0.946721
0.979444 0.979444 0.979444
0.990477 0.990477 0.990477
0.995329 0.995329 0.995329
0.997866 0.997866 0.997866
0.515454 0.515454 0.515454
0.510937 0.510937 0.510937
0.881802 0.881802 0.881802
0.867424 0.867424 0.867424
0.965536 0.965536 0.965536
0.984041 0.984041 0.984041
0.991811 0.991811 0.991811
0.995944 0.995944 0.995944
0.997940 0.997940 0.997940
0.093029 0.093029 0.093029
0.093464 0.093464 0.093464
0.097973 0.097973 0.097973
0.252871 0.252871 0.252871
0.759524 0.759524 0.759524
0.972742 0.972742 0.972742
0.993271 0.993271 0.993271
0.998130 0.998130 0.998130
0.998462 0.998462 0.998462
0.093239 0.093239 0.093239
0.094216 0.094216 0.094216
0.102180 0.102180 0.102180
0.243314 0.243314 0.243314
0.714716 0.714716 0.714716
0.965519 0.965519 0.965519
0.992647 0.992647 0.992647
0.998061 0.998061 0.998061
0.998408 0.998408 0.998408
0.093775 0.093775 0.093775
0.094585 0.094585 0.094585
0.099130 0.099130 0.099130
0.221815 0.221815 0.221815
0.630072 0.630072 0.630072
0.936992 0.936992 0.936992
0.989306 0.989306 0.989306
0.997892 0.997892 0.997892
0.998232 0.998232 0.998232
0.099648 0.099648 0.099648
0.105114 0.105114 0.105114
0.154589 0.154589 0.154589
0.274582 0.274582 0.274582
0.619464 0.619464 0.619464
0.907199 0.907199 0.907199
0.984947 0.984947 0.984947
0.995369 0.995369 0.995369
0.997967 0.997967 0.997967
0.149533 0.149533 0.149533
0.176400 0.176400 0.176400
0.291479 0.291479 0.291479
0.488042 0.488042 0.488042
0.731065 0.731065 0.731065
0.911775 0.911775 0.911775
0.982113 0.982113 0.982113
0.994113 0.994113 0.994113
0.998088 0.998088 0.998088
0.257765 0.257765 0.257765
0.293686 0.293686 0.293686
0.454566 0.454566 0.454566
0.671572 0.671572 0.671572
0.847108 0.847108 0.847108
0.946029 0.946029 0.946029
0.983527 0.983527 0.983527
0.993528 0.993528 0.993528
0.997941 0.997941 0.997941
0.403014 0.403014 0.403014
0.441596 0.441596 0.441596
0.596075 0.596075 0.596075
0.793991 0.793991 0.793991
0.908498 0.908498 0.908498
0.970300 0.970300 0.970300
0.987063 0.987063 0.987063
0.993762 0.993762 0.993762
0.997852 0.997852 0.997852
0.579795 0.579795 0.579795
0.610385 0.610385 0.610385
0.751714 0.751714 0.751714
0.864426 0.864426 0.864426
0.944105 0.944105 0.944105
0.978482 0.978482 0.978482
0.990092 0.990092 0.990092
0.995035 0.995035 0.995035
0.997848 0.997848 0.997848
0.507895 0.507895 0.507895
0.885927 0.885927 0.885927
0.877998 0.877998 0.877998
0.862959 0.862959 0.862959
0.965334 0.965334 0.965334
0.983943 0.983943 0.983943
0.991828 0.991828 0.991828
0.995946 0.995946 0.995946
0.997934 0.997934 0.997934
0.093082 0.093082 0.093082
0.093599 0.093599 0.093599
0.110077 0.110077 0.110077
0.332572 0.332572 0.332572
0.808990 0.808990 0.808990
0.974416 0.974416 0.974416
0.993220 0.993220 0.993220
0.997956 0.997956 0.997956
0.998423 0.998423 0.998423
0.093298 0.093298 0.093298
0.094460 0.094460 0.094460
0.144789 0.144789 0.144789
0.353846 0.353846 0.353846
0.771082 0.771082 0.771082
0.968817 0.968817 0.968817
0.992564 0.992564 0.992564
0.997868 0.997868 0.997868
0.998368 0.998368 0.998368
0.094243 0.094243 0.094243
0.096035 0.096035 0.096035
0.124343 0.124343 0.124343
0.279380 0.279380 0.279380
0.657271 0.657271 0.657271
0.937587 0.937587 0.937587
0.988824 0.988824 0.988824
0.996614 0.996614 0.996614
0.998187 0.998187 0.998187
0.099019 0.099019 0.099019
0.102702 0.102702 0.102702
0.138464 0.138464 0.138464
0.233474 0.233474 0.233474
0.564458 0.564458 0.564458
0.891904 0.891904 0.891904
0.983891 0.983891 0.983891
0.994946 0.994946 0.994946
0.997909 0.997909 0.997909
0.150100 0.150100 0.150100
0.172193 0.172193 0.172193
0.265558 0.265558 0.265558
0.432043 0.432043 0.432043
0.645537 0.645537 0.645537
0.883220 0.883220 0.883220
0.977940 0.977940 0.977940
0.993592 0.993592 0.993592
0.998024 0.998024 0.998024
0.269666 0.269666 0.269666
0.301954 0.301954 0.301954
0.441936 0.441936 0.441936
0.636728 0.636728 0.636728
0.819780 0.819780 0.819780
0.926827 0.926827 0.926827
0.979108 0.979108 0.979108
0.992972 0.992972 0.992972
0.997874 0.997874 0.997874
0.431585 0.431585 0.431585
0.463105 0.463105 0.463105
0.600818 0.600818 0.600818
0.783200 0.783200 0.783200
0.897308 0.897308 0.897308
0.963994 0.963994 0.963994
0.985485 0.985485 0.985485
0.993257 0.993257 0.993257
0.997805 0.997805 0.997805
0.603802 0.603802 0.603802
0.632982 0.632982 0.632982
0.757754 0.757754 0.757754
0.862029 0.862029 0.862029
0.940381 0.940381 0.940381
0.977200 0.977200 0.977200
0.989456 0.989456 0.989456
0.994649 0.994649 0.994649
0.997822 0.997822 0.997822
0.716449 0.716449 0.716449
0.879758 0.879758 0.879758
0.871621 0.871621 0.871621
0.923742 0.923742 0.923742
0.965612 0.965612 0.965612
0.983842 0.983842 0.983842
0.991869 0.991869 0.991869
0.995901 0.995901 0.995901
0.997928 0.997928 0.997928
0.093181 0.093181 0.093181
0.093456 0.093456 0.093456
0.139315 0.139315 0.139315
0.414316 0.414316 0.414316
0.868897 0.868897 0.868897
0.979999 0.979999 0.979999
0.993744 0.993744 0.993744
0.997920 0.997920 0.997920
0.998423 0.998423 0.998423
0.093351 0.093351 0.093351
0.094096 0.094096 0.094096
0.170376 0.170376 0.170376
0.479905 0.479905 0.479905
0.841686 0.841686 0.841686
0.975218 0.975218 0.975218
0.993080 0.993080 0.993080
0.997840 0.997840 0.997840
0.998366 0.998366 0.998366
0.096231 0.096231 0.096231
0.100148 0.100148 0.100148
0.204950 0.204950 0.204950
0.444629 0.444629 0.444629
0.761655 0.761655 0.761655
0.953165 0.953165 0.953165
0.989808 0.989808 0.989808
0.996674 0.996674 0.996674
0.998179 0.998179 0.998179
0.100331 0.100331 0.100331
0.106169 0.106169 0.106169
0.169028 0.169028 0.169028
0.339891 0.339891 0.339891
0.639890 0.639890 0.639890
0.905393 0.905393 0.905393
0.984306 0.984306 0.984306
0.994902 0.994902 0.994902
0.998146 0.998146 0.998146
0.144890 0.144890 0.144890
0.164175 0.164175 0.164175
0.248293 0.248293 0.248293
0.397104 0.397104 0.397104
0.588577 0.588577 0.588577
0.870525 0.870525 0.870525
0.976427 0.976427 0.976427
0.993333 0.993333 0.993333
0.997981 0.997981 0.997981
0.265918 0.265918 0.265918
0.294893 0.294893 0.294893
0.421639 0.421639 0.421639
0.600475 0.600475 0.600475
0.788515 0.788515 0.788515
0.903817 0.903817 0.903817
0.975425 0.975425 0.975425
0.992549 0.992549 0.992549
0.997817 0.997817 0.997817
0.435755 0.435755 0.435755
0.465231 0.465231 0.465231
0.591291 0.591291 0.591291
0.768678 0.768678 0.768678
0.885389 0.885389 0.885389
0.956757 0.956757 0.956757
0.983823 0.983823 0.983823
0.992820 0.992820 0.992820
0.997535 0.997535 0.997535
0.614124 0.614124 0.614124
0.640703 0.640703 0.640703
0.756771 0.756771 0.756771
0.856973 0.856973 0.856973
0.935784 0.935784 0.935784
0.975661 0.975661 0.975661
0.988677 0.988677 0.988677
0.994259 0.994259 0.994259
0.997769 0.997769 0.997769
0.762022 0.762022 0.762022
0.786027 0.786027 0.786027
0.829068 0.829068 0.829068
0.919796 0.919796 0.919796
0.964660 0.964660 0.964660
0.983673 0.983673 0.983673
0.991787 0.991787 0.991787
0.995813 0.995813 0.995813
0.997924 0.997924 0.997924
0.093307 0.093307 0.093307
0.093540 0.093540 0.093540
0.167671 0.167671 0.167671
0.478187 0.478187 0.478187
0.897715 0.897715 0.897715
0.985045 0.985045 0.985045
0.994649 0.994649 0.994649
0.997999 0.997999 0.997999
0.998461 0.998461 0.998461
0.093417 0.093417 0.093417
0.093947 0.093947 0.093947
0.192906 0.192906 0.192906
0.529168 0.529168 0.529168
0.904211 0.904211 0.904211
0.982823 0.982823 0.982823
0.994009 0.994009 0.994009
0.997923 0.997923 0.997923
0.998403 0.998403 0.998403
0.097586 0.097586 0.097586
0.103673 0.103673 0.103673
0.307461 0.307461 0.307461
0.609882 0.609882 0.609882
0.849098 0.849098 0.849098
0.970449 0.970449 0.970449
0.991942 0.991942 0.991942
0.997148 0.997148 0.997148
0.998211 0.998211 0.998211
0.108348 0.108348 0.108348
0.123358 0.123358 0.123358
0.239965 0.239965 0.239965
0.486517 0.486517 0.486517
0.769704 0.769704 0.769704
0.934536 0.934536 0.934536
0.986216 0.986216 0.986216
0.995291 0.995291 0.995291
0.998191 0.998191 0.998191
0.150223 0.150223 0.150223
0.169318 0.169318 0.169318
0.268676 0.268676 0.268676
0.455509 0.455509 0.455509
0.700170 0.700170 0.700170
0.894290 0.894290 0.894290
0.978871 0.978871 0.978871
0.993515 0.993515 0.993515
0.997979 0.997979 0.997979
0.256458 0.256458 0.256458
0.283775 0.283775 0.283775
0.403297 0.403297 0.403297
0.578681 0.578681 0.578681
0.769298 0.769298 0.769298
0.883957 0.883957 0.883957
0.974016 0.974016 0.974016
0.992417 0.992417 0.992417
0.997735 0.997735 0.997735
0.426812 0.426812 0.426812
0.455152 0.455152 0.455152
0.573764 0.573764 0.573764
0.753161 0.753161 0.753161
0.874278 0.874278 0.874278
0.949793 0.949793 0.949793
0.980883 0.980883 0.980883
0.992480 0.992480 0.992480
0.997324 0.997324 0.997324
0.608976 0.608976 0.608976
0.635581 0.635581 0.635581
0.749969 0.749969 0.749969
0.849736 0.849736 0.849736
0.930670 0.930670 0.930670
0.974013 0.974013 0.974013
0.987845 0.987845 0.987845
0.993900 0.993900 0.993900
0.997627 0.997627 0.997627
0.766311 0.766311 0.766311
0.786697 0.786697 0.786697
0.822469 0.822469 0.822469
0.918215 0.918215 0.918215
0.963327 0.963327 0.963327
0.983421 0.983421 0.983421
0.991617 0.991617 0.991617
0.995726 0.995726 0.995726
0.997916 0.997916 0.997916
0.093422 0.093422 0.093422
0.093799 0.093799 0.093799
0.167015 0.167015 0.167015
0.524173 0.524173 0.524173
0.910480 0.910480 0.910480
0.988481 0.988481 0.988481
0.995745 0.995745 0.995745
0.998114 0.998114 0.998114
0.998522 0.998522 0.998522
0.093670 0.093670 0.093670
0.094316 0.094316 0.094316
0.188416 0.188416 0.188416
0.567155 0.567155 0.567155
0.920652 0.920652 0.920652
0.986682 0.986682 0.986682
0.995137 0.995137 0.995137
0.998046 0.998046 0.998046
0.998464 0.998464 0.998464
0.098516 0.098516 0.098516
0.103775 0.103775 0.103775
0.295833 0.295833 0.295833
0.728254 0.728254 0.728254
0.903834 0.903834 0.903834
0.979395 0.979395 0.979395
0.993267 0.993267 0.993267
0.997819 0.997819 0.997819
0.998271 0.998271 0.998271
0.130142 0.130142 0.130142
0.151974 0.151974 0.151974
0.312094 0.312094 0.312094
0.616514 0.616514 0.616514
0.845676 0.845676 0.845676
0.959976 0.959976 0.959976
0.988935 0.988935 0.988935
0.996007 0.996007 0.996007
0.998252 0.998252 0.998252
0.168559 0.168559 0.168559
0.191106 0.191106 0.191106
0.314091 0.314091 0.314091
0.549552 0.549552 0.549552
0.799755 0.799755 0.799755
0.930419 0.930419 0.930419
0.983739 0.983739 0.983739
0.994110 0.994110 0.994110
0.998022 0.998022 0.998022
0.258087 0.258087 0.258087
0.283936 0.283936 0.283936
0.405718 0.405718 0.405718
0.600431 0.600431 0.600431
0.801902 0.801902 0.801902
0.917741 0.917741 0.917741
0.977487 0.977487 0.977487
0.992743 0.992743 0.992743
0.997813 0.997813 0.997813
0.409193 0.409193 0.409193
0.439806 0.439806 0.439806
0.555317 0.555317 0.555317
0.738056 0.738056 0.738056
0.866177 0.866177 0.866177
0.944617 0.944617 0.944617
0.977336 0.977336 0.977336
0.992365 0.992365 0.992365
0.997279 0.997279 0.997279
0.590877 0.590877 0.590877
0.619054 0.619054 0.619054
0.732928 0.732928 0.732928
0.840660 0.840660 0.840660
0.925538 0.925538 0.925538
0.972471 0.972471 0.972471
0.987058 0.987058 0.987058
0.993564 0.993564 0.993564
0.997520 0.997520 0.997520
0.750204 0.750204 0.750204
0.792275 0.792275 0.792275
0.830616 0.830616 0.830616
0.914555 0.914555 0.914555
0.961534 0.961534 0.961534
0.982820 0.982820 0.982820
0.991346 0.991346 0.991346
0.995651 0.995651 0.995651
0.997911 0.997911 0.997911
0.093861 0.093861 0.093861
0.094514 0.094514 0.094514
0.181468 0.181468 0.181468
0.539239 0.539239 0.539239
0.918975 0.918975 0.918975
0.991693 0.991693 0.991693
0.996871 0.996871 0.996871
0.998263 0.998263 0.998263
0.998618 0.998618 0.998618
0.094297 0.094297 0.094297
0.095209 0.095209 0.095209
0.203990 0.203990 0.203990
0.576237 0.576237 0.576237
0.925940 0.925940 0.925940
0.990033 0.990033 0.990033
0.996302 0.996302 0.996302
0.998196 0.998196 0.998196
0.998569 0.998569 0.998569
0.101578 0.101578 0.101578
0.110604 0.110604 0.110604
0.330684 0.330684 0.330684
0.734186 0.734186 0.734186
0.934511 0.934511 0.934511
0.985298 0.985298 0.985298
0.994559 0.994559 0.994559
0.997989 0.997989 0.997989
0.998471 0.998471 0.998471
0.163128 0.163128 0.163128
0.189797 0.189797 0.189797
0.411322 0.411322 0.411322
0.707200 0.707200 0.707200
0.889560 0.889560 0.889560
0.973986 0.973986 0.973986
0.991974 0.991974 0.991974
0.996961 0.996961 0.996961
0.998348 0.998348 0.998348
0.200090 0.200090 0.200090
0.225896 0.225896 0.225896
0.389869 0.389869 0.389869
0.643216 0.643216 0.643216
0.849520 0.849520 0.849520
0.954307 0.954307 0.954307
0.986709 0.986709 0.986709
0.995008 0.995008 0.995008
0.998108 0.998108 0.998108
0.269400 0.269400 0.269400
0.296073 0.296073 0.296073
0.439047 0.439047 0.439047
0.647744 0.647744 0.647744
0.838586 0.838586 0.838586
0.941101 0.941101 0.941101
0.983128 0.983128 0.983128
0.993491 0.993491 0.993491
0.997889 0.997889 0.997889
0.395241 0.395241 0.395241
0.425643 0.425643 0.425643
0.549680 0.549680 0.549680
0.736013 0.736013 0.736013
0.870858 0.870858 0.870858
0.950423 0.950423 0.950423
0.981877 0.981877 0.981877
0.992800 0.992800 0.992800
0.997515 0.997515 0.997515
0.563195 0.563195 0.563195
0.590312 0.590312 0.590312
0.710115 0.710115 0.710115
0.831045 0.831045 0.831045
0.921161 0.921161 0.921161
0.971484 0.971484 0.971484
0.986557 0.986557 0.986557
0.993074 0.993074 0.993074
0.997528 0.997528 0.997528
0.696659 0.696659 0.696659
0.826054 0.826054 0.826054
0.832432 0.832432 0.832432
0.909990 0.909990 0.909990
0.959464 0.959464 0.959464
0.981901 0.981901 0.981901
0.990983 0.990983 0.990983
0.995589 0.995589 0.995589
0.997909 0.997909 0.997909
0.096223 0.096223 0.096223
0.096958 0.096958 0.096958
0.113960 0.113960 0.113960
0.409391 0.409391 0.409391
0.931235 0.931235 0.931235
0.993931 0.993931 0.993931
0.997878 0.997878 0.997878
0.998397 0.998397 0.998397
0.998654 0.998654 0.998654
0.097041 0.097041 0.097041
0.098428 0.098428 0.098428
0.125046 0.125046 0.125046
0.437666 0.437666 0.437666
0.934904 0.934904 0.934904
0.993263 0.993263 0.993263
0.997670 0.997670 0.997670
0.998328 0.998328 0.998328
0.998598 0.998598 0.998598
0.113986 0.113986 0.113986
0.124433 0.124433 0.124433
0.206663 0.206663 0.206663
0.570076 0.570076 0.570076
0.946977 0.946977 0.946977
0.989713 0.989713 0.989713
0.995985 0.995985 0.995985
0.998116 0.998116 0.998116
0.998412 0.998412 0.998412
0.239465 0.239465 0.239465
0.260114 0.260114 0.260114
0.383358 0.383358 0.383358
0.659220 0.659220 0.659220
0.903625 0.903625 0.903625
0.983146 0.983146 0.983146
0.993601 0.993601 0.993601
0.997811 0.997811 0.997811
0.998484 0.998484 0.998484
0.269686 0.269686 0.269686
0.292430 0.292430 0.292430
0.415790 0.415790 0.415790
0.641935 0.641935 0.641935
0.858152 0.858152 0.858152
0.968942 0.968942 0.968942
0.989846 0.989846 0.989846
0.995934 0.995934 0.995934
0.998289 0.998289 0.998289
0.310907 0.310907 0.310907
0.335374 0.335374 0.335374
0.457378 0.457378 0.457378
0.661581 0.661581 0.661581
0.838172 0.838172 0.838172
0.950085 0.950085 0.950085
0.985584 0.985584 0.985584
0.994302 0.994302 0.994302
0.998076 0.998076 0.998076
0.394651 0.394651 0.394651
0.421810 0.421810 0.421810
0.535305 0.535305 0.535305
0.736158 0.736158 0.736158
0.864526 0.864526 0.864526
0.947282 0.947282 0.947282
0.983553 0.983553 0.983553
0.993336 0.993336 0.993336
0.997921 0.997921 0.997921
0.522824 0.522824 0.522824
0.545509 0.545509 0.545509
0.656893 0.656893 0.656893
0.815379 0.815379 0.815379
0.914249 0.914249 0.914249
0.966987 0.966987 0.966987
0.984968 0.984968 0.984968
0.993302 0.993302 0.993302
0.997861 0.997861 0.997861
0.622376 0.622376 0.622376
0.830803 0.830803 0.830803
0.825308 0.825308 0.825308
0.841741 0.841741 0.841741
0.956814 0.956814 0.956814
0.980790 0.980790 0.980790
0.990575 0.990575 0.990575
0.995374 0.995374 0.995374
0.997914 0.997914 0.997914
