trix_modern/TriX_NoFilter_ExtraSoft.cube
TITLE "Tri-X NoFilter ExtraSoft"
# Adobe RGB in/out. REPLACES AgX. R=0.2974 G=0.2859 B=0.4167
LUT_3D_SIZE 5
DOMAIN_MIN 0.0 0.0 0.0
DOMAIN_MAX 1.0 1.0 1.0
0.121260 0.121260 0.121260
0.121260 0.121260 0.121260
0.121260 0.121260 0.121260
0.121260 0.121260 0.121260
0.121260 0.121260 0.121260
0.121260 0.121260 0.121260
0.121260 0.121260 0.121260
0.121260 0.121260 0.121260
0.121260 0.121260 0.121260
0.121260 0.121260 0.121260
0.121260 0.121260 0.121260
0.121260 0.121260 0.121260
0.121260 0.121260 0.121260
0.121260 0.121260 0.121260
0.121260 0.121260 0.121260
0.121260 0.121260 0.121260
0.121260 0.121260 0.121260
0.121260 0.121260 0.121260
0.121260 0.121260 0.121260
0.121260 0.121260 0.121260
0.121260 0.121260 0.121260
0.121260 0.121260 0.121260
0.121260 0.121260 0.121260
0.121260 0.121260 0.121260
0.121260 0.121260 0.121260
0.121260 0.121260 0.121260
0.121260 0.121260 0.121260
0.121260 0.121260 0.121260
0.121260 0.121260 0.121260
0.121260 0.121260 0.121260
0.121260 0.121260 0.121260
0.262816 0.262816 0.262816
0.381711 0.381711 0.381711
0.435303 0.435303 0.435303
0.458870 0.458870 0.458870
0.121260 0.121260 0.121260
0.385291 0.385291 0.385291
0.407481 0.407481 0.407481
0.470775 0.470775 0.470775
0.519740 0.519740 0.519740
0.121260 0.121260 0.121260
0.414530 0.414530 0.414530
0.477014 0.477014 0.477014
0.509262 0.509262 0.509262
0.546833 0.546833 0.546833
0.121260 0.121260 0.121260
0.409935 0.409935 0.409935
0.494429 0.494429 0.494429
0.539619 0.539619 0.539619
0.574226 0.574226 0.574226
0.121260 0.121260 0.121260
0.121260 0.121260 0.121260
0.121260 0.121260 0.121260
0.121260 0.121260 0.121260
0.121260 0.121260 0.121260
0.121260 0.121260 0.121260
0.500760 0.500760 0.500760
0.561732 0.561732 0.561732
0.600609 0.600609 0.600609
0.621201 0.621201 0.621201
0.121260 0.121260 0.121260
0.479055 0.479055 0.479055
0.504596 0.504596 0.504596
0.626471 0.626471 0.626471
0.697039 0.697039 0.697039
0.121260 0.121260 0.121260
0.542716 0.542716 0.542716
0.625687 0.625687 0.625687
0.673644 0.673644 0.673644
0.729995 0.729995 0.729995
0.121260 0.121260 0.121260
0.549927 0.549927 0.549927
0.665106 0.665106 0.665106
0.724482 0.724482 0.724482
0.769960 0.769960 0.769960
0.121260 0.121260 0.121260
0.121260 0.121260 0.121260
0.121260 0.121260 0.121260
0.121260 0.121260 0.121260
0.121260 0.121260 0.121260
0.121260 0.121260 0.121260
0.671039 0.671039 0.671039
0.759478 0.759478 0.759478
0.754068 0.754068 0.754068
0.747954 0.747954 0.747954
0.121260 0.121260 0.121260
0.603596 0.603596 0.603596
0.705986 0.705986 0.705986
0.772654 0.772654 0.772654
0.813812 0.813812 0.813812
0.121260 0.121260 0.121260
0.625271 0.625271 0.625271
0.725064 0.725064 0.725064
0.767470 0.767470 0.767470
0.835359 0.835359 0.835359
0.121260 0.121260 0.121260
0.646693 0.646693 0.646693
0.770855 0.770855 0.770855
0.828708 0.828708 0.828708
0.869121 0.869121 0.869121
0.121260 0.121260 0.121260
0.121260 0.121260 0.121260
0.121260 0.121260 0.121260
0.121260 0.121260 0.121260
0.121260 0.121260 0.121260
0.121260 0.121260 0.121260
0.752272 0.752272 0.752272
0.871364 0.871364 0.871364
0.859267 0.859267 0.859267
0.838640 0.838640 0.838640
0.121260 0.121260 0.121260
0.748215 0.748215 0.748215
0.845419 0.845419 0.845419
0.876453 0.876453 0.876453
0.890828 0.890828 0.890828
0.121260 0.121260 0.121260
0.705506 0.705506 0.705506
0.817100 0.817100 0.817100
0.868419 0.868419 0.868419
0.903075 0.903075 0.903075
0.121260 0.121260 0.121260
0.717110 0.717110 0.717110
0.837967 0.837967 0.837967
0.889533 0.889533 0.889533
0.927107 0.927107 0.927107
