trix_modern/TriX_Red25_Soft.cube
TITLE "Tri-X Red25 Soft"
# Adobe RGB in/out. REPLACES AgX. R=0.9735 G=0.0265 B=0.0000
LUT_3D_SIZE 65
DOMAIN_MIN 0.0 0.0 0.0
DOMAIN_MAX 1.0 1.0 1.0
0.097688 0.097688 0.097688
0.097688 0.097688 0.097688
0.097688 0.097688 0.097688
0.097688 0.097688 0.097688
0.097688 0.097688 0.097688
0.097688 0.097688 0.097688
0.097688 0.097688 0.097688
0.097688 0.097688 0.097688
0.097688 0.097688 0.097688
0.097688 0.097688 0.097688
0.097688 0.097688 0.097688
0.097688 0.097688 0.097688
0.097688 0.097688 0.097688
0.097688 0.097688 0.097688
0.097688 0.097688 0.097688
0.097688 0.097688 0.097688
0.097688 0.097688 0.097688
0.097688 0.097688 0.097688
0.097688 0.097688 0.097688
0.097688 0.097688 0.097688
0.097688 0.097688 0.097688
0.097688 0.097688 0.097688
0.097688 0.097688 0.097688
0.097688 0.097688 0.097688
0.097688 0.097688 0.097688
0.097688 0.097688 0.097688
0.097688 0.097688 0.097688
0.097688 0.097688 0.097688
0.097688 0.097688 0.097688
0.097688 0.097688 0.097688
0.097688 0.097688 0.097688
0.097688 0.097688 0.097688
0.097688 0.097688 0.097688
0.097688 0.097688 0.097688
0.097688 0.097688 0.097688
0.097688 0.097688 0.097688
0.097688 0.097688 0.097688
0.097688 0.097688 0.097688
0.097688 0.097688 0.097688
0.097688 0.097688 0.097688
0.097688 0.097688 0.097688
0.097688 0.097688 0.097688
0.097688 0.097688 0.097688
0.097688 0.097688 0.097688
0.097688 0.097688 0.097688
0.097688 0.097688 0.097688
0.097688 0.097688 0.097688
0.097688 0.097688 0.097688
0.097688 0.097688 0.097688
0.097688 0.097688 0.097688
0.097688 0.097688 0.097688
0.097688 0.097688 0.097688
0.097688 0.097688 0.097688
0.097688 0.097688 0.097688
0.097688 0.097688 0.097688
0.097688 0.097688 0.097688
0.097688 0.097688 0.097688
0.097688 0.097688 0.097688
0.097688 0.097688 0.097688
0.097688 0.097688 0.097688
0.097688 0.097688 0.097688
0.097688 0.097688 0.097688
0.097688 0.097688 0.097688
0.097688 0.097688 0.097688
0.097688 0.097688 0.097688
0.097688 0.097688 0.097688
0.097688 0.097688 0.097688
0.097688 0.097688 0.097688
0.097847 0.097847 0.097847
0.100177 0.100177 0.100177
0.104754 0.104754 0.104754
0.116483 0.116483 0.116483
0.135934 0.135934 0.135934
0.162522 0.162522 0.162522
0.191800 0.191800 0.191800
0.225607 0.225607 0.225607
0.255625 0.255625 0.255625
0.282046 0.282046 0.282046
0.305008 0.305008 0.305008
0.328526 0.328526 0.328526
0.351539 0.351539 0.351539
0.374063 0.374063 0.374063
0.396401 0.396401 0.396401
0.417799 0.417799 0.417799
0.437890 0.437890 0.437890
0.458390 0.458390 0.458390
0.478620 0.478620 0.478620
0.498580 0.498580 0.498580
0.518151 0.518151 0.518151
0.537323 0.537323 0.537323
0.556220 0.556220 0.556220
0.574847 0.574847 0.574847
0.593205 0.593205 0.593205
0.611297 0.611297 0.611297
0.629128 0.629128 0.629128
0.646653 0.646653 0.646653
0.663465 0.663465 0.663465
0.680019 0.680019 0.680019
0.696321 0.696321 0.696321
0.712359 0.712359 0.712359
0.728100 0.728100 0.728100
0.743601 0.743601 0.743601
0.758866 0.758866 0.758866
0.773900 0.773900 0.773900
0.787480 0.787480 0.787480
0.800191 0.800191 0.800191
0.812693 0.812693 0.812693
0.825005 0.825005 0.825005
0.837129 0.837129 0.837129
0.849070 0.849070 0.849070
0.860831 0.860831 0.860831
0.872415 0.872415 0.872415
0.883576 0.883576 0.883576
0.890737 0.890737 0.890737
0.897761 0.897761 0.897761
0.904650 0.904650 0.904650
0.911408 0.911408 0.911408
0.918038 0.918038 0.918038
0.924545 0.924545 0.924545
0.930930 0.930930 0.930930
0.936595 0.936595 0.936595
0.940958 0.940958 0.940958
0.945234 0.945234 0.945234
0.949424 0.949424 0.949424
0.953530 0.953530 0.953530
0.957555 0.957555 0.957555
0.961375 0.961375 0.961375
0.963653 0.963653 0.963653
0.965882 0.965882 0.965882
0.968064 0.968064 0.968064
0.097688 0.097688 0.097688
0.097688 0.097688 0.097688
0.097688 0.097688 0.097688
0.097688 0.097688 0.097688
0.099155 0.099155 0.099155
0.102447 0.102447 0.102447
0.112911 0.112911 0.112911
0.131535 0.131535 0.131535
0.158778 0.158778 0.158778
0.189279 0.189279 0.189279
0.224274 0.224274 0.224274
0.255225 0.255225 0.255225
0.282514 0.282514 0.282514
0.306303 0.306303 0.306303
0.330883 0.330883 0.330883
0.354611 0.354611 0.354611
0.377905 0.377905 0.377905
0.400960 0.400960 0.400960
0.422597 0.422597 0.422597
0.443443 0.443443 0.443443
0.464502 0.464502 0.464502
0.485265 0.485265 0.485265
0.505734 0.505734 0.505734
0.525698 0.525698 0.525698
0.545331 0.545331 0.545331
0.564673 0.564673 0.564673
0.583730 0.583730 0.583730
0.602505 0.602505 0.602505
0.621002 0.621002 0.621002
0.639227 0.639227 0.639227
0.656831 0.656831 0.656831
0.673997 0.673997 0.673997
0.690897 0.690897 0.690897
0.707536 0.707536 0.707536
0.723852 0.723852 0.723852
0.739912 0.739912 0.739912
0.755726 0.755726 0.755726
0.771296 0.771296 0.771296
0.785667 0.785667 0.785667
0.798831 0.798831 0.798831
0.811765 0.811765 0.811765
0.824487 0.824487 0.824487
0.837013 0.837013 0.837013
0.849347 0.849347 0.849347
0.861494 0.861494 0.861494
0.873457 0.873457 0.873457
0.884478 0.884478 0.884478
0.891867 0.891867 0.891867
0.899112 0.899112 0.899112
0.906217 0.906217 0.906217
0.913185 0.913185 0.913185
0.920020 0.920020 0.920020
0.926726 0.926726 0.926726
0.933287 0.933287 0.933287
0.938416 0.938416 0.938416
0.942907 0.942907 0.942907
0.947307 0.947307 0.947307
0.951618 0.951618 0.951618
0.955843 0.955843 0.955843
0.959983 0.959983 0.959983
0.962871 0.962871 0.962871
0.965211 0.965211 0.965211
0.967500 0.967500 0.967500
0.969741 0.969741 0.969741
0.971934 0.971934 0.971934
0.097688 0.097688 0.097688
0.097688 0.097688 0.097688
0.097688 0.097688 0.097688
0.097688 0.097688 0.097688
0.098153 0.098153 0.098153
0.100754 0.100754 0.100754
0.107044 0.107044 0.107044
0.123517 0.123517 0.123517
0.148903 0.148903 0.148903
0.180129 0.180129 0.180129
0.216502 0.216502 0.216502
0.248101 0.248101 0.248101
0.277234 0.277234 0.277234
0.301951 0.301951 0.301951
0.327279 0.327279 0.327279
0.352088 0.352088 0.352088
0.376189 0.376189 0.376189
0.399975 0.399975 0.399975
0.422307 0.422307 0.422307
0.443727 0.443727 0.443727
0.465325 0.465325 0.465325
0.486589 0.486589 0.486589
0.507526 0.507526 0.507526
0.527901 0.527901 0.527901
0.547941 0.547941 0.547941
0.567669 0.567669 0.567669
0.587092 0.587092 0.587092
0.606216 0.606216 0.606216
0.625047 0.625047 0.625047
0.643590 0.643590 0.643590
0.661363 0.661363 0.661363
0.678811 0.678811 0.678811
0.695983 0.695983 0.695983
0.712866 0.712866 0.712866
0.729429 0.729429 0.729429
0.745732 0.745732 0.745732
0.761780 0.761780 0.761780
0.777579 0.777579 0.777579
0.791341 0.791341 0.791341
0.804679 0.804679 0.804679
0.817781 0.817781 0.817781
0.830667 0.830667 0.830667
0.843354 0.843354 0.843354
0.855844 0.855844 0.855844
0.868143 0.868143 0.868143
0.880253 0.880253 0.880253
0.888901 0.888901 0.888901
0.896358 0.896358 0.896358
0.903669 0.903669 0.903669
0.910837 0.910837 0.910837
0.917866 0.917866 0.917866
0.924761 0.924761 0.924761
0.931524 0.931524 0.931524
0.937279 0.937279 0.937279
0.941896 0.941896 0.941896
0.946418 0.946418 0.946418
0.950847 0.950847 0.950847
0.955187 0.955187 0.955187
0.959439 0.959439 0.959439
0.962615 0.962615 0.962615
0.965017 0.965017 0.965017
0.967367 0.967367 0.967367
0.969667 0.969667 0.969667
0.971919 0.971919 0.971919
0.974122 0.974122 0.974122
0.097688 0.097688 0.097688
0.097688 0.097688 0.097688
0.097688 0.097688 0.097688
0.097688 0.097688 0.097688
0.098221 0.098221 0.098221
0.099927 0.099927 0.099927
0.103829 0.103829 0.103829
0.115418 0.115418 0.115418
0.136495 0.136495 0.136495
0.167592 0.167592 0.167592
0.203152 0.203152 0.203152
0.236815 0.236815 0.236815
0.268049 0.268049 0.268049
0.294000 0.294000 0.294000
0.319835 0.319835 0.319835
0.345943 0.345943 0.345943
0.370888 0.370888 0.370888
0.395446 0.395446 0.395446
0.418805 0.418805 0.418805
0.440731 0.440731 0.440731
0.462905 0.462905 0.462905
0.484703 0.484703 0.484703
0.506135 0.506135 0.506135
0.526983 0.526983 0.526983
0.547450 0.547450 0.547450
0.567578 0.567578 0.567578
0.587377 0.587377 0.587377
0.606856 0.606856 0.606856
0.626023 0.626023 0.626023
0.644885 0.644885 0.644885
0.662915 0.662915 0.662915
0.680642 0.680642 0.680642
0.698080 0.698080 0.698080
0.715207 0.715207 0.715207
0.732013 0.732013 0.732013
0.748548 0.748548 0.748548
0.764820 0.764820 0.764820
0.780606 0.780606 0.780606
0.794359 0.794359 0.794359
0.807863 0.807863 0.807863
0.821126 0.821126 0.821126
0.834170 0.834170 0.834170
0.847009 0.847009 0.847009
0.859646 0.859646 0.859646
0.872086 0.872086 0.872086
0.883900 0.883900 0.883900
0.891579 0.891579 0.891579
0.899105 0.899105 0.899105
0.906482 0.906482 0.906482
0.913713 0.913713 0.913713
0.920803 0.920803 0.920803
0.927756 0.927756 0.927756
0.934486 0.934486 0.934486
0.939482 0.939482 0.939482
0.944132 0.944132 0.944132
0.948685 0.948685 0.948685
0.953145 0.953145 0.953145
0.957513 0.957513 0.957513
0.961548 0.961548 0.961548
0.964016 0.964016 0.964016
0.966431 0.966431 0.966431
0.968793 0.968793 0.968793
0.971105 0.971105 0.971105
0.973367 0.973367 0.973367
0.975582 0.975582 0.975582
0.097688 0.097688 0.097688
0.097688 0.097688 0.097688
0.097688 0.097688 0.097688
0.097688 0.097688 0.097688
0.098727 0.098727 0.098727
0.100161 0.100161 0.100161
0.101987 0.101987 0.101987
0.110051 0.110051 0.110051
0.126686 0.126686 0.126686
0.154599 0.154599 0.154599
0.188514 0.188514 0.188514
0.223597 0.223597 0.223597
0.255160 0.255160 0.255160
0.283955 0.283955 0.283955
0.310081 0.310081 0.310081
0.337367 0.337367 0.337367
0.363087 0.363087 0.363087
0.388379 0.388379 0.388379
0.412954 0.412954 0.412954
0.435373 0.435373 0.435373
0.458079 0.458079 0.458079
0.480428 0.480428 0.480428
0.502376 0.502376 0.502376
0.523749 0.523749 0.523749
0.544666 0.544666 0.544666
0.565216 0.565216 0.565216
0.585413 0.585413 0.585413
0.605266 0.605266 0.605266
0.624787 0.624787 0.624787
0.643984 0.643984 0.643984
0.662349 0.662349 0.662349
0.680370 0.680370 0.680370
0.698087 0.698087 0.698087
0.715478 0.715478 0.715478
0.732535 0.732535 0.732535
0.749312 0.749312 0.749312
0.765814 0.765814 0.765814
0.781667 0.781667 0.781667
0.795602 0.795602 0.795602
0.809280 0.809280 0.809280
0.822710 0.822710 0.822710
0.835919 0.835919 0.835919
0.848914 0.848914 0.848914
0.861702 0.861702 0.861702
0.874288 0.874288 0.874288
0.885394 0.885394 0.885394
0.893152 0.893152 0.893152
0.900753 0.900753 0.900753
0.908200 0.908200 0.908200
0.915499 0.915499 0.915499
0.922655 0.922655 0.922655
0.929670 0.929670 0.929670
0.936136 0.936136 0.936136
0.940922 0.940922 0.940922
0.945608 0.945608 0.945608
0.950196 0.950196 0.950196
0.954689 0.954689 0.954689
0.959089 0.959089 0.959089
0.962494 0.962494 0.962494
0.964978 0.964978 0.964978
0.967407 0.967407 0.967407
0.969784 0.969784 0.969784
0.972109 0.972109 0.972109
0.974384 0.974384 0.974384
0.976611 0.976611 0.976611
0.097688 0.097688 0.097688
0.097688 0.097688 0.097688
0.097688 0.097688 0.097688
0.097715 0.097715 0.097715
0.099076 0.099076 0.099076
0.100656 0.100656 0.100656
0.102956 0.102956 0.102956
0.107215 0.107215 0.107215
0.120524 0.120524 0.120524
0.143663 0.143663 0.143663
0.175384 0.175384 0.175384
0.209951 0.209951 0.209951
0.242136 0.242136 0.242136
0.273201 0.273201 0.273201
0.299792 0.299792 0.299792
0.327023 0.327023 0.327023
0.353726 0.353726 0.353726
0.379612 0.379612 0.379612
0.405081 0.405081 0.405081
0.428431 0.428431 0.428431
0.451444 0.451444 0.451444
0.474324 0.474324 0.474324
0.496779 0.496779 0.496779
0.518699 0.518699 0.518699
0.540069 0.540069 0.540069
0.561050 0.561050 0.561050
0.581656 0.581656 0.581656
0.601897 0.601897 0.601897
0.621786 0.621786 0.621786
0.641333 0.641333 0.641333
0.660098 0.660098 0.660098
0.678427 0.678427 0.678427
0.696438 0.696438 0.696438
0.714115 0.714115 0.714115
0.731438 0.731438 0.731438
0.748468 0.748468 0.748468
0.765212 0.765212 0.765212
0.781344 0.781344 0.781344
0.795473 0.795473 0.795473
0.809337 0.809337 0.809337
0.822948 0.822948 0.822948
0.836332 0.836332 0.836332
0.849495 0.849495 0.849495
0.862444 0.862444 0.862444
0.875184 0.875184 0.875184
0.886060 0.886060 0.886060
0.893905 0.893905 0.893905
0.901589 0.901589 0.901589
0.909115 0.909115 0.909115
0.916490 0.916490 0.916490
0.923717 0.923717 0.923717
0.930801 0.930801 0.930801
0.936985 0.936985 0.936985
0.941815 0.941815 0.941815
0.946542 0.946542 0.946542
0.951169 0.951169 0.951169
0.955699 0.955699 0.955699
0.960134 0.960134 0.960134
0.963129 0.963129 0.963129
0.965631 0.965631 0.965631
0.968077 0.968077 0.968077
0.970470 0.970470 0.970470
0.972811 0.972811 0.972811
0.975102 0.975102 0.975102
0.977343 0.977343 0.977343
0.097688 0.097688 0.097688
0.097688 0.097688 0.097688
0.097688 0.097688 0.097688
0.097778 0.097778 0.097778
0.099324 0.099324 0.099324
0.101049 0.101049 0.101049
0.104357 0.104357 0.104357
0.109692 0.109692 0.109692
0.118102 0.118102 0.118102
0.136606 0.136606 0.136606
0.165605 0.165605 0.165605
0.197498 0.197498 0.197498
0.230493 0.230493 0.230493
0.261722 0.261722 0.261722
0.289494 0.289494 0.289494
0.316154 0.316154 0.316154
0.343675 0.343675 0.343675
0.369924 0.369924 0.369924
0.395809 0.395809 0.395809
0.420346 0.420346 0.420346
0.443539 0.443539 0.443539
0.466881 0.466881 0.466881
0.489793 0.489793 0.489793
0.512242 0.512242 0.512242
0.534044 0.534044 0.534044
0.555443 0.555443 0.555443
0.576449 0.576449 0.576449
0.597076 0.597076 0.597076
0.617335 0.617335 0.617335
0.637236 0.637236 0.637236
0.656451 0.656451 0.656451
0.675098 0.675098 0.675098
0.693412 0.693412 0.693412
0.711392 0.711392 0.711392
0.728992 0.728992 0.728992
0.746287 0.746287 0.746287
0.763285 0.763285 0.763285
0.779872 0.779872 0.779872
0.794209 0.794209 0.794209
0.808270 0.808270 0.808270
0.822076 0.822076 0.822076
0.835648 0.835648 0.835648
0.848991 0.848991 0.848991
0.862112 0.862112 0.862112
0.875017 0.875017 0.875017
0.886055 0.886055 0.886055
0.893996 0.893996 0.893996
0.901771 0.901771 0.901771
0.909385 0.909385 0.909385
0.916843 0.916843 0.916843
0.924149 0.924149 0.924149
0.931309 0.931309 0.931309
0.937397 0.937397 0.937397
0.942275 0.942275 0.942275
0.947048 0.947048 0.947048
0.951719 0.951719 0.951719
0.956290 0.956290 0.956290
0.960766 0.960766 0.960766
0.963523 0.963523 0.963523
0.966046 0.966046 0.966046
0.968512 0.968512 0.968512
0.970924 0.970924 0.970924
0.973283 0.973283 0.973283
0.975590 0.975590 0.975590
0.977848 0.977848 0.977848
0.097688 0.097688 0.097688
0.097688 0.097688 0.097688
0.097688 0.097688 0.097688
0.097894 0.097894 0.097894
0.099699 0.099699 0.099699
0.101769 0.101769 0.101769
0.106252 0.106252 0.106252
0.114149 0.114149 0.114149
0.123959 0.123959 0.123959
0.136175 0.136175 0.136175
0.159688 0.159688 0.159688
0.189000 0.189000 0.189000
0.221150 0.221150 0.221150
0.251160 0.251160 0.251160
0.280024 0.280024 0.280024
0.306132 0.306132 0.306132
0.333623 0.333623 0.333623
0.360012 0.360012 0.360012
0.386078 0.386078 0.386078
0.411651 0.411651 0.411651
0.434942 0.434942 0.434942
0.458559 0.458559 0.458559
0.481839 0.481839 0.481839
0.504708 0.504708 0.504708
0.526941 0.526941 0.526941
0.548717 0.548717 0.548717
0.570096 0.570096 0.570096
0.591088 0.591088 0.591088
0.611702 0.611702 0.611702
0.631948 0.631948 0.631948
0.651641 0.651641 0.651641
0.670605 0.670605 0.670605
0.689226 0.689226 0.689226
0.707512 0.707512 0.707512
0.725399 0.725399 0.725399
0.742965 0.742965 0.742965
0.760224 0.760224 0.760224
0.777185 0.777185 0.777185
0.791971 0.791971 0.791971
0.806241 0.806241 0.806241
0.820255 0.820255 0.820255
0.834026 0.834026 0.834026
0.847560 0.847560 0.847560
0.860864 0.860864 0.860864
0.873944 0.873944 0.873944
0.885477 0.885477 0.885477
0.893524 0.893524 0.893524
0.901400 0.901400 0.901400
0.909109 0.909109 0.909109
0.916658 0.916658 0.916658
0.924052 0.924052 0.924052
0.931295 0.931295 0.931295
0.937443 0.937443 0.937443
0.942375 0.942375 0.942375
0.947198 0.947198 0.947198
0.951918 0.951918 0.951918
0.956536 0.956536 0.956536
0.961056 0.961056 0.961056
0.963719 0.963719 0.963719
0.966265 0.966265 0.966265
0.968753 0.968753 0.968753
0.971186 0.971186 0.971186
0.973565 0.973565 0.973565
0.975892 0.975892 0.975892
0.978168 0.978168 0.978168
0.097688 0.097688 0.097688
0.097688 0.097688 0.097688
0.097688 0.097688 0.097688
0.098059 0.098059 0.098059
0.100264 0.100264 0.100264
0.103552 0.103552 0.103552
0.110198 0.110198 0.110198
0.119827 0.119827 0.119827
0.130579 0.130579 0.130579
0.144507 0.144507 0.144507
0.160795 0.160795 0.160795
0.183638 0.183638 0.183638
0.214215 0.214215 0.214215
0.242750 0.242750 0.242750
0.271927 0.271927 0.271927
0.297391 0.297391 0.297391
0.323800 0.323800 0.323800
0.350454 0.350454 0.350454
0.376436 0.376436 0.376436
0.402228 0.402228 0.402228
0.426264 0.426264 0.426264
0.449778 0.449778 0.449778
0.473306 0.473306 0.473306
0.496455 0.496455 0.496455
0.519089 0.519089 0.519089
0.541180 0.541180 0.541180
0.562880 0.562880 0.562880
0.584196 0.584196 0.584196
0.605133 0.605133 0.605133
0.625699 0.625699 0.625699
0.645879 0.645879 0.645879
0.665149 0.665149 0.665149
0.684066 0.684066 0.684066
0.702641 0.702641 0.702641
0.720829 0.720829 0.720829
0.738667 0.738667 0.738667
0.756189 0.756189 0.756189
0.773404 0.773404 0.773404
0.788887 0.788887 0.788887
0.803378 0.803378 0.803378
0.817609 0.817609 0.817609
0.831587 0.831587 0.831587
0.845321 0.845321 0.845321
0.858816 0.858816 0.858816
0.872080 0.872080 0.872080
0.884401 0.884401 0.884401
0.892562 0.892562 0.892562
0.900546 0.900546 0.900546
0.908358 0.908358 0.908358
0.916005 0.916005 0.916005
0.923493 0.923493 0.923493
0.930826 0.930826 0.930826
0.937171 0.937171 0.937171
0.942161 0.942161 0.942161
0.947041 0.947041 0.947041
0.951814 0.951814 0.951814
0.956483 0.956483 0.956483
0.961052 0.961052 0.961052
0.963744 0.963744 0.963744
0.966316 0.966316 0.966316
0.968829 0.968829 0.968829
0.971286 0.971286 0.971286
0.973688 0.973688 0.973688
0.976036 0.976036 0.976036
0.978333 0.978333 0.978333
0.097688 0.097688 0.097688
0.097688 0.097688 0.097688
0.097688 0.097688 0.097688
0.098409 0.098409 0.098409
0.100759 0.100759 0.100759
0.105174 0.105174 0.105174
0.113997 0.113997 0.113997
0.125211 0.125211 0.125211
0.137809 0.137809 0.137809
0.152914 0.152914 0.152914
0.168900 0.168900 0.168900
0.186178 0.186178 0.186178
0.208831 0.208831 0.208831
0.236507 0.236507 0.236507
0.264690 0.264690 0.264690
0.289971 0.289971 0.289971
0.315104 0.315104 0.315104
0.341676 0.341676 0.341676
0.367320 0.367320 0.367320
0.392918 0.392918 0.392918
0.417659 0.417659 0.417659
0.440914 0.440914 0.440914
0.464549 0.464549 0.464549
0.487858 0.487858 0.487858
0.510795 0.510795 0.510795
0.533116 0.533116 0.533116
0.555068 0.555068 0.555068
0.576649 0.576649 0.576649
0.597861 0.597861 0.597861
0.618708 0.618708 0.618708
0.639195 0.639195 0.639195
0.658914 0.658914 0.658914
0.678110 0.678110 0.678110
0.696959 0.696959 0.696959
0.715441 0.715441 0.715441
0.733542 0.733542 0.733542
0.751322 0.751322 0.751322
0.768788 0.768788 0.768788
0.785073 0.785073 0.785073
0.799792 0.799792 0.799792
0.814243 0.814243 0.814243
0.828434 0.828434 0.828434
0.842373 0.842373 0.842373
0.856066 0.856066 0.856066
0.869521 0.869521 0.869521
0.882744 0.882744 0.882744
0.891165 0.891165 0.891165
0.899264 0.899264 0.899264
0.907186 0.907186 0.907186
0.914938 0.914938 0.914938
0.922526 0.922526 0.922526
0.929955 0.929955 0.929955
0.936618 0.936618 0.936618
0.941672 0.941672 0.941672
0.946612 0.946612 0.946612
0.951442 0.951442 0.951442
0.956167 0.956167 0.956167
0.960788 0.960788 0.960788
0.963618 0.963618 0.963618
0.966219 0.966219 0.966219
0.968760 0.968760 0.968760
0.971242 0.971242 0.971242
0.973669 0.973669 0.973669
0.976041 0.976041 0.976041
0.978361 0.978361 0.978361
0.097688 0.097688 0.097688
0.097688 0.097688 0.097688
0.097688 0.097688 0.097688
0.098685 0.098685 0.098685
0.101101 0.101101 0.101101
0.106448 0.106448 0.106448
0.116884 0.116884 0.116884
0.129700 0.129700 0.129700
0.144891 0.144891 0.144891
0.160770 0.160770 0.160770
0.177003 0.177003 0.177003
0.194007 0.194007 0.194007
0.212981 0.212981 0.212981
0.232113 0.232113 0.232113
0.258817 0.258817 0.258817
0.283963 0.283963 0.283963
0.307994 0.307994 0.307994
0.333885 0.333885 0.333885
0.359031 0.359031 0.359031
0.384227 0.384227 0.384227
0.409418 0.409418 0.409418
0.432443 0.432443 0.432443
0.455872 0.455872 0.455872
0.479208 0.479208 0.479208
0.502255 0.502255 0.502255
0.524788 0.524788 0.524788
0.546906 0.546906 0.546906
0.568681 0.568681 0.568681
0.590106 0.590106 0.590106
0.611182 0.611182 0.611182
0.631908 0.631908 0.631908
0.652078 0.652078 0.652078
0.671523 0.671523 0.671523
0.690623 0.690623 0.690623
0.709381 0.709381 0.709381
0.727730 0.727730 0.727730
0.745755 0.745755 0.745755
0.763462 0.763462 0.763462
0.780636 0.780636 0.780636
0.795583 0.795583 0.795583
0.810255 0.810255 0.810255
0.824660 0.824660 0.824660
0.838806 0.838806 0.838806
0.852700 0.852700 0.852700
0.866349 0.866349 0.866349
0.879759 0.879759 0.879759
0.889383 0.889383 0.889383
0.897602 0.897602 0.897602
0.905639 0.905639 0.905639
0.913501 0.913501 0.913501
0.921195 0.921195 0.921195
0.928724 0.928724 0.928724
0.935813 0.935813 0.935813
0.940934 0.940934 0.940934
0.945939 0.945939 0.945939
0.950831 0.950831 0.950831
0.955615 0.955615 0.955615
0.960293 0.960293 0.960293
0.963359 0.963359 0.963359
0.965990 0.965990 0.965990
0.968560 0.968560 0.968560
0.971071 0.971071 0.971071
0.973525 0.973525 0.973525
0.975923 0.975923 0.975923
0.978267 0.978267 0.978267
0.097688 0.097688 0.097688
0.097688 0.097688 0.097688
0.097688 0.097688 0.097688
0.098864 0.098864 0.098864
0.101341 0.101341 0.101341
0.107681 0.107681 0.107681
0.119608 0.119608 0.119608
0.133664 0.133664 0.133664
0.150892 0.150892 0.150892
0.167809 0.167809 0.167809
0.184628 0.184628 0.184628
0.202073 0.202073 0.202073
0.220064 0.220064 0.220064
0.236781 0.236781 0.236781
0.254505 0.254505 0.254505
0.279274 0.279274 0.279274
0.302357 0.302357 0.302357
0.326946 0.326946 0.326946
0.351740 0.351740 0.351740
0.376368 0.376368 0.376368
0.401122 0.401122 0.401122
0.424554 0.424554 0.424554
0.447520 0.447520 0.447520
0.470752 0.470752 0.470752
0.493764 0.493764 0.493764
0.516427 0.516427 0.516427
0.538618 0.538618 0.538618
0.560504 0.560504 0.560504
0.582071 0.582071 0.582071
0.603313 0.603313 0.603313
0.624223 0.624223 0.624223
0.644801 0.644801 0.644801
0.664464 0.664464 0.664464
0.683782 0.683782 0.683782
0.702765 0.702765 0.702765
0.721364 0.721364 0.721364
0.739614 0.739614 0.739614
0.757550 0.757550 0.757550
0.775198 0.775198 0.775198
0.790848 0.790848 0.790848
0.805736 0.805736 0.805736
0.820352 0.820352 0.820352
0.834703 0.834703 0.834703
0.848797 0.848797 0.848797
0.862640 0.862640 0.862640
0.876240 0.876240 0.876240
0.887259 0.887259 0.887259
0.895602 0.895602 0.895602
0.903758 0.903758 0.903758
0.911734 0.911734 0.911734
0.919537 0.919537 0.919537
0.927172 0.927172 0.927172
0.934551 0.934551 0.934551
0.939974 0.939974 0.939974
0.945047 0.945047 0.945047
0.950004 0.950004 0.950004
0.954850 0.954850 0.954850
0.959588 0.959588 0.959588
0.962978 0.962978 0.962978
0.965642 0.965642 0.965642
0.968244 0.968244 0.968244
0.970785 0.970785 0.970785
0.973267 0.973267 0.973267
0.975693 0.975693 0.975693
0.978064 0.978064 0.978064
0.097688 0.097688 0.097688
0.097688 0.097688 0.097688
0.097688 0.097688 0.097688
0.098958 0.098958 0.098958
0.101600 0.101600 0.101600
0.108627 0.108627 0.108627
0.121451 0.121451 0.121451
0.137109 0.137109 0.137109
0.155865 0.155865 0.155865
0.173896 0.173896 0.173896
0.191520 0.191520 0.191520
0.209842 0.209842 0.209842
0.226706 0.226706 0.226706
0.243197 0.243197 0.243197
0.260275 0.260275 0.260275
0.276601 0.276601 0.276601
0.297861 0.297861 0.297861
0.321203 0.321203 0.321203
0.345497 0.345497 0.345497
0.369448 0.369448 0.369448
0.393637 0.393637 0.393637
0.417275 0.417275 0.417275
0.439677 0.439677 0.439677
0.462683 0.462683 0.462683
0.485546 0.485546 0.485546
0.508220 0.508220 0.508220
0.530397 0.530397 0.530397
0.552307 0.552307 0.552307
0.573939 0.573939 0.573939
0.595276 0.595276 0.595276
0.616310 0.616310 0.616310
0.637034 0.637034 0.637034
0.657083 0.657083 0.657083
0.676578 0.676578 0.676578
0.695749 0.695749 0.695749
0.714572 0.714572 0.714572
0.733023 0.733023 0.733023
0.751178 0.751178 0.751178
