trix_modern/TriX_Red25_Soft.cube
TITLE "Tri-X Red25 Soft"
# Adobe RGB in/out. REPLACES AgX. R=0.9735 G=0.0265 B=0.0000
LUT_3D_SIZE 9
DOMAIN_MIN 0.0 0.0 0.0
DOMAIN_MAX 1.0 1.0 1.0
0.097688 0.097688 0.097688
0.097688 0.097688 0.097688
0.097688 0.097688 0.097688
0.097688 0.097688 0.097688
0.097688 0.097688 0.097688
0.097688 0.097688 0.097688
0.097688 0.097688 0.097688
0.097688 0.097688 0.097688
0.097688 0.097688 0.097688
0.097688 0.097688 0.097688
0.123959 0.123959 0.123959
0.333623 0.333623 0.333623
0.526941 0.526941 0.526941
0.689226 0.689226 0.689226
0.820255 0.820255 0.820255
0.909109 0.909109 0.909109
0.956536 0.956536 0.956536
0.978168 0.978168 0.978168
0.097688 0.097688 0.097688
0.165693 0.165693 0.165693
0.305272 0.305272 0.305272
0.463812 0.463812 0.463812
0.633992 0.633992 0.633992
0.784051 0.784051 0.784051
0.893618 0.893618 0.893618
0.950046 0.950046 0.950046
0.976335 0.976335 0.976335
0.097688 0.097688 0.097688
0.170195 0.170195 0.170195
0.332239 0.332239 0.332239
0.449108 0.449108 0.449108
0.582663 0.582663 0.582663
0.732192 0.732192 0.732192
0.858698 0.858698 0.858698
0.935362 0.935362 0.935362
0.969936 0.969936 0.969936
0.097688 0.097688 0.097688
0.162800 0.162800 0.162800
0.337918 0.337918 0.337918
0.463735 0.463735 0.463735
0.575137 0.575137 0.575137
0.694509 0.694509 0.694509
0.821869 0.821869 0.821869
0.913307 0.913307 0.913307
0.962046 0.962046 0.962046
0.097688 0.097688 0.097688
0.152624 0.152624 0.152624
0.331247 0.331247 0.331247
0.465956 0.465956 0.465956
0.581730 0.581730 0.581730
0.690047 0.690047 0.690047
0.796406 0.796406 0.796406
0.895245 0.895245 0.895245
0.950301 0.950301 0.950301
0.097688 0.097688 0.097688
0.141866 0.141866 0.141866
0.318151 0.318151 0.318151
0.457738 0.457738 0.457738
0.578601 0.578601 0.578601
0.689275 0.689275 0.689275
0.792235 0.792235 0.792235
0.882027 0.882027 0.882027
0.940609 0.940609 0.940609
0.097688 0.097688 0.097688
0.131863 0.131863 0.131863
0.302818 0.302818 0.302818
0.442878 0.442878 0.442878
0.566638 0.566638 0.566638
0.680443 0.680443 0.680443
0.785776 0.785776 0.785776
0.875547 0.875547 0.875547
0.933217 0.933217 0.933217
0.097688 0.097688 0.097688
0.124060 0.124060 0.124060
0.286770 0.286770 0.286770
0.424627 0.424627 0.424627
0.548287 0.548287 0.548287
0.664175 0.664175 0.664175
0.772181 0.772181 0.772181
0.863864 0.863864 0.863864
0.926299 0.926299 0.926299
0.097688 0.097688 0.097688
0.097688 0.097688 0.097688
0.097688 0.097688 0.097688
0.097688 0.097688 0.097688
0.097688 0.097688 0.097688
0.097688 0.097688 0.097688
0.097688 0.097688 0.097688
0.097688 0.097688 0.097688
0.097688 0.097688 0.097688
0.097688 0.097688 0.097688
0.107900 0.107900 0.107900
0.322059 0.322059 0.322059
0.513818 0.513818 0.513818
0.676610 0.676610 0.676610
0.811239 0.811239 0.811239
0.904815 0.904815 0.904815
0.954341 0.954341 0.954341
0.977256 0.977256 0.977256
0.097688 0.097688 0.097688
0.151872 0.151872 0.151872
0.284340 0.284340 0.284340
0.445978 0.445978 0.445978
0.619725 0.619725 0.619725
0.774374 0.774374 0.774374
0.889342 0.889342 0.889342
0.947888 0.947888 0.947888
0.975446 0.975446 0.975446
0.097688 0.097688 0.097688
0.163146 0.163146 0.163146
0.320492 0.320492 0.320492
0.435267 0.435267 0.435267
0.570917 0.570917 0.570917
0.722883 0.722883 0.722883
0.852515 0.852515 0.852515
0.932656 0.932656 0.932656
0.969107 0.969107 0.969107
0.097688 0.097688 0.097688
0.159322 0.159322 0.159322
0.332223 0.332223 0.332223
0.456317 0.456317 0.456317
0.566816 0.566816 0.566816
0.687651 0.687651 0.687651
0.816858 0.816858 0.816858
0.910879 0.910879 0.910879
0.961325 0.961325 0.961325
0.097688 0.097688 0.097688
0.150819 0.150819 0.150819
0.328126 0.328126 0.328126
0.461996 0.461996 0.461996
0.576992 0.576992 0.576992
0.685233 0.685233 0.685233
0.792953 0.792953 0.792953
0.893427 0.893427 0.893427
0.949351 0.949351 0.949351
0.097688 0.097688 0.097688
0.140897 0.140897 0.140897
0.316440 0.316440 0.316440
0.455572 0.455572 0.455572
0.575992 0.575992 0.575992
0.686499 0.686499 0.686499
0.789889 0.789889 0.789889
0.880207 0.880207 0.880207
0.939978 0.939978 0.939978
0.097688 0.097688 0.097688
0.131427 0.131427 0.131427
0.301947 0.301947 0.301947
0.441703 0.441703 0.441703
0.565240 0.565240 0.565240
0.678958 0.678958 0.678958
0.784500 0.784500 0.784500
0.874442 0.874442 0.874442
0.932716 0.932716 0.932716
0.097688 0.097688 0.097688
0.123876 0.123876 0.123876
0.286321 0.286321 0.286321
0.424049 0.424049 0.424049
0.547595 0.547595 0.547595
0.663468 0.663468 0.663468
0.771522 0.771522 0.771522
0.863411 0.863411 0.863411
0.926134 0.926134 0.926134
0.097688 0.097688 0.097688
0.097688 0.097688 0.097688
0.097688 0.097688 0.097688
0.097688 0.097688 0.097688
0.097688 0.097688 0.097688
0.097688 0.097688 0.097688
0.097688 0.097688 0.097688
0.097688 0.097688 0.097688
0.097688 0.097688 0.097688
0.097688 0.097688 0.097688
0.183067 0.183067 0.183067
0.364561 0.364561 0.364561
0.522820 0.522820 0.522820
0.671639 0.671639 0.671639
0.802357 0.802357 0.802357
0.898611 0.898611 0.898611
0.950376 0.950376 0.950376
0.975338 0.975338 0.975338
0.097688 0.097688 0.097688
0.133308 0.133308 0.133308
0.241770 0.241770 0.241770
0.430154 0.430154 0.430154
0.604727 0.604727 0.604727
0.760209 0.760209 0.760209
0.881621 0.881621 0.881621
0.943663 0.943663 0.943663
0.973489 0.973489 0.973489
0.097688 0.097688 0.097688
0.148848 0.148848 0.148848
0.298666 0.298666 0.298666
0.407055 0.407055 0.407055
0.548702 0.548702 0.548702
0.705127 0.705127 0.705127
0.839979 0.839979 0.839979
0.926411 0.926411 0.926411
0.967143 0.967143 0.967143
0.097688 0.097688 0.097688
0.150895 0.150895 0.150895
0.318487 0.318487 0.318487
0.438856 0.438856 0.438856
0.546523 0.546523 0.546523
0.671442 0.671442 0.671442
0.804829 0.804829 0.804829
0.904880 0.904880 0.904880
0.958271 0.958271 0.958271
0.097688 0.097688 0.097688
0.145929 0.145929 0.145929
0.319847 0.319847 0.319847
0.451631 0.451631 0.451631
0.564430 0.564430 0.564430
0.672187 0.672187 0.672187
0.783737 0.783737 0.783737
0.888489 0.888489 0.888489
0.946724 0.946724 0.946724
0.097688 0.097688 0.097688
0.138080 0.138080 0.138080
0.311531 0.311531 0.311531
0.449421 0.449421 0.449421
0.568593 0.568593 0.568593
0.678532 0.678532 0.678532
0.783056 0.783056 0.783056
0.874964 0.874964 0.874964
0.938130 0.938130 0.938130
0.097688 0.097688 0.097688
0.130091 0.130091 0.130091
0.299294 0.299294 0.299294
0.438159 0.438159 0.438159
0.561047 0.561047 0.561047
0.674490 0.674490 0.674490
0.780629 0.780629 0.780629
0.871063 0.871063 0.871063
0.931128 0.931128 0.931128
0.097688 0.097688 0.097688
0.123286 0.123286 0.123286
0.284897 0.284897 0.284897
0.422225 0.422225 0.422225
0.545423 0.545423 0.545423
0.661253 0.661253 0.661253
0.769453 0.769453 0.769453
0.861981 0.861981 0.861981
0.925609 0.925609 0.925609
0.097688 0.097688 0.097688
0.097688 0.097688 0.097688
0.097688 0.097688 0.097688
0.097688 0.097688 0.097688
0.097688 0.097688 0.097688
0.097688 0.097688 0.097688
0.097688 0.097688 0.097688
0.097688 0.097688 0.097688
0.097688 0.097688 0.097688
0.097688 0.097688 0.097688
0.187318 0.187318 0.187318
0.405771 0.405771 0.405771
0.570175 0.570175 0.570175
0.695271 0.695271 0.695271
0.809663 0.809663 0.809663
0.898483 0.898483 0.898483
0.948680 0.948680 0.948680
0.974022 0.974022 0.974022
0.097688 0.097688 0.097688
0.147465 0.147465 0.147465
0.313469 0.313469 0.313469
0.464833 0.464833 0.464833
0.618876 0.618876 0.618876
0.762767 0.762767 0.762767
0.878699 0.878699 0.878699
0.941351 0.941351 0.941351
0.972009 0.972009 0.972009
0.097688 0.097688 0.097688
0.137116 0.137116 0.137116
0.284602 0.284602 0.284602
0.375048 0.375048 0.375048
0.539093 0.539093 0.539093
0.696917 0.696917 0.696917
0.832565 0.832565 0.832565
0.921811 0.921811 0.921811
0.965428 0.965428 0.965428
0.097688 0.097688 0.097688
0.141294 0.141294 0.141294
0.304214 0.304214 0.304214
0.420687 0.420687 0.420687
0.523030 0.523030 0.523030
0.655372 0.655372 0.655372
0.793520 0.793520 0.793520
0.899101 0.899101 0.899101
0.955056 0.955056 0.955056
0.097688 0.097688 0.097688
0.139661 0.139661 0.139661
0.309684 0.309684 0.309684
0.439134 0.439134 0.439134
0.549087 0.549087 0.549087
0.655811 0.655811 0.655811
0.771996 0.771996 0.771996
0.882474 0.882474 0.882474
0.943624 0.943624 0.943624
0.097688 0.097688 0.097688
0.134354 0.134354 0.134354
0.305299 0.305299 0.305299
0.441301 0.441301 0.441301
0.558934 0.558934 0.558934
0.667998 0.667998 0.667998
0.773135 0.773135 0.773135
0.868182 0.868182 0.868182
0.935717 0.935717 0.935717
0.097688 0.097688 0.097688
0.128151 0.128151 0.128151
0.295471 0.295471 0.295471
0.433281 0.433281 0.433281
0.555203 0.555203 0.555203
0.668273 0.668273 0.668273
0.774638 0.774638 0.774638
0.866274 0.866274 0.866274
0.928917 0.928917 0.928917
0.097688 0.097688 0.097688
0.122385 0.122385 0.122385
0.282737 0.282737 0.282737
0.419493 0.419493 0.419493
0.542211 0.542211 0.542211
0.658001 0.658001 0.658001
0.766414 0.766414 0.766414
0.859871 0.859871 0.859871
0.924835 0.924835 0.924835
0.097688 0.097688 0.097688
0.097688 0.097688 0.097688
0.097688 0.097688 0.097688
0.097688 0.097688 0.097688
0.097688 0.097688 0.097688
0.097688 0.097688 0.097688
0.097688 0.097688 0.097688
0.097688 0.097688 0.097688
0.097688 0.097688 0.097688
0.097688 0.097688 0.097688
0.187318 0.187318 0.187318
0.405771 0.405771 0.405771
0.597434 0.597434 0.597434
0.735083 0.735083 0.735083
0.831420 0.831420 0.831420
0.905538 0.905538 0.905538
0.950442 0.950442 0.950442
0.973970 0.973970 0.973970
0.097688 0.097688 0.097688
0.179834 0.179834 0.179834
0.371769 0.371769 0.371769
0.521377 0.521377 0.521377
0.658091 0.658091 0.658091
0.784165 0.784165 0.784165
0.886083 0.886083 0.886083
0.942504 0.942504 0.942504
0.971750 0.971750 0.971750
0.097688 0.097688 0.097688
0.137793 0.137793 0.137793
0.300154 0.300154 0.300154
0.429674 0.429674 0.429674
0.566680 0.566680 0.566680
0.709776 0.709776 0.709776
0.836563 0.836563 0.836563
0.921659 0.921659 0.921659
0.964789 0.964789 0.964789
0.097688 0.097688 0.097688
0.133967 0.133967 0.133967
0.294818 0.294818 0.294818
0.410411 0.410411 0.410411
0.499564 0.499564 0.499564
0.649489 0.649489 0.649489
0.789531 0.789531 0.789531
0.896434 0.896434 0.896434
0.953149 0.953149 0.953149
0.097688 0.097688 0.097688
0.133641 0.133641 0.133641
0.300270 0.300270 0.300270
0.427837 0.427837 0.427837
0.534347 0.534347 0.534347
0.638570 0.638570 0.638570
0.761076 0.761076 0.761076
0.875171 0.875171 0.875171
0.941110 0.941110 0.941110
0.097688 0.097688 0.097688
0.130740 0.130740 0.130740
0.298499 0.298499 0.298499
0.432871 0.432871 0.432871
0.548910 0.548910 0.548910
0.656826 0.656826 0.656826
0.761760 0.761760 0.761760
0.861367 0.861367 0.861367
0.932617 0.932617 0.932617
0.097688 0.097688 0.097688
0.126273 0.126273 0.126273
0.291042 0.291042 0.291042
0.427791 0.427791 0.427791
0.548716 0.548716 0.548716
0.661417 0.661417 0.661417
0.767711 0.767711 0.767711
0.860909 0.860909 0.860909
0.926811 0.926811 0.926811
0.097688 0.097688 0.097688
0.121282 0.121282 0.121282
0.280120 0.280120 0.280120
0.416229 0.416229 0.416229
0.538438 0.538438 0.538438
0.654230 0.654230 0.654230
0.762910 0.762910 0.762910
0.857444 0.857444 0.857444
0.923960 0.923960 0.923960
0.097688 0.097688 0.097688
0.097688 0.097688 0.097688
0.097688 0.097688 0.097688
0.097688 0.097688 0.097688
0.097688 0.097688 0.097688
0.097688 0.097688 0.097688
0.097688 0.097688 0.097688
0.097688 0.097688 0.097688
0.097688 0.097688 0.097688
0.097688 0.097688 0.097688
0.187318 0.187318 0.187318
0.405771 0.405771 0.405771
0.597434 0.597434 0.597434
0.774978 0.774978 0.774978
0.859068 0.859068 0.859068
0.917254 0.917254 0.917254
0.955092 0.955092 0.955092
0.975166 0.975166 0.975166
0.097688 0.097688 0.097688
0.192079 0.192079 0.192079
0.413267 0.413267 0.413267
0.570618 0.570618 0.570618
0.701702 0.701702 0.701702
0.812572 0.812572 0.812572
0.897630 0.897630 0.897630
0.946866 0.946866 0.946866
0.972795 0.972795 0.972795
0.097688 0.097688 0.097688
0.150837 0.150837 0.150837
0.331765 0.331765 0.331765
0.476188 0.476188 0.476188
0.610446 0.610446 0.610446
0.739435 0.739435 0.739435
0.851967 0.851967 0.851967
0.926512 0.926512 0.926512
0.965483 0.965483 0.965483
0.097688 0.097688 0.097688
0.132354 0.132354 0.132354
0.296838 0.296838 0.296838
0.424192 0.424192 0.424192
0.540802 0.540802 0.540802
0.669727 0.669727 0.669727
0.798347 0.798347 0.798347
0.898705 0.898705 0.898705
0.953318 0.953318 0.953318
0.097688 0.097688 0.097688
0.129448 0.129448 0.129448
0.293420 0.293420 0.293420
0.421151 0.421151 0.421151
0.526601 0.526601 0.526601
0.621499 0.621499 0.621499
0.757383 0.757383 0.757383
0.872921 0.872921 0.872921
0.940046 0.940046 0.940046
0.097688 0.097688 0.097688
0.127423 0.127423 0.127423
0.292079 0.292079 0.292079
0.425389 0.425389 0.425389
0.540176 0.540176 0.540176
0.646556 0.646556 0.646556
0.750417 0.750417 0.750417
0.855609 0.855609 0.855609
0.930042 0.930042 0.930042
0.097688 0.097688 0.097688
0.124303 0.124303 0.124303
0.286460 0.286460 0.286460
0.422237 0.422237 0.422237
0.542326 0.542326 0.542326
0.654718 0.654718 0.654718
0.760790 0.760790 0.760790
0.855476 0.855476 0.855476
0.924831 0.924831 0.924831
0.097688 0.097688 0.097688
0.120071 0.120071 0.120071
0.277268 0.277268 0.277268
0.412721 0.412721 0.412721
0.534461 0.534461 0.534461
0.650325 0.650325 0.650325
0.759315 0.759315 0.759315
0.854972 0.854972 0.854972
0.923109 0.923109 0.923109
0.097688 0.097688 0.097688
0.097688 0.097688 0.097688
0.097688 0.097688 0.097688
0.097688 0.097688 0.097688
0.097688 0.097688 0.097688
0.097688 0.097688 0.097688
0.097688 0.097688 0.097688
0.097688 0.097688 0.097688
0.097688 0.097688 0.097688
0.097688 0.097688 0.097688
0.187318 0.187318 0.187318
0.405771 0.405771 0.405771
0.597434 0.597434 0.597434
0.780615 0.780615 0.780615
0.884447 0.884447 0.884447
0.930191 0.930191 0.930191
0.961210 0.961210 0.961210
0.977203 0.977203 0.977203
0.097688 0.097688 0.097688
0.192079 0.192079 0.192079
0.413267 0.413267 0.413267
0.607670 0.607670 0.607670
0.739387 0.739387 0.739387
0.841293 0.841293 0.841293
0.911291 0.911291 0.911291
0.953089 0.953089 0.953089
0.974791 0.974791 0.974791
0.097688 0.097688 0.097688
0.166429 0.166429 0.166429
0.360374 0.360374 0.360374
0.514656 0.514656 0.514656
0.650914 0.650914 0.650914
0.773135 0.773135 0.773135
0.873245 0.873245 0.873245
0.934766 0.934766 0.934766
0.967285 0.967285 0.967285
0.097688 0.097688 0.097688
0.136532 0.136532 0.136532
0.309600 0.309600 0.309600
0.449811 0.449811 0.449811
0.577141 0.577141 0.577141
0.701195 0.701195 0.701195
0.816929 0.816929 0.816929
0.905537 0.905537 0.905537
0.955591 0.955591 0.955591
0.097688 0.097688 0.097688
0.127722 0.127722 0.127722
0.291892 0.291892 0.291892
0.423717 0.423717 0.423717
0.538020 0.538020 0.538020
0.651164 0.651164 0.651164
0.771331 0.771331 0.771331
0.878785 0.878785 0.878785
0.941014 0.941014 0.941014
0.097688 0.097688 0.097688
0.125109 0.125109 0.125109
0.287150 0.287150 0.287150
0.420315 0.420315 0.420315
0.535396 0.535396 0.535396
0.641268 0.641268 0.641268
0.739633 0.739633 0.739633
0.853702 0.853702 0.853702
0.929216 0.929216 0.929216
0.097688 0.097688 0.097688
0.122439 0.122439 0.122439
0.282193 0.282193 0.282193
0.417219 0.417219 0.417219
0.536815 0.536815 0.536815
0.649092 0.649092 0.649092
0.754641 0.754641 0.754641
0.850298 0.850298 0.850298
0.923214 0.923214 0.923214
0.097688 0.097688 0.097688
0.118841 0.118841 0.118841
0.274395 0.274395 0.274395
0.409204 0.409204 0.409204
0.530596 0.530596 0.530596
0.646619 0.646619 0.646619
0.755950 0.755950 0.755950
0.852678 0.852678 0.852678
0.922389 0.922389 0.922389
0.097688 0.097688 0.097688
0.097688 0.097688 0.097688
0.097688 0.097688 0.097688
0.097688 0.097688 0.097688
0.097688 0.097688 0.097688
0.097688 0.097688 0.097688
0.097688 0.097688 0.097688
0.097688 0.097688 0.097688
0.097688 0.097688 0.097688
0.097688 0.097688 0.097688
0.187318 0.187318 0.187318
0.405771 0.405771 0.405771
0.597434 0.597434 0.597434
0.780615 0.780615 0.780615
0.897554 0.897554 0.897554
0.939828 0.939828 0.939828
0.964837 0.964837 0.964837
0.979527 0.979527 0.979527
0.097688 0.097688 0.097688
0.192079 0.192079 0.192079
0.413267 0.413267 0.413267
0.608260 0.608260 0.608260
0.767754 0.767754 0.767754
0.865497 0.865497 0.865497
0.924102 0.924102 0.924102
0.959636 0.959636 0.959636
0.977181 0.977181 0.977181
0.097688 0.097688 0.097688
0.179624 0.179624 0.179624
0.382688 0.382688 0.382688
0.544098 0.544098 0.544098
0.683138 0.683138 0.683138
0.800427 0.800427 0.800427
0.890567 0.890567 0.890567
0.941713 0.941713 0.941713
0.969657 0.969657 0.969657
0.097688 0.097688 0.097688
0.144440 0.144440 0.144440
0.326237 0.326237 0.326237
0.474600 0.474600 0.474600
0.607915 0.607915 0.607915
0.730727 0.730727 0.730727
0.837767 0.837767 0.837767
0.914549 0.914549 0.914549
0.959216 0.959216 0.959216
0.097688 0.097688 0.097688
0.128703 0.128703 0.128703
0.296332 0.296332 0.296332
0.434334 0.434334 0.434334
0.558104 0.558104 0.558104
0.676653 0.676653 0.676653
0.790843 0.790843 0.790843
0.887828 0.887828 0.887828
0.943718 0.943718 0.943718
0.097688 0.097688 0.097688
0.123800 0.123800 0.123800
0.284880 0.284880 0.284880
0.419394 0.419394 0.419394
0.537690 0.537690 0.537690
0.649122 0.649122 0.649122
0.758086 0.758086 0.758086
0.860719 0.860719 0.860719
0.930976 0.930976 0.930976
0.097688 0.097688 0.097688
0.120889 0.120889 0.120889
0.278752 0.278752 0.278752
0.413442 0.413442 0.413442
0.533200 0.533200 0.533200
0.646092 0.646092 0.646092
0.751587 0.751587 0.751587
0.845621 0.845621 0.845621
0.922620 0.922620 0.922620
0.097688 0.097688 0.097688
0.117682 0.117682 0.117682
0.271712 0.271712 0.271712
0.405726 0.405726 0.405726
0.527167 0.527167 0.527167
0.643425 0.643425 0.643425
0.753190 0.753190 0.753190
0.850800 0.850800 0.850800
0.921893 0.921893 0.921893
0.097688 0.097688 0.097688
0.097688 0.097688 0.097688
0.097688 0.097688 0.097688
0.097688 0.097688 0.097688
0.097688 0.097688 0.097688
0.097688 0.097688 0.097688
0.097688 0.097688 0.097688
0.097688 0.097688 0.097688
0.097688 0.097688 0.097688
0.097688 0.097688 0.097688
0.187318 0.187318 0.187318
0.405771 0.405771 0.405771
0.597434 0.597434 0.597434
0.780615 0.780615 0.780615
0.906189 0.906189 0.906189
0.946028 0.946028 0.946028
0.967864 0.967864 0.967864
0.980393 0.980393 0.980393
0.097688 0.097688 0.097688
0.192079 0.192079 0.192079
0.413267 0.413267 0.413267
0.608260 0.608260 0.608260
0.785466 0.785466 0.785466
0.883222 0.883222 0.883222
0.934312 0.934312 0.934312
0.963645 0.963645 0.963645
0.979438 0.979438 0.979438
0.097688 0.097688 0.097688
0.189032 0.189032 0.189032
0.398361 0.398361 0.398361
0.565157 0.565157 0.565157
0.707266 0.707266 0.707266
0.821580 0.821580 0.821580
0.902319 0.902319 0.902319
0.947972 0.947972 0.947972
0.972035 0.972035 0.972035
0.097688 0.097688 0.097688
0.152294 0.152294 0.152294
0.341006 0.341006 0.341006
0.495103 0.495103 0.495103
0.632694 0.632694 0.632694
0.755386 0.755386 0.755386
0.856605 0.856605 0.856605
0.923464 0.923464 0.923464
0.962357 0.962357 0.962357
0.097688 0.097688 0.097688
0.131713 0.131713 0.131713
0.303952 0.303952 0.303952
0.447592 0.447592 0.447592
0.577207 0.577207 0.577207
0.698171 0.698171 0.698171
0.808066 0.808066 0.808066
0.895950 0.895950 0.895950
0.947115 0.947115 0.947115
0.097688 0.097688 0.097688
0.123723 0.123723 0.123723
0.285704 0.285704 0.285704
0.422761 0.422761 0.422761
0.545653 0.545653 0.545653
0.662263 0.662263 0.662263
0.773863 0.773863 0.773863
0.870985 0.870985 0.870985
0.934276 0.934276 0.934276
0.097688 0.097688 0.097688
0.119846 0.119846 0.119846
0.276612 0.276612 0.276612
0.411561 0.411561 0.411561
0.532425 0.532425 0.532425
0.647286 0.647286 0.647286
0.755595 0.755595 0.755595
0.853058 0.853058 0.853058
0.924028 0.924028 0.924028
0.097688 0.097688 0.097688
0.116683 0.116683 0.116683
0.269423 0.269423 0.269423
0.402852 0.402852 0.402852
0.524503 0.524503 0.524503
0.641166 0.641166 0.641166
0.751544 0.751544 0.751544
0.849807 0.849807 0.849807
0.921710 0.921710 0.921710
