trix_modern/TriX_Orange21_Punchy.cube
TITLE "Tri-X Orange21 Punchy"
# Adobe RGB in/out. REPLACES AgX. R=0.7239 G=0.2761 B=0.0000
LUT_3D_SIZE 9
DOMAIN_MIN 0.0 0.0 0.0
DOMAIN_MAX 1.0 1.0 1.0
0.092306 0.092306 0.092306
0.092306 0.092306 0.092306
0.092306 0.092306 0.092306
0.092306 0.092306 0.092306
0.092306 0.092306 0.092306
0.092306 0.092306 0.092306
0.092306 0.092306 0.092306
0.092306 0.092306 0.092306
0.092306 0.092306 0.092306
0.092306 0.092306 0.092306
0.097607 0.097607 0.097607
0.200589 0.200589 0.200589
0.380381 0.380381 0.380381
0.503362 0.503362 0.503362
0.594585 0.594585 0.594585
0.666186 0.666186 0.666186
0.723414 0.723414 0.723414
0.766791 0.766791 0.766791
0.092306 0.092306 0.092306
0.133032 0.133032 0.133032
0.238937 0.238937 0.238937
0.407741 0.407741 0.407741
0.560968 0.560968 0.560968
0.681351 0.681351 0.681351
0.771539 0.771539 0.771539
0.837865 0.837865 0.837865
0.883333 0.883333 0.883333
0.092306 0.092306 0.092306
0.163817 0.163817 0.163817
0.333428 0.333428 0.333428
0.446159 0.446159 0.446159
0.570633 0.570633 0.570633
0.703533 0.703533 0.703533
0.806423 0.806423 0.806423
0.878592 0.878592 0.878592
0.922950 0.922950 0.922950
0.092306 0.092306 0.092306
0.175291 0.175291 0.175291
0.383366 0.383366 0.383366
0.511081 0.511081 0.511081
0.610374 0.610374 0.610374
0.714909 0.714909 0.714909
0.820193 0.820193 0.820193
0.892901 0.892901 0.892901
0.937447 0.937447 0.937447
0.092306 0.092306 0.092306
0.177917 0.177917 0.177917
0.406663 0.406663 0.406663
0.552405 0.552405 0.552405
0.659564 0.659564 0.659564
0.750362 0.750362 0.750362
0.832055 0.832055 0.832055
0.902743 0.902743 0.902743
0.945530 0.945530 0.945530
0.092306 0.092306 0.092306
0.175291 0.175291 0.175291
0.412342 0.412342 0.412342
0.570185 0.570185 0.570185
0.690624 0.690624 0.690624
0.783955 0.783955 0.783955
0.859051 0.859051 0.859051
0.912878 0.912878 0.912878
0.952481 0.952481 0.952481
0.092306 0.092306 0.092306
0.169692 0.169692 0.169692
0.406854 0.406854 0.406854
0.573565 0.573565 0.573565
0.704353 0.704353 0.704353
0.803423 0.803423 0.803423
0.878290 0.878290 0.878290
0.928736 0.928736 0.928736
0.958917 0.958917 0.958917
0.092306 0.092306 0.092306
0.162121 0.162121 0.162121
0.394226 0.394226 0.394226
0.566852 0.566852 0.566852
0.704073 0.704073 0.704073
0.809656 0.809656 0.809656
0.885630 0.885630 0.885630
0.935150 0.935150 0.935150
0.964077 0.964077 0.964077
0.092306 0.092306 0.092306
0.092306 0.092306 0.092306
0.092306 0.092306 0.092306
0.092306 0.092306 0.092306
0.092306 0.092306 0.092306
0.092306 0.092306 0.092306
0.092306 0.092306 0.092306
0.092306 0.092306 0.092306
0.092306 0.092306 0.092306
0.092306 0.092306 0.092306
0.094164 0.094164 0.094164
0.188505 0.188505 0.188505
0.365082 0.365082 0.365082
0.490752 0.490752 0.490752
0.585503 0.585503 0.585503
0.659344 0.659344 0.659344
0.719041 0.719041 0.719041
0.763593 0.763593 0.763593
0.092306 0.092306 0.092306
0.121948 0.121948 0.121948
0.209034 0.209034 0.209034
0.382832 0.382832 0.382832
0.545948 0.545948 0.545948
0.670373 0.670373 0.670373
0.764631 0.764631 0.764631
0.833731 0.833731 0.833731
0.881099 0.881099 0.881099
0.092306 0.092306 0.092306
0.155309 0.155309 0.155309
0.315639 0.315639 0.315639
0.428134 0.428134 0.428134
0.557118 0.557118 0.557118
0.692662 0.692662 0.692662
0.799503 0.799503 0.799503
0.875482 0.875482 0.875482
0.920758 0.920758 0.920758
0.092306 0.092306 0.092306
0.170578 0.170578 0.170578
0.373763 0.373763 0.373763
0.500338 0.500338 0.500338
0.599993 0.599993 0.599993
0.707553 0.707553 0.707553
0.815258 0.815258 0.815258
0.890141 0.890141 0.890141
0.936165 0.936165 0.936165
0.092306 0.092306 0.092306
0.175147 0.175147 0.175147
0.401114 0.401114 0.401114
0.546867 0.546867 0.546867
0.653245 0.653245 0.653245
0.744906 0.744906 0.744906
0.828494 0.828494 0.828494
0.900610 0.900610 0.900610
0.944513 0.944513 0.944513
0.092306 0.092306 0.092306
0.173776 0.173776 0.173776
0.409129 0.409129 0.409129
0.567051 0.567051 0.567051
0.686961 0.686961 0.686961
0.780679 0.780679 0.780679
0.856540 0.856540 0.856540
0.911478 0.911478 0.911478
0.951794 0.951794 0.951794
0.092306 0.092306 0.092306
0.168845 0.168845 0.168845
0.405037 0.405037 0.405037
0.571795 0.571795 0.571795
0.702308 0.702308 0.702308
0.801603 0.801603 0.801603
0.877230 0.877230 0.877230
0.928164 0.928164 0.928164
0.958636 0.958636 0.958636
0.092306 0.092306 0.092306
0.161676 0.161676 0.161676
0.393268 0.393268 0.393268
0.565923 0.565923 0.565923
0.703027 0.703027 0.703027
0.808762 0.808762 0.808762
0.885139 0.885139 0.885139
0.934910 0.934910 0.934910
0.963986 0.963986 0.963986
0.092306 0.092306 0.092306
0.092306 0.092306 0.092306
0.092306 0.092306 0.092306
0.092306 0.092306 0.092306
0.092306 0.092306 0.092306
0.092306 0.092306 0.092306
0.092306 0.092306 0.092306
0.092306 0.092306 0.092306
0.092306 0.092306 0.092306
0.092306 0.092306 0.092306
0.116523 0.116523 0.116523
0.236415 0.236415 0.236415
0.375551 0.375551 0.375551
0.485807 0.485807 0.485807
0.576594 0.576594 0.576594
0.649527 0.649527 0.649527
0.711184 0.711184 0.711184
0.756905 0.756905 0.756905
0.092306 0.092306 0.092306
0.109947 0.109947 0.109947
0.160896 0.160896 0.160896
0.360900 0.360900 0.360900
0.528396 0.528396 0.528396
0.655477 0.655477 0.655477
0.753105 0.753105 0.753105
0.825671 0.825671 0.825671
0.876194 0.876194 0.876194
0.092306 0.092306 0.092306
0.138280 0.138280 0.138280
0.277649 0.277649 0.277649
0.387051 0.387051 0.387051
0.529609 0.529609 0.529609
0.672026 0.672026 0.672026
0.785504 0.785504 0.785504
0.866527 0.866527 0.866527
0.915583 0.915583 0.915583
0.092306 0.092306 0.092306
0.159222 0.159222 0.159222
0.351545 0.351545 0.351545
0.475271 0.475271 0.475271
0.574792 0.574792 0.574792
0.687872 0.687872 0.687872
0.801191 0.801191 0.801191
0.883322 0.883322 0.883322
0.932875 0.932875 0.932875
0.092306 0.092306 0.092306
0.167980 0.167980 0.167980
0.386508 0.386508 0.386508
0.530761 0.530761 0.530761
0.636538 0.636538 0.636538
0.730132 0.730132 0.730132
0.818989 0.818989 0.818989
0.894820 0.894820 0.894820
0.941704 0.941704 0.941704
0.092306 0.092306 0.092306
0.169383 0.169383 0.169383
0.399928 0.399928 0.399928
0.558160 0.558160 0.558160
0.676586 0.676586 0.676586
0.771280 0.771280 0.771280
0.849226 0.849226 0.849226
0.907439 0.907439 0.907439
0.949783 0.949783 0.949783
0.092306 0.092306 0.092306
0.166256 0.166256 0.166256
0.399525 0.399525 0.399525
0.566466 0.566466 0.566466
0.696180 0.696180 0.696180
0.796130 0.796130 0.796130
0.873615 0.873615 0.873615
0.926055 0.926055 0.926055
0.957771 0.957771 0.957771
0.092306 0.092306 0.092306
0.160262 0.160262 0.160262
0.390232 0.390232 0.390232
0.562992 0.562992 0.562992
0.699746 0.699746 0.699746
0.805961 0.805961 0.805961
0.883597 0.883597 0.883597
0.934155 0.934155 0.934155
0.963697 0.963697 0.963697
0.092306 0.092306 0.092306
0.092306 0.092306 0.092306
0.092306 0.092306 0.092306
0.092306 0.092306 0.092306
0.092306 0.092306 0.092306
0.092306 0.092306 0.092306
0.092306 0.092306 0.092306
0.092306 0.092306 0.092306
0.092306 0.092306 0.092306
0.092306 0.092306 0.092306
0.164563 0.164563 0.164563
0.326110 0.326110 0.326110
0.428201 0.428201 0.428201
0.509435 0.509435 0.509435
0.583919 0.583919 0.583919
0.649326 0.649326 0.649326
0.707839 0.707839 0.707839
0.752341 0.752341 0.752341
0.092306 0.092306 0.092306
0.118661 0.118661 0.118661
0.250239 0.250239 0.250239
0.409185 0.409185 0.409185
0.544950 0.544950 0.544950
0.658163 0.658163 0.658163
0.750116 0.750116 0.750116
0.821276 0.821276 0.821276
0.871608 0.871608 0.871608
0.092306 0.092306 0.092306
0.126102 0.126102 0.126102
0.253746 0.253746 0.253746
0.341457 0.341457 0.341457
0.517276 0.517276 0.517276
0.662555 0.662555 0.662555
0.777243 0.777243 0.777243
0.859887 0.859887 0.859887
0.911077 0.911077 0.911077
0.092306 0.092306 0.092306
0.146492 0.146492 0.146492
0.328100 0.328100 0.328100
0.448713 0.448713 0.448713
0.545587 0.545587 0.545587
0.667971 0.667971 0.667971
0.787784 0.787784 0.787784
0.876762 0.876762 0.876762
0.929510 0.929510 0.929510
0.092306 0.092306 0.092306
0.158886 0.158886 0.158886
0.368571 0.368571 0.368571
0.511501 0.511501 0.511501
0.616221 0.616221 0.616221
0.711604 0.711604 0.711604
0.806475 0.806475 0.806475
0.888055 0.888055 0.888055
0.938389 0.938389 0.938389
0.092306 0.092306 0.092306
0.163367 0.163367 0.163367
0.387570 0.387570 0.387570
0.546302 0.546302 0.546302
0.663079 0.663079 0.663079
0.758805 0.758805 0.758805
0.839398 0.839398 0.839398
0.902207 0.902207 0.902207
0.947156 0.947156 0.947156
0.092306 0.092306 0.092306
0.162503 0.162503 0.162503
0.391626 0.391626 0.391626
0.558939 0.558939 0.558939
0.687652 0.687652 0.687652
0.788517 0.788517 0.788517
0.867607 0.867607 0.867607
0.922268 0.922268 0.922268
0.956428 0.956428 0.956428
0.092306 0.092306 0.092306
0.158110 0.158110 0.158110
0.385648 0.385648 0.385648
0.558609 0.558609 0.558609
0.694898 0.694898 0.694898
0.801848 0.801848 0.801848
0.881329 0.881329 0.881329
0.933038 0.933038 0.933038
0.963270 0.963270 0.963270
0.092306 0.092306 0.092306
0.092306 0.092306 0.092306
0.092306 0.092306 0.092306
0.092306 0.092306 0.092306
0.092306 0.092306 0.092306
0.092306 0.092306 0.092306
0.092306 0.092306 0.092306
0.092306 0.092306 0.092306
0.092306 0.092306 0.092306
0.092306 0.092306 0.092306
0.197312 0.197312 0.197312
0.388511 0.388511 0.388511
0.481914 0.481914 0.481914
0.549750 0.549750 0.549750
0.605887 0.605887 0.605887
0.660494 0.660494 0.660494
0.711315 0.711315 0.711315
0.752160 0.752160 0.752160
0.092306 0.092306 0.092306
0.147502 0.147502 0.147502
0.336899 0.336899 0.336899
0.476121 0.476121 0.476121
0.586557 0.586557 0.586557
0.681490 0.681490 0.681490
0.759386 0.759386 0.759386
0.823466 0.823466 0.823466
0.870751 0.870751 0.870751
0.092306 0.092306 0.092306
0.126712 0.126712 0.126712
0.280237 0.280237 0.280237
0.420902 0.420902 0.420902
0.552255 0.552255 0.552255
0.677406 0.677406 0.677406
0.781696 0.781696 0.781696
0.859668 0.859668 0.859668
0.909402 0.909402 0.909402
0.092306 0.092306 0.092306
0.136629 0.136629 0.136629
0.310900 0.310900 0.310900
0.433822 0.433822 0.433822
0.513339 0.513339 0.513339
0.660712 0.660712 0.660712
0.783064 0.783064 0.783064
0.873252 0.873252 0.873252
0.927515 0.927515 0.927515
0.092306 0.092306 0.092306
0.149837 0.149837 0.149837
0.351315 0.351315 0.351315
0.493739 0.493739 0.493739
0.596798 0.596798 0.596798
0.690362 0.690362 0.690362
0.794588 0.794588 0.794588
0.882587 0.882587 0.882587
0.935703 0.935703 0.935703
0.092306 0.092306 0.092306
0.156767 0.156767 0.156767
0.374246 0.374246 0.374246
0.532355 0.532355 0.532355
0.649104 0.649104 0.649104
0.745584 0.745584 0.745584
0.828734 0.828734 0.828734
0.896937 0.896937 0.896937
0.944571 0.944571 0.944571
0.092306 0.092306 0.092306
0.158141 0.158141 0.158141
0.382546 0.382546 0.382546
0.550422 0.550422 0.550422
0.678206 0.678206 0.678206
0.780124 0.780124 0.780124
0.860910 0.860910 0.860910
0.918020 0.918020 0.918020
0.954771 0.954771 0.954771
0.092306 0.092306 0.092306
0.155495 0.155495 0.155495
0.380117 0.380117 0.380117
0.553378 0.553378 0.553378
0.689210 0.689210 0.689210
0.797080 0.797080 0.797080
0.878709 0.878709 0.878709
0.931752 0.931752 0.931752
0.962787 0.962787 0.962787
0.092306 0.092306 0.092306
0.092306 0.092306 0.092306
0.092306 0.092306 0.092306
0.092306 0.092306 0.092306
0.092306 0.092306 0.092306
0.092306 0.092306 0.092306
0.092306 0.092306 0.092306
0.092306 0.092306 0.092306
0.092306 0.092306 0.092306
0.092306 0.092306 0.092306
0.211812 0.211812 0.211812
0.423640 0.423640 0.423640
0.525013 0.525013 0.525013
0.586277 0.586277 0.586277
0.634129 0.634129 0.634129
0.679269 0.679269 0.679269
0.720536 0.720536 0.720536
0.756305 0.756305 0.756305
0.092306 0.092306 0.092306
0.176474 0.176474 0.176474
0.398734 0.398734 0.398734
0.537024 0.537024 0.537024
0.633989 0.633989 0.633989
0.714481 0.714481 0.714481
0.778018 0.778018 0.778018
0.831777 0.831777 0.831777
0.874213 0.874213 0.874213
0.092306 0.092306 0.092306
0.140627 0.140627 0.140627
0.332738 0.332738 0.332738
0.481933 0.481933 0.481933
0.602793 0.602793 0.602793
0.710961 0.710961 0.710961
0.798891 0.798891 0.798891
0.866674 0.866674 0.866674
0.911222 0.911222 0.911222
0.092306 0.092306 0.092306
0.134149 0.134149 0.134149
0.314888 0.314888 0.314888
0.453822 0.453822 0.453822
0.567715 0.567715 0.567715
0.685743 0.685743 0.685743
0.793503 0.793503 0.793503
0.876312 0.876312 0.876312
0.927692 0.927692 0.927692
0.092306 0.092306 0.092306
0.142784 0.142784 0.142784
0.338946 0.338946 0.338946
0.483239 0.483239 0.483239
0.586628 0.586628 0.586628
0.668691 0.668691 0.668691
0.790571 0.790571 0.790571
0.880900 0.880900 0.880900
0.934565 0.934565 0.934565
0.092306 0.092306 0.092306
0.150492 0.150492 0.150492
0.361820 0.361820 0.361820
0.519838 0.519838 0.519838
0.636964 0.636964 0.636964
0.733437 0.733437 0.733437
0.818078 0.818078 0.818078
0.892478 0.892478 0.892478
0.942579 0.942579 0.942579
0.092306 0.092306 0.092306
0.153626 0.153626 0.153626
0.373234 0.373234 0.373234
0.541065 0.541065 0.541065
0.668919 0.668919 0.668919
0.771926 0.771926 0.771926
0.854211 0.854211 0.854211
0.913710 0.913710 0.913710
0.953213 0.953213 0.953213
0.092306 0.092306 0.092306
0.152647 0.152647 0.152647
0.374125 0.374125 0.374125
0.547767 0.547767 0.547767
0.683223 0.683223 0.683223
0.792144 0.792144 0.792144
0.876017 0.876017 0.876017
0.930441 0.930441 0.930441
0.962317 0.962317 0.962317
0.092306 0.092306 0.092306
0.092306 0.092306 0.092306
0.092306 0.092306 0.092306
0.092306 0.092306 0.092306
0.092306 0.092306 0.092306
0.092306 0.092306 0.092306
0.092306 0.092306 0.092306
0.092306 0.092306 0.092306
0.092306 0.092306 0.092306
0.092306 0.092306 0.092306
0.213817 0.213817 0.213817
0.437579 0.437579 0.437579
0.552483 0.552483 0.552483
0.615681 0.615681 0.615681
0.661143 0.661143 0.661143
0.700332 0.700332 0.700332
0.732800 0.732800 0.732800
0.763406 0.763406 0.763406
0.092306 0.092306 0.092306
0.199205 0.199205 0.199205
0.436657 0.436657 0.436657
0.579624 0.579624 0.579624
0.675635 0.675635 0.675635
0.744833 0.744833 0.744833
0.800270 0.800270 0.800270
0.843712 0.843712 0.843712
0.879455 0.879455 0.879455
0.092306 0.092306 0.092306
0.159260 0.159260 0.159260
0.377357 0.377357 0.377357
0.533967 0.533967 0.533967
0.650302 0.650302 0.650302
0.744913 0.744913 0.744913
0.821251 0.821251 0.821251
0.877902 0.877902 0.877902
0.915955 0.915955 0.915955
0.092306 0.092306 0.092306
0.140262 0.140262 0.140262
0.337167 0.337167 0.337167
0.490962 0.490962 0.490962
0.612879 0.612879 0.612879
0.722084 0.722084 0.722084
0.815327 0.815327 0.815327
0.884070 0.884070 0.884070
0.930071 0.930071 0.930071
0.092306 0.092306 0.092306
0.139746 0.139746 0.139746
0.336209 0.336209 0.336209
0.487262 0.487262 0.487262
0.601629 0.601629 0.601629
0.706349 0.706349 0.706349
0.805750 0.805750 0.805750
0.885294 0.885294 0.885294
0.935599 0.935599 0.935599
0.092306 0.092306 0.092306
0.145495 0.145495 0.145495
0.352381 0.352381 0.352381
0.511395 0.511395 0.511395
0.630335 0.630335 0.630335
0.727317 0.727317 0.727317
0.806640 0.806640 0.806640
0.890999 0.890999 0.890999
0.941939 0.941939 0.941939
0.092306 0.092306 0.092306
0.149408 0.149408 0.149408
0.364635 0.364635 0.364635
0.532310 0.532310 0.532310
0.660926 0.660926 0.660926
0.765017 0.765017 0.765017
0.848252 0.848252 0.848252
0.909597 0.909597 0.909597
0.951940 0.951940 0.951940
0.092306 0.092306 0.092306
0.149778 0.149778 0.149778
0.368120 0.368120 0.368120
0.541484 0.541484 0.541484
0.677411 0.677411 0.677411
0.787461 0.787461 0.787461
0.872929 0.872929 0.872929
0.929222 0.929222 0.929222
0.961919 0.961919 0.961919
0.092306 0.092306 0.092306
0.092306 0.092306 0.092306
0.092306 0.092306 0.092306
0.092306 0.092306 0.092306
0.092306 0.092306 0.092306
0.092306 0.092306 0.092306
0.092306 0.092306 0.092306
0.092306 0.092306 0.092306
0.092306 0.092306 0.092306
0.092306 0.092306 0.092306
0.208711 0.208711 0.208711
0.439767 0.439767 0.439767
0.565024 0.565024 0.565024
0.635503 0.635503 0.635503
0.682693 0.682693 0.682693
0.717342 0.717342 0.717342
0.745266 0.745266 0.745266
0.771571 0.771571 0.771571
0.092306 0.092306 0.092306
0.212316 0.212316 0.212316
0.458645 0.458645 0.458645
0.607608 0.607608 0.607608
0.706924 0.706924 0.706924
0.770571 0.770571 0.770571
0.820145 0.820145 0.820145
0.856367 0.856367 0.856367
0.885460 0.885460 0.885460
0.092306 0.092306 0.092306
0.175341 0.175341 0.175341
0.413427 0.413427 0.413427
0.571791 0.571791 0.571791
0.689519 0.689519 0.689519
0.775609 0.775609 0.775609
0.841256 0.841256 0.841256
0.888336 0.888336 0.888336
0.922212 0.922212 0.922212
0.092306 0.092306 0.092306
0.150639 0.150639 0.150639
0.364028 0.364028 0.364028
0.526913 0.526913 0.526913
0.651522 0.651522 0.651522
0.753911 0.753911 0.753911
0.835851 0.835851 0.835851
0.894315 0.894315 0.894315
0.933864 0.933864 0.933864
0.092306 0.092306 0.092306
0.141544 0.141544 0.141544
0.344186 0.344186 0.344186
0.504000 0.504000 0.504000
0.628150 0.628150 0.628150
0.735189 0.735189 0.735189
0.826318 0.826318 0.826318
0.894047 0.894047 0.894047
0.938490 0.938490 0.938490
0.092306 0.092306 0.092306
0.142703 0.142703 0.142703
0.348065 0.348065 0.348065
0.509866 0.509866 0.509866
0.633515 0.633515 0.633515
0.736471 0.736471 0.736471
0.825285 0.825285 0.825285
0.896436 0.896436 0.896436
0.943301 0.943301 0.943301
0.092306 0.092306 0.092306
0.145942 0.145942 0.145942
0.357752 0.357752 0.357752
0.525744 0.525744 0.525744
0.655690 0.655690 0.655690
0.761333 0.761333 0.761333
0.845290 0.845290 0.845290
0.905876 0.905876 0.905876
0.951471 0.951471 0.951471
0.092306 0.092306 0.092306
0.147097 0.147097 0.147097
0.362545 0.362545 0.362545
0.535718 0.535718 0.535718
0.672262 0.672262 0.672262
0.783484 0.783484 0.783484
0.870179 0.870179 0.870179
0.928223 0.928223 0.928223
0.961646 0.961646 0.961646
0.092306 0.092306 0.092306
0.092306 0.092306 0.092306
0.092306 0.092306 0.092306
0.092306 0.092306 0.092306
0.092306 0.092306 0.092306
0.092306 0.092306 0.092306
0.092306 0.092306 0.092306
0.092306 0.092306 0.092306
0.092306 0.092306 0.092306
0.092306 0.092306 0.092306
0.199779 0.199779 0.199779
0.434045 0.434045 0.434045
0.567723 0.567723 0.567723
0.645873 0.645873 0.645873
0.697094 0.697094 0.697094
0.729898 0.729898 0.729898
0.755794 0.755794 0.755794
0.779015 0.779015 0.779015
0.092306 0.092306 0.092306
0.217390 0.217390 0.217390
0.469074 0.469074 0.469074
0.623619 0.623619 0.623619
0.724904 0.724904 0.724904
0.789484 0.789484 0.789484
0.834297 0.834297 0.834297
0.867507 0.867507 0.867507
0.891157 0.891157 0.891157
0.092306 0.092306 0.092306
0.188255 0.188255 0.188255
0.434141 0.434141 0.434141
0.597927 0.597927 0.597927
0.717078 0.717078 0.717078
0.800113 0.800113 0.800113
0.858471 0.858471 0.858471
0.898026 0.898026 0.898026
0.928024 0.928024 0.928024
0.092306 0.092306 0.092306
0.161097 0.161097 0.161097
0.388741 0.388741 0.388741
0.555978 0.555978 0.555978
0.682891 0.682891 0.682891
0.780523 0.780523 0.780523
0.854400 0.854400 0.854400
0.904467 0.904467 0.904467
0.937999 0.937999 0.937999
0.092306 0.092306 0.092306
0.146579 0.146579 0.146579
0.358030 0.358030 0.358030
0.524517 0.524517 0.524517
0.653532 0.653532 0.653532
0.759571 0.759571 0.759571
0.844078 0.844078 0.844078
0.903570 0.903570 0.903570
0.942122 0.942122 0.942122
0.092306 0.092306 0.092306
0.142539 0.142539 0.142539
0.349628 0.349628 0.349628
0.515461 0.515461 0.515461
0.644572 0.644572 0.644572
0.752017 0.752017 0.752017
0.840080 0.840080 0.840080
0.904370 0.904370 0.904370
0.945914 0.945914 0.945914
0.092306 0.092306 0.092306
0.143631 0.143631 0.143631
0.353496 0.353496 0.353496
0.522483 0.522483 0.522483
0.654569 0.654569 0.654569
0.762799 0.762799 0.762799
0.849177 0.849177 0.849177
0.911790 0.911790 0.911790
0.952580 0.952580 0.952580
0.092306 0.092306 0.092306
0.144794 0.144794 0.144794
0.357814 0.357814 0.357814
0.530963 0.530963 0.530963
0.668264 0.668264 0.668264
0.780712 0.780712 0.780712
0.868539 0.868539 0.868539
0.927694 0.927694 0.927694
0.961544 0.961544 0.961544
