trix_modern/TriX_NoFilter_Hard.cube
TITLE "Tri-X NoFilter Hard"
# Adobe RGB in/out. REPLACES AgX. Tri-X NoFilter Hard.
LUT_3D_SIZE 33
DOMAIN_MIN 0.0 0.0 0.0
DOMAIN_MAX 1.0 1.0 1.0
0.093024 0.093024 0.093024
0.093024 0.093024 0.093024
0.093024 0.093024 0.093024
0.093024 0.093024 0.093024
0.093079 0.093079 0.093079
0.093125 0.093125 0.093125
0.093253 0.093253 0.093253
0.093403 0.093403 0.093403
0.093537 0.093537 0.093537
0.093890 0.093890 0.093890
0.095182 0.095182 0.095182
0.096605 0.096605 0.096605
0.098565 0.098565 0.098565
0.103134 0.103134 0.103134
0.122227 0.122227 0.122227
0.145654 0.145654 0.145654
0.176426 0.176426 0.176426
0.221449 0.221449 0.221449
0.281375 0.281375 0.281375
0.342246 0.342246 0.342246
0.409882 0.409882 0.409882
0.474426 0.474426 0.474426
0.542694 0.542694 0.542694
0.615865 0.615865 0.615865
0.671723 0.671723 0.671723
0.728682 0.728682 0.728682
0.793001 0.793001 0.793001
0.855089 0.855089 0.855089
0.978264 0.978264 0.978264
0.976263 0.976263 0.976263
0.974276 0.974276 0.974276
0.972296 0.972296 0.972296
0.989432 0.989432 0.989432
0.093024 0.093024 0.093024
0.093024 0.093024 0.093024
0.093024 0.093024 0.093024
0.093028 0.093028 0.093028
0.093093 0.093093 0.093093
0.093139 0.093139 0.093139
0.093263 0.093263 0.093263
0.093411 0.093411 0.093411
0.093562 0.093562 0.093562
0.093906 0.093906 0.093906
0.095236 0.095236 0.095236
0.096642 0.096642 0.096642
0.098614 0.098614 0.098614
0.103187 0.103187 0.103187
0.122224 0.122224 0.122224
0.145491 0.145491 0.145491
0.176052 0.176052 0.176052
0.220847 0.220847 0.220847
0.280544 0.280544 0.280544
0.341151 0.341151 0.341151
0.408591 0.408591 0.408591
0.473280 0.473280 0.473280
0.541478 0.541478 0.541478
0.614544 0.614544 0.614544
0.670592 0.670592 0.670592
0.727450 0.727450 0.727450
0.791756 0.791756 0.791756
0.852901 0.852901 0.852901
0.978157 0.978157 0.978157
0.976165 0.976165 0.976165
0.974186 0.974186 0.974186
0.972213 0.972213 0.972213
0.989397 0.989397 0.989397
0.093024 0.093024 0.093024
0.093024 0.093024 0.093024
0.093024 0.093024 0.093024
0.093034 0.093034 0.093034
0.093112 0.093112 0.093112
0.093176 0.093176 0.093176
0.093308 0.093308 0.093308
0.093473 0.093473 0.093473
0.093673 0.093673 0.093673
0.093999 0.093999 0.093999
0.095473 0.095473 0.095473
0.096807 0.096807 0.096807
0.098836 0.098836 0.098836
0.103464 0.103464 0.103464
0.122405 0.122405 0.122405
0.145106 0.145106 0.145106
0.174916 0.174916 0.174916
0.218894 0.218894 0.218894
0.277764 0.277764 0.277764
0.337410 0.337410 0.337410
0.404132 0.404132 0.404132
0.469296 0.469296 0.469296
0.537230 0.537230 0.537230
0.609911 0.609911 0.609911
0.666623 0.666623 0.666623
0.723142 0.723142 0.723142
0.787461 0.787461 0.787461
0.845442 0.845442 0.845442
0.977772 0.977772 0.977772
0.975813 0.975813 0.975813
0.973863 0.973863 0.973863
0.971917 0.971917 0.971917
0.989272 0.989272 0.989272
0.093040 0.093040 0.093040
0.093041 0.093041 0.093041
0.093043 0.093043 0.093043
0.093047 0.093047 0.093047
0.093110 0.093110 0.093110
0.093174 0.093174 0.093174
0.093325 0.093325 0.093325
0.093576 0.093576 0.093576
0.093807 0.093807 0.093807
0.094368 0.094368 0.094368
0.096045 0.096045 0.096045
0.097300 0.097300 0.097300
0.099454 0.099454 0.099454
0.104345 0.104345 0.104345
0.123557 0.123557 0.123557
0.145243 0.145243 0.145243
0.173693 0.173693 0.173693
0.216152 0.216152 0.216152
0.273495 0.273495 0.273495
0.331302 0.331302 0.331302
0.396644 0.396644 0.396644
0.462494 0.462494 0.462494
0.529901 0.529901 0.529901
0.601851 0.601851 0.601851
0.659712 0.659712 0.659712
0.715688 0.715688 0.715688
0.780227 0.780227 0.780227
0.833350 0.833350 0.833350
0.977073 0.977073 0.977073
0.975173 0.975173 0.975173
0.973276 0.973276 0.973276
0.971378 0.971378 0.971378
0.989045 0.989045 0.989045
0.093137 0.093137 0.093137
0.093137 0.093137 0.093137
0.093139 0.093139 0.093139
0.093147 0.093147 0.093147
0.093163 0.093163 0.093163
0.093181 0.093181 0.093181
0.093325 0.093325 0.093325
0.093592 0.093592 0.093592
0.093861 0.093861 0.093861
0.094594 0.094594 0.094594
0.096467 0.096467 0.096467
0.098093 0.098093 0.098093
0.100223 0.100223 0.100223
0.106442 0.106442 0.106442
0.127467 0.127467 0.127467
0.147653 0.147653 0.147653
0.174069 0.174069 0.174069
0.214179 0.214179 0.214179
0.269290 0.269290 0.269290
0.324045 0.324045 0.324045
0.387162 0.387162 0.387162
0.453589 0.453589 0.453589
0.520104 0.520104 0.520104
0.590893 0.590893 0.590893
0.650295 0.650295 0.650295
0.705624 0.705624 0.705624
0.770792 0.770792 0.770792
0.818859 0.818859 0.818859
0.976052 0.976052 0.976052
0.974235 0.974235 0.974235
0.972415 0.972415 0.972415
0.970575 0.970575 0.970575
0.988710 0.988710 0.988710
0.093256 0.093256 0.093256
0.093254 0.093254 0.093254
0.093252 0.093252 0.093252
0.093249 0.093249 0.093249
0.093242 0.093242 0.093242
0.093256 0.093256 0.093256
0.093344 0.093344 0.093344
0.093621 0.093621 0.093621
0.093873 0.093873 0.093873
0.094678 0.094678 0.094678
0.096625 0.096625 0.096625
0.098711 0.098711 0.098711
0.100915 0.100915 0.100915
0.108854 0.108854 0.108854
0.129645 0.129645 0.129645
0.150106 0.150106 0.150106
0.176308 0.176308 0.176308
0.215625 0.215625 0.215625
0.267749 0.267749 0.267749
0.317963 0.317963 0.317963
0.377685 0.377685 0.377685
0.444011 0.444011 0.444011
0.509107 0.509107 0.509107
0.578143 0.578143 0.578143
0.639278 0.639278 0.639278
0.693969 0.693969 0.693969
0.760230 0.760230 0.760230
0.803452 0.803452 0.803452
0.974713 0.974713 0.974713
0.973002 0.973002 0.973002
0.971281 0.971281 0.971281
0.980418 0.980418 0.980418
0.988268 0.988268 0.988268
0.093441 0.093441 0.093441
0.093447 0.093447 0.093447
0.093440 0.093440 0.093440
0.093425 0.093425 0.093425
0.093410 0.093410 0.093410
0.093408 0.093408 0.093408
0.093425 0.093425 0.093425
0.093716 0.093716 0.093716
0.093917 0.093917 0.093917
0.094732 0.094732 0.094732
0.096723 0.096723 0.096723
0.099069 0.099069 0.099069
0.101739 0.101739 0.101739
0.110700 0.110700 0.110700
0.133174 0.133174 0.133174
0.154488 0.154488 0.154488
0.177897 0.177897 0.177897
0.214015 0.214015 0.214015
0.265074 0.265074 0.265074
0.312954 0.312954 0.312954
0.370409 0.370409 0.370409
0.436155 0.436155 0.436155
0.498945 0.498945 0.498945
0.565352 0.565352 0.565352
0.628083 0.628083 0.628083
0.682226 0.682226 0.682226
0.749807 0.749807 0.749807
0.786902 0.786902 0.786902
0.973082 0.973082 0.973082
0.971492 0.971492 0.971492
0.969670 0.969670 0.969670
0.979122 0.979122 0.979122
0.987722 0.987722 0.987722
0.094322 0.094322 0.094322
0.094337 0.094337 0.094337
0.094382 0.094382 0.094382
0.094157 0.094157 0.094157
0.093966 0.093966 0.093966
0.093938 0.093938 0.093938
0.093954 0.093954 0.093954
0.094131 0.094131 0.094131
0.094135 0.094135 0.094135
0.094875 0.094875 0.094875
0.096861 0.096861 0.096861
0.099225 0.099225 0.099225
0.102213 0.102213 0.102213
0.112073 0.112073 0.112073
0.136141 0.136141 0.136141
0.156440 0.156440 0.156440
0.180537 0.180537 0.180537
0.216785 0.216785 0.216785
0.265545 0.265545 0.265545
0.308424 0.308424 0.308424
0.361689 0.361689 0.361689
0.426445 0.426445 0.426445
0.488873 0.488873 0.488873
0.553632 0.553632 0.553632
0.618110 0.618110 0.618110
0.672543 0.672543 0.672543
0.737572 0.737572 0.737572
0.775229 0.775229 0.775229
0.971211 0.971211 0.971211
0.969330 0.969330 0.969330
0.966163 0.966163 0.966163
0.977595 0.977595 0.977595
0.987079 0.987079 0.987079
0.095199 0.095199 0.095199
0.095215 0.095215 0.095215
0.095137 0.095137 0.095137
0.094934 0.094934 0.094934
0.094765 0.094765 0.094765
0.094640 0.094640 0.094640
0.094626 0.094626 0.094626
0.094708 0.094708 0.094708
0.094913 0.094913 0.094913
0.095368 0.095368 0.095368
0.097148 0.097148 0.097148
0.099593 0.099593 0.099593
0.102874 0.102874 0.102874
0.113051 0.113051 0.113051
0.138172 0.138172 0.138172
0.158797 0.158797 0.158797
0.183726 0.183726 0.183726
0.219129 0.219129 0.219129
0.266288 0.266288 0.266288
0.307682 0.307682 0.307682
0.359025 0.359025 0.359025
0.419216 0.419216 0.419216
0.479629 0.479629 0.479629
0.541087 0.541087 0.541087
0.604034 0.604034 0.604034
0.661789 0.661789 0.661789
0.726589 0.726589 0.726589
0.769644 0.769644 0.769644
0.969750 0.969750 0.969750
0.965157 0.965157 0.965157
0.962232 0.962232 0.962232
0.975866 0.975866 0.975866
0.986348 0.986348 0.986348
0.097023 0.097023 0.097023
0.096972 0.096972 0.096972
0.096768 0.096768 0.096768
0.096547 0.096547 0.096547
0.096276 0.096276 0.096276
0.096077 0.096077 0.096077
0.095967 0.095967 0.095967
0.095994 0.095994 0.095994
0.096177 0.096177 0.096177
0.096532 0.096532 0.096532
0.098535 0.098535 0.098535
0.100247 0.100247 0.100247
0.103876 0.103876 0.103876
0.114361 0.114361 0.114361
0.140453 0.140453 0.140453
0.161398 0.161398 0.161398
0.186579 0.186579 0.186579
0.221858 0.221858 0.221858
0.269970 0.269970 0.269970
0.309360 0.309360 0.309360
0.355590 0.355590 0.355590
0.414651 0.414651 0.414651
0.474572 0.474572 0.474572
0.532645 0.532645 0.532645
0.593144 0.593144 0.593144
0.651448 0.651448 0.651448
0.713977 0.713977 0.713977
0.760461 0.760461 0.760461
0.804514 0.804514 0.804514
0.846960 0.846960 0.846960
0.963034 0.963034 0.963034
0.974275 0.974275 0.974275
0.985541 0.985541 0.985541
0.103102 0.103102 0.103102
0.102771 0.102771 0.102771
0.101829 0.101829 0.101829
0.101034 0.101034 0.101034
0.100436 0.100436 0.100436
0.099919 0.099919 0.099919
0.099611 0.099611 0.099611
0.099508 0.099508 0.099508
0.099684 0.099684 0.099684
0.100161 0.100161 0.100161
0.100992 0.100992 0.100992
0.103004 0.103004 0.103004
0.105498 0.105498 0.105498
0.117502 0.117502 0.117502
0.143812 0.143812 0.143812
0.164738 0.164738 0.164738
0.189703 0.189703 0.189703
0.225480 0.225480 0.225480
0.274836 0.274836 0.274836
0.311807 0.311807 0.311807
0.357379 0.357379 0.357379
0.414571 0.414571 0.414571
0.470312 0.470312 0.470312
0.525405 0.525405 0.525405
0.585351 0.585351 0.585351
0.645272 0.645272 0.645272
0.704999 0.704999 0.704999
0.753751 0.753751 0.753751
0.794501 0.794501 0.794501
0.829986 0.829986 0.829986
0.943644 0.943644 0.943644
0.973204 0.973204 0.973204
0.972367 0.972367 0.972367
0.113977 0.113977 0.113977
0.113431 0.113431 0.113431
0.111801 0.111801 0.111801
0.110233 0.110233 0.110233
0.107914 0.107914 0.107914
0.105925 0.105925 0.105925
0.105102 0.105102 0.105102
0.104561 0.104561 0.104561
0.104605 0.104605 0.104605
0.105252 0.105252 0.105252
0.107237 0.107237 0.107237
0.110878 0.110878 0.110878
0.112700 0.112700 0.112700
0.122327 0.122327 0.122327
0.148819 0.148819 0.148819
0.169341 0.169341 0.169341
0.194525 0.194525 0.194525
0.230620 0.230620 0.230620
0.280122 0.280122 0.280122
0.316691 0.316691 0.316691
0.362440 0.362440 0.362440
0.416059 0.416059 0.416059
0.470616 0.470616 0.470616
0.523138 0.523138 0.523138
0.579490 0.579490 0.579490
0.638294 0.638294 0.638294
0.697466 0.697466 0.697466
0.749865 0.749865 0.749865
0.789300 0.789300 0.789300
0.821212 0.821212 0.821212
0.902488 0.902488 0.902488
0.971057 0.971057 0.971057
0.970669 0.970669 0.970669
0.129454 0.129454 0.129454
0.128753 0.128753 0.128753
0.126595 0.126595 0.126595
0.124125 0.124125 0.124125
0.121474 0.121474 0.121474
0.118815 0.118815 0.118815
0.116288 0.116288 0.116288
0.114660 0.114660 0.114660
0.114283 0.114283 0.114283
0.114998 0.114998 0.114998
0.117241 0.117241 0.117241
0.120860 0.120860 0.120860
0.126431 0.126431 0.126431
0.135058 0.135058 0.135058
0.156092 0.156092 0.156092
0.176918 0.176918 0.176918
0.201528 0.201528 0.201528
0.237598 0.237598 0.237598
0.287487 0.287487 0.287487
0.323735 0.323735 0.323735
0.368045 0.368045 0.368045
0.421904 0.421904 0.421904
0.474689 0.474689 0.474689
0.522526 0.522526 0.522526
0.577837 0.577837 0.577837
0.636455 0.636455 0.636455
0.691972 0.691972 0.691972
0.743506 0.743506 0.743506
0.784029 0.784029 0.784029
0.817545 0.817545 0.817545
0.854069 0.854069 0.854069
0.967426 0.967426 0.967426
0.967893 0.967893 0.967893
0.155394 0.155394 0.155394
0.154570 0.154570 0.154570
0.151969 0.151969 0.151969
0.148669 0.148669 0.148669
0.146210 0.146210 0.146210
0.142297 0.142297 0.142297
0.138834 0.138834 0.138834
0.136586 0.136586 0.136586
0.135432 0.135432 0.135432
0.135390 0.135390 0.135390
0.137121 0.137121 0.137121
0.140848 0.140848 0.140848
0.146278 0.146278 0.146278
0.154107 0.154107 0.154107
0.177252 0.177252 0.177252
0.188393 0.188393 0.188393
0.211022 0.211022 0.211022
0.245956 0.245956 0.245956
0.296299 0.296299 0.296299
0.333138 0.333138 0.333138
0.377073 0.377073 0.377073
0.430700 0.430700 0.430700
0.480182 0.480182 0.480182
0.526781 0.526781 0.526781
0.579979 0.579979 0.579979
0.635424 0.635424 0.635424
0.689716 0.689716 0.689716
0.741467 0.741467 0.741467
0.780899 0.780899 0.780899
0.813656 0.813656 0.813656
0.844051 0.844051 0.844051
0.907183 0.907183 0.907183
0.973799 0.973799 0.973799
0.200467 0.200467 0.200467
0.199428 0.199428 0.199428
0.196090 0.196090 0.196090
0.191574 0.191574 0.191574
0.188968 0.188968 0.188968
0.183271 0.183271 0.183271
0.179390 0.179390 0.179390
0.175874 0.175874 0.175874
0.173734 0.173734 0.173734
0.173182 0.173182 0.173182
0.174717 0.174717 0.174717
0.178013 0.178013 0.178013
0.183817 0.183817 0.183817
0.192295 0.192295 0.192295
0.204172 0.204172 0.204172
0.214273 0.214273 0.214273
0.227078 0.227078 0.227078
0.258076 0.258076 0.258076
0.308464 0.308464 0.308464
0.344599 0.344599 0.344599
0.388795 0.388795 0.388795
0.440817 0.440817 0.440817
0.489345 0.489345 0.489345
0.534850 0.534850 0.534850
0.585023 0.585023 0.585023
0.639028 0.639028 0.639028
0.690530 0.690530 0.690530
0.739912 0.739912 0.739912
0.779780 0.779780 0.779780
0.813151 0.813151 0.813151
0.839999 0.839999 0.839999
0.880025 0.880025 0.880025
0.970991 0.970991 0.970991
0.234874 0.234874 0.234874
0.233853 0.233853 0.233853
0.230516 0.230516 0.230516
0.225739 0.225739 0.225739
0.222033 0.222033 0.222033
0.217056 0.217056 0.217056
0.213778 0.213778 0.213778
0.208360 0.208360 0.208360
0.205321 0.205321 0.205321
0.204490 0.204490 0.204490
0.204795 0.204795 0.204795
0.207262 0.207262 0.207262
0.212610 0.212610 0.212610
0.220393 0.220393 0.220393
0.230963 0.230963 0.230963
0.244760 0.244760 0.244760
0.256083 0.256083 0.256083
0.278947 0.278947 0.278947
0.324148 0.324148 0.324148
0.360051 0.360051 0.360051
0.403144 0.403144 0.403144
0.452942 0.452942 0.452942
0.501497 0.501497 0.501497
0.545430 0.545430 0.545430
0.594646 0.594646 0.594646
0.645639 0.645639 0.645639
0.694070 0.694070 0.694070
0.743153 0.743153 0.743153
0.780413 0.780413 0.780413
0.812195 0.812195 0.812195
0.838751 0.838751 0.838751
0.870347 0.870347 0.870347
0.956633 0.956633 0.956633
0.271546 0.271546 0.271546
0.270547 0.270547 0.270547
0.267235 0.267235 0.267235
0.262288 0.262288 0.262288
0.257764 0.257764 0.257764
0.254041 0.254041 0.254041
0.248238 0.248238 0.248238
0.243708 0.243708 0.243708
0.240520 0.240520 0.240520
0.238595 0.238595 0.238595
0.238413 0.238413 0.238413
0.240160 0.240160 0.240160
0.244584 0.244584 0.244584
0.251225 0.251225 0.251225
0.260845 0.260845 0.260845
0.273622 0.273622 0.273622
0.290236 0.290236 0.290236
0.313266 0.313266 0.313266
0.351595 0.351595 0.351595
0.377734 0.377734 0.377734
0.420940 0.420940 0.420940
0.467240 0.467240 0.467240
0.516109 0.516109 0.516109
0.559357 0.559357 0.559357
0.608211 0.608211 0.608211
0.655258 0.655258 0.655258
0.701689 0.701689 0.701689
0.748183 0.748183 0.748183
0.782875 0.782875 0.782875
0.813906 0.813906 0.813906
0.838733 0.838733 0.838733
0.864854 0.864854 0.864854
0.922851 0.922851 0.922851
0.320926 0.320926 0.320926
0.319900 0.319900 0.319900
0.316463 0.316463 0.316463
0.311173 0.311173 0.311173
0.305840 0.305840 0.305840
0.303574 0.303574 0.303574
0.295544 0.295544 0.295544
0.292006 0.292006 0.292006
0.287669 0.287669 0.287669
0.284426 0.284426 0.284426
0.283737 0.283737 0.283737
0.285081 0.285081 0.285081
0.289240 0.289240 0.289240
0.294896 0.294896 0.294896
0.304416 0.304416 0.304416
0.316654 0.316654 0.316654
0.332468 0.332468 0.332468
0.352242 0.352242 0.352242
0.391051 0.391051 0.391051
0.411338 0.411338 0.411338
0.439779 0.439779 0.439779
0.484520 0.484520 0.484520
0.533267 0.533267 0.533267
0.576043 0.576043 0.576043
0.624738 0.624738 0.624738
0.668416 0.668416 0.668416
0.712716 0.712716 0.712716
0.754169 0.754169 0.754169
0.787817 0.787817 0.787817
0.816182 0.816182 0.816182
0.840654 0.840654 0.840654
0.865371 0.865371 0.865371
0.901530 0.901530 0.901530
0.384501 0.384501 0.384501
0.383499 0.383499 0.383499
0.380115 0.380115 0.380115
0.374796 0.374796 0.374796
0.369100 0.369100 0.369100
0.366069 0.366069 0.366069
0.359458 0.359458 0.359458
0.355215 0.355215 0.355215
0.350159 0.350159 0.350159
0.347946 0.347946 0.347946
0.346762 0.346762 0.346762
0.347845 0.347845 0.347845
0.350594 0.350594 0.350594
0.356173 0.356173 0.356173
0.364600 0.364600 0.364600
0.377340 0.377340 0.377340
0.392529 0.392529 0.392529
0.411317 0.411317 0.411317
0.434070 0.434070 0.434070
0.450169 0.450169 0.450169
0.472889 0.472889 0.472889
0.504676 0.504676 0.504676
0.553258 0.553258 0.553258
0.595932 0.595932 0.595932
0.640710 0.640710 0.640710
0.684350 0.684350 0.684350
0.726761 0.726761 0.726761
0.762692 0.762692 0.762692
0.794239 0.794239 0.794239
0.820347 0.820347 0.820347
0.844152 0.844152 0.844152
0.866434 0.866434 0.866434
0.893725 0.893725 0.893725
0.433877 0.433877 0.433877
0.433055 0.433055 0.433055
0.430256 0.430256 0.430256
0.424999 0.424999 0.424999
0.418842 0.418842 0.418842
0.414478 0.414478 0.414478
0.409780 0.409780 0.409780
0.402939 0.402939 0.402939
0.399250 0.399250 0.399250
0.396482 0.396482 0.396482
0.393475 0.393475 0.393475
0.393574 0.393574 0.393574
0.396094 0.396094 0.396094
0.401108 0.401108 0.401108
0.409238 0.409238 0.409238
0.420370 0.420370 0.420370
0.434097 0.434097 0.434097
0.449486 0.449486 0.449486
0.467382 0.467382 0.467382
0.489497 0.489497 0.489497
0.510942 0.510942 0.510942
0.542475 0.542475 0.542475
0.577812 0.577812 0.577812
0.618767 0.618767 0.618767
0.659820 0.659820 0.659820
0.702582 0.702582 0.702582
0.743975 0.743975 0.743975
0.773149 0.773149 0.773149
0.803134 0.803134 0.803134
0.825799 0.825799 0.825799
0.848552 0.848552 0.848552
0.870565 0.870565 0.870565
0.891780 0.891780 0.891780
0.479986 0.479986 0.479986
0.479209 0.479209 0.479209
0.476545 0.476545 0.476545
0.472177 0.472177 0.472177
0.466986 0.466986 0.466986
0.462728 0.462728 0.462728
0.460677 0.460677 0.460677
0.453573 0.453573 0.453573
0.451998 0.451998 0.451998
0.446664 0.446664 0.446664
0.445392 0.445392 0.445392
0.445827 0.445827 0.445827
0.446832 0.446832 0.446832
0.450001 0.450001 0.450001
0.456203 0.456203 0.456203
0.465039 0.465039 0.465039
0.475920 0.475920 0.475920
0.490040 0.490040 0.490040
0.508034 0.508034 0.508034
0.528197 0.528197 0.528197
0.552791 0.552791 0.552791
0.582875 0.582875 0.582875
0.618452 0.618452 0.618452
0.644250 0.644250 0.644250
0.681007 0.681007 0.681007
0.723802 0.723802 0.723802
0.758797 0.758797 0.758797
0.785448 0.785448 0.785448
0.812391 0.812391 0.812391
0.832451 0.832451 0.832451
0.854584 0.854584 0.854584
0.875108 0.875108 0.875108
0.893286 0.893286 0.893286
0.531047 0.531047 0.531047
0.530333 0.530333 0.530333
0.527876 0.527876 0.527876
0.523806 0.523806 0.523806
0.518853 0.518853 0.518853
0.514484 0.514484 0.514484
0.513297 0.513297 0.513297
0.506967 0.506967 0.506967
0.503391 0.503391 0.503391
0.500190 0.500190 0.500190
0.499207 0.499207 0.499207
0.497634 0.497634 0.497634
0.499107 0.499107 0.499107
0.502519 0.502519 0.502519
0.507815 0.507815 0.507815
0.516106 0.516106 0.516106
0.526610 0.526610 0.526610
0.540031 0.540031 0.540031
0.556558 0.556558 0.556558
0.577203 0.577203 0.577203
0.599869 0.599869 0.599869
0.626191 0.626191 0.626191
0.655247 0.655247 0.655247
0.680351 0.680351 0.680351
0.709149 0.709149 0.709149
0.746951 0.746951 0.746951
0.774040 0.774040 0.774040
0.799962 0.799962 0.799962
0.821827 0.821827 0.821827
0.840783 0.840783 0.840783
0.861713 0.861713 0.861713
0.880049 0.880049 0.880049
0.896774 0.896774 0.896774
0.585743 0.585743 0.585743
0.585083 0.585083 0.585083
0.582802 0.582802 0.582802
0.578986 0.578986 0.578986
0.574241 0.574241 0.574241
0.569792 0.569792 0.569792
0.567802 0.567802 0.567802
0.564044 0.564044 0.564044
0.559049 0.559049 0.559049
0.558143 0.558143 0.558143
0.554363 0.554363 0.554363
0.554383 0.554383 0.554383
0.556617 0.556617 0.556617
0.558462 0.558462 0.558462
0.563117 0.563117 0.563117
0.570681 0.570681 0.570681
0.581152 0.581152 0.581152
0.594229 0.594229 0.594229
0.610195 0.610195 0.610195
0.628338 0.628338 0.628338
0.647553 0.647553 0.647553
0.669034 0.669034 0.669034
0.693569 0.693569 0.693569
0.718398 0.718398 0.718398
0.746745 0.746745 0.746745
0.767960 0.767960 0.767960
0.790585 0.790585 0.790585
0.813687 0.813687 0.813687
0.832745 0.832745 0.832745
0.850659 0.850659 0.850659
0.870212 0.870212 0.870212
0.885986 0.885986 0.885986
0.901330 0.901330 0.901330
0.637113 0.637113 0.637113
0.636573 0.636573 0.636573
0.634697 0.634697 0.634697
0.631513 0.631513 0.631513
0.627427 0.627427 0.627427
0.623292 0.623292 0.623292
0.620217 0.620217 0.620217
0.618370 0.618370 0.618370
0.612026 0.612026 0.612026
0.610687 0.610687 0.610687
0.607002 0.607002 0.607002
0.607516 0.607516 0.607516
0.606796 0.606796 0.606796
0.609960 0.609960 0.609960
0.615309 0.615309 0.615309
0.621459 0.621459 0.621459
0.629636 0.629636 0.629636
0.640028 0.640028 0.640028
0.653026 0.653026 0.653026
0.668510 0.668510 0.668510
0.686829 0.686829 0.686829
0.707578 0.707578 0.707578
0.731569 0.731569 0.731569
0.754897 0.754897 0.754897
0.772847 0.772847 0.772847
0.792989 0.792989 0.792989
0.811669 0.811669 0.811669
0.826169 0.826169 0.826169
0.844643 0.844643 0.844643
0.861918 0.861918 0.861918
0.878820 0.878820 0.878820
0.892562 0.892562 0.892562
0.907244 0.907244 0.907244
0.679887 0.679887 0.679887
0.679408 0.679408 0.679408
0.677740 0.677740 0.677740
0.674892 0.674892 0.674892
0.671190 0.671190 0.671190
0.667334 0.667334 0.667334
0.664573 0.664573 0.664573
0.665092 0.665092 0.665092
0.659513 0.659513 0.659513
0.657112 0.657112 0.657112
0.656440 0.656440 0.656440
0.654760 0.654760 0.654760
0.655753 0.655753 0.655753
0.658397 0.658397 0.658397
0.661354 0.661354 0.661354
0.667122 0.667122 0.667122
0.675137 0.675137 0.675137
0.685166 0.685166 0.685166
0.697269 0.697269 0.697269
0.712030 0.712030 0.712030
0.729293 0.729293 0.729293
0.748822 0.748822 0.748822
0.763647 0.763647 0.763647
0.780656 0.780656 0.780656
0.799090 0.799090 0.799090
0.815350 0.815350 0.815350
0.830173 0.830173 0.830173
0.843105 0.843105 0.843105
0.857642 0.857642 0.857642
0.874201 0.874201 0.874201
0.887512 0.887512 0.887512
0.900341 0.900341 0.900341
0.913894 0.913894 0.913894
0.722044 0.722044 0.722044
0.721629 0.721629 0.721629
0.720179 0.720179 0.720179
0.717696 0.717696 0.717696
0.714442 0.714442 0.714442
0.710997 0.710997 0.710997
0.708399 0.708399 0.708399
0.708472 0.708472 0.708472
0.705739 0.705739 0.705739
0.702747 0.702747 0.702747
0.704601 0.704601 0.704601
0.701747 0.701747 0.701747
0.704282 0.704282 0.704282
0.704838 0.704838 0.704838
0.709353 0.709353 0.709353
0.714846 0.714846 0.714846
0.721860 0.721860 0.721860
0.731362 0.731362 0.731362
0.743037 0.743037 0.743037
0.754111 0.754111 0.754111
0.765054 0.765054 0.765054
0.777643 0.777643 0.777643
0.791732 0.791732 0.791732
0.807353 0.807353 0.807353
0.820219 0.820219 0.820219
0.833656 0.833656 0.833656
0.848817 0.848817 0.848817
0.861389 0.861389 0.861389
0.875061 0.875061 0.875061
0.884737 0.884737 0.884737
0.896895 0.896895 0.896895
0.909011 0.909011 0.909011
0.920797 0.920797 0.920797
0.766774 0.766774 0.766774
0.766498 0.766498 0.766498
0.765530 0.765530 0.765530
0.763840 0.763840 0.763840
0.761549 0.761549 0.761549
0.758952 0.758952 0.758952
0.756614 0.756614 0.756614
0.755581 0.755581 0.755581
0.754780 0.754780 0.754780
0.751995 0.751995 0.751995
0.751657 0.751657 0.751657
0.751229 0.751229 0.751229
0.751216 0.751216 0.751216
0.752546 0.752546 0.752546
0.754761 0.754761 0.754761
0.757750 0.757750 0.757750
0.762776 0.762776 0.762776
0.768712 0.768712 0.768712
0.775588 0.775588 0.775588
0.784256 0.784256 0.784256
0.794651 0.794651 0.794651
0.806746 0.806746 0.806746
0.816949 0.816949 0.816949
0.827986 0.827986 0.827986
0.840185 0.840185 0.840185
