trix_modern/TriX_NoFilter_Hard.cube
TITLE "Tri-X NoFilter Hard"
# Adobe RGB in/out. REPLACES AgX. Tri-X NoFilter Hard.
LUT_3D_SIZE 5
DOMAIN_MIN 0.0 0.0 0.0
DOMAIN_MAX 1.0 1.0 1.0
0.093024 0.093024 0.093024
0.093537 0.093537 0.093537
0.176426 0.176426 0.176426
0.671723 0.671723 0.671723
0.989432 0.989432 0.989432
0.095199 0.095199 0.095199
0.094913 0.094913 0.094913
0.183726 0.183726 0.183726
0.604034 0.604034 0.604034
0.986348 0.986348 0.986348
0.271546 0.271546 0.271546
0.240520 0.240520 0.240520
0.290236 0.290236 0.290236
0.608211 0.608211 0.608211
0.922851 0.922851 0.922851
0.679887 0.679887 0.679887
0.659513 0.659513 0.659513
0.675137 0.675137 0.675137
0.799090 0.799090 0.799090
0.913894 0.913894 0.913894
0.803843 0.803843 0.803843
0.862125 0.862125 0.862125
0.890219 0.890219 0.890219
0.925202 0.925202 0.925202
0.967972 0.967972 0.967972
0.100912 0.100912 0.100912
0.734335 0.734335 0.734335
0.609554 0.609554 0.609554
0.907142 0.907142 0.907142
0.988283 0.988283 0.988283
0.103843 0.103843 0.103843
0.099130 0.099130 0.099130
0.265065 0.265065 0.265065
0.753678 0.753678 0.753678
0.985188 0.985188 0.985188
0.361979 0.361979 0.361979
0.305747 0.305747 0.305747
0.330242 0.330242 0.330242
0.650633 0.650633 0.650633
0.963634 0.963634 0.963634
0.749542 0.749542 0.749542
0.724379 0.724379 0.724379
0.727028 0.727028 0.727028
0.821659 0.821659 0.821659
0.927100 0.927100 0.927100
0.854045 0.854045 0.854045
0.898856 0.898856 0.898856
0.904232 0.904232 0.904232
0.936226 0.936226 0.936226
0.971494 0.971494 0.971494
0.785238 0.785238 0.785238
0.989476 0.989476 0.989476
0.992392 0.992392 0.992392
0.990600 0.990600 0.990600
0.993576 0.993576 0.993576
0.835699 0.835699 0.835699
0.944739 0.944739 0.944739
0.953577 0.953577 0.953577
0.981370 0.981370 0.981370
0.991267 0.991267 0.991267
0.659383 0.659383 0.659383
0.610534 0.610534 0.610534
0.588577 0.588577 0.588577
0.889392 0.889392 0.889392
0.986092 0.986092 0.986092
0.873622 0.873622 0.873622
0.859983 0.859983 0.859983
0.853023 0.853023 0.853023
0.899760 0.899760 0.899760
0.978645 0.978645 0.978645
0.954595 0.954595 0.954595
0.955490 0.955490 0.955490
0.951806 0.951806 0.951806
0.967416 0.967416 0.967416
0.983517 0.983517 0.983517
0.995139 0.995139 0.995139
0.998134 0.998134 0.998134
0.998397 0.998397 0.998397
0.998091 0.998091 0.998091
0.997464 0.997464 0.997464
0.996798 0.996798 0.996798
0.998139 0.998139 0.998139
0.997952 0.997952 0.997952
0.996696 0.996696 0.996696
0.995823 0.995823 0.995823
0.976530 0.976530 0.976530
0.980732 0.980732 0.980732
0.984102 0.984102 0.984102
0.988923 0.988923 0.988923
0.993811 0.993811 0.993811
0.970435 0.970435 0.970435
0.969917 0.969917 0.969917
0.971775 0.971775 0.971775
0.977336 0.977336 0.977336
0.992490 0.992490 0.992490
0.971448 0.971448 0.971448
0.972361 0.972361 0.972361
0.980072 0.980072 0.980072
0.984979 0.984979 0.984979
0.993783 0.993783 0.993783
0.999283 0.999283 0.999283
0.999307 0.999307 0.999307
0.999507 0.999507 0.999507
0.999295 0.999295 0.999295
0.998530 0.998530 0.998530
0.999351 0.999351 0.999351
0.999380 0.999380 0.999380
0.999499 0.999499 0.999499
0.998914 0.998914 0.998914
0.998343 0.998343 0.998343
0.998416 0.998416 0.998416
0.998320 0.998320 0.998320
0.998127 0.998127 0.998127
0.998053 0.998053 0.998053
0.998045 0.998045 0.998045
0.996422 0.996422 0.996422
0.996091 0.996091 0.996091
0.995506 0.995506 0.995506
0.995871 0.995871 0.995871
0.997405 0.997405 0.997405
0.987437 0.987437 0.987437
0.990832 0.990832 0.990832
0.994414 0.994414 0.994414
0.996861 0.996861 0.996861
0.997914 0.997914 0.997914
