trix_modern/TriX_Yellow8_Soft.cube
TITLE "Tri-X Yellow8 Soft"
# Adobe RGB in/out. REPLACES AgX. R=0.5015 G=0.4679 B=0.0307
LUT_3D_SIZE 9
DOMAIN_MIN 0.0 0.0 0.0
DOMAIN_MAX 1.0 1.0 1.0
0.097688 0.097688 0.097688
0.097688 0.097688 0.097688
0.097688 0.097688 0.097688
0.097688 0.097688 0.097688
0.097688 0.097688 0.097688
0.097688 0.097688 0.097688
0.097688 0.097688 0.097688
0.097688 0.097688 0.097688
0.097688 0.097688 0.097688
0.097688 0.097688 0.097688
0.097688 0.097688 0.097688
0.097688 0.097688 0.097688
0.097688 0.097688 0.097688
0.097688 0.097688 0.097688
0.097688 0.097688 0.097688
0.097688 0.097688 0.097688
0.097688 0.097688 0.097688
0.097688 0.097688 0.097688
0.097688 0.097688 0.097688
0.097688 0.097688 0.097688
0.097688 0.097688 0.097688
0.097688 0.097688 0.097688
0.097688 0.097688 0.097688
0.097688 0.097688 0.097688
0.097688 0.097688 0.097688
0.097688 0.097688 0.097688
0.097688 0.097688 0.097688
0.097688 0.097688 0.097688
0.097688 0.097688 0.097688
0.097688 0.097688 0.097688
0.097688 0.097688 0.097688
0.097688 0.097688 0.097688
0.097688 0.097688 0.097688
0.097688 0.097688 0.097688
0.097688 0.097688 0.097688
0.097688 0.097688 0.097688
0.097688 0.097688 0.097688
0.097688 0.097688 0.097688
0.097688 0.097688 0.097688
0.097688 0.097688 0.097688
0.097688 0.097688 0.097688
0.097688 0.097688 0.097688
0.097688 0.097688 0.097688
0.097688 0.097688 0.097688
0.097688 0.097688 0.097688
0.097688 0.097688 0.097688
0.097688 0.097688 0.097688
0.097688 0.097688 0.097688
0.097688 0.097688 0.097688
0.097688 0.097688 0.097688
0.097688 0.097688 0.097688
0.097688 0.097688 0.097688
0.097688 0.097688 0.097688
0.097688 0.097688 0.097688
0.097688 0.097688 0.097688
0.097688 0.097688 0.097688
0.097688 0.097688 0.097688
0.097688 0.097688 0.097688
0.097688 0.097688 0.097688
0.097688 0.097688 0.097688
0.097688 0.097688 0.097688
0.097688 0.097688 0.097688
0.097688 0.097688 0.097688
0.097688 0.097688 0.097688
0.097688 0.097688 0.097688
0.097688 0.097688 0.097688
0.097688 0.097688 0.097688
0.097688 0.097688 0.097688
0.097688 0.097688 0.097688
0.097688 0.097688 0.097688
0.097688 0.097688 0.097688
0.097688 0.097688 0.097688
0.097688 0.097688 0.097688
0.097688 0.097688 0.097688
0.097688 0.097688 0.097688
0.097688 0.097688 0.097688
0.097688 0.097688 0.097688
0.097688 0.097688 0.097688
0.097688 0.097688 0.097688
0.097688 0.097688 0.097688
0.097688 0.097688 0.097688
0.097688 0.097688 0.097688
0.097688 0.097688 0.097688
0.097688 0.097688 0.097688
0.097688 0.097688 0.097688
0.097688 0.097688 0.097688
0.097688 0.097688 0.097688
0.097688 0.097688 0.097688
0.097688 0.097688 0.097688
0.097688 0.097688 0.097688
0.097688 0.097688 0.097688
0.107900 0.107900 0.107900
0.223014 0.223014 0.223014
0.302888 0.302888 0.302888
0.354133 0.354133 0.354133
0.389918 0.389918 0.389918
0.415630 0.415630 0.415630
0.433442 0.433442 0.433442
0.446835 0.446835 0.446835
0.097688 0.097688 0.097688
0.229875 0.229875 0.229875
0.278216 0.278216 0.278216
0.359927 0.359927 0.359927
0.440022 0.440022 0.440022
0.499695 0.499695 0.499695
0.543301 0.543301 0.543301
0.575281 0.575281 0.575281
0.598662 0.598662 0.598662
0.097688 0.097688 0.097688
0.298893 0.298893 0.298893
0.378467 0.378467 0.378467
0.421481 0.421481 0.421481
0.483436 0.483436 0.483436
0.554482 0.554482 0.554482
0.612717 0.612717 0.612717
0.657866 0.657866 0.657866
0.691430 0.691430 0.691430
0.097688 0.097688 0.097688
0.336011 0.336011 0.336011
0.443960 0.443960 0.443960
0.500464 0.500464 0.500464
0.543745 0.543745 0.543745
0.596238 0.596238 0.596238
0.659087 0.659087 0.659087
0.711268 0.711268 0.711268
0.753267 0.753267 0.753267
0.097688 0.097688 0.097688
0.356950 0.356950 0.356950
0.483972 0.483972 0.483972
0.557938 0.557938 0.557938
0.609456 0.609456 0.609456
0.653867 0.653867 0.653867
0.699415 0.699415 0.699415
0.754091 0.754091 0.754091
0.798086 0.798086 0.798086
0.097688 0.097688 0.097688
0.368416 0.368416 0.368416
0.507220 0.507220 0.507220
0.595317 0.595317 0.595317
0.657819 0.657819 0.657819
0.707093 0.707093 0.707093
0.751411 0.751411 0.751411
0.792065 0.792065 0.792065
0.834511 0.834511 0.834511
0.097688 0.097688 0.097688
0.373374 0.373374 0.373374
0.518900 0.518900 0.518900
0.617129 0.617129 0.617129
0.688996 0.688996 0.688996
0.745832 0.745832 0.745832
0.793041 0.793041 0.793041
0.832382 0.832382 0.832382
0.869239 0.869239 0.869239
0.097688 0.097688 0.097688
0.373541 0.373541 0.373541
0.522505 0.522505 0.522505
0.627250 0.627250 0.627250
0.706552 0.706552 0.706552
0.770658 0.770658 0.770658
0.819843 0.819843 0.819843
0.862896 0.862896 0.862896
0.895490 0.895490 0.895490
0.097688 0.097688 0.097688
0.097688 0.097688 0.097688
0.097688 0.097688 0.097688
0.097688 0.097688 0.097688
0.097688 0.097688 0.097688
0.097688 0.097688 0.097688
0.097688 0.097688 0.097688
0.097688 0.097688 0.097688
0.097688 0.097688 0.097688
0.097688 0.097688 0.097688
0.188462 0.188462 0.188462
0.264040 0.264040 0.264040
0.315492 0.315492 0.315492
0.359134 0.359134 0.359134
0.393146 0.393146 0.393146
0.418905 0.418905 0.418905
0.437688 0.437688 0.437688
0.452336 0.452336 0.452336
0.097688 0.097688 0.097688
0.208337 0.208337 0.208337
0.241770 0.241770 0.241770
0.354055 0.354055 0.354055
0.438366 0.438366 0.438366
0.500548 0.500548 0.500548
0.546446 0.546446 0.546446
0.580559 0.580559 0.580559
0.605822 0.605822 0.605822
0.097688 0.097688 0.097688
0.285087 0.285087 0.285087
0.360863 0.360863 0.360863
0.401827 0.401827 0.401827
0.474267 0.474267 0.474267
0.551760 0.551760 0.551760
0.614711 0.614711 0.614711
0.663211 0.663211 0.663211
0.699401 0.699401 0.699401
0.097688 0.097688 0.097688
0.329237 0.329237 0.329237
0.436461 0.436461 0.436461
0.491546 0.491546 0.491546
0.535286 0.535286 0.535286
0.593987 0.593987 0.593987
0.661153 0.661153 0.661153
0.717163 0.717163 0.717163
0.762236 0.762236 0.762236
0.097688 0.097688 0.097688
0.355839 0.355839 0.355839
0.482987 0.482987 0.482987
0.557026 0.557026 0.557026
0.608704 0.608704 0.608704
0.654493 0.654493 0.654493
0.704148 0.704148 0.704148
0.761793 0.761793 0.761793
0.807279 0.807279 0.807279
0.097688 0.097688 0.097688
0.370872 0.370872 0.370872
0.510702 0.510702 0.510702
0.599709 0.599709 0.599709
0.662852 0.662852 0.662852
0.713114 0.713114 0.713114
0.759077 0.759077 0.759077
0.801294 0.801294 0.801294
0.845620 0.845620 0.845620
0.097688 0.097688 0.097688
0.378174 0.378174 0.378174
0.525353 0.525353 0.525353
0.625092 0.625092 0.625092
0.697975 0.697975 0.697975
0.755983 0.755983 0.755983
0.803107 0.803107 0.803107
0.843853 0.843853 0.843853
0.882280 0.882280 0.882280
0.097688 0.097688 0.097688
0.379867 0.379867 0.379867
0.530941 0.530941 0.530941
0.637600 0.637600 0.637600
0.718135 0.718135 0.718135
0.783096 0.783096 0.783096
0.832410 0.832410 0.832410
0.876727 0.876727 0.876727
0.905077 0.905077 0.905077
0.097688 0.097688 0.097688
0.097688 0.097688 0.097688
0.097688 0.097688 0.097688
0.097688 0.097688 0.097688
0.097688 0.097688 0.097688
0.097688 0.097688 0.097688
0.097688 0.097688 0.097688
0.097688 0.097688 0.097688
0.097688 0.097688 0.097688
0.097688 0.097688 0.097688
0.196142 0.196142 0.196142
0.298131 0.298131 0.298131
0.351555 0.351555 0.351555
0.377847 0.377847 0.377847
0.402829 0.402829 0.402829
0.423802 0.423802 0.423802
0.441023 0.441023 0.441023
0.455175 0.455175 0.455175
0.097688 0.097688 0.097688
0.233266 0.233266 0.233266
0.317771 0.317771 0.317771
0.389329 0.389329 0.389329
0.454309 0.454309 0.454309
0.508531 0.508531 0.508531
0.550959 0.550959 0.550959
0.583910 0.583910 0.583910
0.609117 0.609117 0.609117
0.097688 0.097688 0.097688
0.271412 0.271412 0.271412
0.348095 0.348095 0.348095
0.375048 0.375048 0.375048
0.471628 0.471628 0.471628
0.551813 0.551813 0.551813
0.615734 0.615734 0.615734
0.665103 0.665103 0.665103
0.702329 0.702329 0.702329
0.097688 0.097688 0.097688
0.316517 0.316517 0.316517
0.423746 0.423746 0.423746
0.476378 0.476378 0.476378
0.518540 0.518540 0.518540
0.586439 0.586439 0.586439
0.658211 0.658211 0.658211
0.717361 0.717361 0.717361
0.764740 0.764740 0.764740
0.097688 0.097688 0.097688
0.348562 0.348562 0.348562
0.474726 0.474726 0.474726
0.548426 0.548426 0.548426
0.599398 0.599398 0.599398
0.646131 0.646131 0.646131
0.701177 0.701177 0.701177
0.761845 0.761845 0.761845
0.809741 0.809741 0.809741
0.097688 0.097688 0.097688
0.367587 0.367587 0.367587
0.507053 0.507053 0.507053
0.596208 0.596208 0.596208
0.659654 0.659654 0.659654
0.710392 0.710392 0.710392
0.757757 0.757757 0.757757
0.803293 0.803293 0.803293
0.849516 0.849516 0.849516
0.097688 0.097688 0.097688
0.377851 0.377851 0.377851
0.525293 0.525293 0.525293
0.625585 0.625585 0.625585
0.699116 0.699116 0.699116
0.757901 0.757901 0.757901
0.805745 0.805745 0.805745
0.847878 0.847878 0.847878
0.886288 0.886288 0.886288
0.097688 0.097688 0.097688
0.381683 0.381683 0.381683
0.533545 0.533545 0.533545
0.641125 0.641125 0.641125
0.722486 0.722486 0.722486
0.787794 0.787794 0.787794
0.838101 0.838101 0.838101
0.883439 0.883439 0.883439
0.910273 0.910273 0.910273
0.097688 0.097688 0.097688
0.097688 0.097688 0.097688
0.097688 0.097688 0.097688
0.097688 0.097688 0.097688
0.097688 0.097688 0.097688
0.097688 0.097688 0.097688
0.097688 0.097688 0.097688
0.097688 0.097688 0.097688
0.097688 0.097688 0.097688
0.097688 0.097688 0.097688
0.198632 0.198632 0.198632
0.300838 0.300838 0.300838
0.372862 0.372862 0.372862
0.405374 0.405374 0.405374
0.419453 0.419453 0.419453
0.433484 0.433484 0.433484
0.447075 0.447075 0.447075
0.459056 0.459056 0.459056
0.097688 0.097688 0.097688
0.279579 0.279579 0.279579
0.380075 0.380075 0.380075
0.440698 0.440698 0.440698
0.487997 0.487997 0.487997
0.528343 0.528343 0.528343
0.562515 0.562515 0.562515
0.590850 0.590850 0.590850
0.613668 0.613668 0.613668
0.097688 0.097688 0.097688
0.274895 0.274895 0.274895
0.370792 0.370792 0.370792
0.433311 0.433311 0.433311
0.500421 0.500421 0.500421
0.567173 0.567173 0.567173
0.624597 0.624597 0.624597
0.670498 0.670498 0.670498
0.706223 0.706223 0.706223
0.097688 0.097688 0.097688
0.306114 0.306114 0.306114
0.415011 0.415011 0.415011
0.468401 0.468401 0.468401
0.499564 0.499564 0.499564
0.586052 0.586052 0.586052
0.659914 0.659914 0.659914
0.719530 0.719530 0.719530
0.767267 0.767267 0.767267
0.097688 0.097688 0.097688
0.339542 0.339542 0.339542
0.464816 0.464816 0.464816
0.538711 0.538711 0.538711
0.588359 0.588359 0.588359
0.634313 0.634313 0.634313
0.697029 0.697029 0.697029
0.760954 0.760954 0.760954
0.810885 0.810885 0.810885
0.097688 0.097688 0.097688
0.361855 0.361855 0.361855
0.500489 0.500489 0.500489
0.589823 0.589823 0.589823
0.653612 0.653612 0.653612
0.704394 0.704394 0.704394
0.752860 0.752860 0.752860
0.802816 0.802816 0.802816
0.850949 0.850949 0.850949
0.097688 0.097688 0.097688
0.375121 0.375121 0.375121
0.522261 0.522261 0.522261
0.622825 0.622825 0.622825
0.696994 0.696994 0.696994
0.756440 0.756440 0.756440
0.805292 0.805292 0.805292
0.848791 0.848791 0.848791
0.888405 0.888405 0.888405
0.097688 0.097688 0.097688
0.381342 0.381342 0.381342
0.533411 0.533411 0.533411
0.641528 0.641528 0.641528
0.723633 0.723633 0.723633
0.789598 0.789598 0.789598
0.840856 0.840856 0.840856
0.885959 0.885959 0.885959
0.913655 0.913655 0.913655
0.097688 0.097688 0.097688
0.097688 0.097688 0.097688
0.097688 0.097688 0.097688
0.097688 0.097688 0.097688
0.097688 0.097688 0.097688
0.097688 0.097688 0.097688
0.097688 0.097688 0.097688
0.097688 0.097688 0.097688
0.097688 0.097688 0.097688
0.097688 0.097688 0.097688
0.200602 0.200602 0.200602
0.302954 0.302954 0.302954
0.375524 0.375524 0.375524
0.430781 0.430781 0.430781
0.438535 0.438535 0.438535
0.446950 0.446950 0.446950
0.455949 0.455949 0.455949
0.464723 0.464723 0.464723
0.097688 0.097688 0.097688
0.295802 0.295802 0.295802
0.424511 0.424511 0.424511
0.486143 0.486143 0.486143
0.525095 0.525095 0.525095
0.554762 0.554762 0.554762
0.580035 0.580035 0.580035
0.602019 0.602019 0.602019
0.620732 0.620732 0.620732
0.097688 0.097688 0.097688
0.296363 0.296363 0.296363
0.411499 0.411499 0.411499
0.483628 0.483628 0.483628
0.542798 0.542798 0.542798
0.595670 0.595670 0.595670
0.642511 0.642511 0.642511
0.681275 0.681275 0.681275
0.713007 0.713007 0.713007
0.097688 0.097688 0.097688
0.304928 0.304928 0.304928
0.420401 0.420401 0.420401
0.487997 0.487997 0.487997
0.544431 0.544431 0.544431
0.608921 0.608921 0.608921
0.672746 0.672746 0.672746
0.727488 0.727488 0.727488
0.772591 0.772591 0.772591
0.097688 0.097688 0.097688
0.332007 0.332007 0.332007
0.457657 0.457657 0.457657
0.533656 0.533656 0.533656
0.583721 0.583721 0.583721
0.621499 0.621499 0.621499
0.698153 0.698153 0.698153
0.763640 0.763640 0.763640
0.813450 0.813450 0.813450
0.097688 0.097688 0.097688
0.355563 0.355563 0.355563
0.493416 0.493416 0.493416
0.583283 0.583283 0.583283
0.647702 0.647702 0.647702
0.697898 0.697898 0.697898
0.746462 0.746462 0.746462
0.801970 0.801970 0.801970
0.852077 0.852077 0.852077
0.097688 0.097688 0.097688
0.371253 0.371253 0.371253
0.517866 0.517866 0.517866
0.618677 0.618677 0.618677
0.693601 0.693601 0.693601
0.753671 0.753671 0.753671
0.803472 0.803472 0.803472
0.848215 0.848215 0.848215
0.889714 0.889714 0.889714
0.097688 0.097688 0.097688
0.379803 0.379803 0.379803
0.531774 0.531774 0.531774
0.640265 0.640265 0.640265
0.723127 0.723127 0.723127
0.789948 0.789948 0.789948
0.842139 0.842139 0.842139
0.887526 0.887526 0.887526
0.916116 0.916116 0.916116
0.097688 0.097688 0.097688
0.097688 0.097688 0.097688
0.097688 0.097688 0.097688
0.097688 0.097688 0.097688
0.097688 0.097688 0.097688
0.097688 0.097688 0.097688
0.097688 0.097688 0.097688
0.097688 0.097688 0.097688
0.097688 0.097688 0.097688
0.097688 0.097688 0.097688
0.202225 0.202225 0.202225
0.304694 0.304694 0.304694
0.377713 0.377713 0.377713
0.436401 0.436401 0.436401
0.457080 0.457080 0.457080
0.461391 0.461391 0.461391
0.466285 0.466285 0.466285
0.471690 0.471690 0.471690
0.097688 0.097688 0.097688
0.297501 0.297501 0.297501
0.426785 0.426785 0.426785
0.520839 0.520839 0.520839
0.557296 0.557296 0.557296
0.581206 0.581206 0.581206
0.599763 0.599763 0.599763
0.615744 0.615744 0.615744
0.629818 0.629818 0.629818
0.097688 0.097688 0.097688
0.321617 0.321617 0.321617
0.446505 0.446505 0.446505
0.525461 0.525461 0.525461
0.582108 0.582108 0.582108
0.627183 0.627183 0.627183
0.664581 0.664581 0.664581
0.696058 0.696058 0.696058
0.722525 0.722525 0.722525
0.097688 0.097688 0.097688
0.315141 0.315141 0.315141
0.439667 0.439667 0.439667
0.520747 0.520747 0.520747
0.584199 0.584199 0.584199
0.641898 0.641898 0.641898
0.694448 0.694448 0.694448
0.741333 0.741333 0.741333
0.781069 0.781069 0.781069
0.097688 0.097688 0.097688
0.329507 0.329507 0.329507
0.457881 0.457881 0.457881
0.539926 0.539926 0.539926
0.599647 0.599647 0.599647
0.654629 0.654629 0.654629
0.714824 0.714824 0.714824
0.773590 0.773590 0.773590
0.819072 0.819072 0.819072
0.097688 0.097688 0.097688
0.350421 0.350421 0.350421
0.488063 0.488063 0.488063
0.579324 0.579324 0.579324
0.645552 0.645552 0.645552
0.695993 0.695993 0.695993
0.739633 0.739633 0.739633
0.803887 0.803887 0.803887
0.854831 0.854831 0.854831
0.097688 0.097688 0.097688
0.367195 0.367195 0.367195
0.513301 0.513301 0.513301
0.614505 0.614505 0.614505
0.690409 0.690409 0.690409
0.751182 0.751182 0.751182
0.801487 0.801487 0.801487
0.846984 0.846984 0.846984
0.890783 0.890783 0.890783
0.097688 0.097688 0.097688
0.377667 0.377667 0.377667
0.529400 0.529400 0.529400
0.638209 0.638209 0.638209
0.721874 0.721874 0.721874
0.789669 0.789669 0.789669
0.842761 0.842761 0.842761
0.888622 0.888622 0.888622
0.918105 0.918105 0.918105
0.097688 0.097688 0.097688
0.097688 0.097688 0.097688
0.097688 0.097688 0.097688
0.097688 0.097688 0.097688
0.097688 0.097688 0.097688
0.097688 0.097688 0.097688
0.097688 0.097688 0.097688
0.097688 0.097688 0.097688
0.097688 0.097688 0.097688
0.097688 0.097688 0.097688
0.203608 0.203608 0.203608
0.306173 0.306173 0.306173
0.379574 0.379574 0.379574
0.438425 0.438425 0.438425
0.472070 0.472070 0.472070
0.474420 0.474420 0.474420
0.476443 0.476443 0.476443
0.478972 0.478972 0.478972
0.097688 0.097688 0.097688
0.298945 0.298945 0.298945
0.428716 0.428716 0.428716
0.523759 0.523759 0.523759
0.582104 0.582104 0.582104
0.603827 0.603827 0.603827
0.618326 0.618326 0.618326
0.629736 0.629736 0.629736
0.639627 0.639627 0.639627
0.097688 0.097688 0.097688
0.343240 0.343240 0.343240
0.475003 0.475003 0.475003
0.558094 0.558094 0.558094
0.614634 0.614634 0.614634
0.655438 0.655438 0.655438
0.686541 0.686541 0.686541
0.712064 0.712064 0.712064
0.733408 0.733408 0.733408
0.097688 0.097688 0.097688
0.331499 0.331499 0.331499
0.463300 0.463300 0.463300
0.551624 0.551624 0.551624
0.618198 0.618198 0.618198
0.672126 0.672126 0.672126
0.718017 0.718017 0.718017
0.757980 0.757980 0.757980
0.790694 0.790694 0.790694
0.097688 0.097688 0.097688
0.333925 0.333925 0.333925
0.466787 0.466787 0.466787
0.556337 0.556337 0.556337
0.624913 0.624913 0.624913
0.683314 0.683314 0.683314
0.737788 0.737788 0.737788
0.787660 0.787660 0.787660
0.827492 0.827492 0.827492
0.097688 0.097688 0.097688
0.348053 0.348053 0.348053
0.486607 0.486607 0.486607
0.580701 0.580701 0.580701
0.651154 0.651154 0.651154
0.707565 0.707565 0.707565
0.761481 0.761481 0.761481
0.813665 0.813665 0.813665
0.860722 0.860722 0.860722
0.097688 0.097688 0.097688
0.363813 0.363813 0.363813
0.509676 0.509676 0.509676
0.611633 0.611633 0.611633
0.688978 0.688978 0.688978
0.751074 0.751074 0.751074
0.801777 0.801777 0.801777
0.845621 0.845621 0.845621
0.892432 0.892432 0.892432
0.097688 0.097688 0.097688
0.375413 0.375413 0.375413
0.526888 0.526888 0.526888
0.636039 0.636039 0.636039
0.720575 0.720575 0.720575
0.789400 0.789400 0.789400
0.843358 0.843358 0.843358
0.889587 0.889587 0.889587
0.919904 0.919904 0.919904
0.097688 0.097688 0.097688
0.097688 0.097688 0.097688
0.097688 0.097688 0.097688
0.097688 0.097688 0.097688
0.097688 0.097688 0.097688
0.097688 0.097688 0.097688
0.097688 0.097688 0.097688
0.097688 0.097688 0.097688
0.097688 0.097688 0.097688
0.097688 0.097688 0.097688
0.204814 0.204814 0.204814
0.307460 0.307460 0.307460
0.381193 0.381193 0.381193
0.440205 0.440205 0.440205
0.482575 0.482575 0.482575
0.484686 0.484686 0.484686
0.485137 0.485137 0.485137
0.485578 0.485578 0.485578
0.097688 0.097688 0.097688
0.300201 0.300201 0.300201
0.430397 0.430397 0.430397
0.525860 0.525860 0.525860
0.599122 0.599122 0.599122
0.621008 0.621008 0.621008
0.633670 0.633670 0.633670
0.642134 0.642134 0.642134
0.648676 0.648676 0.648676
0.097688 0.097688 0.097688
0.358358 0.358358 0.358358
0.495508 0.495508 0.495508
0.582019 0.582019 0.582019
0.639552 0.639552 0.639552
0.678013 0.678013 0.678013
0.705664 0.705664 0.705664
0.726865 0.726865 0.726865
0.744007 0.744007 0.744007
0.097688 0.097688 0.097688
0.346861 0.346861 0.346861
0.484580 0.484580 0.484580
0.577463 0.577463 0.577463
0.645951 0.645951 0.645951
0.697615 0.697615 0.697615
0.739377 0.739377 0.739377
0.774258 0.774258 0.774258
0.800590 0.800590 0.800590
0.097688 0.097688 0.097688
0.342553 0.342553 0.342553
0.480321 0.480321 0.480321
0.575531 0.575531 0.575531
0.648784 0.648784 0.648784
0.707790 0.707790 0.707790
0.759135 0.759135 0.759135
0.801677 0.801677 0.801677
0.836896 0.836896 0.836896
0.097688 0.097688 0.097688
0.349295 0.349295 0.349295
0.489947 0.489947 0.489947
0.587820 0.587820 0.587820
0.663091 0.663091 0.663091
0.724631 0.724631 0.724631
0.780177 0.780177 0.780177
0.826160 0.826160 0.826160
0.868548 0.868548 0.868548
0.097688 0.097688 0.097688
0.361863 0.361863 0.361863
0.507961 0.507961 0.507961
0.611228 0.611228 0.611228
0.690685 0.690685 0.690685
0.755374 0.755374 0.755374
0.808242 0.808242 0.808242
0.855948 0.855948 0.855948
0.895727 0.895727 0.895727
0.097688 0.097688 0.097688
0.373442 0.373442 0.373442
0.524749 0.524749 0.524749
0.634336 0.634336 0.634336
0.719833 0.719833 0.719833
0.789724 0.789724 0.789724
0.844599 0.844599 0.844599
0.890846 0.890846 0.890846
0.921710 0.921710 0.921710
