trix_modern/TriX_Blue47_Hard.cube
TITLE "Tri-X Blue47 Hard"
# Adobe RGB in/out. REPLACES AgX. R=0.0336 G=0.0311 B=0.9353
LUT_3D_SIZE 9
DOMAIN_MIN 0.0 0.0 0.0
DOMAIN_MAX 1.0 1.0 1.0
0.093288 0.093288 0.093288
0.093288 0.093288 0.093288
0.093288 0.093288 0.093288
0.093288 0.093288 0.093288
0.093288 0.093288 0.093288
0.093288 0.093288 0.093288
0.093288 0.093288 0.093288
0.093288 0.093288 0.093288
0.093288 0.093288 0.093288
0.093288 0.093288 0.093288
0.093288 0.093288 0.093288
0.093288 0.093288 0.093288
0.093288 0.093288 0.093288
0.093288 0.093288 0.093288
0.093288 0.093288 0.093288
0.093288 0.093288 0.093288
0.093288 0.093288 0.093288
0.093288 0.093288 0.093288
0.093288 0.093288 0.093288
0.093288 0.093288 0.093288
0.093288 0.093288 0.093288
0.093288 0.093288 0.093288
0.093288 0.093288 0.093288
0.093288 0.093288 0.093288
0.093288 0.093288 0.093288
0.093288 0.093288 0.093288
0.093288 0.093288 0.093288
0.093288 0.093288 0.093288
0.093288 0.093288 0.093288
0.093288 0.093288 0.093288
0.093288 0.093288 0.093288
0.093288 0.093288 0.093288
0.093288 0.093288 0.093288
0.093288 0.093288 0.093288
0.093288 0.093288 0.093288
0.093288 0.093288 0.093288
0.093288 0.093288 0.093288
0.093288 0.093288 0.093288
0.093288 0.093288 0.093288
0.093288 0.093288 0.093288
0.093288 0.093288 0.093288
0.093288 0.093288 0.093288
0.093288 0.093288 0.093288
0.093288 0.093288 0.093288
0.093288 0.093288 0.093288
0.093288 0.093288 0.093288
0.093288 0.093288 0.093288
0.093288 0.093288 0.093288
0.093288 0.093288 0.093288
0.093288 0.093288 0.093288
0.093288 0.093288 0.093288
0.093288 0.093288 0.093288
0.093288 0.093288 0.093288
0.093288 0.093288 0.093288
0.093288 0.093288 0.093288
0.093288 0.093288 0.093288
0.093288 0.093288 0.093288
0.093288 0.093288 0.093288
0.093288 0.093288 0.093288
0.093288 0.093288 0.093288
0.093288 0.093288 0.093288
0.093288 0.093288 0.093288
0.093288 0.093288 0.093288
0.093288 0.093288 0.093288
0.093288 0.093288 0.093288
0.093288 0.093288 0.093288
0.093288 0.093288 0.093288
0.093288 0.093288 0.093288
0.093288 0.093288 0.093288
0.093288 0.093288 0.093288
0.093288 0.093288 0.093288
0.093288 0.093288 0.093288
0.093288 0.093288 0.093288
0.093288 0.093288 0.093288
0.093288 0.093288 0.093288
0.093288 0.093288 0.093288
0.093288 0.093288 0.093288
0.093288 0.093288 0.093288
0.093288 0.093288 0.093288
0.093288 0.093288 0.093288
0.093288 0.093288 0.093288
0.093288 0.093288 0.093288
0.093288 0.093288 0.093288
0.093288 0.093288 0.093288
0.093288 0.093288 0.093288
0.093288 0.093288 0.093288
0.093288 0.093288 0.093288
0.093288 0.093288 0.093288
0.093288 0.093288 0.093288
0.093288 0.093288 0.093288
0.093288 0.093288 0.093288
0.093403 0.093403 0.093403
0.093924 0.093924 0.093924
0.094472 0.094472 0.094472
0.094574 0.094574 0.094574
0.094478 0.094478 0.094478
0.094295 0.094295 0.094295
0.094068 0.094068 0.094068
0.093919 0.093919 0.093919
0.093288 0.093288 0.093288
0.094205 0.094205 0.094205
0.093640 0.093640 0.093640
0.093768 0.093768 0.093768
0.093936 0.093936 0.093936
0.094058 0.094058 0.094058
0.094058 0.094058 0.094058
0.093964 0.093964 0.093964
0.093905 0.093905 0.093905
0.093288 0.093288 0.093288
0.094644 0.094644 0.094644
0.093926 0.093926 0.093926
0.093716 0.093716 0.093716
0.093728 0.093728 0.093728
0.093808 0.093808 0.093808
0.093854 0.093854 0.093854
0.093857 0.093857 0.093857
0.093830 0.093830 0.093830
0.093288 0.093288 0.093288
0.094515 0.094515 0.094515
0.094111 0.094111 0.094111
0.093832 0.093832 0.093832
0.093714 0.093714 0.093714
0.093691 0.093691 0.093691
0.093732 0.093732 0.093732
0.093750 0.093750 0.093750
0.093746 0.093746 0.093746
0.093288 0.093288 0.093288
0.094198 0.094198 0.094198
0.094028 0.094028 0.094028
0.093869 0.093869 0.093869
0.093758 0.093758 0.093758
0.093685 0.093685 0.093685
0.093652 0.093652 0.093652
0.093669 0.093669 0.093669
0.093672 0.093672 0.093672
0.093288 0.093288 0.093288
0.093914 0.093914 0.093914
0.093903 0.093903 0.093903
0.093832 0.093832 0.093832
0.093756 0.093756 0.093756
0.093691 0.093691 0.093691
0.093643 0.093643 0.093643
0.093612 0.093612 0.093612
0.093613 0.093613 0.093613
0.093288 0.093288 0.093288
0.093773 0.093773 0.093773
0.093787 0.093787 0.093787
0.093759 0.093759 0.093759
0.093713 0.093713 0.093713
0.093666 0.093666 0.093666
0.093626 0.093626 0.093626
0.093595 0.093595 0.093595
0.093572 0.093572 0.093572
0.093288 0.093288 0.093288
0.093641 0.093641 0.093641
0.093670 0.093670 0.093670
0.093664 0.093664 0.093664
0.093641 0.093641 0.093641
0.093612 0.093612 0.093612
0.093585 0.093585 0.093585
0.093561 0.093561 0.093561
0.093543 0.093543 0.093543
0.093288 0.093288 0.093288
0.093288 0.093288 0.093288
0.093288 0.093288 0.093288
0.093288 0.093288 0.093288
0.093288 0.093288 0.093288
0.093288 0.093288 0.093288
0.093288 0.093288 0.093288
0.093288 0.093288 0.093288
0.093288 0.093288 0.093288
0.093288 0.093288 0.093288
0.263596 0.263596 0.263596
0.215498 0.215498 0.215498
0.202232 0.202232 0.202232
0.193995 0.193995 0.193995
0.183753 0.183753 0.183753
0.171723 0.171723 0.171723
0.158757 0.158757 0.158757
0.147085 0.147085 0.147085
0.093288 0.093288 0.093288
0.132848 0.132848 0.132848
0.100098 0.100098 0.100098
0.120601 0.120601 0.120601
0.143265 0.143265 0.143265
0.154781 0.154781 0.154781
0.156496 0.156496 0.156496
0.152384 0.152384 0.152384
0.145036 0.145036 0.145036
0.093288 0.093288 0.093288
0.166040 0.166040 0.166040
0.128675 0.128675 0.128675
0.109339 0.109339 0.109339
0.115392 0.115392 0.115392
0.127987 0.127987 0.127987
0.135353 0.135353 0.135353
0.137480 0.137480 0.137480
0.135306 0.135306 0.135306
0.093288 0.093288 0.093288
0.171861 0.171861 0.171861
0.149839 0.149839 0.149839
0.126820 0.126820 0.126820
0.114734 0.114734 0.114734
0.115219 0.115219 0.115219
0.121410 0.121410 0.121410
0.124906 0.124906 0.124906
0.125427 0.125427 0.125427
0.093288 0.093288 0.093288
0.160020 0.160020 0.160020
0.151778 0.151778 0.151778
0.135504 0.135504 0.135504
0.123199 0.123199 0.123199
0.115752 0.115752 0.115752
0.113934 0.113934 0.113934
0.116424 0.116424 0.116424
0.117475 0.117475 0.117475
0.093288 0.093288 0.093288
0.144178 0.144178 0.144178
0.142847 0.142847 0.142847
0.134152 0.134152 0.134152
0.125374 0.125374 0.125374
0.118384 0.118384 0.118384
0.113899 0.113899 0.113899
0.112106 0.112106 0.112106
0.112557 0.112557 0.112557
0.093288 0.093288 0.093288
0.128502 0.128502 0.128502
0.130297 0.130297 0.130297
0.127085 0.127085 0.127085
0.122022 0.122022 0.122022
0.117010 0.117010 0.117010
0.113381 0.113381 0.113381
0.111319 0.111319 0.111319
0.109895 0.109895 0.109895
0.093288 0.093288 0.093288
0.114765 0.114765 0.114765
0.117968 0.117968 0.117968
0.117356 0.117356 0.117356
0.115012 0.115012 0.115012
0.112780 0.112780 0.112780
0.110868 0.110868 0.110868
0.109323 0.109323 0.109323
0.108155 0.108155 0.108155
0.093288 0.093288 0.093288
0.093288 0.093288 0.093288
0.093288 0.093288 0.093288
0.093288 0.093288 0.093288
0.093288 0.093288 0.093288
0.093288 0.093288 0.093288
0.093288 0.093288 0.093288
0.093288 0.093288 0.093288
0.093288 0.093288 0.093288
0.093288 0.093288 0.093288
0.806183 0.806183 0.806183
0.828806 0.828806 0.828806
0.792156 0.792156 0.792156
0.695444 0.695444 0.695444
0.626221 0.626221 0.626221
0.568844 0.568844 0.568844
0.520462 0.520462 0.520462
0.476600 0.476600 0.476600
0.093288 0.093288 0.093288
0.537533 0.537533 0.537533
0.470476 0.470476 0.470476
0.474521 0.474521 0.474521
0.504399 0.504399 0.504399
0.518379 0.518379 0.518379
0.513385 0.513385 0.513385
0.494931 0.494931 0.494931
0.468249 0.468249 0.468249
0.093288 0.093288 0.093288
0.463210 0.463210 0.463210
0.350148 0.350148 0.350148
0.237605 0.237605 0.237605
0.324258 0.324258 0.324258
0.389779 0.389779 0.389779
0.427422 0.427422 0.427422
0.437330 0.437330 0.437330
0.430921 0.430921 0.430921
0.093288 0.093288 0.093288
0.495513 0.495513 0.495513
0.436970 0.436970 0.436970
0.345561 0.345561 0.345561
0.293802 0.293802 0.293802
0.315565 0.315565 0.315565
0.352703 0.352703 0.352703
0.375190 0.375190 0.375190
0.381702 0.381702 0.381702
0.093288 0.093288 0.093288
0.484904 0.484904 0.484904
0.460779 0.460779 0.460779
0.402842 0.402842 0.402842
0.347945 0.347945 0.347945
0.317403 0.317403 0.317403
0.318239 0.318239 0.318239
0.335210 0.335210 0.335210
0.344157 0.344157 0.344157
0.093288 0.093288 0.093288
0.446690 0.446690 0.446690
0.443762 0.443762 0.443762
0.411014 0.411014 0.411014
0.370719 0.370719 0.370719
0.339543 0.339543 0.339543
0.320800 0.320800 0.320800
0.314737 0.314737 0.314737
0.320267 0.320267 0.320267
0.093288 0.093288 0.093288
0.391080 0.391080 0.391080
0.401036 0.401036 0.401036
0.386325 0.386325 0.386325
0.363217 0.363217 0.363217
0.340845 0.340845 0.340845
0.323775 0.323775 0.323775
0.312702 0.312702 0.312702
0.306083 0.306083 0.306083
0.093288 0.093288 0.093288
0.332598 0.332598 0.332598
0.347985 0.347985 0.347985
0.345844 0.345844 0.345844
0.335752 0.335752 0.335752
0.323481 0.323481 0.323481
0.312468 0.312468 0.312468
0.304114 0.304114 0.304114
0.298307 0.298307 0.298307
0.093288 0.093288 0.093288
0.093288 0.093288 0.093288
0.093288 0.093288 0.093288
0.093288 0.093288 0.093288
0.093288 0.093288 0.093288
0.093288 0.093288 0.093288
0.093288 0.093288 0.093288
0.093288 0.093288 0.093288
0.093288 0.093288 0.093288
0.093288 0.093288 0.093288
0.978919 0.978919 0.978919
0.983478 0.983478 0.983478
0.984742 0.984742 0.984742
0.975369 0.975369 0.975369
0.952190 0.952190 0.952190
0.922509 0.922509 0.922509
0.891225 0.891225 0.891225
0.859917 0.859917 0.859917
0.093288 0.093288 0.093288
0.973463 0.973463 0.973463
0.964189 0.964189 0.964189
0.946566 0.946566 0.946566
0.926808 0.926808 0.926808
0.910446 0.910446 0.910446
0.893387 0.893387 0.893387
0.876137 0.876137 0.876137
0.852829 0.852829 0.852829
0.093288 0.093288 0.093288
0.853894 0.853894 0.853894
0.816603 0.816603 0.816603
0.774826 0.774826 0.774826
0.788935 0.788935 0.788935
0.816145 0.816145 0.816145
0.828919 0.828919 0.828919
0.830438 0.830438 0.830438
0.822912 0.822912 0.822912
0.093288 0.093288 0.093288
0.833590 0.833590 0.833590
0.798898 0.798898 0.798898
0.703837 0.703837 0.703837
0.588577 0.588577 0.588577
0.685364 0.685364 0.685364
0.749279 0.749279 0.749279
0.772673 0.772673 0.772673
0.779524 0.779524 0.779524
0.093288 0.093288 0.093288
0.832523 0.832523 0.832523
0.819223 0.819223 0.819223
0.772187 0.772187 0.772187
0.704029 0.704029 0.704029
0.658222 0.658222 0.658222
0.680280 0.680280 0.680280
0.715463 0.715463 0.715463
0.734718 0.734718 0.734718
0.093288 0.093288 0.093288
0.814852 0.814852 0.814852
0.814535 0.814535 0.814535
0.788695 0.788695 0.788695
0.752363 0.752363 0.752363
0.708755 0.708755 0.708755
0.683280 0.683280 0.683280
0.683970 0.683970 0.683970
0.697469 0.697469 0.697469
0.093288 0.093288 0.093288
0.775529 0.775529 0.775529
0.786112 0.786112 0.786112
0.774000 0.774000 0.774000
0.752794 0.752794 0.752794
0.722857 0.722857 0.722857
0.698405 0.698405 0.698405
0.684092 0.684092 0.684092
0.678751 0.678751 0.678751
0.093288 0.093288 0.093288
0.712025 0.712025 0.712025
0.737157 0.737157 0.737157
0.735444 0.735444 0.735444
0.721441 0.721441 0.721441
0.703855 0.703855 0.703855
0.688199 0.688199 0.688199
0.676994 0.676994 0.676994
0.670140 0.670140 0.670140
0.093288 0.093288 0.093288
0.093288 0.093288 0.093288
0.093288 0.093288 0.093288
0.093288 0.093288 0.093288
0.093288 0.093288 0.093288
0.093288 0.093288 0.093288
0.093288 0.093288 0.093288
0.093288 0.093288 0.093288
0.093288 0.093288 0.093288
0.093288 0.093288 0.093288
0.996067 0.996067 0.996067
0.997053 0.997053 0.997053
0.997631 0.997631 0.997631
0.997703 0.997703 0.997703
0.994067 0.994067 0.994067
0.990181 0.990181 0.990181
0.985339 0.985339 0.985339
0.978941 0.978941 0.978941
0.093288 0.093288 0.093288
0.996981 0.996981 0.996981
0.997834 0.997834 0.997834
0.995777 0.995777 0.995777
0.993394 0.993394 0.993394
0.990366 0.990366 0.990366
0.986662 0.986662 0.986662
0.983497 0.983497 0.983497
0.977341 0.977341 0.977341
0.093288 0.093288 0.093288
0.986430 0.986430 0.986430
0.985394 0.985394 0.985394
0.982944 0.982944 0.982944
0.979402 0.979402 0.979402
0.977483 0.977483 0.977483
0.975866 0.975866 0.975866
0.973705 0.973705 0.973705
0.970743 0.970743 0.970743
0.093288 0.093288 0.093288
0.970169 0.970169 0.970169
0.963503 0.963503 0.963503
0.947919 0.947919 0.947919
0.933356 0.933356 0.933356
0.939659 0.939659 0.939659
0.950008 0.950008 0.950008
0.954243 0.954243 0.954243
0.954711 0.954711 0.954711
0.093288 0.093288 0.093288
0.962717 0.962717 0.962717
0.959271 0.959271 0.959271
0.943821 0.943821 0.943821
0.917017 0.917017 0.917017
0.884667 0.884667 0.884667
0.913564 0.913564 0.913564
0.928526 0.928526 0.928526
0.935333 0.935333 0.935333
0.093288 0.093288 0.093288
0.956897 0.956897 0.956897
0.957782 0.957782 0.957782
0.950022 0.950022 0.950022
0.933792 0.933792 0.933792
0.917852 0.917852 0.917852
0.906320 0.906320 0.906320
0.912942 0.912942 0.912942
0.920796 0.920796 0.920796
0.093288 0.093288 0.093288
0.945299 0.945299 0.945299
0.950320 0.950320 0.950320
0.946506 0.946506 0.946506
0.936774 0.936774 0.936774
0.926420 0.926420 0.926420
0.918469 0.918469 0.918469
0.913372 0.913372 0.913372
0.913704 0.913704 0.913704
0.093288 0.093288 0.093288
0.922608 0.922608 0.922608
0.931838 0.931838 0.931838
0.931948 0.931948 0.931948
0.927866 0.927866 0.927866
0.922430 0.922430 0.922430
0.917546 0.917546 0.917546
0.913297 0.913297 0.913297
0.911336 0.911336 0.911336
0.093288 0.093288 0.093288
0.093288 0.093288 0.093288
0.093288 0.093288 0.093288
0.093288 0.093288 0.093288
0.093288 0.093288 0.093288
0.093288 0.093288 0.093288
0.093288 0.093288 0.093288
0.093288 0.093288 0.093288
0.093288 0.093288 0.093288
0.093288 0.093288 0.093288
0.998765 0.998765 0.998765
0.998934 0.998934 0.998934
0.999032 0.999032 0.999032
0.999102 0.999102 0.999102
0.998685 0.998685 0.998685
0.998131 0.998131 0.998131
0.997008 0.997008 0.997008
0.994855 0.994855 0.994855
0.093288 0.093288 0.093288
0.998922 0.998922 0.998922
0.999090 0.999090 0.999090
0.999182 0.999182 0.999182
0.998708 0.998708 0.998708
0.998263 0.998263 0.998263
0.997858 0.997858 0.997858
0.996184 0.996184 0.996184
0.994518 0.994518 0.994518
0.093288 0.093288 0.093288
0.998172 0.998172 0.998172
0.998139 0.998139 0.998139
0.997949 0.997949 0.997949
0.997342 0.997342 0.997342
0.996150 0.996150 0.996150
0.995085 0.995085 0.995085
0.994095 0.994095 0.994095
0.993120 0.993120 0.993120
0.093288 0.093288 0.093288
0.993737 0.993737 0.993737
0.993681 0.993681 0.993681
0.992901 0.992901 0.992901
0.992184 0.992184 0.992184
0.991435 0.991435 0.991435
0.991192 0.991192 0.991192
0.990901 0.990901 0.990901
0.990261 0.990261 0.990261
0.093288 0.093288 0.093288
0.990320 0.990320 0.990320
0.990229 0.990229 0.990229
0.988134 0.988134 0.988134
0.985593 0.985593 0.985593
0.984271 0.984271 0.984271
0.984955 0.984955 0.984955
0.986017 0.986017 0.986017
0.986537 0.986537 0.986537
0.093288 0.093288 0.093288
0.988338 0.988338 0.988338
0.988817 0.988817 0.988817
0.987427 0.987427 0.987427
0.985207 0.985207 0.985207
0.982364 0.982364 0.982364
0.978028 0.978028 0.978028
0.982303 0.982303 0.982303
0.983945 0.983945 0.983945
0.093288 0.093288 0.093288
0.986257 0.986257 0.986257
0.987301 0.987301 0.987301
0.986774 0.986774 0.986774
0.985525 0.985525 0.985525
0.984105 0.984105 0.984105
0.982548 0.982548 0.982548
0.981454 0.981454 0.981454
0.982369 0.982369 0.982369
0.093288 0.093288 0.093288
0.983353 0.983353 0.983353
0.984816 0.984816 0.984816
0.984952 0.984952 0.984952
0.984476 0.984476 0.984476
0.983790 0.983790 0.983790
0.983054 0.983054 0.983054
0.982279 0.982279 0.982279
0.982147 0.982147 0.982147
0.093288 0.093288 0.093288
0.093288 0.093288 0.093288
0.093288 0.093288 0.093288
0.093288 0.093288 0.093288
0.093288 0.093288 0.093288
0.093288 0.093288 0.093288
0.093288 0.093288 0.093288
0.093288 0.093288 0.093288
0.093288 0.093288 0.093288
0.093288 0.093288 0.093288
0.999810 0.999810 0.999810
0.999978 0.999978 0.999978
1.000000 1.000000 1.000000
1.000000 1.000000 1.000000
0.999932 0.999932 0.999932
0.999350 0.999350 0.999350
0.998859 0.998859 0.998859
0.998445 0.998445 0.998445
0.093288 0.093288 0.093288
0.999966 0.999966 0.999966
1.000000 1.000000 1.000000
1.000000 1.000000 1.000000
1.000000 1.000000 1.000000
0.999556 0.999556 0.999556
0.999114 0.999114 0.999114
0.998727 0.998727 0.998727
0.998390 0.998390 0.998390
0.093288 0.093288 0.093288
0.999624 0.999624 0.999624
0.999607 0.999607 0.999607
0.999421 0.999421 0.999421
0.999161 0.999161 0.999161
0.998884 0.998884 0.998884
0.998620 0.998620 0.998620
0.998376 0.998376 0.998376
0.998145 0.998145 0.998145
0.093288 0.093288 0.093288
0.998476 0.998476 0.998476
0.998515 0.998515 0.998515
0.998425 0.998425 0.998425
0.998294 0.998294 0.998294
0.998162 0.998162 0.998162
0.998042 0.998042 0.998042
0.997928 0.997928 0.997928
0.997810 0.997810 0.997810
0.093288 0.093288 0.093288
0.997750 0.997750 0.997750
0.997843 0.997843 0.997843
0.997539 0.997539 0.997539
0.996873 0.996873 0.996873
0.996395 0.996395 0.996395
0.996210 0.996210 0.996210
0.996157 0.996157 0.996157
0.996039 0.996039 0.996039
0.093288 0.093288 0.093288
0.996058 0.996058 0.996058
0.996424 0.996424 0.996424
0.996023 0.996023 0.996023
0.995295 0.995295 0.995295
0.994579 0.994579 0.994579
0.994256 0.994256 0.994256
0.994451 0.994451 0.994451
0.994686 0.994686 0.994686
0.093288 0.093288 0.093288
0.995011 0.995011 0.995011
0.995556 0.995556 0.995556
0.995420 0.995420 0.995420
0.994962 0.994962 0.994962
0.994401 0.994401 0.994401
0.993901 0.993901 0.993901
0.993576 0.993576 0.993576
0.993994 0.993994 0.993994
0.093288 0.093288 0.093288
0.993822 0.993822 0.993822
0.994526 0.994526 0.994526
0.994646 0.994646 0.994646
0.994496 0.994496 0.994496
0.994246 0.994246 0.994246
0.994023 0.994023 0.994023
0.993915 0.993915 0.993915
0.993957 0.993957 0.993957
0.093288 0.093288 0.093288
0.093288 0.093288 0.093288
0.093288 0.093288 0.093288
0.093288 0.093288 0.093288
0.093288 0.093288 0.093288
0.093288 0.093288 0.093288
0.093288 0.093288 0.093288
0.093288 0.093288 0.093288
0.093288 0.093288 0.093288
0.093288 0.093288 0.093288
1.000000 1.000000 1.000000
1.000000 1.000000 1.000000
1.000000 1.000000 1.000000
1.000000 1.000000 1.000000
1.000000 1.000000 1.000000
1.000000 1.000000 1.000000
0.999866 0.999866 0.999866
0.999420 0.999420 0.999420
0.093288 0.093288 0.093288
1.000000 1.000000 1.000000
1.000000 1.000000 1.000000
1.000000 1.000000 1.000000
1.000000 1.000000 1.000000
1.000000 1.000000 1.000000
1.000000 1.000000 1.000000
0.999746 0.999746 0.999746
0.999370 0.999370 0.999370
0.093288 0.093288 0.093288
1.000000 1.000000 1.000000
1.000000 1.000000 1.000000
1.000000 1.000000 1.000000
1.000000 1.000000 1.000000
1.000000 1.000000 1.000000
0.999705 0.999705 0.999705
0.999409 0.999409 0.999409
0.999135 0.999135 0.999135
0.093288 0.093288 0.093288
0.999662 0.999662 0.999662
0.999718 0.999718 0.999718
0.999639 0.999639 0.999639
0.999494 0.999494 0.999494
0.999325 0.999325 0.999325
0.999152 0.999152 0.999152
0.998983 0.998983 0.998983
0.998816 0.998816 0.998816
0.093288 0.093288 0.093288
0.998869 0.998869 0.998869
0.998948 0.998948 0.998948
0.998908 0.998908 0.998908
0.998822 0.998822 0.998822
0.998730 0.998730 0.998730
0.998648 0.998648 0.998648
0.998575 0.998575 0.998575
0.998500 0.998500 0.998500
0.093288 0.093288 0.093288
0.998428 0.998428 0.998428
0.998516 0.998516 0.998516
0.998488 0.998488 0.998488
0.998412 0.998412 0.998412
0.998333 0.998333 0.998333
0.998283 0.998283 0.998283
0.998262 0.998262 0.998262
0.998248 0.998248 0.998248
0.093288 0.093288 0.093288
0.998184 0.998184 0.998184
0.998293 0.998293 0.998293
0.998290 0.998290 0.998290
0.998235 0.998235 0.998235
0.998160 0.998160 0.998160
0.998097 0.998097 0.998097
0.998076 0.998076 0.998076
0.998093 0.998093 0.998093
0.093288 0.093288 0.093288
0.997970 0.997970 0.997970
0.998104 0.998104 0.998104
0.998137 0.998137 0.998137
0.998122 0.998122 0.998122
0.998089 0.998089 0.998089
0.998059 0.998059 0.998059
0.998046 0.998046 0.998046
0.998062 0.998062 0.998062
