trix_modern/TriX_Red25_Hard.cube
TITLE "Tri-X Red25 Hard"
# Adobe RGB in/out. REPLACES AgX. R=0.9735 G=0.0265 B=0.0000
LUT_3D_SIZE 9
DOMAIN_MIN 0.0 0.0 0.0
DOMAIN_MAX 1.0 1.0 1.0
0.093288 0.093288 0.093288
0.093288 0.093288 0.093288
0.093288 0.093288 0.093288
0.093288 0.093288 0.093288
0.093288 0.093288 0.093288
0.093288 0.093288 0.093288
0.093288 0.093288 0.093288
0.093288 0.093288 0.093288
0.093288 0.093288 0.093288
0.093288 0.093288 0.093288
0.093620 0.093620 0.093620
0.166963 0.166963 0.166963
0.678134 0.678134 0.678134
0.955459 0.955459 0.955459
0.991828 0.991828 0.991828
0.997862 0.997862 0.997862
0.998706 0.998706 0.998706
0.999374 0.999374 0.999374
0.093288 0.093288 0.093288
0.094695 0.094695 0.094695
0.134311 0.134311 0.134311
0.474059 0.474059 0.474059
0.900873 0.900873 0.900873
0.986733 0.986733 0.986733
0.996745 0.996745 0.996745
0.998575 0.998575 0.998575
0.999312 0.999312 0.999312
0.093288 0.093288 0.093288
0.094854 0.094854 0.094854
0.165059 0.165059 0.165059
0.431668 0.431668 0.431668
0.822188 0.822188 0.822188
0.975834 0.975834 0.975834
0.994361 0.994361 0.994361
0.998275 0.998275 0.998275
0.999097 0.999097 0.999097
0.093288 0.093288 0.093288
0.094591 0.094591 0.094591
0.173195 0.173195 0.173195
0.473831 0.473831 0.473831
0.809550 0.809550 0.809550
0.958760 0.958760 0.958760
0.992051 0.992051 0.992051
0.997929 0.997929 0.997929
0.998829 0.998829 0.998829
0.093288 0.093288 0.093288
0.094208 0.094208 0.094208
0.163701 0.163701 0.163701
0.480460 0.480460 0.480460
0.820620 0.820620 0.820620
0.955974 0.955974 0.955974
0.988495 0.988495 0.988495
0.996891 0.996891 0.996891
0.998580 0.998580 0.998580
0.093288 0.093288 0.093288
0.093906 0.093906 0.093906
0.148210 0.148210 0.148210
0.456232 0.456232 0.456232
0.815363 0.815363 0.815363
0.955490 0.955490 0.955490
0.987903 0.987903 0.987903
0.995733 0.995733 0.995733
0.998382 0.998382 0.998382
0.093288 0.093288 0.093288
0.093759 0.093759 0.093759
0.131834 0.131834 0.131834
0.411559 0.411559 0.411559
0.790545 0.790545 0.790545
0.949942 0.949942 0.949942
0.986980 0.986980 0.986980
0.995356 0.995356 0.995356
0.998242 0.998242 0.998242
0.093288 0.093288 0.093288
0.093622 0.093622 0.093622
0.117958 0.117958 0.117958
0.355392 0.355392 0.355392
0.748668 0.748668 0.748668
0.934826 0.934826 0.934826
0.985142 0.985142 0.985142
0.994668 0.994668 0.994668
0.998134 0.998134 0.998134
0.093288 0.093288 0.093288
0.093288 0.093288 0.093288
0.093288 0.093288 0.093288
0.093288 0.093288 0.093288
0.093288 0.093288 0.093288
0.093288 0.093288 0.093288
0.093288 0.093288 0.093288
0.093288 0.093288 0.093288
0.093288 0.093288 0.093288
0.093288 0.093288 0.093288
0.093403 0.093403 0.093403
0.152586 0.152586 0.152586
0.636650 0.636650 0.636650
0.947089 0.947089 0.947089
0.990578 0.990578 0.990578
0.997745 0.997745 0.997745
0.998662 0.998662 0.998662
0.999343 0.999343 0.999343
0.093288 0.093288 0.093288
0.094179 0.094179 0.094179
0.115925 0.115925 0.115925
0.421691 0.421691 0.421691
0.882364 0.882364 0.882364
0.985421 0.985421 0.985421
0.996360 0.996360 0.996360
0.998531 0.998531 0.998531
0.999283 0.999283 0.999283
0.093288 0.093288 0.093288
0.094603 0.094603 0.094603
0.150822 0.150822 0.150822
0.387421 0.387421 0.387421
0.800438 0.800438 0.800438
0.973066 0.973066 0.973066
0.993991 0.993991 0.993991
0.998233 0.998233 0.998233
0.999069 0.999069 0.999069
0.093288 0.093288 0.093288
0.094463 0.094463 0.094463
0.165036 0.165036 0.165036
0.452125 0.452125 0.452125
0.790954 0.790954 0.790954
0.954473 0.954473 0.954473
0.991359 0.991359 0.991359
0.997890 0.997890 0.997890
0.998805 0.998805 0.998805
0.093288 0.093288 0.093288
0.094138 0.094138 0.094138
0.159525 0.159525 0.159525
0.468682 0.468682 0.468682
0.812662 0.812662 0.812662
0.952956 0.952956 0.952956
0.988005 0.988005 0.988005
0.996728 0.996728 0.996728
0.998561 0.998561 0.998561
0.093288 0.093288 0.093288
0.093892 0.093892 0.093892
0.146318 0.146318 0.146318
0.449984 0.449984 0.449984
0.810985 0.810985 0.810985
0.953750 0.953750 0.953750
0.987568 0.987568 0.987568
0.995628 0.995628 0.995628
0.998369 0.998369 0.998369
0.093288 0.093288 0.093288
0.093752 0.093752 0.093752
0.131061 0.131061 0.131061
0.407764 0.407764 0.407764
0.787323 0.787323 0.787323
0.949005 0.949005 0.949005
0.986797 0.986797 0.986797
0.995291 0.995291 0.995291
0.998234 0.998234 0.998234
0.093288 0.093288 0.093288
0.093619 0.093619 0.093619
0.117581 0.117581 0.117581
0.353707 0.353707 0.353707
0.746639 0.746639 0.746639
0.934127 0.934127 0.934127
0.985058 0.985058 0.985058
0.994641 0.994641 0.994641
0.998131 0.998131 0.998131
0.093288 0.093288 0.093288
0.093288 0.093288 0.093288
0.093288 0.093288 0.093288
0.093288 0.093288 0.093288
0.093288 0.093288 0.093288
0.093288 0.093288 0.093288
0.093288 0.093288 0.093288
0.093288 0.093288 0.093288
0.093288 0.093288 0.093288
0.093288 0.093288 0.093288
0.095463 0.095463 0.095463
0.217732 0.217732 0.217732
0.664938 0.664938 0.664938
0.942195 0.942195 0.942195
0.989335 0.989335 0.989335
0.997192 0.997192 0.997192
0.998582 0.998582 0.998582
0.999279 0.999279 0.999279
0.093288 0.093288 0.093288
0.093781 0.093781 0.093781
0.100098 0.100098 0.100098
0.371784 0.371784 0.371784
0.859418 0.859418 0.859418
0.983608 0.983608 0.983608
0.995710 0.995710 0.995710
0.998445 0.998445 0.998445
0.999217 0.999217 0.999217
0.093288 0.093288 0.093288
0.094060 0.094060 0.094060
0.128168 0.128168 0.128168
0.307228 0.307228 0.307228
0.749605 0.749605 0.749605
0.965351 0.965351 0.965351
0.993234 0.993234 0.993234
0.998135 0.998135 0.998135
0.999002 0.999002 0.999002
0.093288 0.093288 0.093288
0.094141 0.094141 0.094141
0.148584 0.148584 0.148584
0.398672 0.398672 0.398672
0.742989 0.742989 0.742989
0.942001 0.942001 0.942001
0.989682 0.989682 0.989682
0.997751 0.997751 0.997751
0.998741 0.998741 0.998741
0.093288 0.093288 0.093288
0.093962 0.093962 0.093962
0.150099 0.150099 0.150099
0.438755 0.438755 0.438755
0.785459 0.785459 0.785459
0.942735 0.942735 0.942735
0.986688 0.986688 0.986688
0.996283 0.996283 0.996283
0.998507 0.998507 0.998507
0.093288 0.093288 0.093288
0.093851 0.093851 0.093851
0.140967 0.140967 0.140967
0.432543 0.432543 0.432543
0.795060 0.795060 0.795060
0.948736 0.948736 0.948736
0.986590 0.986590 0.986590
0.995322 0.995322 0.995322
0.998331 0.998331 0.998331
0.093288 0.093288 0.093288
0.093732 0.093732 0.093732
0.128720 0.128720 0.128720
0.396471 0.396471 0.396471
0.777692 0.777692 0.777692
0.945003 0.945003 0.945003
0.986241 0.986241 0.986241
0.995093 0.995093 0.995093
0.998209 0.998209 0.998209
0.093288 0.093288 0.093288
0.093607 0.093607 0.093607
0.116389 0.116389 0.116389
0.348430 0.348430 0.348430
0.739248 0.739248 0.739248
0.931935 0.931935 0.931935
0.984794 0.984794 0.984794
0.994556 0.994556 0.994556
0.998123 0.998123 0.998123
0.093288 0.093288 0.093288
0.093288 0.093288 0.093288
0.093288 0.093288 0.093288
0.093288 0.093288 0.093288
0.093288 0.093288 0.093288
0.093288 0.093288 0.093288
0.093288 0.093288 0.093288
0.093288 0.093288 0.093288
0.093288 0.093288 0.093288
0.093288 0.093288 0.093288
0.095695 0.095695 0.095695
0.304133 0.304133 0.304133
0.798718 0.798718 0.798718
0.959235 0.959235 0.959235
0.990358 0.990358 0.990358
0.997181 0.997181 0.997181
0.998547 0.998547 0.998547
0.999235 0.999235 0.999235
0.093288 0.093288 0.093288
0.094005 0.094005 0.094005
0.143066 0.143066 0.143066
0.477100 0.477100 0.477100
0.881260 0.881260 0.881260
0.983938 0.983938 0.983938
0.995540 0.995540 0.995540
0.998397 0.998397 0.998397
0.999167 0.999167 0.999167
0.093288 0.093288 0.093288
0.093837 0.093837 0.093837
0.116143 0.116143 0.116143
0.237605 0.237605 0.237605
0.717962 0.717962 0.717962
0.960259 0.960259 0.960259
0.992781 0.992781 0.992781
0.998063 0.998063 0.998063
0.998944 0.998944 0.998944
0.093288 0.093288 0.093288
0.093897 0.093897 0.093897
0.133205 0.133205 0.133205
0.344025 0.344025 0.344025
0.665608 0.665608 0.665608
0.926104 0.926104 0.926104
0.988085 0.988085 0.988085
0.997236 0.997236 0.997236
0.998676 0.998676 0.998676
0.093288 0.093288 0.093288
0.093874 0.093874 0.093874
0.138984 0.138984 0.138984
0.399556 0.399556 0.399556
0.750474 0.750474 0.750474
0.926540 0.926540 0.926540
0.985118 0.985118 0.985118
0.995759 0.995759 0.995759
0.998444 0.998444 0.998444
0.093288 0.093288 0.093288
0.093796 0.093796 0.093796
0.134339 0.134339 0.134339
0.406471 0.406471 0.406471
0.772856 0.772856 0.772856
0.938604 0.938604 0.938604
0.985263 0.985263 0.985263
0.994923 0.994923 0.994923
0.998282 0.998282 0.998282
0.093288 0.093288 0.093288
0.093702 0.093702 0.093702
0.125384 0.125384 0.125384
0.381291 0.381291 0.381291
0.764344 0.764344 0.764344
0.938875 0.938875 0.938875
0.985454 0.985454 0.985454
0.994811 0.994811 0.994811
0.998175 0.998175 0.998175
0.093288 0.093288 0.093288
0.093589 0.093589 0.093589
0.114594 0.114594 0.114594
0.340633 0.340633 0.340633
0.728399 0.728399 0.728399
0.928712 0.928712 0.928712
0.984406 0.984406 0.984406
0.994431 0.994431 0.994431
0.998111 0.998111 0.998111
0.093288 0.093288 0.093288
0.093288 0.093288 0.093288
0.093288 0.093288 0.093288
0.093288 0.093288 0.093288
0.093288 0.093288 0.093288
0.093288 0.093288 0.093288
0.093288 0.093288 0.093288
0.093288 0.093288 0.093288
0.093288 0.093288 0.093288
0.093288 0.093288 0.093288
0.095695 0.095695 0.095695
0.304133 0.304133 0.304133
0.847084 0.847084 0.847084
0.976689 0.976689 0.976689
0.992711 0.992711 0.992711
0.997805 0.997805 0.997805
0.998583 0.998583 0.998583
0.999233 0.999233 0.999233
0.093288 0.093288 0.093288
0.095284 0.095284 0.095284
0.231265 0.231265 0.231265
0.660353 0.660353 0.660353
0.928801 0.928801 0.928801
0.986749 0.986749 0.986749
0.996065 0.996065 0.996065
0.998421 0.998421 0.998421
0.999158 0.999158 0.999158
0.093288 0.093288 0.093288
0.093847 0.093847 0.093847
0.129476 0.129476 0.129476
0.370339 0.370339 0.370339
0.790641 0.790641 0.790641
0.968220 0.968220 0.968220
0.993026 0.993026 0.993026
0.998061 0.998061 0.998061
0.998922 0.998922 0.998922
0.093288 0.093288 0.093288
0.093791 0.093791 0.093791
0.124818 0.124818 0.124818
0.315604 0.315604 0.315604
0.588577 0.588577 0.588577
0.920256 0.920256 0.920256
0.987517 0.987517 0.987517
0.996997 0.996997 0.996997
0.998638 0.998638 0.998638
0.093288 0.093288 0.093288
0.093786 0.093786 0.093786
0.129578 0.129578 0.129578
0.364847 0.364847 0.364847
0.702245 0.702245 0.702245
0.906806 0.906806 0.906806
0.983720 0.983720 0.983720
0.995334 0.995334 0.995334
0.998393 0.998393 0.998393
0.093288 0.093288 0.093288
0.093742 0.093742 0.093742
0.128022 0.128022 0.128022
0.380034 0.380034 0.380034
0.750076 0.750076 0.750076
0.927548 0.927548 0.927548
0.983808 0.983808 0.983808
0.994520 0.994520 0.994520
0.998232 0.998232 0.998232
0.093288 0.093288 0.093288
0.093666 0.093666 0.093666
0.121574 0.121574 0.121574
0.364711 0.364711 0.364711
0.749637 0.749637 0.749637
0.932097 0.932097 0.932097
0.984572 0.984572 0.984572
0.994493 0.994493 0.994493
0.998142 0.998142 0.998142
0.093288 0.093288 0.093288
0.093567 0.093567 0.093567
0.112984 0.112984 0.112984
0.331479 0.331479 0.331479
0.715778 0.715778 0.715778
0.924970 0.924970 0.924970
0.983956 0.983956 0.983956
0.994286 0.994286 0.994286
0.998097 0.998097 0.998097
0.093288 0.093288 0.093288
0.093288 0.093288 0.093288
0.093288 0.093288 0.093288
0.093288 0.093288 0.093288
0.093288 0.093288 0.093288
0.093288 0.093288 0.093288
0.093288 0.093288 0.093288
0.093288 0.093288 0.093288
0.093288 0.093288 0.093288
0.093288 0.093288 0.093288
0.095695 0.095695 0.095695
0.304133 0.304133 0.304133
0.847084 0.847084 0.847084
0.985497 0.985497 0.985497
0.994383 0.994383 0.994383
0.997991 0.997991 0.997991
0.998677 0.998677 0.998677
0.999273 0.999273 0.999273
0.093288 0.093288 0.093288
0.095948 0.095948 0.095948
0.323327 0.323327 0.323327
0.799745 0.799745 0.799745
0.963231 0.963231 0.963231
0.990764 0.990764 0.990764
0.997104 0.997104 0.997104
0.998510 0.998510 0.998510
0.999193 0.999193 0.999193
0.093288 0.093288 0.093288
0.094138 0.094138 0.094138
0.164410 0.164410 0.164410
0.511787 0.511787 0.511787
0.869111 0.869111 0.869111
0.977970 0.977970 0.977970
0.993958 0.993958 0.993958
0.998137 0.998137 0.998137
0.998946 0.998946 0.998946
0.093288 0.093288 0.093288
0.093766 0.093766 0.093766
0.126571 0.126571 0.126571
0.354124 0.354124 0.354124
0.723671 0.723671 0.723671
0.940309 0.940309 0.940309
0.988769 0.988769 0.988769
0.997201 0.997201 0.997201
0.998641 0.998641 0.998641
0.093288 0.093288 0.093288
0.093722 0.093722 0.093722
0.123612 0.123612 0.123612
0.345349 0.345349 0.345349
0.677040 0.677040 0.677040
0.884667 0.884667 0.884667
0.983192 0.983192 0.983192
0.995202 0.995202 0.995202
0.998371 0.998371 0.998371
0.093288 0.093288 0.093288
0.093688 0.093688 0.093688
0.122461 0.122461 0.122461
0.357619 0.357619 0.357619
0.721577 0.721577 0.721577
0.917200 0.917200 0.917200
0.981177 0.981177 0.981177
0.994177 0.994177 0.994177
0.998192 0.998192 0.998192
0.093288 0.093288 0.093288
0.093627 0.093627 0.093627
0.117697 0.117697 0.117697
0.348464 0.348464 0.348464
0.728788 0.728788 0.728788
0.925455 0.925455 0.925455
0.983683 0.983683 0.983683
0.994169 0.994169 0.994169
0.998111 0.998111 0.998111
0.093288 0.093288 0.093288
0.093543 0.093543 0.093543
0.111305 0.111305 0.111305
0.321840 0.321840 0.321840
0.702621 0.702621 0.702621
0.921088 0.921088 0.921088
0.983493 0.983493 0.983493
0.994139 0.994139 0.994139
0.998084 0.998084 0.998084
0.093288 0.093288 0.093288
0.093288 0.093288 0.093288
0.093288 0.093288 0.093288
0.093288 0.093288 0.093288
0.093288 0.093288 0.093288
0.093288 0.093288 0.093288
0.093288 0.093288 0.093288
0.093288 0.093288 0.093288
0.093288 0.093288 0.093288
0.093288 0.093288 0.093288
0.095695 0.095695 0.095695
0.304133 0.304133 0.304133
0.847084 0.847084 0.847084
0.986238 0.986238 0.986238
0.995917 0.995917 0.995917
0.998194 0.998194 0.998194
0.998801 0.998801 0.998801
0.999341 0.999341 0.999341
0.093288 0.093288 0.093288
0.095948 0.095948 0.095948
0.323327 0.323327 0.323327
0.864404 0.864404 0.864404
0.977956 0.977956 0.977956
0.993314 0.993314 0.993314
0.997897 0.997897 0.997897
0.998637 0.998637 0.998637
0.999260 0.999260 0.999260
0.093288 0.093288 0.093288
0.094721 0.094721 0.094721
0.210122 0.210122 0.210122
0.639252 0.639252 0.639252
0.921673 0.921673 0.921673
0.985263 0.985263 0.985263
0.995221 0.995221 0.995221
0.998266 0.998266 0.998266
0.999007 0.999007 0.999007
0.093288 0.093288 0.093288
0.093829 0.093829 0.093829
0.138894 0.138894 0.138894
0.433635 0.433635 0.433635
0.812913 0.812913 0.812913
0.962917 0.962917 0.962917
0.991368 0.991368 0.991368
0.997805 0.997805 0.997805
0.998687 0.998687 0.998687
0.093288 0.093288 0.093288
0.093693 0.093693 0.093693
0.122301 0.122301 0.122301
0.352742 0.352742 0.352742
0.714390 0.714390 0.714390
0.921922 0.921922 0.921922
0.985034 0.985034 0.985034
0.995545 0.995545 0.995545
0.998391 0.998391 0.998391
0.093288 0.093288 0.093288
0.093643 0.093643 0.093643
0.118277 0.118277 0.118277
0.342966 0.342966 0.342966
0.705699 0.705699 0.705699
0.910300 0.910300 0.910300
0.978028 0.978028 0.978028
0.994062 0.994062 0.994062
0.998179 0.998179 0.998179
0.093288 0.093288 0.093288
0.093590 0.093590 0.093590
0.114211 0.114211 0.114211
0.334239 0.334239 0.334239
0.710391 0.710391 0.710391
0.919860 0.919860 0.919860
0.982400 0.982400 0.982400
0.993858 0.993858 0.993858
0.998085 0.998085 0.998085
0.093288 0.093288 0.093288
0.093518 0.093518 0.093518
0.109621 0.109621 0.109621
0.312457 0.312457 0.312457
0.689970 0.689970 0.689970
0.917286 0.917286 0.917286
0.982779 0.982779 0.982779
0.994001 0.994001 0.994001
0.998072 0.998072 0.998072
0.093288 0.093288 0.093288
0.093288 0.093288 0.093288
0.093288 0.093288 0.093288
0.093288 0.093288 0.093288
0.093288 0.093288 0.093288
0.093288 0.093288 0.093288
0.093288 0.093288 0.093288
0.093288 0.093288 0.093288
0.093288 0.093288 0.093288
0.093288 0.093288 0.093288
0.095695 0.095695 0.095695
0.304133 0.304133 0.304133
0.847084 0.847084 0.847084
0.986238 0.986238 0.986238
0.997098 0.997098 0.997098
0.998366 0.998366 0.998366
0.998924 0.998924 0.998924
0.999419 0.999419 0.999419
0.093288 0.093288 0.093288
0.095948 0.095948 0.095948
0.323327 0.323327 0.323327
0.865404 0.865404 0.865404
0.984577 0.984577 0.984577
0.994765 0.994765 0.994765
0.998099 0.998099 0.998099
0.998769 0.998769 0.998769
0.999341 0.999341 0.999341
0.093288 0.093288 0.093288
0.095272 0.095272 0.095272
0.252832 0.252832 0.252832
0.734764 0.734764 0.734764
0.951639 0.951639 0.951639
0.989063 0.989063 0.989063
0.996470 0.996470 0.996470
0.998405 0.998405 0.998405
0.999087 0.999087 0.999087
0.093288 0.093288 0.093288
0.093942 0.093942 0.093942
0.157344 0.157344 0.157344
0.506837 0.506837 0.506837
0.864820 0.864820 0.864820
0.975400 0.975400 0.975400
0.993099 0.993099 0.993099
0.997948 0.997948 0.997948
0.998760 0.998760 0.998760
0.093288 0.093288 0.093288
0.093710 0.093710 0.093710
0.126131 0.126131 0.126131
0.384534 0.384534 0.384534
0.770959 0.770959 0.770959
0.947132 0.947132 0.947132
0.987704 0.987704 0.987704
0.996223 0.996223 0.996223
0.998446 0.998446 0.998446
0.093288 0.093288 0.093288
0.093617 0.093617 0.093617
0.116375 0.116375 0.116375
0.340352 0.340352 0.340352
0.713293 0.713293 0.713293
0.919890 0.919890 0.919890
0.983334 0.983334 0.983334
0.994481 0.994481 0.994481
0.998207 0.998207 0.998207
0.093288 0.093288 0.093288
0.093559 0.093559 0.093559
0.112178 0.112178 0.112178
0.323806 0.323806 0.323806
0.698478 0.698478 0.698478
0.916583 0.916583 0.916583
0.981516 0.981516 0.981516
0.993576 0.993576 0.993576
0.998076 0.998076 0.998076
0.093288 0.093288 0.093288
0.093494 0.093494 0.093494
0.108055 0.108055 0.108055
0.304027 0.304027 0.304027
0.678864 0.678864 0.678864
0.913092 0.913092 0.913092
0.981981 0.981981 0.981981
0.993888 0.993888 0.993888
0.998064 0.998064 0.998064
0.093288 0.093288 0.093288
0.093288 0.093288 0.093288
0.093288 0.093288 0.093288
0.093288 0.093288 0.093288
0.093288 0.093288 0.093288
0.093288 0.093288 0.093288
0.093288 0.093288 0.093288
0.093288 0.093288 0.093288
0.093288 0.093288 0.093288
0.093288 0.093288 0.093288
0.095695 0.095695 0.095695
0.304133 0.304133 0.304133
0.847084 0.847084 0.847084
0.986238 0.986238 0.986238
0.997815 0.997815 0.997815
0.998493 0.998493 0.998493
0.999027 0.999027 0.999027
0.999490 0.999490 0.999490
0.093288 0.093288 0.093288
0.095948 0.095948 0.095948
0.323327 0.323327 0.323327
0.865404 0.865404 0.865404
0.986936 0.986936 0.986936
0.995806 0.995806 0.995806
0.998259 0.998259 0.998259
0.998884 0.998884 0.998884
0.999416 0.999416 0.999416
0.093288 0.093288 0.093288
0.095787 0.095787 0.095787
0.286694 0.286694 0.286694
0.787131 0.787131 0.787131
0.966673 0.966673 0.966673
0.992011 0.992011 0.992011
0.997523 0.997523 0.997523
0.998533 0.998533 0.998533
0.999168 0.999168 0.999168
0.093288 0.093288 0.093288
0.094195 0.094195 0.094195
0.177844 0.177844 0.177844
0.573375 0.573375 0.573375
0.899192 0.899192 0.899192
0.982616 0.982616 0.982616
0.994236 0.994236 0.994236
0.998089 0.998089 0.998089
0.998840 0.998840 0.998840
0.093288 0.093288 0.093288
0.093757 0.093757 0.093757
0.132932 0.132932 0.132932
0.427035 0.427035 0.427035
0.813023 0.813023 0.813023
0.961039 0.961039 0.961039
0.990135 0.990135 0.990135
0.996954 0.996954 0.996954
0.998515 0.998515 0.998515
0.093288 0.093288 0.093288
0.093616 0.093616 0.093616
0.117063 0.117063 0.117063
0.349976 0.349976 0.349976
0.740030 0.740030 0.740030
0.932935 0.932935 0.932935
0.985356 0.985356 0.985356
0.995088 0.995088 0.995088
0.998258 0.998258 0.998258
0.093288 0.093288 0.093288
0.093538 0.093538 0.093538
0.110920 0.110920 0.110920
0.318699 0.318699 0.318699
0.695939 0.695939 0.695939
0.918061 0.918061 0.918061
0.982676 0.982676 0.982676
0.994024 0.994024 0.994024
0.998098 0.998098 0.998098
0.093288 0.093288 0.093288
0.093473 0.093473 0.093473
0.106726 0.106726 0.106726
0.297179 0.297179 0.297179
0.670307 0.670307 0.670307
0.910167 0.910167 0.910167
0.981504 0.981504 0.981504
0.993829 0.993829 0.993829
0.998062 0.998062 0.998062
