trix_modern/TriX_NoFilter_Soft.cube
TITLE "Tri-X NoFilter Soft"
# Adobe RGB in/out. REPLACES AgX. R=0.2974 G=0.2859 B=0.4167
LUT_3D_SIZE 9
DOMAIN_MIN 0.0 0.0 0.0
DOMAIN_MAX 1.0 1.0 1.0
0.093873 0.093873 0.093873
0.093873 0.093873 0.093873
0.093873 0.093873 0.093873
0.093873 0.093873 0.093873
0.093873 0.093873 0.093873
0.093873 0.093873 0.093873
0.093873 0.093873 0.093873
0.093873 0.093873 0.093873
0.093873 0.093873 0.093873
0.093873 0.093873 0.093873
0.093873 0.093873 0.093873
0.093873 0.093873 0.093873
0.093873 0.093873 0.093873
0.093873 0.093873 0.093873
0.093873 0.093873 0.093873
0.093873 0.093873 0.093873
0.093873 0.093873 0.093873
0.093873 0.093873 0.093873
0.093873 0.093873 0.093873
0.093873 0.093873 0.093873
0.093873 0.093873 0.093873
0.093873 0.093873 0.093873
0.093873 0.093873 0.093873
0.093873 0.093873 0.093873
0.093873 0.093873 0.093873
0.093873 0.093873 0.093873
0.093873 0.093873 0.093873
0.093873 0.093873 0.093873
0.093873 0.093873 0.093873
0.093873 0.093873 0.093873
0.093873 0.093873 0.093873
0.093873 0.093873 0.093873
0.093873 0.093873 0.093873
0.093873 0.093873 0.093873
0.093873 0.093873 0.093873
0.093873 0.093873 0.093873
0.093873 0.093873 0.093873
0.093873 0.093873 0.093873
0.093873 0.093873 0.093873
0.093873 0.093873 0.093873
0.093873 0.093873 0.093873
0.093873 0.093873 0.093873
0.093873 0.093873 0.093873
0.093873 0.093873 0.093873
0.093873 0.093873 0.093873
0.093873 0.093873 0.093873
0.093873 0.093873 0.093873
0.093873 0.093873 0.093873
0.093873 0.093873 0.093873
0.093873 0.093873 0.093873
0.093873 0.093873 0.093873
0.093873 0.093873 0.093873
0.093873 0.093873 0.093873
0.093873 0.093873 0.093873
0.093873 0.093873 0.093873
0.093873 0.093873 0.093873
0.093873 0.093873 0.093873
0.093873 0.093873 0.093873
0.093873 0.093873 0.093873
0.093873 0.093873 0.093873
0.093873 0.093873 0.093873
0.093873 0.093873 0.093873
0.093873 0.093873 0.093873
0.093873 0.093873 0.093873
0.093873 0.093873 0.093873
0.093873 0.093873 0.093873
0.093873 0.093873 0.093873
0.093873 0.093873 0.093873
0.093873 0.093873 0.093873
0.093873 0.093873 0.093873
0.093873 0.093873 0.093873
0.093873 0.093873 0.093873
0.093873 0.093873 0.093873
0.093873 0.093873 0.093873
0.093873 0.093873 0.093873
0.093873 0.093873 0.093873
0.093873 0.093873 0.093873
0.093873 0.093873 0.093873
0.093873 0.093873 0.093873
0.093873 0.093873 0.093873
0.093873 0.093873 0.093873
0.093873 0.093873 0.093873
0.093873 0.093873 0.093873
0.093873 0.093873 0.093873
0.093873 0.093873 0.093873
0.093873 0.093873 0.093873
0.093873 0.093873 0.093873
0.093873 0.093873 0.093873
0.093873 0.093873 0.093873
0.093873 0.093873 0.093873
0.093873 0.093873 0.093873
0.099556 0.099556 0.099556
0.173455 0.173455 0.173455
0.226919 0.226919 0.226919
0.254671 0.254671 0.254671
0.270555 0.270555 0.270555
0.278210 0.278210 0.278210
0.282034 0.282034 0.282034
0.283208 0.283208 0.283208
0.093873 0.093873 0.093873
0.183809 0.183809 0.183809
0.189223 0.189223 0.189223
0.238030 0.238030 0.238030
0.283155 0.283155 0.283155
0.310415 0.310415 0.310415
0.327859 0.327859 0.327859
0.337921 0.337921 0.337921
0.342868 0.342868 0.342868
0.093873 0.093873 0.093873
0.230311 0.230311 0.230311
0.256499 0.256499 0.256499
0.264380 0.264380 0.264380
0.289838 0.289838 0.289838
0.322053 0.322053 0.322053
0.346087 0.346087 0.346087
0.362046 0.362046 0.362046
0.371987 0.371987 0.371987
0.093873 0.093873 0.093873
0.248172 0.248172 0.248172
0.290817 0.290817 0.290817
0.303337 0.303337 0.303337
0.312397 0.312397 0.312397
0.330171 0.330171 0.330171
0.354738 0.354738 0.354738
0.373881 0.373881 0.373881
0.387588 0.387588 0.387588
0.093873 0.093873 0.093873
0.253913 0.253913 0.253913
0.306211 0.306211 0.306211
0.328582 0.328582 0.328582
0.340301 0.340301 0.340301
0.350271 0.350271 0.350271
0.363221 0.363221 0.363221
0.382531 0.382531 0.382531
0.397830 0.397830 0.397830
0.093873 0.093873 0.093873
0.252998 0.252998 0.252998
0.311198 0.311198 0.311198
0.340864 0.340864 0.340864
0.357404 0.357404 0.357404
0.369350 0.369350 0.369350
0.380281 0.380281 0.380281
0.391418 0.391418 0.391418
0.406860 0.406860 0.406860
0.093873 0.093873 0.093873
0.248032 0.248032 0.248032
0.309505 0.309505 0.309505
0.344094 0.344094 0.344094
0.365468 0.365468 0.365468
0.380806 0.380806 0.380806
0.393491 0.393491 0.393491
0.405161 0.405161 0.405161
0.415751 0.415751 0.415751
0.093873 0.093873 0.093873
0.240428 0.240428 0.240428
0.303511 0.303511 0.303511
0.341267 0.341267 0.341267
0.366335 0.366335 0.366335
0.385069 0.385069 0.385069
0.400301 0.400301 0.400301
0.413327 0.413327 0.413327
0.424576 0.424576 0.424576
0.093873 0.093873 0.093873
0.093873 0.093873 0.093873
0.093873 0.093873 0.093873
0.093873 0.093873 0.093873
0.093873 0.093873 0.093873
0.093873 0.093873 0.093873
0.093873 0.093873 0.093873
0.093873 0.093873 0.093873
0.093873 0.093873 0.093873
0.093873 0.093873 0.093873
0.258385 0.258385 0.258385
0.296664 0.296664 0.296664
0.327327 0.327327 0.327327
0.350693 0.350693 0.350693
0.366715 0.366715 0.366715
0.377022 0.377022 0.377022
0.382908 0.382908 0.382908
0.385391 0.385391 0.385391
0.093873 0.093873 0.093873
0.240495 0.240495 0.240495
0.233250 0.233250 0.233250
0.320632 0.320632 0.320632
0.378667 0.378667 0.378667
0.415954 0.415954 0.415954
0.438063 0.438063 0.438063
0.451479 0.451479 0.451479
0.458829 0.458829 0.458829
0.093873 0.093873 0.093873
0.301031 0.301031 0.301031
0.330728 0.330728 0.330728
0.338387 0.338387 0.338387
0.381016 0.381016 0.381016
0.426651 0.426651 0.426651
0.458754 0.458754 0.458754
0.480626 0.480626 0.480626
0.494476 0.494476 0.494476
0.093873 0.093873 0.093873
0.331395 0.331395 0.331395
0.383140 0.383140 0.383140
0.398873 0.398873 0.398873
0.410978 0.410978 0.410978
0.436510 0.436510 0.436510
0.469269 0.469269 0.469269
0.495149 0.495149 0.495149
0.513640 0.513640 0.513640
0.093873 0.093873 0.093873
0.343675 0.343675 0.343675
0.409500 0.409500 0.409500
0.435624 0.435624 0.435624
0.449656 0.449656 0.449656
0.462787 0.462787 0.462787
0.481383 0.481383 0.481383
0.506677 0.506677 0.506677
0.526579 0.526579 0.526579
0.093873 0.093873 0.093873
0.346133 0.346133 0.346133
0.419034 0.419034 0.419034
0.454271 0.454271 0.454271
0.474728 0.474728 0.474728
0.489742 0.489742 0.489742
0.503931 0.503931 0.503931
0.518983 0.518983 0.518983
0.538492 0.538492 0.538492
0.093873 0.093873 0.093873
0.342683 0.342683 0.342683
0.419399 0.419399 0.419399
0.460770 0.460770 0.460770
0.487260 0.487260 0.487260
0.506353 0.506353 0.506353
0.522098 0.522098 0.522098
0.536750 0.536750 0.536750
0.550851 0.550851 0.550851
0.093873 0.093873 0.093873
0.335380 0.335380 0.335380
0.413842 0.413842 0.413842
0.458934 0.458934 0.458934
0.490042 0.490042 0.490042
0.513219 0.513219 0.513219
0.531883 0.531883 0.531883
0.548345 0.548345 0.548345
0.563530 0.563530 0.563530
0.093873 0.093873 0.093873
0.093873 0.093873 0.093873
0.093873 0.093873 0.093873
0.093873 0.093873 0.093873
0.093873 0.093873 0.093873
0.093873 0.093873 0.093873
0.093873 0.093873 0.093873
0.093873 0.093873 0.093873
0.093873 0.093873 0.093873
0.093873 0.093873 0.093873
0.319498 0.319498 0.319498
0.399910 0.399910 0.399910
0.430632 0.430632 0.430632
0.435193 0.435193 0.435193
0.442152 0.442152 0.442152
0.448541 0.448541 0.448541
0.452953 0.452953 0.452953
0.455045 0.455045 0.455045
0.093873 0.093873 0.093873
0.321109 0.321109 0.321109
0.372829 0.372829 0.372829
0.418870 0.418870 0.418870
0.461133 0.461133 0.461133
0.493415 0.493415 0.493415
0.515637 0.515637 0.515637
0.529859 0.529859 0.529859
0.538162 0.538162 0.538162
0.093873 0.093873 0.093873
0.340221 0.340221 0.340221
0.377378 0.377378 0.377378
0.372918 0.372918 0.372918
0.444996 0.444996 0.444996
0.498207 0.498207 0.498207
0.536066 0.536066 0.536066
0.561899 0.561899 0.561899
0.578605 0.578605 0.578605
0.093873 0.093873 0.093873
0.377575 0.377575 0.377575
0.436212 0.436212 0.436212
0.452322 0.452322 0.452322
0.464663 0.464663 0.464663
0.503113 0.503113 0.503113
0.544744 0.544744 0.544744
0.577068 0.577068 0.577068
0.600210 0.600210 0.600210
0.093873 0.093873 0.093873
0.398180 0.398180 0.398180
0.469960 0.469960 0.469960
0.500686 0.500686 0.500686
0.516751 0.516751 0.516751
0.532735 0.532735 0.532735
0.558701 0.558701 0.558701
0.590152 0.590152 0.590152
0.615459 0.615459 0.615459
0.093873 0.093873 0.093873
0.405946 0.405946 0.405946
0.485746 0.485746 0.485746
0.526954 0.526954 0.526954
0.550761 0.550761 0.550761
0.568465 0.568465 0.568465
0.585914 0.585914 0.585914
0.606185 0.606185 0.606185
0.630533 0.630533 0.630533
0.093873 0.093873 0.093873
0.405263 0.405263 0.405263
0.489635 0.489635 0.489635
0.537914 0.537914 0.537914
0.568816 0.568816 0.568816
0.591279 0.591279 0.591279
0.610391 0.610391 0.610391
0.628615 0.628615 0.628615
0.646451 0.646451 0.646451
0.093873 0.093873 0.093873
0.398942 0.398942 0.398942
0.485603 0.485603 0.485603
0.538332 0.538332 0.538332
0.574615 0.574615 0.574615
0.601922 0.601922 0.601922
0.624424 0.624424 0.624424
0.644515 0.644515 0.644515
0.662724 0.662724 0.662724
0.093873 0.093873 0.093873
0.093873 0.093873 0.093873
0.093873 0.093873 0.093873
0.093873 0.093873 0.093873
0.093873 0.093873 0.093873
0.093873 0.093873 0.093873
0.093873 0.093873 0.093873
0.093873 0.093873 0.093873
0.093873 0.093873 0.093873
0.093873 0.093873 0.093873
0.364425 0.364425 0.364425
0.451169 0.451169 0.451169
0.508366 0.508366 0.508366
0.519215 0.519215 0.519215
0.513840 0.513840 0.513840
0.512452 0.512452 0.512452
0.512462 0.512462 0.512462
0.512193 0.512193 0.512193
0.093873 0.093873 0.093873
0.426766 0.426766 0.426766
0.495973 0.495973 0.495973
0.528830 0.528830 0.528830
0.552121 0.552121 0.552121
0.571355 0.571355 0.571355
0.586507 0.586507 0.586507
0.597342 0.597342 0.597342
0.604068 0.604068 0.604068
0.093873 0.093873 0.093873
0.388632 0.388632 0.388632
0.450315 0.450315 0.450315
0.483518 0.483518 0.483518
0.526720 0.526720 0.526720
0.570665 0.570665 0.570665
0.605831 0.605831 0.605831
0.631260 0.631260 0.631260
0.648238 0.648238 0.648238
0.093873 0.093873 0.093873
0.411160 0.411160 0.411160
0.476512 0.476512 0.476512
0.496432 0.496432 0.496432
0.499564 0.499564 0.499564
0.560286 0.560286 0.560286
0.608550 0.608550 0.608550
0.644956 0.644956 0.644956
0.670254 0.670254 0.670254
0.093873 0.093873 0.093873
0.434488 0.434488 0.434488
0.513538 0.513538 0.513538
0.548152 0.548152 0.548152
0.565194 0.565194 0.565194
0.582724 0.582724 0.582724
0.618716 0.618716 0.618716
0.656403 0.656403 0.656403
0.685631 0.685631 0.685631
0.093873 0.093873 0.093873
0.446714 0.446714 0.446714
0.534721 0.534721 0.534721
0.580859 0.580859 0.580859
0.607883 0.607883 0.607883
0.627881 0.627881 0.627881
0.648370 0.648370 0.648370
0.674047 0.674047 0.674047
0.702156 0.702156 0.702156
0.093873 0.093873 0.093873
0.449631 0.449631 0.449631
0.542743 0.542743 0.542743
0.596697 0.596697 0.596697
0.631790 0.631790 0.631790
0.657122 0.657122 0.657122
0.678613 0.678613 0.678613
0.699593 0.699593 0.699593
0.720781 0.720781 0.720781
0.093873 0.093873 0.093873
0.445873 0.445873 0.445873
0.541323 0.541323 0.541323
0.600172 0.600172 0.600172
0.641269 0.641269 0.641269
0.671653 0.671653 0.671653
0.696820 0.696820 0.696820
0.719324 0.719324 0.719324
0.739564 0.739564 0.739564
0.093873 0.093873 0.093873
0.093873 0.093873 0.093873
0.093873 0.093873 0.093873
0.093873 0.093873 0.093873
0.093873 0.093873 0.093873
0.093873 0.093873 0.093873
0.093873 0.093873 0.093873
0.093873 0.093873 0.093873
0.093873 0.093873 0.093873
0.093873 0.093873 0.093873
0.402818 0.402818 0.402818
0.494670 0.494670 0.494670
0.556536 0.556536 0.556536
0.600195 0.600195 0.600195
0.584626 0.584626 0.584626
0.574464 0.574464 0.574464
0.568167 0.568167 0.568167
0.563759 0.563759 0.563759
0.093873 0.093873 0.093873
0.490783 0.490783 0.490783
0.600199 0.600199 0.600199
0.633361 0.633361 0.633361
0.645514 0.645514 0.645514
0.652058 0.652058 0.652058
0.657228 0.657228 0.657228
0.661333 0.661333 0.661333
0.663873 0.663873 0.663873
0.093873 0.093873 0.093873
0.457055 0.457055 0.457055
0.541167 0.541167 0.541167
0.586470 0.586470 0.586470
0.620956 0.620956 0.620956
0.651437 0.651437 0.651437
0.676681 0.676681 0.676681
0.696221 0.696221 0.696221
0.709992 0.709992 0.709992
0.093873 0.093873 0.093873
0.446084 0.446084 0.446084
0.525618 0.525618 0.525618
0.562284 0.562284 0.562284
0.591875 0.591875 0.591875
0.632969 0.632969 0.632969
0.674100 0.674100 0.674100
0.707428 0.707428 0.707428
0.731237 0.731237 0.731237
0.093873 0.093873 0.093873
0.463365 0.463365 0.463365
0.550001 0.550001 0.550001
0.590533 0.590533 0.590533
0.609812 0.609812 0.609812
0.620952 0.620952 0.620952
0.673104 0.673104 0.673104
0.714617 0.714617 0.714617
0.744749 0.744749 0.744749
0.093873 0.093873 0.093873
0.478424 0.478424 0.478424
0.573415 0.573415 0.573415
0.624697 0.624697 0.624697
0.654647 0.654647 0.654647
0.675432 0.675432 0.675432
0.697412 0.697412 0.697412
0.729527 0.729527 0.729527
0.760186 0.760186 0.760186
0.093873 0.093873 0.093873
0.484849 0.484849 0.484849
0.585275 0.585275 0.585275
0.644591 0.644591 0.644591
0.682488 0.682488 0.682488
0.710274 0.710274 0.710274
0.733236 0.733236 0.733236
0.755925 0.755925 0.755925
0.780201 0.780201 0.780201
0.093873 0.093873 0.093873
0.483698 0.483698 0.483698
0.586878 0.586878 0.586878
0.651212 0.651212 0.651212
0.695317 0.695317 0.695317
0.728257 0.728257 0.728257
0.754890 0.754890 0.754890
0.779161 0.779161 0.779161
0.799378 0.799378 0.799378
0.093873 0.093873 0.093873
0.093873 0.093873 0.093873
0.093873 0.093873 0.093873
0.093873 0.093873 0.093873
0.093873 0.093873 0.093873
0.093873 0.093873 0.093873
0.093873 0.093873 0.093873
0.093873 0.093873 0.093873
0.093873 0.093873 0.093873
0.093873 0.093873 0.093873
0.434866 0.434866 0.434866
0.532885 0.532885 0.532885
0.599257 0.599257 0.599257
0.651125 0.651125 0.651125
0.651912 0.651912 0.651912
0.634749 0.634749 0.634749
0.622023 0.622023 0.622023
0.612641 0.612641 0.612641
0.093873 0.093873 0.093873
0.528767 0.528767 0.528767
0.646238 0.646238 0.646238
0.723143 0.723143 0.723143
0.729946 0.729946 0.729946
0.728267 0.728267 0.728267
0.724979 0.724979 0.724979
0.722029 0.722029 0.722029
0.719364 0.719364 0.719364
0.093873 0.093873 0.093873
0.528916 0.528916 0.528916
0.629333 0.629333 0.629333
0.680637 0.680637 0.680637
0.710891 0.710891 0.710891
0.730933 0.730933 0.730933
0.746056 0.746056 0.746056
0.757653 0.757653 0.757653
0.765911 0.765911 0.765911
0.093873 0.093873 0.093873
0.493399 0.493399 0.493399
0.589059 0.589059 0.589059
0.642064 0.642064 0.642064
0.678914 0.678914 0.678914
0.712312 0.712312 0.712312
0.742035 0.742035 0.742035
0.767340 0.767340 0.767340
0.786018 0.786018 0.786018
0.093873 0.093873 0.093873
0.493423 0.493423 0.493423
0.589292 0.589292 0.589292
0.639812 0.639812 0.639812
0.670046 0.670046 0.670046
0.698924 0.698924 0.698924
0.735366 0.735366 0.735366
0.770393 0.770393 0.770393
0.796452 0.796452 0.796452
0.093873 0.093873 0.093873
0.505883 0.505883 0.505883
0.607530 0.607530 0.607530
0.663913 0.663913 0.663913
0.697382 0.697382 0.697382
0.719696 0.719696 0.719696
0.737280 0.737280 0.737280
0.778868 0.778868 0.778868
0.808062 0.808062 0.808062
0.093873 0.093873 0.093873
0.514325 0.514325 0.514325
0.621282 0.621282 0.621282
0.684470 0.684470 0.684470
0.725512 0.725512 0.725512
0.754299 0.754299 0.754299
0.778726 0.778726 0.778726
0.800556 0.800556 0.800556
0.825731 0.825731 0.825731
0.093873 0.093873 0.093873
0.515702 0.515702 0.515702
0.625706 0.625706 0.625706
0.693862 0.693862 0.693862
0.740385 0.740385 0.740385
0.775212 0.775212 0.775212
0.801254 0.801254 0.801254
0.824672 0.824672 0.824672
0.847240 0.847240 0.847240
0.093873 0.093873 0.093873
0.093873 0.093873 0.093873
0.093873 0.093873 0.093873
0.093873 0.093873 0.093873
0.093873 0.093873 0.093873
0.093873 0.093873 0.093873
0.093873 0.093873 0.093873
0.093873 0.093873 0.093873
0.093873 0.093873 0.093873
0.093873 0.093873 0.093873
0.463417 0.463417 0.463417
0.567272 0.567272 0.567272
0.637927 0.637927 0.637927
0.691896 0.691896 0.691896
0.711231 0.711231 0.711231
0.689906 0.689906 0.689906
0.672413 0.672413 0.672413
0.658630 0.658630 0.658630
0.093873 0.093873 0.093873
0.562888 0.562888 0.562888
0.686703 0.686703 0.686703
0.766525 0.766525 0.766525
0.798229 0.798229 0.798229
0.793217 0.793217 0.793217
0.785243 0.785243 0.785243
0.777235 0.777235 0.777235
0.769421 0.769421 0.769421
0.093873 0.093873 0.093873
0.594495 0.594495 0.594495
0.706788 0.706788 0.706788
0.760501 0.760501 0.760501
0.786994 0.786994 0.786994
0.799802 0.799802 0.799802
0.807084 0.807084 0.807084
0.811506 0.811506 0.811506
0.814033 0.814033 0.814033
0.093873 0.093873 0.093873
0.547123 0.547123 0.547123
0.656822 0.656822 0.656822
0.718075 0.718075 0.718075
0.756134 0.756134 0.756134
0.783814 0.783814 0.783814
0.803891 0.803891 0.803891
0.820261 0.820261 0.820261
0.832974 0.832974 0.832974
0.093873 0.093873 0.093873
0.529334 0.529334 0.529334
0.636380 0.636380 0.636380
0.696893 0.696893 0.696893
0.736437 0.736437 0.736437
0.768406 0.768406 0.768406
0.796475 0.796475 0.796475
0.821352 0.821352 0.821352
0.842422 0.842422 0.842422
0.093873 0.093873 0.093873
0.532707 0.532707 0.532707
0.641875 0.641875 0.641875
0.703955 0.703955 0.703955
0.742501 0.742501 0.742501
0.770847 0.770847 0.770847
0.796635 0.796635 0.796635
0.825296 0.825296 0.825296
0.851993 0.851993 0.851993
0.093873 0.093873 0.093873
0.540301 0.540301 0.540301
0.653458 0.653458 0.653458
0.720512 0.720512 0.720512
0.763626 0.763626 0.763626
0.793290 0.793290 0.793290
0.816072 0.816072 0.816072
0.837347 0.837347 0.837347
0.867363 0.867363 0.867363
0.093873 0.093873 0.093873
0.543405 0.543405 0.543405
0.659462 0.659462 0.659462
0.730702 0.730702 0.730702
0.779419 0.779419 0.779419
0.812314 0.812314 0.812314
0.839914 0.839914 0.839914
0.865272 0.865272 0.865272
0.887575 0.887575 0.887575
0.093873 0.093873 0.093873
0.093873 0.093873 0.093873
0.093873 0.093873 0.093873
0.093873 0.093873 0.093873
0.093873 0.093873 0.093873
0.093873 0.093873 0.093873
0.093873 0.093873 0.093873
0.093873 0.093873 0.093873
0.093873 0.093873 0.093873
0.093873 0.093873 0.093873
0.489659 0.489659 0.489659
0.598847 0.598847 0.598847
0.672603 0.672603 0.672603
0.728496 0.728496 0.728496
0.759925 0.759925 0.759925
0.737983 0.737983 0.737983
0.718137 0.718137 0.718137
0.700634 0.700634 0.700634
0.093873 0.093873 0.093873
0.594220 0.594220 0.594220
0.723330 0.723330 0.723330
0.802187 0.802187 0.802187
0.850344 0.850344 0.850344
0.844492 0.844492 0.844492
0.833641 0.833641 0.833641
0.822080 0.822080 0.822080
0.811422 0.811422 0.811422
0.093873 0.093873 0.093873
0.650663 0.650663 0.650663
0.769371 0.769371 0.769371
0.821197 0.821197 0.821197
0.845720 0.845720 0.845720
0.856144 0.856144 0.856144
0.859413 0.859413 0.859413
0.859297 0.859297 0.859297
0.857556 0.857556 0.857556
0.093873 0.093873 0.093873
0.599900 0.599900 0.599900
0.719604 0.719604 0.719604
0.783388 0.783388 0.783388
0.818366 0.818366 0.818366
0.841350 0.841350 0.841350
0.857400 0.857400 0.857400
0.869053 0.869053 0.869053
0.877425 0.877425 0.877425
0.093873 0.093873 0.093873
0.569944 0.569944 0.569944
0.686925 0.686925 0.686925
0.753786 0.753786 0.753786
0.795693 0.795693 0.795693
0.824862 0.824862 0.824862
0.848936 0.848936 0.848936
0.869444 0.869444 0.869444
0.885233 0.885233 0.885233
0.093873 0.093873 0.093873
0.561993 0.561993 0.561993
0.678450 0.678450 0.678450
0.746040 0.746040 0.746040
0.789380 0.789380 0.789380
0.819530 0.819530 0.819530
0.846269 0.846269 0.846269
0.871641 0.871641 0.871641
0.890436 0.890436 0.890436
0.093873 0.093873 0.093873
0.565255 0.565255 0.565255
0.683878 0.683878 0.683878
0.754006 0.754006 0.754006
0.798607 0.798607 0.798607
0.829764 0.829764 0.829764
0.856049 0.856049 0.856049
0.881781 0.881781 0.881781
0.898881 0.898881 0.898881
0.093873 0.093873 0.093873
0.568561 0.568561 0.568561
0.689682 0.689682 0.689682
0.763259 0.763259 0.763259
0.810732 0.810732 0.810732
0.845995 0.845995 0.845995
0.875616 0.875616 0.875616
0.895573 0.895573 0.895573
0.912373 0.912373 0.912373
