trix_modern/TriX_Red25_ExtraPunchy.cube
TITLE "Tri-X Red25 ExtraPunchy"
# Adobe RGB in/out. REPLACES AgX. R=0.9735 G=0.0265 B=0.0000
LUT_3D_SIZE 5
DOMAIN_MIN 0.0 0.0 0.0
DOMAIN_MAX 1.0 1.0 1.0
0.092237 0.092237 0.092237
0.092237 0.092237 0.092237
0.092237 0.092237 0.092237
0.092237 0.092237 0.092237
0.092237 0.092237 0.092237
0.092237 0.092237 0.092237
0.197330 0.197330 0.197330
0.804189 0.804189 0.804189
0.979369 0.979369 0.979369
0.993014 0.993014 0.993014
0.092237 0.092237 0.092237
0.243047 0.243047 0.243047
0.708673 0.708673 0.708673
0.954032 0.954032 0.954032
0.991507 0.991507 0.991507
0.092237 0.092237 0.092237
0.215046 0.215046 0.215046
0.715902 0.715902 0.715902
0.936058 0.936058 0.936058
0.987658 0.987658 0.987658
0.092237 0.092237 0.092237
0.173301 0.173301 0.173301
0.653659 0.653659 0.653659
0.924242 0.924242 0.924242
0.985097 0.985097 0.985097
0.092237 0.092237 0.092237
0.092237 0.092237 0.092237
0.092237 0.092237 0.092237
0.092237 0.092237 0.092237
0.092237 0.092237 0.092237
0.092237 0.092237 0.092237
0.128236 0.128236 0.128236
0.758597 0.758597 0.758597
0.974290 0.974290 0.974290
0.992715 0.992715 0.992715
0.092237 0.092237 0.092237
0.215504 0.215504 0.215504
0.650109 0.650109 0.650109
0.943736 0.943736 0.943736
0.991233 0.991233 0.991233
0.092237 0.092237 0.092237
0.206112 0.206112 0.206112
0.695098 0.695098 0.695098
0.930425 0.930425 0.930425
0.987121 0.987121 0.987121
0.092237 0.092237 0.092237
0.170963 0.170963 0.170963
0.647897 0.647897 0.647897
0.922763 0.922763 0.922763
0.984978 0.984978 0.984978
0.092237 0.092237 0.092237
0.092237 0.092237 0.092237
0.092237 0.092237 0.092237
0.092237 0.092237 0.092237
0.092237 0.092237 0.092237
0.092237 0.092237 0.092237
0.296902 0.296902 0.296902
0.829344 0.829344 0.829344
0.976208 0.976208 0.976208
0.992532 0.992532 0.992532
0.092237 0.092237 0.092237
0.183527 0.183527 0.183527
0.545947 0.545947 0.545947
0.934402 0.934402 0.934402
0.990361 0.990361 0.990361
0.092237 0.092237 0.092237
0.188328 0.188328 0.188328
0.654915 0.654915 0.654915
0.918575 0.918575 0.918575
0.986079 0.986079 0.986079
0.092237 0.092237 0.092237
0.165078 0.165078 0.165078
0.632732 0.632732 0.632732
0.919202 0.919202 0.919202
0.984693 0.984693 0.984693
0.092237 0.092237 0.092237
0.092237 0.092237 0.092237
0.092237 0.092237 0.092237
0.092237 0.092237 0.092237
0.092237 0.092237 0.092237
0.092237 0.092237 0.092237
0.367502 0.367502 0.367502
0.903090 0.903090 0.903090
0.982488 0.982488 0.982488
0.992852 0.992852 0.992852
0.092237 0.092237 0.092237
0.203367 0.203367 0.203367
0.712852 0.712852 0.712852
0.951058 0.951058 0.951058
0.990884 0.990884 0.990884
0.092237 0.092237 0.092237
0.173777 0.173777 0.173777
0.625699 0.625699 0.625699
0.903272 0.903272 0.903272
0.985551 0.985551 0.985551
0.092237 0.092237 0.092237
0.158166 0.158166 0.158166
0.614681 0.614681 0.614681
0.915322 0.915322 0.915322
0.984421 0.984421 0.984421
0.092237 0.092237 0.092237
0.092237 0.092237 0.092237
0.092237 0.092237 0.092237
0.092237 0.092237 0.092237
0.092237 0.092237 0.092237
0.092237 0.092237 0.092237
0.367502 0.367502 0.367502
0.931907 0.931907 0.931907
0.986354 0.986354 0.986354
0.993338 0.993338 0.993338
0.092237 0.092237 0.092237
0.247791 0.247791 0.247791
0.802157 0.802157 0.802157
0.966370 0.966370 0.966370
0.991540 0.991540 0.991540
0.092237 0.092237 0.092237
0.171968 0.171968 0.171968
0.648360 0.648360 0.648360
0.925153 0.925153 0.925153
0.986348 0.986348 0.986348
0.092237 0.092237 0.092237
0.152288 0.152288 0.152288
0.600832 0.600832 0.600832
0.912078 0.912078 0.912078
0.984304 0.984304 0.984304
