trix_modern/TriX_Blue47_ExtraPunchy.cube
TITLE "Tri-X Blue47 ExtraPunchy"
# Adobe RGB in/out. REPLACES AgX. R=0.0336 G=0.0311 B=0.9353
LUT_3D_SIZE 5
DOMAIN_MIN 0.0 0.0 0.0
DOMAIN_MAX 1.0 1.0 1.0
0.092237 0.092237 0.092237
0.092237 0.092237 0.092237
0.092237 0.092237 0.092237
0.092237 0.092237 0.092237
0.092237 0.092237 0.092237
0.092237 0.092237 0.092237
0.092237 0.092237 0.092237
0.092237 0.092237 0.092237
0.092237 0.092237 0.092237
0.092237 0.092237 0.092237
0.092237 0.092237 0.092237
0.092237 0.092237 0.092237
0.092237 0.092237 0.092237
0.092237 0.092237 0.092237
0.092237 0.092237 0.092237
0.092237 0.092237 0.092237
0.092237 0.092237 0.092237
0.092237 0.092237 0.092237
0.092237 0.092237 0.092237
0.092237 0.092237 0.092237
0.092237 0.092237 0.092237
0.092237 0.092237 0.092237
0.092237 0.092237 0.092237
0.092237 0.092237 0.092237
0.092237 0.092237 0.092237
0.092237 0.092237 0.092237
0.092237 0.092237 0.092237
0.092237 0.092237 0.092237
0.092237 0.092237 0.092237
0.092237 0.092237 0.092237
0.092237 0.092237 0.092237
0.134598 0.134598 0.134598
0.214164 0.214164 0.214164
0.230175 0.230175 0.230175
0.216323 0.216323 0.216323
0.092237 0.092237 0.092237
0.222152 0.222152 0.222152
0.175267 0.175267 0.175267
0.184925 0.184925 0.184925
0.190745 0.190745 0.190745
0.092237 0.092237 0.092237
0.213654 0.213654 0.213654
0.190669 0.190669 0.190669
0.173785 0.173785 0.173785
0.171082 0.171082 0.171082
0.092237 0.092237 0.092237
0.179946 0.179946 0.179946
0.175670 0.175670 0.175670
0.167694 0.167694 0.167694
0.162288 0.162288 0.162288
0.092237 0.092237 0.092237
0.092237 0.092237 0.092237
0.092237 0.092237 0.092237
0.092237 0.092237 0.092237
0.092237 0.092237 0.092237
0.092237 0.092237 0.092237
0.876242 0.876242 0.876242
0.827982 0.827982 0.827982
0.796070 0.796070 0.796070
0.753255 0.753255 0.753255
0.092237 0.092237 0.092237
0.699132 0.699132 0.699132
0.545947 0.545947 0.545947
0.654581 0.654581 0.654581
0.681727 0.681727 0.681727
0.092237 0.092237 0.092237
0.715559 0.715559 0.715559
0.657347 0.657347 0.657347
0.610193 0.610193 0.610193
0.620203 0.620203 0.620203
0.092237 0.092237 0.092237
0.646998 0.646998 0.646998
0.637017 0.637017 0.637017
0.613668 0.613668 0.613668
0.600886 0.600886 0.600886
0.092237 0.092237 0.092237
0.092237 0.092237 0.092237
0.092237 0.092237 0.092237
0.092237 0.092237 0.092237
0.092237 0.092237 0.092237
0.092237 0.092237 0.092237
0.993184 0.993184 0.993184
0.991864 0.991864 0.991864
0.983647 0.983647 0.983647
0.971041 0.971041 0.971041
0.092237 0.092237 0.092237
0.966279 0.966279 0.966279
0.957817 0.957817 0.957817
0.954383 0.954383 0.954383
0.950080 0.950080 0.950080
0.092237 0.092237 0.092237
0.943443 0.943443 0.943443
0.927008 0.927008 0.927008
0.905124 0.905124 0.905124
0.921314 0.921314 0.921314
0.092237 0.092237 0.092237
0.925239 0.925239 0.925239
0.923707 0.923707 0.923707
0.917882 0.917882 0.917882
0.916055 0.916055 0.916055
0.092237 0.092237 0.092237
0.092237 0.092237 0.092237
0.092237 0.092237 0.092237
0.092237 0.092237 0.092237
0.092237 0.092237 0.092237
0.092237 0.092237 0.092237
0.995612 0.995612 0.995612
0.995612 0.995612 0.995612
0.995612 0.995612 0.995612
0.994151 0.994151 0.994151
0.092237 0.092237 0.092237
0.995357 0.995357 0.995357
0.994582 0.994582 0.994582
0.993398 0.993398 0.993398
0.992239 0.992239 0.992239
0.092237 0.092237 0.092237
0.991202 0.991202 0.991202
0.990125 0.990125 0.990125
0.988614 0.988614 0.988614
0.988212 0.988212 0.988212
0.092237 0.092237 0.092237
0.986526 0.986526 0.986526
0.986738 0.986738 0.986738
0.985993 0.985993 0.985993
0.986028 0.986028 0.986028
