trix_modern/TriX_Red25_ExtraSoft.cube
TITLE "Tri-X Red25 ExtraSoft"
# Adobe RGB in/out. REPLACES AgX. R=0.9735 G=0.0265 B=0.0000
LUT_3D_SIZE 5
DOMAIN_MIN 0.0 0.0 0.0
DOMAIN_MAX 1.0 1.0 1.0
0.121260 0.121260 0.121260
0.121260 0.121260 0.121260
0.121260 0.121260 0.121260
0.121260 0.121260 0.121260
0.121260 0.121260 0.121260
0.121260 0.121260 0.121260
0.317287 0.317287 0.317287
0.655763 0.655763 0.655763
0.898206 0.898206 0.898206
0.981028 0.981028 0.981028
0.121260 0.121260 0.121260
0.345505 0.345505 0.345505
0.586956 0.586956 0.586956
0.842242 0.842242 0.842242
0.964629 0.964629 0.964629
0.121260 0.121260 0.121260
0.328863 0.328863 0.328863
0.590980 0.590980 0.590980
0.815085 0.815085 0.815085
0.944596 0.944596 0.944596
0.121260 0.121260 0.121260
0.300542 0.300542 0.300542
0.557337 0.557337 0.557337
0.797436 0.797436 0.797436
0.931009 0.931009 0.931009
0.121260 0.121260 0.121260
0.121260 0.121260 0.121260
0.121260 0.121260 0.121260
0.121260 0.121260 0.121260
0.121260 0.121260 0.121260
0.121260 0.121260 0.121260
0.262816 0.262816 0.262816
0.621434 0.621434 0.621434
0.886214 0.886214 0.886214
0.977759 0.977759 0.977759
0.121260 0.121260 0.121260
0.329164 0.329164 0.329164
0.555417 0.555417 0.555417
0.826639 0.826639 0.826639
0.961678 0.961678 0.961678
0.121260 0.121260 0.121260
0.322921 0.322921 0.322921
0.579469 0.579469 0.579469
0.806651 0.806651 0.806651
0.941798 0.941798 0.941798
0.121260 0.121260 0.121260
0.298838 0.298838 0.298838
0.554220 0.554220 0.554220
0.795238 0.795238 0.795238
0.930423 0.930423 0.930423
0.121260 0.121260 0.121260
0.121260 0.121260 0.121260
0.121260 0.121260 0.121260
0.121260 0.121260 0.121260
0.121260 0.121260 0.121260
0.121260 0.121260 0.121260
0.374380 0.374380 0.374380
0.683724 0.683724 0.683724
0.890314 0.890314 0.890314
0.975762 0.975762 0.975762
0.121260 0.121260 0.121260
0.307843 0.307843 0.307843
0.504596 0.504596 0.504596
0.812601 0.812601 0.812601
0.958211 0.958211 0.958211
0.121260 0.121260 0.121260
0.311173 0.311173 0.311173
0.558015 0.558015 0.558015
0.789029 0.789029 0.789029
0.936377 0.936377 0.936377
0.121260 0.121260 0.121260
0.294488 0.294488 0.294488
0.546623 0.546623 0.546623
0.789958 0.789958 0.789958
0.929021 0.929021 0.929021
0.121260 0.121260 0.121260
0.121260 0.121260 0.121260
0.121260 0.121260 0.121260
0.121260 0.121260 0.121260
0.121260 0.121260 0.121260
0.121260 0.121260 0.121260
0.408732 0.408732 0.408732
0.767219 0.767219 0.767219
0.916725 0.916725 0.916725
0.979254 0.979254 0.979254
0.121260 0.121260 0.121260
0.321184 0.321184 0.321184
0.589285 0.589285 0.589285
0.837722 0.837722 0.837722
0.959865 0.959865 0.959865
0.121260 0.121260 0.121260
0.300887 0.300887 0.300887
0.543317 0.543317 0.543317
0.767470 0.767470 0.767470
0.933488 0.933488 0.933488
0.121260 0.121260 0.121260
0.289261 0.289261 0.289261
0.538103 0.538103 0.538103
0.784217 0.784217 0.784217
0.927685 0.927685 0.927685
0.121260 0.121260 0.121260
0.121260 0.121260 0.121260
0.121260 0.121260 0.121260
0.121260 0.121260 0.121260
0.121260 0.121260 0.121260
0.121260 0.121260 0.121260
0.408732 0.408732 0.408732
0.808866 0.808866 0.808866
0.937816 0.937816 0.937816
0.984540 0.984540 0.984540
0.121260 0.121260 0.121260
0.348183 0.348183 0.348183
0.654236 0.654236 0.654236
0.869394 0.869394 0.869394
0.964985 0.964985 0.964985
0.121260 0.121260 0.121260
0.299572 0.299572 0.299572
0.554470 0.554470 0.554470
0.798791 0.798791 0.798791
0.937786 0.937786 0.937786
0.121260 0.121260 0.121260
0.284689 0.284689 0.284689
0.531488 0.531488 0.531488
0.779695 0.779695 0.779695
0.927107 0.927107 0.927107
