trix_modern/TriX_Red25_ExtraSoft.cube
TITLE "Tri-X Red25 ExtraSoft"
# Adobe RGB in/out. REPLACES AgX. R=0.9735 G=0.0265 B=0.0000
LUT_3D_SIZE 33
DOMAIN_MIN 0.0 0.0 0.0
DOMAIN_MAX 1.0 1.0 1.0
0.121260 0.121260 0.121260
0.121260 0.121260 0.121260
0.121260 0.121260 0.121260
0.121260 0.121260 0.121260
0.121260 0.121260 0.121260
0.121260 0.121260 0.121260
0.121260 0.121260 0.121260
0.121260 0.121260 0.121260
0.121260 0.121260 0.121260
0.121260 0.121260 0.121260
0.121260 0.121260 0.121260
0.121260 0.121260 0.121260
0.121260 0.121260 0.121260
0.121260 0.121260 0.121260
0.121260 0.121260 0.121260
0.121260 0.121260 0.121260
0.121260 0.121260 0.121260
0.121260 0.121260 0.121260
0.121260 0.121260 0.121260
0.121260 0.121260 0.121260
0.121260 0.121260 0.121260
0.121260 0.121260 0.121260
0.121260 0.121260 0.121260
0.121260 0.121260 0.121260
0.121260 0.121260 0.121260
0.121260 0.121260 0.121260
0.121260 0.121260 0.121260
0.121260 0.121260 0.121260
0.121260 0.121260 0.121260
0.121260 0.121260 0.121260
0.121260 0.121260 0.121260
0.121260 0.121260 0.121260
0.121260 0.121260 0.121260
0.121260 0.121260 0.121260
0.121260 0.121260 0.121260
0.126460 0.126460 0.126460
0.152823 0.152823 0.152823
0.197262 0.197262 0.197262
0.248647 0.248647 0.248647
0.296670 0.296670 0.296670
0.339571 0.339571 0.339571
0.379461 0.379461 0.379461
0.417851 0.417851 0.417851
0.465335 0.465335 0.465335
0.511190 0.511190 0.511190
0.554119 0.554119 0.554119
0.596944 0.596944 0.596944
0.640499 0.640499 0.640499
0.682429 0.682429 0.682429
0.717430 0.717430 0.717430
0.751272 0.751272 0.751272
0.783986 0.783986 0.783986
0.809050 0.809050 0.809050
0.832995 0.832995 0.832995
0.856080 0.856080 0.856080
0.872694 0.872694 0.872694
0.888633 0.888633 0.888633
0.903961 0.903961 0.903961
0.918711 0.918711 0.918711
0.931372 0.931372 0.931372
0.942121 0.942121 0.942121
0.952164 0.952164 0.952164
0.960035 0.960035 0.960035
0.965575 0.965575 0.965575
0.970884 0.970884 0.970884
0.975974 0.975974 0.975974
0.121260 0.121260 0.121260
0.121260 0.121260 0.121260
0.123709 0.123709 0.123709
0.138700 0.138700 0.138700
0.177829 0.177829 0.177829
0.232659 0.232659 0.232659
0.283604 0.283604 0.283604
0.330372 0.330372 0.330372
0.373650 0.373650 0.373650
0.413637 0.413637 0.413637
0.463514 0.463514 0.463514
0.511618 0.511618 0.511618
0.556425 0.556425 0.556425
0.601190 0.601190 0.601190
0.646393 0.646393 0.646393
0.688682 0.688682 0.688682
0.724808 0.724808 0.724808
0.759649 0.759649 0.759649
0.791500 0.791500 0.791500
0.817035 0.817035 0.817035
0.841563 0.841563 0.841563
0.862899 0.862899 0.862899
0.879822 0.879822 0.879822
0.896070 0.896070 0.896070
0.911684 0.911684 0.911684
0.926335 0.926335 0.926335
0.937964 0.937964 0.937964
0.948576 0.948576 0.948576
0.958209 0.958209 0.958209
0.964058 0.964058 0.964058
0.969657 0.969657 0.969657
0.975021 0.975021 0.975021
0.980162 0.980162 0.980162
0.121260 0.121260 0.121260
0.121260 0.121260 0.121260
0.126221 0.126221 0.126221
0.137067 0.137067 0.137067
0.161530 0.161530 0.161530
0.210893 0.210893 0.210893
0.263109 0.263109 0.263109
0.312342 0.312342 0.312342
0.359176 0.359176 0.359176
0.401792 0.401792 0.401792
0.450472 0.450472 0.450472
0.501621 0.501621 0.501621
0.548396 0.548396 0.548396
0.594531 0.594531 0.594531
0.641418 0.641418 0.641418
0.685787 0.685787 0.685787
0.723121 0.723121 0.723121
0.759059 0.759059 0.759059
0.791817 0.791817 0.791817
0.818058 0.818058 0.818058
0.843229 0.843229 0.843229
0.864584 0.864584 0.864584
0.881901 0.881901 0.881901
0.898506 0.898506 0.898506
0.914444 0.914444 0.914444
0.928814 0.928814 0.928814
0.940506 0.940506 0.940506
0.951299 0.951299 0.951299
0.959938 0.959938 0.959938
0.965871 0.965871 0.965871
0.971547 0.971547 0.971547
0.976981 0.976981 0.976981
0.982186 0.982186 0.982186
0.121260 0.121260 0.121260
0.121260 0.121260 0.121260
0.128111 0.128111 0.128111
0.143254 0.143254 0.143254
0.165431 0.165431 0.165431
0.198024 0.198024 0.198024
0.246087 0.246087 0.246087
0.294401 0.294401 0.294401
0.341833 0.341833 0.341833
0.386205 0.386205 0.386205
0.431775 0.431775 0.431775
0.485157 0.485157 0.485157
0.534134 0.534134 0.534134
0.581109 0.581109 0.581109
0.629596 0.629596 0.629596
0.676803 0.676803 0.676803
0.715713 0.715713 0.715713
0.752859 0.752859 0.752859
0.787788 0.787788 0.787788
0.814842 0.814842 0.814842
0.840766 0.840766 0.840766
0.863272 0.863272 0.863272
0.881069 0.881069 0.881069
0.898107 0.898107 0.898107
0.914438 0.914438 0.914438
0.929099 0.929099 0.929099
0.941023 0.941023 0.941023
0.952041 0.952041 0.952041
0.960504 0.960504 0.960504
0.966547 0.966547 0.966547
0.972322 0.972322 0.972322
0.977847 0.977847 0.977847
0.983134 0.983134 0.983134
0.121260 0.121260 0.121260
0.121260 0.121260 0.121260
0.131363 0.131363 0.131363
0.154070 0.154070 0.154070
0.179020 0.179020 0.179020
0.205626 0.205626 0.205626
0.236694 0.236694 0.236694
0.280978 0.280978 0.280978
0.326130 0.326130 0.326130
0.370688 0.370688 0.370688
0.412623 0.412623 0.412623
0.465389 0.465389 0.465389
0.516628 0.516628 0.516628
0.564721 0.564721 0.564721
0.613413 0.613413 0.613413
0.661890 0.661890 0.661890
0.704294 0.704294 0.704294
0.742636 0.742636 0.742636
0.779467 0.779467 0.779467
0.808505 0.808505 0.808505
0.835264 0.835264 0.835264
0.859752 0.859752 0.859752
0.878098 0.878098 0.878098
0.895636 0.895636 0.895636
0.912422 0.912422 0.912422
0.927801 0.927801 0.927801
0.940091 0.940091 0.940091
0.951378 0.951378 0.951378
0.960255 0.960255 0.960255
0.966432 0.966432 0.966432
0.972329 0.972329 0.972329
0.977966 0.977966 0.977966
0.983356 0.983356 0.983356
0.121260 0.121260 0.121260
0.121260 0.121260 0.121260
0.133171 0.133171 0.133171
0.160487 0.160487 0.160487
0.190593 0.190593 0.190593
0.218294 0.218294 0.218294
0.245195 0.245195 0.245195
0.272960 0.272960 0.272960
0.314658 0.314658 0.314658
0.357464 0.357464 0.357464
0.398555 0.398555 0.398555
0.446017 0.446017 0.446017
0.498402 0.498402 0.498402
0.546819 0.546819 0.546819
0.595015 0.595015 0.595015
0.644279 0.644279 0.644279
0.690274 0.690274 0.690274
0.729620 0.729620 0.729620
0.767452 0.767452 0.767452
0.799865 0.799865 0.799865
0.827470 0.827470 0.827470
0.853971 0.853971 0.853971
0.873467 0.873467 0.873467
0.891545 0.891545 0.891545
0.908829 0.908829 0.908829
0.925258 0.925258 0.925258
0.938019 0.938019 0.938019
0.949610 0.949610 0.949610
0.959364 0.959364 0.959364
0.965697 0.965697 0.965697
0.971738 0.971738 0.971738
0.977504 0.977504 0.977504
0.983014 0.983014 0.983014
0.121260 0.121260 0.121260
0.121260 0.121260 0.121260
0.134380 0.134380 0.134380
0.164072 0.164072 0.164072
0.198211 0.198211 0.198211
0.228499 0.228499 0.228499
0.255730 0.255730 0.255730
0.282284 0.282284 0.282284
0.309176 0.309176 0.309176
0.347538 0.347538 0.347538
0.386989 0.386989 0.386989
0.429155 0.429155 0.429155
0.480473 0.480473 0.480473
0.529209 0.529209 0.529209
0.576494 0.576494 0.576494
0.625638 0.625638 0.625638
0.674219 0.674219 0.674219
0.714928 0.714928 0.714928
0.753588 0.753588 0.753588
0.789652 0.789652 0.789652
0.818037 0.818037 0.818037
0.845292 0.845292 0.845292
0.867567 0.867567 0.867567
0.886194 0.886194 0.886194
0.903991 0.903991 0.903991
0.921012 0.921012 0.921012
0.934931 0.934931 0.934931
0.946945 0.946945 0.946945
0.957949 0.957949 0.957949
0.964456 0.964456 0.964456
0.970655 0.970655 0.970655
0.976568 0.976568 0.976568
0.982213 0.982213 0.982213
0.121260 0.121260 0.121260
0.121260 0.121260 0.121260
0.134446 0.134446 0.134446
0.165839 0.165839 0.165839
0.202996 0.202996 0.202996
0.235923 0.235923 0.235923
0.264479 0.264479 0.264479
0.291206 0.291206 0.291206
0.317287 0.317287 0.317287
0.344147 0.344147 0.344147
0.378190 0.378190 0.378190
0.415741 0.415741 0.415741
0.464548 0.464548 0.464548
0.513123 0.513123 0.513123
0.559650 0.559650 0.559650
0.607302 0.607302 0.607302
0.655763 0.655763 0.655763
0.699600 0.699600 0.699600
0.738852 0.738852 0.738852
0.776869 0.776869 0.776869
0.807565 0.807565 0.807565
0.835480 0.835480 0.835480
0.860758 0.860758 0.860758
0.879909 0.879909 0.879909
0.898206 0.898206 0.898206
0.915701 0.915701 0.915701
0.930992 0.930992 0.930992
0.943560 0.943560 0.943560
0.955260 0.955260 0.955260
0.962799 0.962799 0.962799
0.969168 0.969168 0.969168
0.975238 0.975238 0.975238
0.981028 0.981028 0.981028
0.121260 0.121260 0.121260
0.121260 0.121260 0.121260
0.134189 0.134189 0.134189
0.166475 0.166475 0.166475
0.205730 0.205730 0.205730
0.240790 0.240790 0.240790
0.271119 0.271119 0.271119
0.298712 0.298712 0.298712
0.324977 0.324977 0.324977
0.351074 0.351074 0.351074
0.376543 0.376543 0.376543
0.407121 0.407121 0.407121
0.451464 0.451464 0.451464
0.499212 0.499212 0.499212
0.544469 0.544469 0.544469
0.590217 0.590217 0.590217
0.638072 0.638072 0.638072
0.684543 0.684543 0.684543
0.724009 0.724009 0.724009
0.762425 0.762425 0.762425
0.796602 0.796602 0.796602
0.825034 0.825034 0.825034
0.852421 0.852421 0.852421
0.872995 0.872995 0.872995
0.891750 0.891750 0.891750
0.909690 0.909690 0.909690
0.926467 0.926467 0.926467
0.939614 0.939614 0.939614
0.951628 0.951628 0.951628
0.960806 0.960806 0.960806
0.967350 0.967350 0.967350
0.973583 0.973583 0.973583
0.979525 0.979525 0.979525
0.121260 0.121260 0.121260
0.121260 0.121260 0.121260
0.133742 0.133742 0.133742
0.166358 0.166358 0.166358
0.206999 0.206999 0.206999
0.243785 0.243785 0.243785
0.275800 0.275800 0.275800
0.304571 0.304571 0.304571
0.331832 0.331832 0.331832
0.357476 0.357476 0.357476
0.382271 0.382271 0.382271
0.406846 0.406846 0.406846
0.441059 0.441059 0.441059
0.487257 0.487257 0.487257
0.531334 0.531334 0.531334
0.575369 0.575369 0.575369
0.621948 0.621948 0.621948
0.668895 0.668895 0.668895
0.709740 0.709740 0.709740
0.748269 0.748269 0.748269
0.785619 0.785619 0.785619
0.814400 0.814400 0.814400
0.842190 0.842190 0.842190
0.865731 0.865731 0.865731
0.884881 0.884881 0.884881
0.903217 0.903217 0.903217
0.920780 0.920780 0.920780
0.935177 0.935177 0.935177
0.947573 0.947573 0.947573
0.958552 0.958552 0.958552
0.965270 0.965270 0.965270
0.971666 0.971666 0.971666
0.977763 0.977763 0.977763
0.121260 0.121260 0.121260
0.121260 0.121260 0.121260
0.133169 0.133169 0.133169
0.165730 0.165730 0.165730
0.207218 0.207218 0.207218
0.245341 0.245341 0.245341
0.278816 0.278816 0.278816
0.308819 0.308819 0.308819
0.336933 0.336933 0.336933
0.362963 0.362963 0.362963
0.387517 0.387517 0.387517
0.411686 0.411686 0.411686
0.442238 0.442238 0.442238
0.477181 0.477181 0.477181
0.520426 0.520426 0.520426
0.563152 0.563152 0.563152
0.607788 0.607788 0.607788
0.653808 0.653808 0.653808
0.696522 0.696522 0.696522
0.734878 0.734878 0.734878
0.772406 0.772406 0.772406
0.803950 0.803950 0.803950
0.831988 0.831988 0.831988
0.858368 0.858368 0.858368
0.877832 0.877832 0.877832
0.896498 0.896498 0.896498
0.914399 0.914399 0.914399
0.930284 0.930284 0.930284
0.943226 0.943226 0.943226
0.955259 0.955259 0.955259
0.962993 0.962993 0.962993
0.969549 0.969549 0.969549
0.975797 0.975797 0.975797
0.121260 0.121260 0.121260
0.121260 0.121260 0.121260
0.132775 0.132775 0.132775
0.164750 0.164750 0.164750
0.206683 0.206683 0.206683
0.245802 0.245802 0.245802
0.280477 0.280477 0.280477
0.311632 0.311632 0.311632
0.340692 0.340692 0.340692
0.367286 0.367286 0.367286
0.392024 0.392024 0.392024
0.416761 0.416761 0.416761
0.447820 0.447820 0.447820
0.479984 0.479984 0.479984
0.511624 0.511624 0.511624
0.552997 0.552997 0.552997
0.595703 0.595703 0.595703
0.640597 0.640597 0.640597
0.684637 0.684637 0.684637
0.722535 0.722535 0.722535
0.759833 0.759833 0.759833
0.793979 0.793979 0.793979
0.822107 0.822107 0.822107
0.849399 0.849399 0.849399
0.870807 0.870807 0.870807
0.889726 0.889726 0.889726
0.907900 0.907900 0.907900
0.925245 0.925245 0.925245
0.938707 0.938707 0.938707
0.950983 0.950983 0.950983
0.960581 0.960581 0.960581
0.967287 0.967287 0.967287
0.973680 0.973680 0.973680
0.121260 0.121260 0.121260
0.121260 0.121260 0.121260
0.132387 0.132387 0.132387
0.163523 0.163523 0.163523
0.205604 0.205604 0.205604
0.245442 0.245442 0.245442
0.281069 0.281069 0.281069
0.313248 0.313248 0.313248
0.343262 0.343262 0.343262
0.370533 0.370533 0.370533
0.395762 0.395762 0.395762
0.421792 0.421792 0.421792
0.453068 0.453068 0.453068
0.485012 0.485012 0.485012
0.515595 0.515595 0.515595
0.546005 0.546005 0.546005
0.585597 0.585597 0.585597
0.629287 0.629287 0.629287
0.673383 0.673383 0.673383
0.711477 0.711477 0.711477
0.748359 0.748359 0.748359
0.784680 0.784680 0.784680
0.812768 0.812768 0.812768
0.840092 0.840092 0.840092
0.863975 0.863975 0.863975
0.883066 0.883066 0.883066
0.901442 0.901442 0.901442
0.919121 0.919121 0.919121
0.933976 0.933976 0.933976
0.946609 0.946609 0.946609
0.958091 0.958091 0.958091
0.964935 0.964935 0.964935
0.971462 0.971462 0.971462
0.121260 0.121260 0.121260
0.121260 0.121260 0.121260
0.131980 0.131980 0.131980
0.162145 0.162145 0.162145
0.204166 0.204166 0.204166
0.244510 0.244510 0.244510
0.280880 0.280880 0.280880
0.313939 0.313939 0.313939
0.344842 0.344842 0.344842
0.372840 0.372840 0.372840
0.398667 0.398667 0.398667
0.425991 0.425991 0.425991
0.457703 0.457703 0.457703
0.489672 0.489672 0.489672
0.519733 0.519733 0.519733
0.549817 0.549817 0.549817
0.580210 0.580210 0.580210
0.619755 0.619755 0.619755
0.662760 0.662760 0.662760
0.701764 0.701764 0.701764
0.738098 0.738098 0.738098
0.773962 0.773962 0.773962
0.804125 0.804125 0.804125
0.831360 0.831360 0.831360
0.857467 0.857467 0.857467
0.876649 0.876649 0.876649
0.895154 0.895154 0.895154
0.912994 0.912994 0.912994
0.929160 0.929160 0.929160
0.942231 0.942231 0.942231
0.954367 0.954367 0.954367
0.962539 0.962539 0.962539
0.969187 0.969187 0.969187
0.121260 0.121260 0.121260
0.121260 0.121260 0.121260
0.131563 0.131563 0.131563
0.160672 0.160672 0.160672
0.202480 0.202480 0.202480
0.243154 0.243154 0.243154
0.280078 0.280078 0.280078
0.313862 0.313862 0.313862
0.345549 0.345549 0.345549
0.374264 0.374264 0.374264
0.400727 0.400727 0.400727
0.429243 0.429243 0.429243
0.461536 0.461536 0.461536
0.493652 0.493652 0.493652
0.523501 0.523501 0.523501
0.553421 0.553421 0.553421
0.583688 0.583688 0.583688
0.616026 0.616026 0.616026
0.653734 0.653734 0.653734
0.693352 0.693352 0.693352
0.729037 0.729037 0.729037
0.764380 0.764380 0.764380
0.796263 0.796263 0.796263
0.823310 0.823310 0.823310
0.849745 0.849745 0.849745
0.870577 0.870577 0.870577
0.889142 0.889142 0.889142
0.907078 0.907078 0.907078
0.924392 0.924392 0.924392
0.937924 0.937924 0.937924
0.950205 0.950205 0.950205
0.960144 0.960144 0.960144
0.966898 0.966898 0.966898
0.121260 0.121260 0.121260
0.121260 0.121260 0.121260
0.131137 0.131137 0.131137
0.159132 0.159132 0.159132
0.200609 0.200609 0.200609
0.241471 0.241471 0.241471
0.278786 0.278786 0.278786
0.313151 0.313151 0.313151
0.345505 0.345505 0.345505
0.374889 0.374889 0.374889
0.401976 0.401976 0.401976
0.431516 0.431516 0.431516
0.464460 0.464460 0.464460
0.496720 0.496720 0.496720
0.526725 0.526725 0.526725
0.556636 0.556636 0.556636
0.586956 0.586956 0.586956
0.619057 0.619057 0.619057
0.651493 0.651493 0.651493
0.686132 0.686132 0.686132
0.721140 0.721140 0.721140
0.755921 0.755921 0.755921
0.789210 0.789210 0.789210
0.815996 0.815996 0.815996
0.842242 0.842242 0.842242
0.864917 0.864917 0.864917
0.883481 0.883481 0.883481
0.901454 0.901454 0.901454
0.918838 0.918838 0.918838
0.933582 0.933582 0.933582
0.946143 0.946143 0.946143
0.957785 0.957785 0.957785
0.964629 0.964629 0.964629
0.121260 0.121260 0.121260
0.121260 0.121260 0.121260
0.130706 0.130706 0.130706
0.157543 0.157543 0.157543
0.198601 0.198601 0.198601
0.239536 0.239536 0.239536
0.277106 0.277106 0.277106
0.311917 0.311917 0.311917
0.344821 0.344821 0.344821
0.374809 0.374809 0.374809
0.402477 0.402477 0.402477
0.432835 0.432835 0.432835
0.466440 0.466440 0.466440
0.498997 0.498997 0.498997
0.529280 0.529280 0.529280
0.559316 0.559316 0.559316
0.589796 0.589796 0.589796
0.621779 0.621779 0.621779
0.654013 0.654013 0.654013
0.685315 0.685315 0.685315
0.714310 0.714310 0.714310
0.748518 0.748518 0.748518
0.782466 0.782466 0.782466
0.809426 0.809426 0.809426
0.835426 0.835426 0.835426
0.859709 0.859709 0.859709
0.878218 0.878218 0.878218
0.896177 0.896177 0.896177
0.913582 0.913582 0.913582
0.929365 0.929365 0.929365
0.942233 0.942233 0.942233
0.954237 0.954237 0.954237
0.962411 0.962411 0.962411
0.121260 0.121260 0.121260
0.121260 0.121260 0.121260
0.130270 0.130270 0.130270
0.156234 0.156234 0.156234
0.196492 0.196492 0.196492
0.237406 0.237406 0.237406
0.275115 0.275115 0.275115
0.310256 0.310256 0.310256
0.343598 0.343598 0.343598
0.374116 0.374116 0.374116
0.402304 0.402304 0.402304
0.433256 0.433256 0.433256
0.467488 0.467488 0.467488
0.500451 0.500451 0.500451
0.531091 0.531091 0.531091
0.561357 0.561357 0.561357
0.592077 0.592077 0.592077
0.624057 0.624057 0.624057
0.656192 0.656192 0.656192
0.687006 0.687006 0.687006
0.714390 0.714390 0.714390
0.742067 0.742067 0.742067
0.775476 0.775476 0.775476
0.803572 0.803572 0.803572
0.829291 0.829291 0.829291
0.854550 0.854550 0.854550
0.873379 0.873379 0.873379
0.891281 0.891281 0.891281
0.908663 0.908663 0.908663
0.925383 0.925383 0.925383
0.938513 0.938513 0.938513
0.950577 0.950577 0.950577
0.960269 0.960269 0.960269
0.121260 0.121260 0.121260
0.121260 0.121260 0.121260
0.129831 0.129831 0.129831
0.154999 0.154999 0.154999
0.194307 0.194307 0.194307
0.235126 0.235126 0.235126
0.272878 0.272878 0.272878
0.308245 0.308245 0.308245
0.341924 0.341924 0.341924
0.372895 0.372895 0.372895
0.401534 0.401534 0.401534
0.432857 0.432857 0.432857
0.467651 0.467651 0.467651
0.501088 0.501088 0.501088
0.532130 0.532130 0.532130
0.562695 0.562695 0.562695
0.593704 0.593704 0.593704
0.625781 0.625781 0.625781
0.657913 0.657913 0.657913
0.688386 0.688386 0.688386
0.715638 0.715638 0.715638
0.742860 0.742860 0.742860
0.770007 0.770007 0.770007
0.798383 0.798383 0.798383
0.823804 0.823804 0.823804
0.848809 0.848809 0.848809
0.868968 0.868968 0.868968
0.886779 0.886779 0.886779
0.904104 0.904104 0.904104
0.920939 0.920939 0.920939
0.934911 0.934911 0.934911
0.947106 0.947106 0.947106
0.958221 0.958221 0.958221
0.121260 0.121260 0.121260
0.121260 0.121260 0.121260
0.129389 0.129389 0.129389
0.153750 0.153750 0.153750
0.192068 0.192068 0.192068
0.232729 0.232729 0.232729
0.270444 0.270444 0.270444
0.305950 0.305950 0.305950
0.339872 0.339872 0.339872
0.371223 0.371223 0.371223
0.400241 0.400241 0.400241
0.431718 0.431718 0.431718
0.466993 0.466993 0.466993
0.500942 0.500942 0.500942
0.532398 0.532398 0.532398
0.563303 0.563303 0.563303
0.594618 0.594618 0.594618
0.626870 0.626870 0.626870
0.659084 0.659084 0.659084
0.689371 0.689371 0.689371
0.716557 0.716557 0.716557
0.743668 0.743668 0.743668
0.770680 0.770680 0.770680
0.794934 0.794934 0.794934
0.818914 0.818914 0.818914
0.843653 0.843653 0.843653
0.864969 0.864969 0.864969
0.882668 0.882668 0.882668
0.899910 0.899910 0.899910
0.916690 0.916690 0.916690
0.931447 0.931447 0.931447
0.943843 0.943843 0.943843
0.955548 0.955548 0.955548
0.121260 0.121260 0.121260
0.121260 0.121260 0.121260
0.128944 0.128944 0.128944
0.152489 0.152489 0.152489
0.189789 0.189789 0.189789
0.230165 0.230165 0.230165
0.267855 0.267855 0.267855
0.303423 0.303423 0.303423
0.337507 0.337507 0.337507
0.369167 0.369167 0.369167
0.398494 0.398494 0.398494
0.429924 0.429924 0.429924
0.465587 0.465587 0.465587
0.500062 0.500062 0.500062
0.531922 0.531922 0.531922
0.563181 0.563181 0.563181
0.594795 0.594795 0.594795
0.627276 0.627276 0.627276
0.659637 0.659637 0.659637
0.689895 0.689895 0.689895
0.717078 0.717078 0.717078
0.744135 0.744135 0.744135
0.771059 0.771059 0.771059
0.795144 0.795144 0.795144
0.816186 0.816186 0.816186
0.839034 0.839034 0.839034
0.861358 0.861358 0.861358
0.878931 0.878931 0.878931
0.896073 0.896073 0.896073
0.912777 0.912777 0.912777
0.928233 0.928233 0.928233
0.940797 0.940797 0.940797
0.952509 0.952509 0.952509
0.121260 0.121260 0.121260
0.121260 0.121260 0.121260
0.128498 0.128498 0.128498
0.151222 0.151222 0.151222
0.187482 0.187482 0.187482
0.227428 0.227428 0.227428
0.265141 0.265141 0.265141
0.300706 0.300706 0.300706
0.334880 0.334880 0.334880
0.366784 0.366784 0.366784
0.396353 0.396353 0.396353
0.427553 0.427553 0.427553
0.463509 0.463509 0.463509
0.498506 0.498506 0.498506
0.530742 0.530742 0.530742
0.562349 0.562349 0.562349
0.594233 0.594233 0.594233
0.626974 0.626974 0.626974
0.659529 0.659529 0.659529
0.689910 0.689910 0.689910
0.717144 0.717144 0.717144
0.744202 0.744202 0.744202
0.771087 0.771087 0.771087
0.795112 0.795112 0.795112
0.816083 0.816083 0.816083
0.836885 0.836885 0.836885
0.858101 0.858101 0.858101
0.875543 0.875543 0.875543
0.892574 0.892574 0.892574
0.909189 0.909189 0.909189
0.925268 0.925268 0.925268
0.937970 0.937970 0.937970
0.949672 0.949672 0.949672
0.121260 0.121260 0.121260
0.121260 0.121260 0.121260
0.128051 0.128051 0.128051
0.149845 0.149845 0.149845
0.185089 0.185089 0.185089
0.224772 0.224772 0.224772
0.262329 0.262329 0.262329
0.297835 0.297835 0.297835
0.332037 0.332037 0.332037
0.364095 0.364095 0.364095
0.393874 0.393874 0.393874
0.424679 0.424679 0.424679
0.460832 0.460832 0.460832
0.496336 0.496336 0.496336
0.528910 0.528910 0.528910
0.560844 0.560844 0.560844
0.592951 0.592951 0.592951
0.625964 0.625964 0.625964
0.658742 0.658742 0.658742
0.689386 0.689386 0.689386
0.716714 0.716714 0.716714
0.743821 0.743821 0.743821
0.770713 0.770713 0.770713
0.794796 0.794796 0.794796
0.815728 0.815728 0.815728
0.836476 0.836476 0.836476
0.856831 0.856831 0.856831
0.872471 0.872471 0.872471
0.889388 0.889388 0.889388
0.905906 0.905906 0.905906
0.922024 0.922024 0.922024
0.935279 0.935279 0.935279
0.947037 0.947037 0.947037
0.121260 0.121260 0.121260
0.121260 0.121260 0.121260
0.127643 0.127643 0.127643
0.148368 0.148368 0.148368
0.182677 0.182677 0.182677
0.222078 0.222078 0.222078
0.259440 0.259440 0.259440
0.294840 0.294840 0.294840
0.328863 0.328863 0.328863
0.361116 0.361116 0.361116
0.391104 0.391104 0.391104
0.421368 0.421368 0.421368
0.457629 0.457629 0.457629
0.493613 0.493613 0.493613
0.526478 0.526478 0.526478
0.558708 0.558708 0.558708
0.590980 0.590980 0.590980
0.624263 0.624263 0.624263
0.657274 0.657274 0.657274
0.688310 0.688310 0.688310
0.715763 0.715763 0.715763
0.742958 0.742958 0.742958
0.769895 0.769895 0.769895
0.794162 0.794162 0.794162
0.815085 0.815085 0.815085
0.835807 0.835807 0.835807
0.856304 0.856304 0.856304
0.871446 0.871446 0.871446
0.886485 0.886485 0.886485
0.902905 0.902905 0.902905
0.918939 0.918939 0.918939
0.932727 0.932727 0.932727
0.944596 0.944596 0.944596
0.121260 0.121260 0.121260
0.121260 0.121260 0.121260
0.127264 0.127264 0.127264
0.146892 0.146892 0.146892
0.180261 0.180261 0.180261
0.219355 0.219355 0.219355
0.256490 0.256490 0.256490
0.291744 0.291744 0.291744
0.325449 0.325449 0.325449
0.357936 0.357936 0.357936
0.388085 0.388085 0.388085
0.417681 0.417681 0.417681
0.453962 0.453962 0.453962
0.490230 0.490230 0.490230
0.523503 0.523503 0.523503
0.555989 0.555989 0.555989
0.588363 0.588363 0.588363
0.621899 0.621899 0.621899
0.655140 0.655140 0.655140
0.686680 0.686680 0.686680
0.714281 0.714281 0.714281
0.741593 0.741593 0.741593
0.768606 0.768606 0.768606
0.793183 0.793183 0.793183
0.814125 0.814125 0.814125
0.834846 0.834846 0.834846
0.855370 0.855370 0.855370
0.870704 0.870704 0.870704
0.885614 0.885614 0.885614
0.900314 0.900314 0.900314
0.916108 0.916108 0.916108
0.930375 0.930375 0.930375
0.942339 0.942339 0.942339
0.121260 0.121260 0.121260
0.121260 0.121260 0.121260
0.126884 0.126884 0.126884
0.145417 0.145417 0.145417
0.177844 0.177844 0.177844
0.216613 0.216613 0.216613
0.253494 0.253494 0.253494
0.288566 0.288566 0.288566
0.321981 0.321981 0.321981
0.354586 0.354586 0.354586
0.384854 0.384854 0.384854
0.413703 0.413703 0.413703
0.449893 0.449893 0.449893
0.486300 0.486300 0.486300
0.520038 0.520038 0.520038
0.552738 0.552738 0.552738
0.585145 0.585145 0.585145
0.618908 0.618908 0.618908
0.652366 0.652366 0.652366
0.684508 0.684508 0.684508
0.712267 0.712267 0.712267
0.739717 0.739717 0.739717
0.766829 0.766829 0.766829
0.791840 0.791840 0.791840
0.812825 0.812825 0.812825
