trix_modern/TriX_Yellow8_Punchy.cube
TITLE "Tri-X Yellow8 Punchy"
# Adobe RGB in/out. REPLACES AgX. R=0.5015 G=0.4679 B=0.0307
LUT_3D_SIZE 9
DOMAIN_MIN 0.0 0.0 0.0
DOMAIN_MAX 1.0 1.0 1.0
0.091936 0.091936 0.091936
0.091936 0.091936 0.091936
0.091936 0.091936 0.091936
0.091936 0.091936 0.091936
0.091936 0.091936 0.091936
0.091936 0.091936 0.091936
0.091936 0.091936 0.091936
0.091936 0.091936 0.091936
0.091936 0.091936 0.091936
0.091936 0.091936 0.091936
0.091936 0.091936 0.091936
0.091936 0.091936 0.091936
0.091936 0.091936 0.091936
0.091936 0.091936 0.091936
0.091936 0.091936 0.091936
0.091936 0.091936 0.091936
0.091936 0.091936 0.091936
0.091936 0.091936 0.091936
0.091936 0.091936 0.091936
0.091936 0.091936 0.091936
0.091936 0.091936 0.091936
0.091936 0.091936 0.091936
0.091936 0.091936 0.091936
0.091936 0.091936 0.091936
0.091936 0.091936 0.091936
0.091936 0.091936 0.091936
0.091936 0.091936 0.091936
0.091936 0.091936 0.091936
0.091936 0.091936 0.091936
0.091936 0.091936 0.091936
0.091936 0.091936 0.091936
0.091936 0.091936 0.091936
0.091936 0.091936 0.091936
0.091936 0.091936 0.091936
0.091936 0.091936 0.091936
0.091936 0.091936 0.091936
0.091936 0.091936 0.091936
0.091936 0.091936 0.091936
0.091936 0.091936 0.091936
0.091936 0.091936 0.091936
0.091936 0.091936 0.091936
0.091936 0.091936 0.091936
0.091936 0.091936 0.091936
0.091936 0.091936 0.091936
0.091936 0.091936 0.091936
0.091936 0.091936 0.091936
0.091936 0.091936 0.091936
0.091936 0.091936 0.091936
0.091936 0.091936 0.091936
0.091936 0.091936 0.091936
0.091936 0.091936 0.091936
0.091936 0.091936 0.091936
0.091936 0.091936 0.091936
0.091936 0.091936 0.091936
0.091936 0.091936 0.091936
0.091936 0.091936 0.091936
0.091936 0.091936 0.091936
0.091936 0.091936 0.091936
0.091936 0.091936 0.091936
0.091936 0.091936 0.091936
0.091936 0.091936 0.091936
0.091936 0.091936 0.091936
0.091936 0.091936 0.091936
0.091936 0.091936 0.091936
0.091936 0.091936 0.091936
0.091936 0.091936 0.091936
0.091936 0.091936 0.091936
0.091936 0.091936 0.091936
0.091936 0.091936 0.091936
0.091936 0.091936 0.091936
0.091936 0.091936 0.091936
0.091936 0.091936 0.091936
0.091936 0.091936 0.091936
0.091936 0.091936 0.091936
0.091936 0.091936 0.091936
0.091936 0.091936 0.091936
0.091936 0.091936 0.091936
0.091936 0.091936 0.091936
0.091936 0.091936 0.091936
0.091936 0.091936 0.091936
0.091936 0.091936 0.091936
0.091936 0.091936 0.091936
0.091936 0.091936 0.091936
0.091936 0.091936 0.091936
0.091936 0.091936 0.091936
0.091936 0.091936 0.091936
0.091936 0.091936 0.091936
0.091936 0.091936 0.091936
0.091936 0.091936 0.091936
0.091936 0.091936 0.091936
0.091936 0.091936 0.091936
0.092784 0.092784 0.092784
0.135358 0.135358 0.135358
0.228669 0.228669 0.228669
0.306798 0.306798 0.306798
0.360017 0.360017 0.360017
0.399193 0.399193 0.399193
0.425604 0.425604 0.425604
0.443186 0.443186 0.443186
0.091936 0.091936 0.091936
0.141705 0.141705 0.141705
0.192655 0.192655 0.192655
0.316432 0.316432 0.316432
0.434306 0.434306 0.434306
0.513516 0.513516 0.513516
0.570605 0.570605 0.570605
0.610162 0.610162 0.610162
0.639325 0.639325 0.639325
0.091936 0.091936 0.091936
0.222626 0.222626 0.222626
0.343400 0.343400 0.343400
0.408936 0.408936 0.408936
0.491620 0.491620 0.491620
0.584390 0.584390 0.584390
0.656949 0.656949 0.656949
0.713111 0.713111 0.713111
0.750900 0.750900 0.750900
0.091936 0.091936 0.091936
0.277582 0.277582 0.277582
0.439434 0.439434 0.439434
0.514558 0.514558 0.514558
0.571152 0.571152 0.571152
0.636291 0.636291 0.636291
0.714485 0.714485 0.714485
0.773282 0.773282 0.773282
0.817791 0.817791 0.817791
0.091936 0.091936 0.091936
0.311464 0.311464 0.311464
0.492337 0.492337 0.492337
0.588662 0.588662 0.588662
0.652854 0.652854 0.652854
0.708613 0.708613 0.708613
0.759901 0.759901 0.759901
0.818520 0.818520 0.818520
0.859667 0.859667 0.859667
0.091936 0.091936 0.091936
0.329055 0.329055 0.329055
0.523728 0.523728 0.523728
0.635141 0.635141 0.635141
0.713059 0.713059 0.713059
0.768559 0.768559 0.768559
0.816149 0.816149 0.816149
0.853619 0.853619 0.853619
0.890967 0.890967 0.890967
0.091936 0.091936 0.091936
0.336103 0.336103 0.336103
0.539778 0.539778 0.539778
0.662497 0.662497 0.662497
0.748157 0.748157 0.748157
0.810600 0.810600 0.810600
0.854599 0.854599 0.854599
0.889371 0.889371 0.889371
0.916841 0.916841 0.916841
0.091936 0.091936 0.091936
0.336341 0.336341 0.336341
0.544763 0.544763 0.544763
0.675247 0.675247 0.675247
0.767948 0.767948 0.767948
0.833144 0.833144 0.833144
0.879943 0.879943 0.879943
0.912139 0.912139 0.912139
0.936445 0.936445 0.936445
0.091936 0.091936 0.091936
0.091936 0.091936 0.091936
0.091936 0.091936 0.091936
0.091936 0.091936 0.091936
0.091936 0.091936 0.091936
0.091936 0.091936 0.091936
0.091936 0.091936 0.091936
0.091936 0.091936 0.091936
0.091936 0.091936 0.091936
0.091936 0.091936 0.091936
0.114179 0.114179 0.114179
0.174741 0.174741 0.174741
0.247635 0.247635 0.247635
0.315104 0.315104 0.315104
0.364753 0.364753 0.364753
0.404635 0.404635 0.404635
0.431274 0.431274 0.431274
0.450388 0.450388 0.450388
0.091936 0.091936 0.091936
0.124919 0.124919 0.124919
0.152941 0.152941 0.152941
0.306669 0.306669 0.306669
0.432154 0.432154 0.432154
0.514671 0.514671 0.514671
0.574478 0.574478 0.574478
0.616727 0.616727 0.616727
0.648295 0.648295 0.648295
0.091936 0.091936 0.091936
0.202372 0.202372 0.202372
0.318001 0.318001 0.318001
0.377604 0.377604 0.377604
0.479374 0.479374 0.479374
0.581031 0.581031 0.581031
0.659456 0.659456 0.659456
0.719125 0.719125 0.719125
0.759886 0.759886 0.759886
0.091936 0.091936 0.091936
0.267469 0.267469 0.267469
0.429655 0.429655 0.429655
0.502513 0.502513 0.502513
0.560752 0.560752 0.560752
0.633477 0.633477 0.633477
0.716809 0.716809 0.716809
0.779915 0.779915 0.779915
0.825717 0.825717 0.825717
0.091936 0.091936 0.091936
0.309620 0.309620 0.309620
0.491019 0.491019 0.491019
0.587535 0.587535 0.587535
0.651910 0.651910 0.651910
0.709318 0.709318 0.709318
0.765237 0.765237 0.765237
0.825327 0.825327 0.825327
0.868897 0.868897 0.868897
0.091936 0.091936 0.091936
0.332539 0.332539 0.332539
0.528483 0.528483 0.528483
0.640635 0.640635 0.640635
0.718721 0.718721 0.718721
0.775374 0.775374 0.775374
0.822928 0.822928 0.822928
0.862889 0.862889 0.862889
0.899279 0.899279 0.899279
0.091936 0.091936 0.091936
0.342978 0.342978 0.342978
0.548578 0.548578 0.548578
0.672526 0.672526 0.672526
0.758277 0.758277 0.758277
0.820194 0.820194 0.820194
0.864709 0.864709 0.864709
0.897959 0.897959 0.897959
0.926477 0.926477 0.926477
0.091936 0.091936 0.091936
0.345416 0.345416 0.345416
0.555422 0.555422 0.555422
0.688323 0.688323 0.688323
0.780955 0.780955 0.780955
0.844603 0.844603 0.844603
0.889392 0.889392 0.889392
0.922379 0.922379 0.922379
0.943668 0.943668 0.943668
0.091936 0.091936 0.091936
0.091936 0.091936 0.091936
0.091936 0.091936 0.091936
0.091936 0.091936 0.091936
0.091936 0.091936 0.091936
0.091936 0.091936 0.091936
0.091936 0.091936 0.091936
0.091936 0.091936 0.091936
0.091936 0.091936 0.091936
0.091936 0.091936 0.091936
0.118145 0.118145 0.118145
0.221484 0.221484 0.221484
0.302557 0.302557 0.302557
0.342509 0.342509 0.342509
0.379099 0.379099 0.379099
0.412740 0.412740 0.412740
0.435607 0.435607 0.435607
0.454115 0.454115 0.454115
0.091936 0.091936 0.091936
0.144879 0.144879 0.144879
0.250877 0.250877 0.250877
0.359155 0.359155 0.359155
0.452977 0.452977 0.452977
0.525505 0.525505 0.525505
0.580042 0.580042 0.580042
0.620901 0.620901 0.620901
0.652429 0.652429 0.652429
0.091936 0.091936 0.091936
0.183271 0.183271 0.183271
0.296909 0.296909 0.296909
0.338495 0.338495 0.338495
0.475862 0.475862 0.475862
0.581096 0.581096 0.581096
0.660742 0.660742 0.660742
0.721253 0.721253 0.721253
0.763186 0.763186 0.763186
0.091936 0.091936 0.091936
0.249091 0.249091 0.249091
0.412665 0.412665 0.412665
0.482186 0.482186 0.482186
0.539280 0.539280 0.539280
0.624054 0.624054 0.624054
0.713500 0.713500 0.713500
0.780127 0.780127 0.780127
0.827927 0.827927 0.827927
0.091936 0.091936 0.091936
0.297669 0.297669 0.297669
0.479984 0.479984 0.479984
0.576918 0.576918 0.576918
0.640245 0.640245 0.640245
0.699167 0.699167 0.699167
0.761888 0.761888 0.761888
0.825373 0.825373 0.825373
0.871368 0.871368 0.871368
0.091936 0.091936 0.091936
0.327881 0.327881 0.327881
0.523501 0.523501 0.523501
0.636254 0.636254 0.636254
0.715123 0.715123 0.715123
0.772289 0.772289 0.772289
0.821761 0.821761 0.821761
0.864896 0.864896 0.864896
0.902185 0.902185 0.902185
0.091936 0.091936 0.091936
0.342515 0.342515 0.342515
0.548505 0.548505 0.548505
0.673148 0.673148 0.673148
0.759563 0.759563 0.759563
0.821889 0.821889 0.821889
0.867358 0.867358 0.867358
0.900964 0.900964 0.900964
0.929491 0.929491 0.929491
0.091936 0.091936 0.091936
0.348037 0.348037 0.348037
0.558616 0.558616 0.558616
0.692784 0.692784 0.692784
0.785614 0.785614 0.785614
0.849326 0.849326 0.849326
0.893656 0.893656 0.893656
0.927334 0.927334 0.927334
0.947575 0.947575 0.947575
0.091936 0.091936 0.091936
0.091936 0.091936 0.091936
0.091936 0.091936 0.091936
0.091936 0.091936 0.091936
0.091936 0.091936 0.091936
0.091936 0.091936 0.091936
0.091936 0.091936 0.091936
0.091936 0.091936 0.091936
0.091936 0.091936 0.091936
0.091936 0.091936 0.091936
0.119540 0.119540 0.119540
0.225558 0.225558 0.225558
0.335372 0.335372 0.335372
0.382903 0.382903 0.382903
0.405549 0.405549 0.405549
0.425661 0.425661 0.425661
0.443500 0.443500 0.443500
0.459223 0.459223 0.459223
0.091936 0.091936 0.091936
0.194563 0.194563 0.194563
0.345716 0.345716 0.345716
0.435185 0.435185 0.435185
0.497740 0.497740 0.497740
0.552239 0.552239 0.552239
0.594325 0.594325 0.594325
0.629559 0.629559 0.629559
0.658145 0.658145 0.658145
0.091936 0.091936 0.091936
0.188045 0.188045 0.188045
0.332425 0.332425 0.332425
0.425429 0.425429 0.425429
0.514499 0.514499 0.514499
0.600097 0.600097 0.600097
0.671902 0.671902 0.671902
0.727325 0.727325 0.727325
0.767577 0.767577 0.767577
0.091936 0.091936 0.091936
0.233608 0.233608 0.233608
0.398168 0.398168 0.398168
0.471577 0.471577 0.471577
0.513339 0.513339 0.513339
0.623571 0.623571 0.623571
0.715416 0.715416 0.715416
0.782448 0.782448 0.782448
0.830156 0.830156 0.830156
0.091936 0.091936 0.091936
0.283165 0.283165 0.283165
0.466830 0.466830 0.466830
0.564960 0.564960 0.564960
0.626450 0.626450 0.626450
0.684167 0.684167 0.684167
0.757211 0.757211 0.757211
0.824586 0.824586 0.824586
0.872515 0.872515 0.872515
0.091936 0.091936 0.091936
0.319669 0.319669 0.319669
0.514592 0.514592 0.514592
0.628276 0.628276 0.628276
0.708327 0.708327 0.708327
0.765514 0.765514 0.765514
0.817431 0.817431 0.817431
0.864417 0.864417 0.864417
0.903253 0.903253 0.903253
0.091936 0.091936 0.091936
0.338600 0.338600 0.338600
0.544426 0.544426 0.544426
0.669668 0.669668 0.669668
0.757172 0.757172 0.757172
0.820598 0.820598 0.820598
0.866902 0.866902 0.866902
0.901644 0.901644 0.901644
0.931093 0.931093 0.931093
0.091936 0.091936 0.091936
0.347545 0.347545 0.347545
0.558452 0.558452 0.558452
0.693296 0.693296 0.693296
0.786842 0.786842 0.786842
0.851139 0.851139 0.851139
0.895718 0.895718 0.895718
0.929242 0.929242 0.929242
0.950113 0.950113 0.950113
0.091936 0.091936 0.091936
0.091936 0.091936 0.091936
0.091936 0.091936 0.091936
0.091936 0.091936 0.091936
0.091936 0.091936 0.091936
0.091936 0.091936 0.091936
0.091936 0.091936 0.091936
0.091936 0.091936 0.091936
0.091936 0.091936 0.091936
0.091936 0.091936 0.091936
0.120633 0.120633 0.120633
0.228770 0.228770 0.228770
0.339176 0.339176 0.339176
0.422043 0.422043 0.422043
0.432374 0.432374 0.432374
0.443336 0.443336 0.443336
0.455134 0.455134 0.455134
0.466705 0.466705 0.466705
0.091936 0.091936 0.091936
0.218006 0.218006 0.218006
0.413682 0.413682 0.413682
0.495250 0.495250 0.495250
0.548262 0.548262 0.548262
0.584737 0.584737 0.584737
0.616076 0.616076 0.616076
0.643527 0.643527 0.643527
0.667031 0.667031 0.667031
0.091936 0.091936 0.091936
0.218842 0.218842 0.218842
0.392373 0.392373 0.392373
0.491877 0.491877 0.491877
0.569986 0.569986 0.569986
0.635581 0.635581 0.635581
0.694541 0.694541 0.694541
0.739460 0.739460 0.739460
0.775252 0.775252 0.775252
0.091936 0.091936 0.091936
0.231785 0.231785 0.231785
0.407132 0.407132 0.407132
0.497739 0.497739 0.497739
0.571996 0.571996 0.571996
0.652182 0.652182 0.652182
0.729856 0.729856 0.729856
0.790968 0.790968 0.790968
0.834847 0.834847 0.834847
0.091936 0.091936 0.091936
0.271549 0.271549 0.271549
0.457380 0.457380 0.457380
0.558753 0.558753 0.558753
0.620667 0.620667 0.620667
0.667998 0.667998 0.667998
0.758478 0.758478 0.758478
0.826957 0.826957 0.826957
0.875089 0.875089 0.875089
0.091936 0.091936 0.091936
0.309163 0.309163 0.309163
0.505033 0.505033 0.505033
0.620120 0.620120 0.620120
0.701220 0.701220 0.701220
0.758191 0.758191 0.758191
0.811274 0.811274 0.811274
0.863568 0.863568 0.863568
0.904094 0.904094 0.904094
0.091936 0.091936 0.091936
0.333081 0.333081 0.333081
0.538350 0.538350 0.538350
0.664444 0.664444 0.664444
0.753347 0.753347 0.753347
0.818149 0.818149 0.818149
0.865076 0.865076 0.865076
0.901215 0.901215 0.901215
0.932082 0.932082 0.932082
0.091936 0.091936 0.091936
0.345323 0.345323 0.345323
0.556444 0.556444 0.556444
0.691696 0.691696 0.691696
0.786300 0.786300 0.786300
0.851492 0.851492 0.851492
0.896678 0.896678 0.896678
0.930428 0.930428 0.930428
0.951959 0.951959 0.951959
0.091936 0.091936 0.091936
0.091936 0.091936 0.091936
0.091936 0.091936 0.091936
0.091936 0.091936 0.091936
0.091936 0.091936 0.091936
0.091936 0.091936 0.091936
0.091936 0.091936 0.091936
0.091936 0.091936 0.091936
0.091936 0.091936 0.091936
0.091936 0.091936 0.091936
0.121533 0.121533 0.121533
0.231428 0.231428 0.231428
0.342316 0.342316 0.342316
0.429575 0.429575 0.429575
0.456621 0.456621 0.456621
0.462303 0.462303 0.462303
0.468773 0.468773 0.468773
0.475945 0.475945 0.475945
0.091936 0.091936 0.091936
0.220539 0.220539 0.220539
0.416709 0.416709 0.416709
0.542458 0.542458 0.542458
0.587869 0.587869 0.587869
0.617533 0.617533 0.617533
0.640702 0.640702 0.640702
0.660755 0.660755 0.660755
0.678488 0.678488 0.678488
0.091936 0.091936 0.091936
0.256390 0.256390 0.256390
0.442755 0.442755 0.442755
0.548710 0.548710 0.548710
0.618656 0.618656 0.618656
0.675162 0.675162 0.675162
0.720666 0.720666 0.720666
0.756116 0.756116 0.756116
0.785655 0.785655 0.785655
0.091936 0.091936 0.091936
0.247139 0.247139 0.247139
0.433844 0.433844 0.433844
0.542330 0.542330 0.542330
0.621261 0.621261 0.621261
0.693763 0.693763 0.693763
0.754302 0.754302 0.754302
0.805786 0.805786 0.805786
0.842564 0.842564 0.842564
0.091936 0.091936 0.091936
0.267866 0.267866 0.267866
0.457676 0.457676 0.457676
0.566454 0.566454 0.566454
0.640558 0.640558 0.640558
0.709471 0.709471 0.709471
0.777311 0.777311 0.777311
0.835727 0.835727 0.835727
0.879362 0.879362 0.879362
0.091936 0.091936 0.091936
0.300701 0.300701 0.300701
0.497828 0.497828 0.497828
0.615190 0.615190 0.615190
0.698412 0.698412 0.698412
0.756043 0.756043 0.756043
0.803966 0.803966 0.803966
0.865492 0.865492 0.865492
0.906144 0.906144 0.906144
0.091936 0.091936 0.091936
0.327328 0.327328 0.327328
0.532056 0.532056 0.532056
0.659197 0.659197 0.659197
0.749750 0.749750 0.749750
0.815947 0.815947 0.815947
0.863083 0.863083 0.863083
0.900297 0.900297 0.900297
0.932890 0.932890 0.932890
0.091936 0.091936 0.091936
0.342250 0.342250 0.342250
0.553533 0.553533 0.553533
0.689093 0.689093 0.689093
0.784958 0.784958 0.784958
0.851211 0.851211 0.851211
0.897142 0.897142 0.897142
0.931257 0.931257 0.931257
0.953450 0.953450 0.953450
0.091936 0.091936 0.091936
0.091936 0.091936 0.091936
0.091936 0.091936 0.091936
0.091936 0.091936 0.091936
0.091936 0.091936 0.091936
0.091936 0.091936 0.091936
0.091936 0.091936 0.091936
0.091936 0.091936 0.091936
0.091936 0.091936 0.091936
0.091936 0.091936 0.091936
0.122300 0.122300 0.122300
0.233699 0.233699 0.233699
0.344993 0.344993 0.344993
0.432230 0.432230 0.432230
0.476451 0.476451 0.476451
0.479577 0.479577 0.479577
0.482272 0.482272 0.482272
0.485648 0.485648 0.485648
0.091936 0.091936 0.091936
0.222704 0.222704 0.222704
0.419285 0.419285 0.419285
0.546501 0.546501 0.546501
0.618651 0.618651 0.618651
0.645793 0.645793 0.645793
0.664002 0.664002 0.664002
0.678384 0.678384 0.678384
0.690889 0.690889 0.690889
0.091936 0.091936 0.091936
0.289070 0.289070 0.289070
0.480354 0.480354 0.480354
0.588855 0.588855 0.588855
0.659359 0.659359 0.659359
0.710381 0.710381 0.710381
0.745391 0.745391 0.745391
0.774184 0.774184 0.774184
0.797304 0.797304 0.797304
0.091936 0.091936 0.091936
0.270799 0.270799 0.270799
0.464825 0.464825 0.464825
0.580863 0.580863 0.580863
0.663842 0.663842 0.663842
0.729158 0.729158 0.729158
0.780829 0.780829 0.780829
0.821959 0.821959 0.821959
0.852241 0.852241 0.852241
0.091936 0.091936 0.091936
0.274389 0.274389 0.274389
0.469439 0.469439 0.469439
0.586683 0.586683 0.586683
0.672300 0.672300 0.672300
0.741756 0.741756 0.741756
0.801992 0.801992 0.801992
0.849191 0.849191 0.849191
0.885699 0.885699 0.885699
0.091936 0.091936 0.091936
0.296841 0.296841 0.296841
0.495872 0.495872 0.495872
0.616905 0.616905 0.616905
0.705564 0.705564 0.705564
0.769091 0.769091 0.769091
0.825051 0.825051 0.825051
0.875283 0.875283 0.875283
0.910524 0.910524 0.910524
0.091936 0.091936 0.091936
0.322561 0.322561 0.322561
0.527073 0.527073 0.527073
0.655588 0.655588 0.655588
0.748138 0.748138 0.748138
0.815851 0.815851 0.815851
0.863374 0.863374 0.863374
0.899279 0.899279 0.899279
0.934136 0.934136 0.934136
0.091936 0.091936 0.091936
0.339017 0.339017 0.339017
0.550457 0.550457 0.550457
0.686349 0.686349 0.686349
0.783568 0.783568 0.783568
0.850941 0.850941 0.850941
0.897588 0.897588 0.897588
0.931987 0.931987 0.931987
0.954798 0.954798 0.954798
0.091936 0.091936 0.091936
0.091936 0.091936 0.091936
0.091936 0.091936 0.091936
0.091936 0.091936 0.091936
0.091936 0.091936 0.091936
0.091936 0.091936 0.091936
0.091936 0.091936 0.091936
0.091936 0.091936 0.091936
0.091936 0.091936 0.091936
0.091936 0.091936 0.091936
0.122968 0.122968 0.122968
0.235757 0.235757 0.235757
0.347330 0.347330 0.347330
0.434544 0.434544 0.434544
0.490467 0.490467 0.490467
0.493295 0.493295 0.493295
0.493900 0.493900 0.493900
0.494492 0.494492 0.494492
0.091936 0.091936 0.091936
0.224596 0.224596 0.224596
0.421529 0.421529 0.421529
0.549198 0.549198 0.549198
0.639900 0.639900 0.639900
0.667379 0.667379 0.667379
0.683353 0.683353 0.683353
0.694062 0.694062 0.694062
0.702492 0.702492 0.702492
0.091936 0.091936 0.091936
0.313810 0.313810 0.313810
0.507855 0.507855 0.507855
0.618546 0.618546 0.618546
0.690793 0.690793 0.690793
0.735786 0.735786 0.735786
0.766947 0.766947 0.766947
0.790301 0.790301 0.790301
0.808648 0.808648 0.808648
0.091936 0.091936 0.091936
0.294907 0.294907 0.294907
0.493153 0.493153 0.493153
0.612875 0.612875 0.612875
0.698933 0.698933 0.698933
0.757872 0.757872 0.757872
0.803693 0.803693 0.803693
0.836315 0.836315 0.836315
0.862182 0.862182 0.862182
0.091936 0.091936 0.091936
0.287969 0.287969 0.287969
0.487451 0.487451 0.487451
0.610473 0.610473 0.610473
0.702634 0.702634 0.702634
0.769345 0.769345 0.769345
0.822979 0.822979 0.822979
0.863273 0.863273 0.863273
0.892754 0.892754 0.892754
0.091936 0.091936 0.091936
0.298862 0.298862 0.298862
0.500361 0.500361 0.500361
0.625777 0.625777 0.625777
0.718990 0.718990 0.718990
0.787910 0.787910 0.787910
0.841667 0.841667 0.841667
0.884699 0.884699 0.884699
0.916329 0.916329 0.916329
0.091936 0.091936 0.091936
0.319682 0.319682 0.319682
0.524733 0.524733 0.524733
0.655079 0.655079 0.655079
0.750061 0.750061 0.750061
0.819655 0.819655 0.819655
0.869863 0.869863 0.869863
0.906976 0.906976 0.906976
0.936624 0.936624 0.936624
0.091936 0.091936 0.091936
0.336199 0.336199 0.336199
0.547839 0.547839 0.547839
0.684195 0.684195 0.684195
0.782774 0.782774 0.782774
0.851266 0.851266 0.851266
0.898516 0.898516 0.898516
0.932938 0.932938 0.932938
0.956150 0.956150 0.956150
