trix_modern/TriX_Yellow8_ExtraPunchy.cube
TITLE "Tri-X Yellow8 ExtraPunchy"
# Adobe RGB in/out. REPLACES AgX. R=0.5015 G=0.4679 B=0.0307
LUT_3D_SIZE 5
DOMAIN_MIN 0.0 0.0 0.0
DOMAIN_MAX 1.0 1.0 1.0
0.092237 0.092237 0.092237
0.092237 0.092237 0.092237
0.092237 0.092237 0.092237
0.092237 0.092237 0.092237
0.092237 0.092237 0.092237
0.092237 0.092237 0.092237
0.092237 0.092237 0.092237
0.092237 0.092237 0.092237
0.092237 0.092237 0.092237
0.092237 0.092237 0.092237
0.092237 0.092237 0.092237
0.092237 0.092237 0.092237
0.092237 0.092237 0.092237
0.092237 0.092237 0.092237
0.092237 0.092237 0.092237
0.092237 0.092237 0.092237
0.092237 0.092237 0.092237
0.092237 0.092237 0.092237
0.092237 0.092237 0.092237
0.092237 0.092237 0.092237
0.092237 0.092237 0.092237
0.092237 0.092237 0.092237
0.092237 0.092237 0.092237
0.092237 0.092237 0.092237
0.092237 0.092237 0.092237
0.092237 0.092237 0.092237
0.092237 0.092237 0.092237
0.092237 0.092237 0.092237
0.092237 0.092237 0.092237
0.092237 0.092237 0.092237
0.092237 0.092237 0.092237
0.134598 0.134598 0.134598
0.417582 0.417582 0.417582
0.650309 0.650309 0.650309
0.761021 0.761021 0.761021
0.092237 0.092237 0.092237
0.413816 0.413816 0.413816
0.625734 0.625734 0.625734
0.833349 0.833349 0.833349
0.920973 0.920973 0.920973
0.092237 0.092237 0.092237
0.570075 0.570075 0.570075
0.835146 0.835146 0.835146
0.919143 0.919143 0.919143
0.965686 0.965686 0.965686
0.092237 0.092237 0.092237
0.615709 0.615709 0.615709
0.888122 0.888122 0.888122
0.961133 0.961133 0.961133
0.982946 0.982946 0.982946
0.092237 0.092237 0.092237
0.092237 0.092237 0.092237
0.092237 0.092237 0.092237
0.092237 0.092237 0.092237
0.092237 0.092237 0.092237
0.092237 0.092237 0.092237
0.313467 0.313467 0.313467
0.521483 0.521483 0.521483
0.683104 0.683104 0.683104
0.773265 0.773265 0.773265
0.092237 0.092237 0.092237
0.372337 0.372337 0.372337
0.545947 0.545947 0.545947
0.832039 0.832039 0.832039
0.923881 0.923881 0.923881
0.092237 0.092237 0.092237
0.547927 0.547927 0.547927
0.825366 0.825366 0.825366
0.915497 0.915497 0.915497
0.967508 0.967508 0.967508
0.092237 0.092237 0.092237
0.621399 0.621399 0.621399
0.892487 0.892487 0.892487
0.964050 0.964050 0.964050
0.984541 0.984541 0.984541
0.092237 0.092237 0.092237
0.092237 0.092237 0.092237
0.092237 0.092237 0.092237
0.092237 0.092237 0.092237
0.092237 0.092237 0.092237
0.092237 0.092237 0.092237
0.394887 0.394887 0.394887
0.672381 0.672381 0.672381
0.751591 0.751591 0.751591
0.798585 0.798585 0.798585
0.092237 0.092237 0.092237
0.420163 0.420163 0.420163
0.727475 0.727475 0.727475
0.868423 0.868423 0.868423
0.931976 0.931976 0.931976
0.092237 0.092237 0.092237
0.521620 0.521620 0.521620
0.816818 0.816818 0.816818
0.905124 0.905124 0.905124
0.968831 0.968831 0.968831
0.092237 0.092237 0.092237
0.612174 0.612174 0.612174
0.891092 0.891092 0.891092
0.964704 0.964704 0.964704
0.985364 0.985364 0.985364
0.092237 0.092237 0.092237
0.092237 0.092237 0.092237
0.092237 0.092237 0.092237
0.092237 0.092237 0.092237
0.092237 0.092237 0.092237
0.092237 0.092237 0.092237
0.401945 0.401945 0.401945
0.750595 0.750595 0.750595
0.804530 0.804530 0.804530
0.820133 0.820133 0.820133
0.092237 0.092237 0.092237
0.514360 0.514360 0.514360
0.817242 0.817242 0.817242
0.904922 0.904922 0.904922
0.944676 0.944676 0.944676
0.092237 0.092237 0.092237
0.525567 0.525567 0.525567
0.835399 0.835399 0.835399
0.931393 0.931393 0.931393
0.973472 0.973472 0.973472
0.092237 0.092237 0.092237
0.601564 0.601564 0.601564
0.889472 0.889472 0.889472
0.965336 0.965336 0.965336
0.986028 0.986028 0.986028
