trix_modern/TriX_Orange21_Punchy.cube
TITLE "Tri-X Orange21 Punchy"
# Adobe RGB in/out. REPLACES AgX. R=0.7239 G=0.2761 B=0.0000
LUT_3D_SIZE 65
DOMAIN_MIN 0.0 0.0 0.0
DOMAIN_MAX 1.0 1.0 1.0
0.092306 0.092306 0.092306
0.092306 0.092306 0.092306
0.092306 0.092306 0.092306
0.092306 0.092306 0.092306
0.092306 0.092306 0.092306
0.092306 0.092306 0.092306
0.092306 0.092306 0.092306
0.092306 0.092306 0.092306
0.092306 0.092306 0.092306
0.092306 0.092306 0.092306
0.092306 0.092306 0.092306
0.092306 0.092306 0.092306
0.092306 0.092306 0.092306
0.092306 0.092306 0.092306
0.092306 0.092306 0.092306
0.092306 0.092306 0.092306
0.092306 0.092306 0.092306
0.092306 0.092306 0.092306
0.092306 0.092306 0.092306
0.092306 0.092306 0.092306
0.092306 0.092306 0.092306
0.092306 0.092306 0.092306
0.092306 0.092306 0.092306
0.092306 0.092306 0.092306
0.092306 0.092306 0.092306
0.092306 0.092306 0.092306
0.092306 0.092306 0.092306
0.092306 0.092306 0.092306
0.092306 0.092306 0.092306
0.092306 0.092306 0.092306
0.092306 0.092306 0.092306
0.092306 0.092306 0.092306
0.092306 0.092306 0.092306
0.092306 0.092306 0.092306
0.092306 0.092306 0.092306
0.092306 0.092306 0.092306
0.092306 0.092306 0.092306
0.092306 0.092306 0.092306
0.092306 0.092306 0.092306
0.092306 0.092306 0.092306
0.092306 0.092306 0.092306
0.092306 0.092306 0.092306
0.092306 0.092306 0.092306
0.092306 0.092306 0.092306
0.092306 0.092306 0.092306
0.092306 0.092306 0.092306
0.092306 0.092306 0.092306
0.092306 0.092306 0.092306
0.092306 0.092306 0.092306
0.092306 0.092306 0.092306
0.092306 0.092306 0.092306
0.092306 0.092306 0.092306
0.092306 0.092306 0.092306
0.092306 0.092306 0.092306
0.092306 0.092306 0.092306
0.092306 0.092306 0.092306
0.092306 0.092306 0.092306
0.092306 0.092306 0.092306
0.092306 0.092306 0.092306
0.092306 0.092306 0.092306
0.092306 0.092306 0.092306
0.092306 0.092306 0.092306
0.092306 0.092306 0.092306
0.092306 0.092306 0.092306
0.092306 0.092306 0.092306
0.092306 0.092306 0.092306
0.092306 0.092306 0.092306
0.092306 0.092306 0.092306
0.092306 0.092306 0.092306
0.092333 0.092333 0.092333
0.092603 0.092603 0.092603
0.092852 0.092852 0.092852
0.093090 0.093090 0.093090
0.093421 0.093421 0.093421
0.093781 0.093781 0.093781
0.095217 0.095217 0.095217
0.096735 0.096735 0.096735
0.098287 0.098287 0.098287
0.100208 0.100208 0.100208
0.102609 0.102609 0.102609
0.105239 0.105239 0.105239
0.108305 0.108305 0.108305
0.112331 0.112331 0.112331
0.116521 0.116521 0.116521
0.121868 0.121868 0.121868
0.127265 0.127265 0.127265
0.133125 0.133125 0.133125
0.140106 0.140106 0.140106
0.147039 0.147039 0.147039
0.153918 0.153918 0.153918
0.160738 0.160738 0.160738
0.167496 0.167496 0.167496
0.174187 0.174187 0.174187
0.181284 0.181284 0.181284
0.188659 0.188659 0.188659
0.195981 0.195981 0.195981
0.203245 0.203245 0.203245
0.210447 0.210447 0.210447
0.217583 0.217583 0.217583
0.224652 0.224652 0.224652
0.231649 0.231649 0.231649
0.238561 0.238561 0.238561
0.244892 0.244892 0.244892
0.251375 0.251375 0.251375
0.257981 0.257981 0.257981
0.264505 0.264505 0.264505
0.270956 0.270956 0.270956
0.277342 0.277342 0.277342
0.283663 0.283663 0.283663
0.289917 0.289917 0.289917
0.296103 0.296103 0.296103
0.302220 0.302220 0.302220
0.308267 0.308267 0.308267
0.314243 0.314243 0.314243
0.320148 0.320148 0.320148
0.325060 0.325060 0.325060
0.329833 0.329833 0.329833
0.334531 0.334531 0.334531
0.339155 0.339155 0.339155
0.343705 0.343705 0.343705
0.348182 0.348182 0.348182
0.352586 0.352586 0.352586
0.356917 0.356917 0.356917
0.361175 0.361175 0.361175
0.365362 0.365362 0.365362
0.369477 0.369477 0.369477
0.373521 0.373521 0.373521
0.377493 0.377493 0.377493
0.381396 0.381396 0.381396
0.385228 0.385228 0.385228
0.092306 0.092306 0.092306
0.092306 0.092306 0.092306
0.092306 0.092306 0.092306
0.092306 0.092306 0.092306
0.092421 0.092421 0.092421
0.092780 0.092780 0.092780
0.093117 0.093117 0.093117
0.093602 0.093602 0.093602
0.094718 0.094718 0.094718
0.096534 0.096534 0.096534
0.098896 0.098896 0.098896
0.102539 0.102539 0.102539
0.106679 0.106679 0.106679
0.111857 0.111857 0.111857
0.118050 0.118050 0.118050
0.125603 0.125603 0.125603
0.133986 0.133986 0.133986
0.143997 0.143997 0.143997
0.153988 0.153988 0.153988
0.163945 0.163945 0.163945
0.173856 0.173856 0.173856
0.184549 0.184549 0.184549
0.195605 0.195605 0.195605
0.206645 0.206645 0.206645
0.217656 0.217656 0.217656
0.228626 0.228626 0.228626
0.239461 0.239461 0.239461
0.249612 0.249612 0.249612
0.260265 0.260265 0.260265
0.270840 0.270840 0.270840
0.281331 0.281331 0.281331
0.291733 0.291733 0.291733
0.302041 0.302041 0.302041
0.312250 0.312250 0.312250
0.322049 0.322049 0.322049
0.330342 0.330342 0.330342
0.338503 0.338503 0.338503
0.346533 0.346533 0.346533
0.354433 0.354433 0.354433
0.362203 0.362203 0.362203
0.369844 0.369844 0.369844
0.377369 0.377369 0.377369
0.384788 0.384788 0.384788
0.392102 0.392102 0.392102
0.399310 0.399310 0.399310
0.406415 0.406415 0.406415
0.413202 0.413202 0.413202
0.418645 0.418645 0.418645
0.423988 0.423988 0.423988
0.429233 0.429233 0.429233
0.434523 0.434523 0.434523
0.439760 0.439760 0.439760
0.444901 0.444901 0.444901
0.449948 0.449948 0.449948
0.454902 0.454902 0.454902
0.459764 0.459764 0.459764
0.464536 0.464536 0.464536
0.469218 0.469218 0.469218
0.473812 0.473812 0.473812
0.478318 0.478318 0.478318
0.482738 0.482738 0.482738
0.487072 0.487072 0.487072
0.491322 0.491322 0.491322
0.495489 0.495489 0.495489
0.499573 0.499573 0.499573
0.092306 0.092306 0.092306
0.092306 0.092306 0.092306
0.092306 0.092306 0.092306
0.092306 0.092306 0.092306
0.092394 0.092394 0.092394
0.092772 0.092772 0.092772
0.093167 0.093167 0.093167
0.093753 0.093753 0.093753
0.095643 0.095643 0.095643
0.098055 0.098055 0.098055
0.102061 0.102061 0.102061
0.107309 0.107309 0.107309
0.114288 0.114288 0.114288
0.123255 0.123255 0.123255
0.133377 0.133377 0.133377
0.145854 0.145854 0.145854
0.158310 0.158310 0.158310
0.170729 0.170729 0.170729
0.183855 0.183855 0.183855
0.197752 0.197752 0.197752
0.211667 0.211667 0.211667
0.225580 0.225580 0.225580
0.239394 0.239394 0.239394
0.252500 0.252500 0.252500
0.266128 0.266128 0.266128
0.279690 0.279690 0.279690
0.293175 0.293175 0.293175
0.306573 0.306573 0.306573
0.319876 0.319876 0.319876
0.330936 0.330936 0.330936
0.341724 0.341724 0.341724
0.352348 0.352348 0.352348
0.362809 0.362809 0.362809
0.373108 0.373108 0.373108
0.383244 0.383244 0.383244
0.393218 0.393218 0.393218
0.403031 0.403031 0.403031
0.412624 0.412624 0.412624
0.420116 0.420116 0.420116
0.427448 0.427448 0.427448
0.434776 0.434776 0.434776
0.442071 0.442071 0.442071
0.449236 0.449236 0.449236
0.456274 0.456274 0.456274
0.463185 0.463185 0.463185
0.469974 0.469974 0.469974
0.476640 0.476640 0.476640
0.483187 0.483187 0.483187
0.489616 0.489616 0.489616
0.495928 0.495928 0.495928
0.502126 0.502126 0.502126
0.508210 0.508210 0.508210
0.514183 0.514183 0.514183
0.520046 0.520046 0.520046
0.525800 0.525800 0.525800
0.531447 0.531447 0.531447
0.536989 0.536989 0.536989
0.542425 0.542425 0.542425
0.547739 0.547739 0.547739
0.552353 0.552353 0.552353
0.556873 0.556873 0.556873
0.561301 0.561301 0.561301
0.565638 0.565638 0.565638
0.569885 0.569885 0.569885
0.574043 0.574043 0.574043
0.092306 0.092306 0.092306
0.092306 0.092306 0.092306
0.092306 0.092306 0.092306
0.092314 0.092314 0.092314
0.092509 0.092509 0.092509
0.092754 0.092754 0.092754
0.093126 0.093126 0.093126
0.093735 0.093735 0.093735
0.095777 0.095777 0.095777
0.098505 0.098505 0.098505
0.103351 0.103351 0.103351
0.110219 0.110219 0.110219
0.119625 0.119625 0.119625
0.130927 0.130927 0.130927
0.145582 0.145582 0.145582
0.160316 0.160316 0.160316
0.174995 0.174995 0.174995
0.191194 0.191194 0.191194
0.207677 0.207677 0.207677
0.224183 0.224183 0.224183
0.240520 0.240520 0.240520
0.256294 0.256294 0.256294
0.272520 0.272520 0.272520
0.288681 0.288681 0.288681
0.304765 0.304765 0.304765
0.320719 0.320719 0.320719
0.333886 0.333886 0.333886
0.346858 0.346858 0.346858
0.359633 0.359633 0.359633
0.372213 0.372213 0.372213
0.384597 0.384597 0.384597
0.396787 0.396787 0.396787
0.408784 0.408784 0.408784
0.418863 0.418863 0.418863
0.427986 0.427986 0.427986
0.437143 0.437143 0.437143
0.446193 0.446193 0.446193
0.455054 0.455054 0.455054
0.463728 0.463728 0.463728
0.472222 0.472222 0.472222
0.480538 0.480538 0.480538
0.488698 0.488698 0.488698
0.496710 0.496710 0.496710
0.504576 0.504576 0.504576
0.512300 0.512300 0.512300
0.519885 0.519885 0.519885
0.527331 0.527331 0.527331
0.534641 0.534641 0.534641
0.541819 0.541819 0.541819
0.548714 0.548714 0.548714
0.554812 0.554812 0.554812
0.560788 0.560788 0.560788
0.566646 0.566646 0.566646
0.572386 0.572386 0.572386
0.578013 0.578013 0.578013
0.583526 0.583526 0.583526
0.588929 0.588929 0.588929
0.594223 0.594223 0.594223
0.599409 0.599409 0.599409
0.604490 0.604490 0.604490
0.609468 0.609468 0.609468
0.614343 0.614343 0.614343
0.619117 0.619117 0.619117
0.623792 0.623792 0.623792
0.628369 0.628369 0.628369
0.092306 0.092306 0.092306
0.092306 0.092306 0.092306
0.092306 0.092306 0.092306
0.092459 0.092459 0.092459
0.092709 0.092709 0.092709
0.092908 0.092908 0.092908
0.093122 0.093122 0.093122
0.093687 0.093687 0.093687
0.095594 0.095594 0.095594
0.098422 0.098422 0.098422
0.103460 0.103460 0.103460
0.111075 0.111075 0.111075
0.121952 0.121952 0.121952
0.135820 0.135820 0.135820
0.152546 0.152546 0.152546
0.169272 0.169272 0.169272
0.187075 0.187075 0.187075
0.205893 0.205893 0.205893
0.224777 0.224777 0.224777
0.243291 0.243291 0.243291
0.261642 0.261642 0.261642
0.280260 0.280260 0.280260
0.298814 0.298814 0.298814
0.317283 0.317283 0.317283
0.333066 0.333066 0.333066
0.348072 0.348072 0.348072
0.362846 0.362846 0.362846
0.377389 0.377389 0.377389
0.391701 0.391701 0.391701
0.405784 0.405784 0.405784
0.418116 0.418116 0.418116
0.428823 0.428823 0.428823
0.439606 0.439606 0.439606
0.450210 0.450210 0.450210
0.460584 0.460584 0.460584
0.470734 0.470734 0.470734
0.480665 0.480665 0.480665
0.490382 0.490382 0.490382
0.499892 0.499892 0.499892
0.509200 0.509200 0.509200
0.518311 0.518311 0.518311
0.527250 0.527250 0.527250
0.536024 0.536024 0.536024
0.544636 0.544636 0.544636
0.552439 0.552439 0.552439
0.559745 0.559745 0.559745
0.566905 0.566905 0.566905
0.573920 0.573920 0.573920
0.580794 0.580794 0.580794
0.587530 0.587530 0.587530
0.594131 0.594131 0.594131
0.600599 0.600599 0.600599
0.606937 0.606937 0.606937
0.613148 0.613148 0.613148
0.619233 0.619233 0.619233
0.625195 0.625195 0.625195
0.631037 0.631037 0.631037
0.636759 0.636759 0.636759
0.642365 0.642365 0.642365
0.647856 0.647856 0.647856
0.653233 0.653233 0.653233
0.658500 0.658500 0.658500
0.663657 0.663657 0.663657
0.668706 0.668706 0.668706
0.673649 0.673649 0.673649
0.092306 0.092306 0.092306
0.092306 0.092306 0.092306
0.092306 0.092306 0.092306
0.092576 0.092576 0.092576
0.092872 0.092872 0.092872
0.093103 0.093103 0.093103
0.093398 0.093398 0.093398
0.093699 0.093699 0.093699
0.095459 0.095459 0.095459
0.098222 0.098222 0.098222
0.103106 0.103106 0.103106
0.110767 0.110767 0.110767
0.122342 0.122342 0.122342
0.137664 0.137664 0.137664
0.155886 0.155886 0.155886
0.174228 0.174228 0.174228
0.194588 0.194588 0.194588
0.215473 0.215473 0.215473
0.236487 0.236487 0.236487
0.256681 0.256681 0.256681
0.277499 0.277499 0.277499
0.298283 0.298283 0.298283
0.319003 0.319003 0.319003
0.336349 0.336349 0.336349
0.353174 0.353174 0.353174
0.369735 0.369735 0.369735
0.386031 0.386031 0.386031
0.402062 0.402062 0.402062
0.416690 0.416690 0.416690
0.428878 0.428878 0.428878
0.441149 0.441149 0.441149
0.453196 0.453196 0.453196
0.464970 0.464970 0.464970
0.476480 0.476480 0.476480
0.487733 0.487733 0.487733
0.498737 0.498737 0.498737
0.509498 0.509498 0.509498
0.520024 0.520024 0.520024
0.530319 0.530319 0.530319
0.540390 0.540390 0.540390
0.549936 0.549936 0.549936
0.558457 0.558457 0.558457
0.566800 0.566800 0.566800
0.574969 0.574969 0.574969
0.582970 0.582970 0.582970
0.590806 0.590806 0.590806
0.598481 0.598481 0.598481
0.605999 0.605999 0.605999
0.613363 0.613363 0.613363
0.620577 0.620577 0.620577
0.627644 0.627644 0.627644
0.634568 0.634568 0.634568
0.641350 0.641350 0.641350
0.647994 0.647994 0.647994
0.654502 0.654502 0.654502
0.660877 0.660877 0.660877
0.667122 0.667122 0.667122
0.673238 0.673238 0.673238
0.679229 0.679229 0.679229
0.685095 0.685095 0.685095
0.690840 0.690840 0.690840
0.696465 0.696465 0.696465
0.701972 0.701972 0.701972
0.706966 0.706966 0.706966
0.711499 0.711499 0.711499
0.092306 0.092306 0.092306
0.092306 0.092306 0.092306
0.092306 0.092306 0.092306
0.092676 0.092676 0.092676
0.093012 0.093012 0.093012
0.093366 0.093366 0.093366
0.093712 0.093712 0.093712
0.094583 0.094583 0.094583
0.095748 0.095748 0.095748
0.098255 0.098255 0.098255
0.102937 0.102937 0.102937
0.110376 0.110376 0.110376
0.122042 0.122042 0.122042
0.137912 0.137912 0.137912
0.157061 0.157061 0.157061
0.176538 0.176538 0.176538
0.198671 0.198671 0.198671
0.221213 0.221213 0.221213
0.243583 0.243583 0.243583
0.265945 0.265945 0.265945
0.288665 0.288665 0.288665
0.311397 0.311397 0.311397
0.331777 0.331777 0.331777
0.350369 0.350369 0.350369
0.368680 0.368680 0.368680
0.386706 0.386706 0.386706
0.404443 0.404443 0.404443
0.419889 0.419889 0.419889
0.433447 0.433447 0.433447
0.447048 0.447048 0.447048
0.460331 0.460331 0.460331
0.473305 0.473305 0.473305
0.485979 0.485979 0.485979
0.498362 0.498362 0.498362
0.510464 0.510464 0.510464
0.522291 0.522291 0.522291
0.533853 0.533853 0.533853
0.545155 0.545155 0.545155
0.555186 0.555186 0.555186
0.564694 0.564694 0.564694
0.573984 0.573984 0.573984
0.583073 0.583073 0.583073
0.591969 0.591969 0.591969
0.600675 0.600675 0.600675
0.609198 0.609198 0.609198
0.617542 0.617542 0.617542
0.625712 0.625712 0.625712
0.633711 0.633711 0.633711
0.641544 0.641544 0.641544
0.649215 0.649215 0.649215
0.656727 0.656727 0.656727
0.664084 0.664084 0.664084
0.671289 0.671289 0.671289
0.678344 0.678344 0.678344
0.685254 0.685254 0.685254
0.692021 0.692021 0.692021
0.698648 0.698648 0.698648
0.705052 0.705052 0.705052
0.710513 0.710513 0.710513
0.715852 0.715852 0.715852
0.721074 0.721074 0.721074
0.726179 0.726179 0.726179
0.731171 0.731171 0.731171
0.736052 0.736052 0.736052
0.740824 0.740824 0.740824
0.092306 0.092306 0.092306
0.092306 0.092306 0.092306
0.092355 0.092355 0.092355
0.092796 0.092796 0.092796
0.093193 0.093193 0.093193
0.093688 0.093688 0.093688
0.094853 0.094853 0.094853
0.096143 0.096143 0.096143
0.097607 0.097607 0.097607
0.099141 0.099141 0.099141
0.103260 0.103260 0.103260
0.110509 0.110509 0.110509
0.121947 0.121947 0.121947
0.137803 0.137803 0.137803
0.157297 0.157297 0.157297
0.177448 0.177448 0.177448
0.200589 0.200589 0.200589
0.224314 0.224314 0.224314
0.247704 0.247704 0.247704
0.271834 0.271834 0.271834
0.296146 0.296146 0.296146
0.320551 0.320551 0.320551
0.340760 0.340760 0.340760
0.360709 0.360709 0.360709
0.380381 0.380381 0.380381
0.399763 0.399763 0.399763
0.417493 0.417493 0.417493
0.432299 0.432299 0.432299
0.447199 0.447199 0.447199
0.461745 0.461745 0.461745
0.475948 0.475948 0.475948
0.489817 0.489817 0.489817
0.503362 0.503362 0.503362
0.516592 0.516592 0.516592
0.529517 0.529517 0.529517
0.542145 0.542145 0.542145
0.553669 0.553669 0.553669
0.564282 0.564282 0.564282
0.574629 0.574629 0.574629
0.584722 0.584722 0.584722
0.594585 0.594585 0.594585
0.604232 0.604232 0.604232
0.613669 0.613669 0.613669
0.622901 0.622901 0.622901
0.631935 0.631935 0.631935
0.640776 0.640776 0.640776
0.649428 0.649428 0.649428
0.657897 0.657897 0.657897
0.666186 0.666186 0.666186
0.674302 0.674302 0.674302
0.682246 0.682246 0.682246
0.690024 0.690024 0.690024
0.697639 0.697639 0.697639
0.705015 0.705015 0.705015
0.711287 0.711287 0.711287
0.717419 0.717419 0.717419
0.723414 0.723414 0.723414
0.729275 0.729275 0.729275
0.735005 0.735005 0.735005
0.740607 0.740607 0.740607
0.746085 0.746085 0.746085
0.751439 0.751439 0.751439
0.756673 0.756673 0.756673
0.761790 0.761790 0.761790
0.766791 0.766791 0.766791
0.092306 0.092306 0.092306
0.092306 0.092306 0.092306
0.092464 0.092464 0.092464
0.092963 0.092963 0.092963
0.093523 0.093523 0.093523
0.094770 0.094770 0.094770
0.096549 0.096549 0.096549
0.098231 0.098231 0.098231
0.100040 0.100040 0.100040
0.102403 0.102403 0.102403
0.105311 0.105311 0.105311
0.111342 0.111342 0.111342
0.122530 0.122530 0.122530
0.138150 0.138150 0.138150
0.157503 0.157503 0.157503
0.177835 0.177835 0.177835
0.201421 0.201421 0.201421
0.225844 0.225844 0.225844
0.250116 0.250116 0.250116
0.275338 0.275338 0.275338
0.300889 0.300889 0.300889
0.325624 0.325624 0.325624
0.346970 0.346970 0.346970
0.368097 0.368097 0.368097
0.388977 0.388977 0.388977
0.409584 0.409584 0.409584
0.426184 0.426184 0.426184
0.442220 0.442220 0.442220
0.458031 0.458031 0.458031
0.473472 0.473472 0.473472
0.488552 0.488552 0.488552
0.503280 0.503280 0.503280
0.517663 0.517663 0.517663
0.531712 0.531712 0.531712
0.545436 0.545436 0.545436
0.557507 0.557507 0.557507
0.569022 0.569022 0.569022
0.580243 0.580243 0.580243
0.591181 0.591181 0.591181
0.601852 0.601852 0.601852
0.612282 0.612282 0.612282
0.622479 0.622479 0.622479
0.632450 0.632450 0.632450
0.642201 0.642201 0.642201
0.651738 0.651738 0.651738
0.661068 0.661068 0.661068
0.670197 0.670197 0.670197
0.679128 0.679128 0.679128
0.687868 0.687868 0.687868
0.696420 0.696420 0.696420
0.704754 0.704754 0.704754
0.711793 0.711793 0.711793
0.718672 0.718672 0.718672
0.725394 0.725394 0.725394
0.731963 0.731963 0.731963
0.738384 0.738384 0.738384
0.744660 0.744660 0.744660
0.750794 0.750794 0.750794
0.756790 0.756790 0.756790
0.762650 0.762650 0.762650
0.768378 0.768378 0.768378
0.773965 0.773965 0.773965
0.779413 0.779413 0.779413
0.784737 0.784737 0.784737
0.789939 0.789939 0.789939
0.092306 0.092306 0.092306
0.092306 0.092306 0.092306
0.092585 0.092585 0.092585
0.093117 0.093117 0.093117
0.093841 0.093841 0.093841
0.096063 0.096063 0.096063
0.098302 0.098302 0.098302
0.100891 0.100891 0.100891
0.103403 0.103403 0.103403
0.106401 0.106401 0.106401
0.110231 0.110231 0.110231
0.115049 0.115049 0.115049
0.123874 0.123874 0.123874
0.139328 0.139328 0.139328
0.158233 0.158233 0.158233
0.178397 0.178397 0.178397
0.201993 0.201993 0.201993
0.226675 0.226675 0.226675
0.251421 0.251421 0.251421
0.277333 0.277333 0.277333
0.303754 0.303754 0.303754
0.328847 0.328847 0.328847
0.351097 0.351097 0.351097
0.373199 0.373199 0.373199
0.395105 0.395105 0.395105
0.415859 0.415859 0.415859
0.432752 0.432752 0.432752
0.449779 0.449779 0.449779
0.466428 0.466428 0.466428
0.482702 0.482702 0.482702
0.498605 0.498605 0.498605
0.514145 0.514145 0.514145
0.529327 0.529327 0.529327
0.544161 0.544161 0.544161
0.557340 0.557340 0.557340
0.569787 0.569787 0.569787
0.581912 0.581912 0.581912
0.593728 0.593728 0.593728
0.605245 0.605245 0.605245
0.616490 0.616490 0.616490
0.627478 0.627478 0.627478
0.638218 0.638218 0.638218
0.648717 0.648717 0.648717
0.658981 0.658981 0.658981
0.669018 0.669018 0.669018
0.678833 0.678833 0.678833
0.688433 0.688433 0.688433
0.697823 0.697823 0.697823
0.706661 0.706661 0.706661
0.714379 0.714379 0.714379
0.721917 0.721917 0.721917
0.729279 0.729279 0.729279
0.736472 0.736472 0.736472
0.743499 0.743499 0.743499
0.750364 0.750364 0.750364
0.757072 0.757072 0.757072
0.763627 0.763627 0.763627
0.770032 0.770032 0.770032
0.776270 0.776270 0.776270
0.782359 0.782359 0.782359
0.788309 0.788309 0.788309
0.794124 0.794124 0.794124
0.799805 0.799805 0.799805
0.805355 0.805355 0.805355
0.810779 0.810779 0.810779
0.092306 0.092306 0.092306
0.092306 0.092306 0.092306
0.092682 0.092682 0.092682
0.093315 0.093315 0.093315
0.094776 0.094776 0.094776
0.097408 0.097408 0.097408
0.100357 0.100357 0.100357
0.103724 0.103724 0.103724
0.107353 0.107353 0.107353
0.111629 0.111629 0.111629
0.116396 0.116396 0.116396
0.122934 0.122934 0.122934
0.130170 0.130170 0.130170
0.141360 0.141360 0.141360
0.159707 0.159707 0.159707
0.179557 0.179557 0.179557
0.202857 0.202857 0.202857
0.227449 0.227449 0.227449
0.252307 0.252307 0.252307
0.278544 0.278544 0.278544
0.305481 0.305481 0.305481
0.330845 0.330845 0.330845
0.353755 0.353755 0.353755
0.376609 0.376609 0.376609
0.399343 0.399343 0.399343
0.419902 0.419902 0.419902
0.437654 0.437654 0.437654
0.455419 0.455419 0.455419
0.472818 0.472818 0.472818
0.489848 0.489848 0.489848
0.506509 0.506509 0.506509
0.522803 0.522803 0.522803
0.538735 0.538735 0.538735
0.553515 0.553515 0.553515
0.566908 0.566908 0.566908
0.579957 0.579957 0.579957
0.592672 0.592672 0.592672
0.605064 0.605064 0.605064
0.617152 0.617152 0.617152
0.628960 0.628960 0.628960
0.640498 0.640498 0.640498
0.651773 0.651773 0.651773
0.662792 0.662792 0.662792
0.673564 0.673564 0.673564
0.684094 0.684094 0.684094
0.694390 0.694390 0.694390
0.704457 0.704457 0.704457
0.712926 0.712926 0.712926
0.721183 0.721183 0.721183
0.729244 0.729244 0.729244
0.737115 0.737115 0.737115
0.744800 0.744800 0.744800
0.752307 0.752307 0.752307
0.759638 0.759638 0.759638
0.766799 0.766799 0.766799
0.773783 0.773783 0.773783
0.780587 0.780587 0.780587
0.787233 0.787233 0.787233
0.793726 0.793726 0.793726
0.800069 0.800069 0.800069
0.806266 0.806266 0.806266
0.812319 0.812319 0.812319
0.817525 0.817525 0.817525
0.822300 0.822300 0.822300
0.826958 0.826958 0.826958
0.092306 0.092306 0.092306
0.092306 0.092306 0.092306
0.092756 0.092756 0.092756
0.093482 0.093482 0.093482
0.095532 0.095532 0.095532
0.098473 0.098473 0.098473
0.102557 0.102557 0.102557
0.106937 0.106937 0.106937
0.112080 0.112080 0.112080
0.117722 0.117722 0.117722
0.124375 0.124375 0.124375
0.131413 0.131413 0.131413
0.140867 0.140867 0.140867
0.150938 0.150938 0.150938
0.161906 0.161906 0.161906
0.181463 0.181463 0.181463
0.204308 0.204308 0.204308
0.228578 0.228578 0.228578
0.253266 0.253266 0.253266
0.279527 0.279527 0.279527
0.306668 0.306668 0.306668
0.332137 0.332137 0.332137
0.355469 0.355469 0.355469
0.378852 0.378852 0.378852
0.402209 0.402209 0.402209
0.422707 0.422707 0.422707
0.441148 0.441148 0.441148
0.459538 0.459538 0.459538
0.477586 0.477586 0.477586
0.495283 0.495283 0.495283
0.512624 0.512624 0.512624
0.529604 0.529604 0.529604
0.546225 0.546225 0.546225
0.560716 0.560716 0.560716
0.574688 0.574688 0.574688
0.588308 0.588308 0.588308
0.601586 0.601586 0.601586
0.614534 0.614534 0.614534
0.627181 0.627181 0.627181
0.639537 0.639537 0.639537
0.651610 0.651610 0.651610
0.663409 0.663409 0.663409
0.674940 0.674940 0.674940
0.686211 0.686211 0.686211
0.697228 0.697228 0.697228
0.707512 0.707512 0.707512
0.716552 0.716552 0.716552
0.725374 0.725374 0.725374
0.733983 0.733983 0.733983
0.742386 0.742386 0.742386
0.750589 0.750589 0.750589
0.758597 0.758597 0.758597
0.766417 0.766417 0.766417
0.774040 0.774040 0.774040
0.781464 0.781464 0.781464
0.788714 0.788714 0.788714
0.795795 0.795795 0.795795
0.802710 0.802710 0.802710
0.809465 0.809465 0.809465
0.815729 0.815729 0.815729
0.821057 0.821057 0.821057
0.826253 0.826253 0.826253
0.831322 0.831322 0.831322
0.836267 0.836267 0.836267
0.841090 0.841090 0.841090
0.092306 0.092306 0.092306
0.092306 0.092306 0.092306
0.092814 0.092814 0.092814
0.093608 0.093608 0.093608
0.096114 0.096114 0.096114
0.099647 0.099647 0.099647
0.104432 0.104432 0.104432
0.110360 0.110360 0.110360
0.117017 0.117017 0.117017
0.124781 0.124781 0.124781
0.132684 0.132684 0.132684
0.142285 0.142285 0.142285
0.152058 0.152058 0.152058
0.162240 0.162240 0.162240
0.172971 0.172971 0.172971
0.185213 0.185213 0.185213
0.206432 0.206432 0.206432
0.230267 0.230267 0.230267
0.254605 0.254605 0.254605
0.280669 0.280669 0.280669
0.307763 0.307763 0.307763
0.333133 0.333133 0.333133
0.356668 0.356668 0.356668
0.380370 0.380370 0.380370
0.404147 0.404147 0.404147
0.424632 0.424632 0.424632
0.443597 0.443597 0.443597
0.462490 0.462490 0.462490
0.481078 0.481078 0.481078
0.499344 0.499344 0.499344
0.517277 0.517277 0.517277
0.534866 0.534866 0.534866
0.551574 0.551574 0.551574
0.566439 0.566439 0.566439
0.580945 0.580945 0.580945
0.595098 0.595098 0.595098
0.608906 0.608906 0.608906
0.622394 0.622394 0.622394
