trix_modern/TriX_Green58_ExtraPunchy.cube
TITLE "Tri-X Green58 ExtraPunchy"
# Adobe RGB in/out. REPLACES AgX. Tri-X Green58 ExtraPunchy.
LUT_3D_SIZE 9
DOMAIN_MIN 0.0 0.0 0.0
DOMAIN_MAX 1.0 1.0 1.0
0.092237 0.092237 0.092237
0.092237 0.092237 0.092237
0.092306 0.092306 0.092306
0.096212 0.096212 0.096212
0.114060 0.114060 0.114060
0.144432 0.144432 0.144432
0.155531 0.155531 0.155531
0.101991 0.101991 0.101991
0.224110 0.224110 0.224110
0.094104 0.094104 0.094104
0.092340 0.092340 0.092340
0.093536 0.093536 0.093536
0.103034 0.103034 0.103034
0.132850 0.132850 0.132850
0.166116 0.166116 0.166116
0.175831 0.175831 0.175831
0.101290 0.101290 0.101290
0.220098 0.220098 0.220098
0.331610 0.331610 0.331610
0.247064 0.247064 0.247064
0.149163 0.149163 0.149163
0.165955 0.165955 0.165955
0.213445 0.213445 0.213445
0.264568 0.264568 0.264568
0.284439 0.284439 0.284439
0.102162 0.102162 0.102162
0.207421 0.207421 0.207421
0.719418 0.719418 0.719418
0.644115 0.644115 0.644115
0.473622 0.473622 0.473622
0.362376 0.362376 0.362376
0.361096 0.361096 0.361096
0.405403 0.405403 0.405403
0.444495 0.444495 0.444495
0.430567 0.430567 0.430567
0.190036 0.190036 0.190036
0.897065 0.897065 0.897065
0.878619 0.878619 0.878619
0.817217 0.817217 0.817217
0.720303 0.720303 0.720303
0.629321 0.629321 0.629321
0.610757 0.610757 0.610757
0.644612 0.644612 0.644612
0.656225 0.656225 0.656225
0.563392 0.563392 0.563392
0.963324 0.963324 0.963324
0.958704 0.958704 0.958704
0.936899 0.936899 0.936899
0.901951 0.901951 0.901951
0.860547 0.860547 0.860547
0.826446 0.826446 0.826446
0.815093 0.815093 0.815093
0.822834 0.822834 0.822834
0.805091 0.805091 0.805091
0.983403 0.983403 0.983403
0.982398 0.982398 0.982398
0.979214 0.979214 0.979214
0.966797 0.966797 0.966797
0.951428 0.951428 0.951428
0.931945 0.931945 0.931945
0.919578 0.919578 0.919578
0.913280 0.913280 0.913280
0.909956 0.909956 0.909956
0.990947 0.990947 0.990947
0.990353 0.990353 0.990353
0.987937 0.987937 0.987937
0.984862 0.984862 0.984862
0.981165 0.981165 0.981165
0.975754 0.975754 0.975754
0.969202 0.969202 0.969202
0.965740 0.965740 0.965740
0.963492 0.963492 0.963492
0.988934 0.988934 0.988934
0.988696 0.988696 0.988696
0.990464 0.990464 0.990464
0.989317 0.989317 0.989317
0.988294 0.988294 0.988294
0.986118 0.986118 0.986118
0.984369 0.984369 0.984369
0.983327 0.983327 0.983327
0.983183 0.983183 0.983183
0.092237 0.092237 0.092237
0.092237 0.092237 0.092237
0.092786 0.092786 0.092786
0.099007 0.099007 0.099007
0.118794 0.118794 0.118794
0.147323 0.147323 0.147323
0.157667 0.157667 0.157667
0.101618 0.101618 0.101618
0.222027 0.222027 0.222027
0.092907 0.092907 0.092907
0.092317 0.092317 0.092317
0.094410 0.094410 0.094410
0.108204 0.108204 0.108204
0.138160 0.138160 0.138160
0.168790 0.168790 0.168790
0.177771 0.177771 0.177771
0.100924 0.100924 0.100924
0.218054 0.218054 0.218054
0.284988 0.284988 0.284988
0.211326 0.211326 0.211326
0.136125 0.136125 0.136125
0.166532 0.166532 0.166532
0.217917 0.217917 0.217917
0.265812 0.265812 0.265812
0.284566 0.284566 0.284566
0.102690 0.102690 0.102690
0.205541 0.205541 0.205541
0.667786 0.667786 0.667786
0.596787 0.596787 0.596787
0.443904 0.443904 0.443904
0.347765 0.347765 0.347765
0.357420 0.357420 0.357420
0.404152 0.404152 0.404152
0.442519 0.442519 0.442519
0.429218 0.429218 0.429218
0.188428 0.188428 0.188428
0.883330 0.883330 0.883330
0.863989 0.863989 0.863989
0.804284 0.804284 0.804284
0.702418 0.702418 0.702418
0.618332 0.618332 0.618332
0.605669 0.605669 0.605669
0.641891 0.641891 0.641891
0.653391 0.653391 0.653391
0.563499 0.563499 0.563499
0.959745 0.959745 0.959745
0.954504 0.954504 0.954504
0.931692 0.931692 0.931692
0.896524 0.896524 0.896524
0.855278 0.855278 0.855278
0.823293 0.823293 0.823293
0.813507 0.813507 0.813507
0.821491 0.821491 0.821491
0.804190 0.804190 0.804190
0.982638 0.982638 0.982638
0.981656 0.981656 0.981656
0.977640 0.977640 0.977640
0.965286 0.965286 0.965286
0.949289 0.949289 0.949289
0.930440 0.930440 0.930440
0.918617 0.918617 0.918617
0.912570 0.912570 0.912570
0.909234 0.909234 0.909234
0.990515 0.990515 0.990515
0.989929 0.989929 0.989929
0.987563 0.987563 0.987563
0.984508 0.984508 0.984508
0.980882 0.980882 0.980882
0.975166 0.975166 0.975166
0.968800 0.968800 0.968800
0.965466 0.965466 0.965466
0.963231 0.963231 0.963231
0.989392 0.989392 0.989392
0.989156 0.989156 0.989156
0.990887 0.990887 0.990887
0.989626 0.989626 0.989626
0.988160 0.988160 0.988160
0.986000 0.986000 0.986000
0.984269 0.984269 0.984269
0.983254 0.983254 0.983254
0.983126 0.983126 0.983126
0.092237 0.092237 0.092237
0.092767 0.092767 0.092767
0.096067 0.096067 0.096067
0.111679 0.111679 0.111679
0.138666 0.138666 0.138666
0.167678 0.167678 0.167678
0.173465 0.173465 0.173465
0.102714 0.102714 0.102714
0.217748 0.217748 0.217748
0.101411 0.101411 0.101411
0.103638 0.103638 0.103638
0.104720 0.104720 0.104720
0.126447 0.126447 0.126447
0.160438 0.160438 0.160438
0.188903 0.188903 0.188903
0.193593 0.193593 0.193593
0.102664 0.102664 0.102664
0.213815 0.213815 0.213815
0.213645 0.213645 0.213645
0.173763 0.173763 0.173763
0.128236 0.128236 0.128236
0.171357 0.171357 0.171357
0.233141 0.233141 0.233141
0.283585 0.283585 0.283585
0.297328 0.297328 0.297328
0.140414 0.140414 0.140414
0.201455 0.201455 0.201455
0.566469 0.566469 0.566469
0.513319 0.513319 0.513319
0.390162 0.390162 0.390162
0.313618 0.313618 0.313618
0.351806 0.351806 0.351806
0.413365 0.413365 0.413365
0.450880 0.450880 0.450880
0.434086 0.434086 0.434086
0.184759 0.184759 0.184759
0.849320 0.849320 0.849320
0.830252 0.830252 0.830252
0.764608 0.764608 0.764608
0.664768 0.664768 0.664768
0.591445 0.591445 0.591445
0.601249 0.601249 0.601249
0.644179 0.644179 0.644179
0.652782 0.652782 0.652782
0.568732 0.568732 0.568732
0.947351 0.947351 0.947351
0.940372 0.940372 0.940372
0.919802 0.919802 0.919802
0.884396 0.884396 0.884396
0.843670 0.843670 0.843670
0.816384 0.816384 0.816384
0.811999 0.811999 0.811999
0.820522 0.820522 0.820522
0.802023 0.802023 0.802023
0.980372 0.980372 0.980372
0.979488 0.979488 0.979488
0.972526 0.972526 0.972526
0.961219 0.961219 0.961219
0.943776 0.943776 0.943776
0.926722 0.926722 0.926722
0.916414 0.916414 0.916414
0.911563 0.911563 0.911563
0.907440 0.907440 0.907440
0.988412 0.988412 0.988412
0.987906 0.987906 0.987906
0.986071 0.986071 0.986071
0.983245 0.983245 0.983245
0.979938 0.979938 0.979938
0.973300 0.973300 0.973300
0.967575 0.967575 0.967575
0.964644 0.964644 0.964644
0.962429 0.962429 0.962429
0.988997 0.988997 0.988997
0.991184 0.991184 0.991184
0.990514 0.990514 0.990514
0.989281 0.989281 0.989281
0.987604 0.987604 0.987604
0.985548 0.985548 0.985548
0.983884 0.983884 0.983884
0.982971 0.982971 0.982971
0.982904 0.982904 0.982904
0.094482 0.094482 0.094482
0.102654 0.102654 0.102654
0.118305 0.118305 0.118305
0.158502 0.158502 0.158502
0.189386 0.189386 0.189386
0.207286 0.207286 0.207286
0.207795 0.207795 0.207795
0.144597 0.144597 0.144597
0.214937 0.214937 0.214937
0.123655 0.123655 0.123655
0.141351 0.141351 0.141351
0.166964 0.166964 0.166964
0.189631 0.189631 0.189631
0.209995 0.209995 0.209995
0.228382 0.228382 0.228382
0.228366 0.228366 0.228366
0.157268 0.157268 0.157268
0.210948 0.210948 0.210948
0.255717 0.255717 0.255717
0.240136 0.240136 0.240136
0.214724 0.214724 0.214724
0.228895 0.228895 0.228895
0.274483 0.274483 0.274483
0.313600 0.313600 0.313600
0.323763 0.323763 0.323763
0.282406 0.282406 0.282406
0.198419 0.198419 0.198419
0.493260 0.493260 0.493260
0.457020 0.457020 0.457020
0.364501 0.364501 0.364501
0.302165 0.302165 0.302165
0.359640 0.359640 0.359640
0.426418 0.426418 0.426418
0.465605 0.465605 0.465605
0.451205 0.451205 0.451205
0.181648 0.181648 0.181648
0.810663 0.810663 0.810663
0.790832 0.790832 0.790832
0.725933 0.725933 0.725933
0.623339 0.623339 0.623339
0.557297 0.557297 0.557297
0.591956 0.591956 0.591956
0.644242 0.644242 0.644242
0.655807 0.655807 0.655807
0.585035 0.585035 0.585035
0.930155 0.930155 0.930155
0.924208 0.924208 0.924208
0.903091 0.903091 0.903091
0.868522 0.868522 0.868522
0.828264 0.828264 0.828264
0.805442 0.805442 0.805442
0.808379 0.808379 0.808379
0.818170 0.818170 0.818170
0.803662 0.803662 0.803662
0.975497 0.975497 0.975497
0.973349 0.973349 0.973349
0.966489 0.966489 0.966489
0.956226 0.956226 0.956226
0.936765 0.936765 0.936765
0.921521 0.921521 0.921521
0.912106 0.912106 0.912106
0.909500 0.909500 0.909500
0.906171 0.906171 0.906171
0.986570 0.986570 0.986570
0.986119 0.986119 0.986119
0.984475 0.984475 0.984475
0.981814 0.981814 0.981814
0.978345 0.978345 0.978345
0.970986 0.970986 0.970986
0.965926 0.965926 0.965926
0.963546 0.963546 0.963546
0.961616 0.961616 0.961616
0.989642 0.989642 0.989642
0.990879 0.990879 0.990879
0.990135 0.990135 0.990135
0.989400 0.989400 0.989400
0.986694 0.986694 0.986694
0.984855 0.984855 0.984855
0.983345 0.983345 0.983345
0.982573 0.982573 0.982573
0.982660 0.982660 0.982660
0.115582 0.115582 0.115582
0.137631 0.137631 0.137631
0.184505 0.184505 0.184505
0.230666 0.230666 0.230666
0.279445 0.279445 0.279445
0.278498 0.278498 0.278498
0.266023 0.266023 0.266023
0.201473 0.201473 0.201473
0.214945 0.214945 0.214945
0.168354 0.168354 0.168354
0.193595 0.193595 0.193595
0.238656 0.238656 0.238656
0.285050 0.285050 0.285050
0.299059 0.299059 0.299059
0.298400 0.298400 0.298400
0.286596 0.286596 0.286596
0.218842 0.218842 0.218842
0.210836 0.210836 0.210836
0.390039 0.390039 0.390039
0.385144 0.385144 0.385144
0.366351 0.366351 0.366351
0.351328 0.351328 0.351328
0.356884 0.356884 0.356884
0.375583 0.375583 0.375583
0.373842 0.373842 0.373842
0.332201 0.332201 0.332201
0.197915 0.197915 0.197915
0.516996 0.516996 0.516996
0.496630 0.496630 0.496630
0.444890 0.444890 0.444890
0.410189 0.410189 0.410189
0.429306 0.429306 0.429306
0.475565 0.475565 0.475565
0.504619 0.504619 0.504619
0.487019 0.487019 0.487019
0.298016 0.298016 0.298016
0.774833 0.774833 0.774833
0.757948 0.757948 0.757948
0.701056 0.701056 0.701056
0.609641 0.609641 0.609641
0.545947 0.545947 0.545947
0.604208 0.604208 0.604208
0.658998 0.658998 0.658998
0.672365 0.672365 0.672365
0.613670 0.613670 0.613670
0.915524 0.915524 0.915524
0.908865 0.908865 0.908865
0.888399 0.888399 0.888399
0.853389 0.853389 0.853389
0.815775 0.815775 0.815775
0.790334 0.790334 0.790334
0.806598 0.806598 0.806598
0.819237 0.819237 0.819237
0.809149 0.809149 0.809149
0.969050 0.969050 0.969050
0.967175 0.967175 0.967175
0.961100 0.961100 0.961100
0.948286 0.948286 0.948286
0.930570 0.930570 0.930570
0.916675 0.916675 0.916675
0.907664 0.907664 0.907664
0.908059 0.908059 0.908059
0.906797 0.906797 0.906797
0.985000 0.985000 0.985000
0.984542 0.984542 0.984542
0.982942 0.982942 0.982942
0.980521 0.980521 0.980521
0.975516 0.975516 0.975516
0.968843 0.968843 0.968843
0.964404 0.964404 0.964404
0.962638 0.962638 0.962638
0.961425 0.961425 0.961425
0.989283 0.989283 0.989283
0.989289 0.989289 0.989289
0.989095 0.989095 0.989095
0.987823 0.987823 0.987823
0.986003 0.986003 0.986003
0.984277 0.984277 0.984277
0.982921 0.982921 0.982921
0.982305 0.982305 0.982305
0.982673 0.982673 0.982673
0.183082 0.183082 0.183082
0.201016 0.201016 0.201016
0.275868 0.275868 0.275868
0.320605 0.320605 0.320605
0.377725 0.377725 0.377725
0.372935 0.372935 0.372935
0.343334 0.343334 0.343334
0.273156 0.273156 0.273156
0.217675 0.217675 0.217675
0.235065 0.235065 0.235065
0.254747 0.254747 0.254747
0.325437 0.325437 0.325437
0.369212 0.369212 0.369212
0.419616 0.419616 0.419616
0.392206 0.392206 0.392206
0.363046 0.363046 0.363046
0.292070 0.292070 0.292070
0.213438 0.213438 0.213438
0.491951 0.491951 0.491951
0.502993 0.502993 0.502993
0.543084 0.543084 0.543084
0.506649 0.506649 0.506649
0.481823 0.481823 0.481823
0.466735 0.466735 0.466735
0.447035 0.447035 0.447035
0.395682 0.395682 0.395682
0.200031 0.200031 0.200031
0.624418 0.624418 0.624418
0.613659 0.613659 0.613659
0.589571 0.589571 0.589571
0.560423 0.560423 0.560423
0.553025 0.553025 0.553025
0.560676 0.560676 0.560676
0.568052 0.568052 0.568052
0.540755 0.540755 0.540755
0.362413 0.362413 0.362413
0.780500 0.780500 0.780500
0.768906 0.768906 0.768906
0.735930 0.735930 0.735930
0.682328 0.682328 0.682328
0.653115 0.653115 0.653115
0.669554 0.669554 0.669554
0.701113 0.701113 0.701113
0.706488 0.706488 0.706488
0.652697 0.652697 0.652697
0.903571 0.903571 0.903571
0.898278 0.898278 0.898278
0.881281 0.881281 0.881281
0.849846 0.849846 0.849846
0.814897 0.814897 0.814897
0.784665 0.784665 0.784665
0.813149 0.813149 0.813149
0.827224 0.827224 0.827224
0.819146 0.819146 0.819146
0.964207 0.964207 0.964207
0.962569 0.962569 0.962569
0.957246 0.957246 0.957246
0.943099 0.943099 0.943099
0.926892 0.926892 0.926892
0.912877 0.912877 0.912877
0.904504 0.904504 0.904504
0.908795 0.908795 0.908795
0.909668 0.909668 0.909668
0.983676 0.983676 0.983676
0.983262 0.983262 0.983262
0.981804 0.981804 0.981804
0.979586 0.979586 0.979586
0.973588 0.973588 0.973588
0.967468 0.967468 0.967468
0.963492 0.963492 0.963492
0.962239 0.962239 0.962239
0.961915 0.961915 0.961915
0.988584 0.988584 0.988584
0.988581 0.988581 0.988581
0.988365 0.988365 0.988365
0.987256 0.987256 0.987256
0.985547 0.985547 0.985547
0.983926 0.983926 0.983926
0.982729 0.982729 0.982729
0.982249 0.982249 0.982249
0.982851 0.982851 0.982851
0.278191 0.278191 0.278191
0.289804 0.289804 0.289804
0.370577 0.370577 0.370577
0.415781 0.415781 0.415781
0.473789 0.473789 0.473789
0.489151 0.489151 0.489151
0.432105 0.432105 0.432105
0.346879 0.346879 0.346879
0.222244 0.222244 0.222244
0.325609 0.325609 0.325609
0.337684 0.337684 0.337684
0.417453 0.417453 0.417453
0.462340 0.462340 0.462340
0.520361 0.520361 0.520361
0.505746 0.505746 0.505746
0.451893 0.451893 0.451893
0.366263 0.366263 0.366263
0.217910 0.217910 0.217910
0.569508 0.569508 0.569508
0.577267 0.577267 0.577267
0.624365 0.624365 0.624365
0.656159 0.656159 0.656159
0.612782 0.612782 0.612782
0.574688 0.574688 0.574688
0.533269 0.533269 0.533269
0.466634 0.466634 0.466634
0.203990 0.203990 0.203990
0.750159 0.750159 0.750159
0.744208 0.744208 0.744208
0.732367 0.732367 0.732367
0.704480 0.704480 0.704480
0.681499 0.681499 0.681499
0.666368 0.666368 0.666368
0.647784 0.647784 0.647784
0.604141 0.604141 0.604141
0.465274 0.465274 0.465274
0.820558 0.820558 0.820558
0.815712 0.815712 0.815712
0.801988 0.801988 0.801988
0.774905 0.774905 0.774905
0.757121 0.757121 0.757121
0.753987 0.753987 0.753987
0.755103 0.755103 0.755103
0.746811 0.746811 0.746811
0.693636 0.693636 0.693636
0.904699 0.904699 0.904699
0.900690 0.900690 0.900690
0.888252 0.888252 0.888252
0.867813 0.867813 0.867813
0.843255 0.843255 0.843255
0.832201 0.832201 0.832201
0.837741 0.837741 0.837741
0.843972 0.843972 0.843972
0.832646 0.832646 0.832646
0.961807 0.961807 0.961807
0.960417 0.960417 0.960417
0.955390 0.955390 0.955390
0.942420 0.942420 0.942420
0.927997 0.927997 0.927997
0.915116 0.915116 0.915116
0.903272 0.903272 0.903272
0.913720 0.913720 0.913720
0.914905 0.914905 0.914905
0.982948 0.982948 0.982948
0.982571 0.982571 0.982571
0.981221 0.981221 0.981221
0.979188 0.979188 0.979188
0.973046 0.973046 0.973046
0.967325 0.967325 0.967325
0.963556 0.963556 0.963556
0.962546 0.962546 0.962546
0.963002 0.963002 0.963002
0.987703 0.987703 0.987703
0.987896 0.987896 0.987896
0.987790 0.987790 0.987790
0.987081 0.987081 0.987081
0.985368 0.985368 0.985368
0.983857 0.983857 0.983857
0.982787 0.982787 0.982787
0.982437 0.982437 0.982437
0.983201 0.983201 0.983201
0.381096 0.381096 0.381096
0.386837 0.386837 0.386837
0.446037 0.446037 0.446037
0.495798 0.495798 0.495798
0.551347 0.551347 0.551347
0.587586 0.587586 0.587586
0.512666 0.512666 0.512666
0.399951 0.399951 0.399951
0.242585 0.242585 0.242585
0.425830 0.425830 0.425830
0.431904 0.431904 0.431904
0.491432 0.491432 0.491432
0.539439 0.539439 0.539439
0.593959 0.593959 0.593959
0.601887 0.601887 0.601887
0.530358 0.530358 0.530358
0.420272 0.420272 0.420272
0.242769 0.242769 0.242769
0.661394 0.661394 0.661394
0.664533 0.664533 0.664533
0.696174 0.696174 0.696174
0.726851 0.726851 0.726851
0.723744 0.723744 0.723744
0.673973 0.673973 0.673973
0.615504 0.615504 0.615504
0.522317 0.522317 0.522317
0.277914 0.277914 0.277914
0.831509 0.831509 0.831509
0.826874 0.826874 0.826874
0.817388 0.817388 0.817388
0.797543 0.797543 0.797543
0.772016 0.772016 0.772016
0.748413 0.748413 0.748413
0.718892 0.718892 0.718892
0.657500 0.657500 0.657500
0.510561 0.510561 0.510561
0.866910 0.866910 0.866910
0.863019 0.863019 0.863019
0.853200 0.853200 0.853200
0.838063 0.838063 0.838063
0.825079 0.825079 0.825079
0.816130 0.816130 0.816130
0.807068 0.807068 0.807068
0.782082 0.782082 0.782082
0.723797 0.723797 0.723797
0.917963 0.917963 0.917963
0.915748 0.915748 0.915748
0.906937 0.906937 0.906937
0.893512 0.893512 0.893512
0.880908 0.880908 0.880908
0.873859 0.873859 0.873859
0.871149 0.871149 0.871149
0.865098 0.865098 0.865098
0.844649 0.844649 0.844649
0.962445 0.962445 0.962445
0.961303 0.961303 0.961303
0.957510 0.957510 0.957510
0.947712 0.947712 0.947712
0.935857 0.935857 0.935857
0.926412 0.926412 0.926412
0.922540 0.922540 0.922540
0.923121 0.923121 0.923121
0.919643 0.919643 0.919643
0.983110 0.983110 0.983110
0.982752 0.982752 0.982752
0.981407 0.981407 0.981407
0.979481 0.979481 0.979481
0.974294 0.974294 0.974294
0.969028 0.969028 0.969028
0.965362 0.965362 0.965362
0.962840 0.962840 0.962840
0.964488 0.964488 0.964488
0.986689 0.986689 0.986689
0.987548 0.987548 0.987548
0.987193 0.987193 0.987193
0.986923 0.986923 0.986923
0.985559 0.985559 0.985559
0.984157 0.984157 0.984157
0.983176 0.983176 0.983176
0.982896 0.982896 0.982896
0.983688 0.983688 0.983688
0.368207 0.368207 0.368207
0.375638 0.375638 0.375638
0.405297 0.405297 0.405297
0.456055 0.456055 0.456055
0.515996 0.515996 0.515996
0.562688 0.562688 0.562688
0.473995 0.473995 0.473995
0.307576 0.307576 0.307576
0.252951 0.252951 0.252951
0.406137 0.406137 0.406137
0.413817 0.413817 0.413817
0.444353 0.444353 0.444353
0.496873 0.496873 0.496873
0.555869 0.555869 0.555869
0.581344 0.581344 0.581344
0.493307 0.493307 0.493307
0.321802 0.321802 0.321802
0.256244 0.256244 0.256244
0.607465 0.607465 0.607465
0.614791 0.614791 0.614791
0.643039 0.643039 0.643039
0.684829 0.684829 0.684829
0.719719 0.719719 0.719719
0.668801 0.668801 0.668801
0.588538 0.588538 0.588538
0.417913 0.417913 0.417913
0.240639 0.240639 0.240639
0.854532 0.854532 0.854532
0.851247 0.851247 0.851247
0.841174 0.841174 0.841174
0.827018 0.827018 0.827018
0.809697 0.809697 0.809697
0.779902 0.779902 0.779902
0.734533 0.734533 0.734533
0.622201 0.622201 0.622201
0.440854 0.440854 0.440854
0.894097 0.894097 0.894097
0.892003 0.892003 0.892003
0.885419 0.885419 0.885419
0.876339 0.876339 0.876339
0.865121 0.865121 0.865121
0.850501 0.850501 0.850501
0.830167 0.830167 0.830167
0.784295 0.784295 0.784295
0.621821 0.621821 0.621821
0.931496 0.931496 0.931496
0.929842 0.929842 0.929842
0.924555 0.924555 0.924555
0.917782 0.917782 0.917782
0.910081 0.910081 0.910081
0.902563 0.902563 0.902563
0.893791 0.893791 0.893791
0.876038 0.876038 0.876038
0.816508 0.816508 0.816508
0.965532 0.965532 0.965532
0.964600 0.964600 0.964600
0.961480 0.961480 0.961480
0.957019 0.957019 0.957019
0.949749 0.949749 0.949749
0.943824 0.943824 0.943824
0.939508 0.939508 0.939508
0.932832 0.932832 0.932832
0.910763 0.910763 0.910763
0.983111 0.983111 0.983111
0.982823 0.982823 0.982823
0.981767 0.981767 0.981767
0.980081 0.980081 0.980081
0.977017 0.977017 0.977017
0.973148 0.973148 0.973148
0.970789 0.970789 0.970789
0.969211 0.969211 0.969211
0.962819 0.962819 0.962819
0.985639 0.985639 0.985639
0.987010 0.987010 0.987010
0.986573 0.986573 0.986573
0.986011 0.986011 0.986011
0.986165 0.986165 0.986165
0.984853 0.984853 0.984853
0.983968 0.983968 0.983968
0.983780 0.983780 0.983780
0.984304 0.984304 0.984304
