trix_modern/TriX_Green58_Punchy.cube
TITLE "Tri-X Green58 Punchy"
# Adobe RGB in/out. REPLACES AgX. R=0.1714 G=0.8069 B=0.0217
LUT_3D_SIZE 5
DOMAIN_MIN 0.0 0.0 0.0
DOMAIN_MAX 1.0 1.0 1.0
0.092306 0.092306 0.092306
0.092306 0.092306 0.092306
0.092306 0.092306 0.092306
0.092306 0.092306 0.092306
0.092306 0.092306 0.092306
0.092306 0.092306 0.092306
0.092306 0.092306 0.092306
0.092306 0.092306 0.092306
0.092306 0.092306 0.092306
0.092306 0.092306 0.092306
0.092306 0.092306 0.092306
0.092306 0.092306 0.092306
0.092306 0.092306 0.092306
0.092306 0.092306 0.092306
0.092306 0.092306 0.092306
0.092306 0.092306 0.092306
0.092306 0.092306 0.092306
0.092306 0.092306 0.092306
0.092306 0.092306 0.092306
0.092306 0.092306 0.092306
0.092306 0.092306 0.092306
0.092306 0.092306 0.092306
0.092306 0.092306 0.092306
0.092306 0.092306 0.092306
0.092306 0.092306 0.092306
0.092306 0.092306 0.092306
0.092306 0.092306 0.092306
0.092306 0.092306 0.092306
0.092306 0.092306 0.092306
0.092306 0.092306 0.092306
0.092306 0.092306 0.092306
0.160896 0.160896 0.160896
0.300697 0.300697 0.300697
0.350564 0.350564 0.350564
0.356492 0.356492 0.356492
0.092306 0.092306 0.092306
0.579355 0.579355 0.579355
0.564907 0.564907 0.564907
0.621451 0.621451 0.621451
0.662202 0.662202 0.662202
0.092306 0.092306 0.092306
0.798183 0.798183 0.798183
0.826604 0.826604 0.826604
0.832839 0.832839 0.832839
0.854680 0.854680 0.854680
0.092306 0.092306 0.092306
0.890667 0.890667 0.890667
0.933891 0.933891 0.933891
0.946188 0.946188 0.946188
0.955049 0.955049 0.955049
0.092306 0.092306 0.092306
0.092306 0.092306 0.092306
0.092306 0.092306 0.092306
0.092306 0.092306 0.092306
0.092306 0.092306 0.092306
0.092306 0.092306 0.092306
0.345079 0.345079 0.345079
0.357604 0.357604 0.357604
0.363903 0.363903 0.363903
0.360477 0.360477 0.360477
0.092306 0.092306 0.092306
0.540557 0.540557 0.540557
0.513339 0.513339 0.513339
0.615649 0.615649 0.615649
0.662797 0.662797 0.662797
0.092306 0.092306 0.092306
0.777509 0.777509 0.777509
0.812273 0.812273 0.812273
0.822796 0.822796 0.822796
0.855673 0.855673 0.855673
0.092306 0.092306 0.092306
0.889885 0.889885 0.889885
0.934603 0.934603 0.934603
0.948495 0.948495 0.948495
0.958739 0.958739 0.958739
0.092306 0.092306 0.092306
0.092306 0.092306 0.092306
0.092306 0.092306 0.092306
0.092306 0.092306 0.092306
0.092306 0.092306 0.092306
0.092306 0.092306 0.092306
0.411979 0.411979 0.411979
0.435000 0.435000 0.435000
0.401619 0.401619 0.401619
0.373889 0.373889 0.373889
0.092306 0.092306 0.092306
0.577790 0.577790 0.577790
0.619129 0.619129 0.619129
0.652187 0.652187 0.652187
0.674836 0.674836 0.674836
0.092306 0.092306 0.092306
0.755530 0.755530 0.755530
0.799032 0.799032 0.799032
0.806640 0.806640 0.806640
0.856997 0.856997 0.856997
0.092306 0.092306 0.092306
0.883713 0.883713 0.883713
0.932275 0.932275 0.932275
0.948160 0.948160 0.948160
0.960239 0.960239 0.960239
0.092306 0.092306 0.092306
0.092306 0.092306 0.092306
0.092306 0.092306 0.092306
0.092306 0.092306 0.092306
0.092306 0.092306 0.092306
0.092306 0.092306 0.092306
0.415325 0.415325 0.415325
0.477482 0.477482 0.477482
0.432143 0.432143 0.432143
0.390789 0.390789 0.390789
0.092306 0.092306 0.092306
0.645054 0.645054 0.645054
0.694840 0.694840 0.694840
0.701751 0.701751 0.701751
0.696383 0.696383 0.696383
0.092306 0.092306 0.092306
0.756524 0.756524 0.756524
0.818570 0.818570 0.818570
0.844377 0.844377 0.844377
0.868750 0.868750 0.868750
0.092306 0.092306 0.092306
0.877446 0.877446 0.877446
0.930188 0.930188 0.930188
0.948188 0.948188 0.948188
0.961544 0.961544 0.961544
