trix_modern/TriX_Red25_Normal.cube
TITLE "Tri-X Red25 Normal"
# Adobe RGB in/out. REPLACES AgX. R=0.9735 G=0.0265 B=0.0000
LUT_3D_SIZE 5
DOMAIN_MIN 0.0 0.0 0.0
DOMAIN_MAX 1.0 1.0 1.0
0.093230 0.093230 0.093230
0.093230 0.093230 0.093230
0.093230 0.093230 0.093230
0.093230 0.093230 0.093230
0.093230 0.093230 0.093230
0.093230 0.093230 0.093230
0.282044 0.282044 0.282044
0.669950 0.669950 0.669950
0.905426 0.905426 0.905426
0.974767 0.974767 0.974767
0.093230 0.093230 0.093230
0.316025 0.316025 0.316025
0.598543 0.598543 0.598543
0.849431 0.849431 0.849431
0.964033 0.964033 0.964033
0.093230 0.093230 0.093230
0.295597 0.295597 0.295597
0.602730 0.602730 0.602730
0.824103 0.824103 0.824103
0.947998 0.947998 0.947998
0.093230 0.093230 0.093230
0.259769 0.259769 0.259769
0.566227 0.566227 0.566227
0.807609 0.807609 0.807609
0.936673 0.936673 0.936673
0.093230 0.093230 0.093230
0.093230 0.093230 0.093230
0.093230 0.093230 0.093230
0.093230 0.093230 0.093230
0.093230 0.093230 0.093230
0.093230 0.093230 0.093230
0.204394 0.204394 0.204394
0.634438 0.634438 0.634438
0.894461 0.894461 0.894461
0.973387 0.973387 0.973387
0.093230 0.093230 0.093230
0.295941 0.295941 0.295941
0.564113 0.564113 0.564113
0.834887 0.834887 0.834887
0.960862 0.960862 0.960862
0.093230 0.093230 0.093230
0.288828 0.288828 0.288828
0.590644 0.590644 0.590644
0.816224 0.816224 0.816224
0.946188 0.946188 0.946188
0.093230 0.093230 0.093230
0.257122 0.257122 0.257122
0.562795 0.562795 0.562795
0.805553 0.805553 0.805553
0.936018 0.936018 0.936018
0.093230 0.093230 0.093230
0.093230 0.093230 0.093230
0.093230 0.093230 0.093230
0.093230 0.093230 0.093230
0.093230 0.093230 0.093230
0.093230 0.093230 0.093230
0.353663 0.353663 0.353663
0.696054 0.696054 0.696054
0.898212 0.898212 0.898212
0.972544 0.972544 0.972544
0.093230 0.093230 0.093230
0.271096 0.271096 0.271096
0.508013 0.508013 0.508013
0.821784 0.821784 0.821784
0.957138 0.957138 0.957138
0.093230 0.093230 0.093230
0.274945 0.274945 0.274945
0.566974 0.566974 0.566974
0.799742 0.799742 0.799742
0.942120 0.942120 0.942120
0.093230 0.093230 0.093230
0.250419 0.250419 0.250419
0.554436 0.554436 0.554436
0.800611 0.800611 0.800611
0.934442 0.934442 0.934442
0.093230 0.093230 0.093230
0.093230 0.093230 0.093230
0.093230 0.093230 0.093230
0.093230 0.093230 0.093230
0.093230 0.093230 0.093230
0.093230 0.093230 0.093230
0.402653 0.402653 0.402653
0.782750 0.782750 0.782750
0.922333 0.922333 0.922333
0.974019 0.974019 0.974019
0.093230 0.093230 0.093230
0.286722 0.286722 0.286722
0.600965 0.600965 0.600965
0.845220 0.845220 0.845220
0.958914 0.958914 0.958914
0.093230 0.093230 0.093230
0.260306 0.260306 0.260306
0.550801 0.550801 0.550801
0.782937 0.782937 0.782937
0.939188 0.939188 0.939188
0.093230 0.093230 0.093230
0.242470 0.242470 0.242470
0.545073 0.545073 0.545073
0.795343 0.795343 0.795343
0.932941 0.932941 0.932941
0.093230 0.093230 0.093230
0.093230 0.093230 0.093230
0.093230 0.093230 0.093230
0.093230 0.093230 0.093230
0.093230 0.093230 0.093230
0.093230 0.093230 0.093230
0.402653 0.402653 0.402653
0.818295 0.818295 0.818295
0.943608 0.943608 0.943608
0.976269 0.976269 0.976269
0.093230 0.093230 0.093230
0.319378 0.319378 0.319378
0.668568 0.668568 0.668568
0.878917 0.878917 0.878917
0.964416 0.964416 0.964416
0.093230 0.093230 0.093230
0.258261 0.258261 0.258261
0.563070 0.563070 0.563070
0.808876 0.808876 0.808876
0.943588 0.943588 0.943588
0.093230 0.093230 0.093230
0.235642 0.235642 0.235642
0.537813 0.537813 0.537813
0.792001 0.792001 0.792001
0.932292 0.932292 0.932292
