trix_modern/TriX_Orange21_ExtraPunchy.cube
TITLE "Tri-X Orange21 ExtraPunchy"
# Adobe RGB in/out. REPLACES AgX. R=0.7239 G=0.2761 B=0.0000
LUT_3D_SIZE 9
DOMAIN_MIN 0.0 0.0 0.0
DOMAIN_MAX 1.0 1.0 1.0
0.092237 0.092237 0.092237
0.092237 0.092237 0.092237
0.092237 0.092237 0.092237
0.092237 0.092237 0.092237
0.092237 0.092237 0.092237
0.092237 0.092237 0.092237
0.092237 0.092237 0.092237
0.092237 0.092237 0.092237
0.092237 0.092237 0.092237
0.092237 0.092237 0.092237
0.093605 0.093605 0.093605
0.169651 0.169651 0.169651
0.350100 0.350100 0.350100
0.530257 0.530257 0.530257
0.683016 0.683016 0.683016
0.782423 0.782423 0.782423
0.838738 0.838738 0.838738
0.877274 0.877274 0.877274
0.092237 0.092237 0.092237
0.113224 0.113224 0.113224
0.203176 0.203176 0.203176
0.382177 0.382177 0.382177
0.625850 0.625850 0.625850
0.801204 0.801204 0.801204
0.880621 0.880621 0.880621
0.926319 0.926319 0.926319
0.955519 0.955519 0.955519
0.092237 0.092237 0.092237
0.136931 0.136931 0.136931
0.296468 0.296468 0.296468
0.439149 0.439149 0.439149
0.643689 0.643689 0.643689
0.820260 0.820260 0.820260
0.904973 0.904973 0.904973
0.951734 0.951734 0.951734
0.972997 0.972997 0.972997
0.092237 0.092237 0.092237
0.147546 0.147546 0.147546
0.353571 0.353571 0.353571
0.542382 0.542382 0.542382
0.709328 0.709328 0.709328
0.830790 0.830790 0.830790
0.915346 0.915346 0.915346
0.960076 0.960076 0.960076
0.979938 0.979938 0.979938
0.092237 0.092237 0.092237
0.149988 0.149988 0.149988
0.380902 0.380902 0.380902
0.609852 0.609852 0.609852
0.774228 0.774228 0.774228
0.863803 0.863803 0.863803
0.922745 0.922745 0.922745
0.964336 0.964336 0.964336
0.981833 0.981833 0.981833
0.092237 0.092237 0.092237
0.147546 0.147546 0.147546
0.387629 0.387629 0.387629
0.642960 0.642960 0.642960
0.809810 0.809810 0.809810
0.889336 0.889336 0.889336
0.939258 0.939258 0.939258
0.968694 0.968694 0.968694
0.983452 0.983452 0.983452
0.092237 0.092237 0.092237
0.142134 0.142134 0.142134
0.381128 0.381128 0.381128
0.648463 0.648463 0.648463
0.820923 0.820923 0.820923
0.902895 0.902895 0.902895
0.951493 0.951493 0.951493
0.975820 0.975820 0.975820
0.985152 0.985152 0.985152
0.092237 0.092237 0.092237
0.135577 0.135577 0.135577
0.366259 0.366259 0.366259
0.636941 0.636941 0.636941
0.820696 0.820696 0.820696
0.907210 0.907210 0.907210
0.956911 0.956911 0.956911
0.979397 0.979397 0.979397
0.986870 0.986870 0.986870
0.092237 0.092237 0.092237
0.092237 0.092237 0.092237
0.092237 0.092237 0.092237
0.092237 0.092237 0.092237
0.092237 0.092237 0.092237
0.092237 0.092237 0.092237
0.092237 0.092237 0.092237
0.092237 0.092237 0.092237
0.092237 0.092237 0.092237
0.092237 0.092237 0.092237
0.092694 0.092694 0.092694
0.159164 0.159164 0.159164
0.332423 0.332423 0.332423
0.510435 0.510435 0.510435
0.668019 0.668019 0.668019
0.773957 0.773957 0.773957
0.834654 0.834654 0.834654
0.875015 0.875015 0.875015
0.092237 0.092237 0.092237
0.105743 0.105743 0.105743
0.176991 0.176991 0.176991
0.352950 0.352950 0.352950
0.598253 0.598253 0.598253
0.787606 0.787606 0.787606
0.875749 0.875749 0.875749
0.923777 0.923777 0.923777
0.953737 0.953737 0.953737
0.092237 0.092237 0.092237
0.130131 0.130131 0.130131
0.277135 0.277135 0.277135
0.411465 0.411465 0.411465
0.618637 0.618637 0.618637
0.811464 0.811464 0.811464
0.900175 0.900175 0.900175
0.949248 0.949248 0.949248
0.972063 0.972063 0.972063
0.092237 0.092237 0.092237
0.142988 0.142988 0.142988
0.342430 0.342430 0.342430
0.525532 0.525532 0.525532
0.691994 0.691994 0.691994
0.823901 0.823901 0.823901
0.911238 0.911238 0.911238
0.958876 0.958876 0.958876
0.979636 0.979636 0.979636
0.092237 0.092237 0.092237
0.147406 0.147406 0.147406
0.374354 0.374354 0.374354
0.599750 0.599750 0.599750
0.766414 0.766414 0.766414
0.858743 0.858743 0.858743
0.920550 0.920550 0.920550
0.963415 0.963415 0.963415
0.981595 0.981595 0.981595
0.092237 0.092237 0.092237
0.146079 0.146079 0.146079
0.383820 0.383820 0.383820
0.637317 0.637317 0.637317
0.806833 0.806833 0.806833
0.887042 0.887042 0.887042
0.937732 0.937732 0.937732
0.968094 0.968094 0.968094
0.983293 0.983293 0.983293
0.092237 0.092237 0.092237
0.141317 0.141317 0.141317
0.378981 0.378981 0.378981
0.645580 0.645580 0.645580
0.819272 0.819272 0.819272
0.901633 0.901633 0.901633
0.950645 0.950645 0.950645
0.975450 0.975450 0.975450
0.985059 0.985059 0.985059
0.092237 0.092237 0.092237
0.135222 0.135222 0.135222
0.365136 0.365136 0.365136
0.635184 0.635184 0.635184
0.819852 0.819852 0.819852
0.906592 0.906592 0.906592
0.956697 0.956697 0.956697
0.979341 0.979341 0.979341
0.986839 0.986839 0.986839
0.092237 0.092237 0.092237
0.092237 0.092237 0.092237
0.092237 0.092237 0.092237
0.092237 0.092237 0.092237
0.092237 0.092237 0.092237
0.092237 0.092237 0.092237
0.092237 0.092237 0.092237
0.092237 0.092237 0.092237
0.092237 0.092237 0.092237
0.092237 0.092237 0.092237
0.102973 0.102973 0.102973
0.200927 0.200927 0.200927
0.344498 0.344498 0.344498
0.502338 0.502338 0.502338
0.653409 0.653409 0.653409
0.761817 0.761817 0.761817
0.827303 0.827303 0.827303
0.869862 0.869862 0.869862
0.092237 0.092237 0.092237
0.099355 0.099355 0.099355
0.134598 0.134598 0.134598
0.327624 0.327624 0.327624
0.569903 0.569903 0.569903
0.769174 0.769174 0.769174
0.866345 0.866345 0.866345
0.918806 0.918806 0.918806
0.949817 0.949817 0.949817
0.092237 0.092237 0.092237
0.116470 0.116470 0.116470
0.240208 0.240208 0.240208
0.357866 0.357866 0.357866
0.571849 0.571849 0.571849
0.789652 0.789652 0.789652
0.890420 0.890420 0.890420
0.943789 0.943789 0.943789
0.969852 0.969852 0.969852
0.092237 0.092237 0.092237
0.133261 0.133261 0.133261
0.316942 0.316942 0.316942
0.485243 0.485243 0.485243
0.650465 0.650465 0.650465
0.807575 0.807575 0.807575
0.901347 0.901347 0.901347
0.955511 0.955511 0.955511
0.978493 0.978493 0.978493
0.092237 0.092237 0.092237
0.140484 0.140484 0.140484
0.357233 0.357233 0.357233
0.573698 0.573698 0.573698
0.745772 0.745772 0.745772
0.845004 0.845004 0.845004
0.914344 0.914344 0.914344
0.960909 0.960909 0.960909
0.980937 0.980937 0.980937
0.092237 0.092237 0.092237
0.141835 0.141835 0.141835
0.372958 0.372958 0.372958
0.620585 0.620585 0.620585
0.795300 0.795300 0.795300
0.880439 0.880439 0.880439
0.933275 0.933275 0.933275
0.966359 0.966359 0.966359
0.982825 0.982825 0.982825
0.092237 0.092237 0.092237
0.138878 0.138878 0.138878
0.372483 0.372483 0.372483
0.636211 0.636211 0.636211
0.814316 0.814316 0.814316
0.897830 0.897830 0.897830
0.948070 0.948070 0.948070
0.974317 0.974317 0.974317
0.984770 0.984770 0.984770
0.092237 0.092237 0.092237
0.134092 0.134092 0.134092
0.361582 0.361582 0.361582
0.629657 0.629657 0.629657
0.817201 0.817201 0.817201
0.904653 0.904653 0.904653
0.955730 0.955730 0.955730
0.979163 0.979163 0.979163
0.986743 0.986743 0.986743
0.092237 0.092237 0.092237
0.092237 0.092237 0.092237
0.092237 0.092237 0.092237
0.092237 0.092237 0.092237
0.092237 0.092237 0.092237
0.092237 0.092237 0.092237
0.092237 0.092237 0.092237
0.092237 0.092237 0.092237
0.092237 0.092237 0.092237
0.092237 0.092237 0.092237
0.137527 0.137527 0.137527
0.288279 0.288279 0.288279
0.411566 0.411566 0.411566
0.539789 0.539789 0.539789
0.665415 0.665415 0.665415
0.761569 0.761569 0.761569
0.824168 0.824168 0.824168
0.865637 0.865637 0.865637
0.092237 0.092237 0.092237
0.103836 0.103836 0.103836
0.213921 0.213921 0.213921
0.383886 0.383886 0.383886
0.596629 0.596629 0.596629
0.772496 0.772496 0.772496
0.863575 0.863575 0.863575
0.916086 0.916086 0.916086
0.946860 0.946860 0.946860
0.092237 0.092237 0.092237
0.108398 0.108398 0.108398
0.217266 0.217266 0.217266
0.305507 0.305507 0.305507
0.552178 0.552178 0.552178
0.777929 0.777929 0.777929
0.884631 0.884631 0.884631
0.939765 0.939765 0.939765
0.967922 0.967922 0.967922
0.092237 0.092237 0.092237
0.123067 0.123067 0.123067
0.290501 0.290501 0.290501
0.443125 0.443125 0.443125
0.597666 0.597666 0.597666
0.784632 0.784632 0.784632
0.892013 0.892013 0.892013
0.950271 0.950271 0.950271
0.976320 0.976320 0.976320
0.092237 0.092237 0.092237
0.132992 0.132992 0.132992
0.336437 0.336437 0.336437
0.543044 0.543044 0.543044
0.719148 0.719148 0.719148
0.827696 0.827696 0.827696
0.905009 0.905009 0.905009
0.957968 0.957968 0.957968
0.980160 0.980160 0.980160
0.092237 0.092237 0.092237
0.136572 0.136572 0.136572
0.358472 0.358472 0.358472
0.598830 0.598830 0.598830
0.778577 0.778577 0.778577
0.871620 0.871620 0.871620
0.927260 0.927260 0.927260
0.964105 0.964105 0.964105
0.982213 0.982213 0.982213
0.092237 0.092237 0.092237
0.135882 0.135882 0.135882
0.363213 0.363213 0.363213
0.622044 0.622044 0.622044
0.807395 0.807395 0.807395
0.892525 0.892525 0.892525
0.944443 0.944443 0.944443
0.972706 0.972706 0.972706
0.984368 0.984368 0.984368
0.092237 0.092237 0.092237
0.132372 0.132372 0.132372
0.356229 0.356229 0.356229
0.621426 0.621426 0.621426
0.813276 0.813276 0.813276
0.901803 0.901803 0.901803
0.953920 0.953920 0.953920
0.978598 0.978598 0.978598
0.986601 0.986601 0.986601
0.092237 0.092237 0.092237
0.092237 0.092237 0.092237
0.092237 0.092237 0.092237
0.092237 0.092237 0.092237
0.092237 0.092237 0.092237
0.092237 0.092237 0.092237
0.092237 0.092237 0.092237
0.092237 0.092237 0.092237
0.092237 0.092237 0.092237
0.092237 0.092237 0.092237
0.166806 0.166806 0.166806
0.359571 0.359571 0.359571
0.495995 0.495995 0.495995
0.604924 0.604924 0.604924
0.701819 0.701819 0.701819
0.775378 0.775378 0.775378
0.827425 0.827425 0.827425
0.865469 0.865469 0.865469
0.092237 0.092237 0.092237
0.123877 0.123877 0.123877
0.300368 0.300368 0.300368
0.486614 0.486614 0.486614
0.669755 0.669755 0.669755
0.801375 0.801375 0.801375
0.872039 0.872039 0.872039
0.917442 0.917442 0.917442
0.946343 0.946343 0.946343
0.092237 0.092237 0.092237
0.108786 0.108786 0.108786
0.242706 0.242706 0.242706
0.400528 0.400528 0.400528
0.609573 0.609573 0.609573
0.796315 0.796315 0.796315
0.887755 0.887755 0.887755
0.939632 0.939632 0.939632
0.967203 0.967203 0.967203
0.092237 0.092237 0.092237
0.115388 0.115388 0.115388
0.272500 0.272500 0.272500
0.420129 0.420129 0.420129
0.545947 0.545947 0.545947
0.775649 0.775649 0.775649
0.888712 0.888712 0.888712
0.947851 0.947851 0.947851
0.975030 0.975030 0.975030
0.092237 0.092237 0.092237
0.125749 0.125749 0.125749
0.316680 0.316680 0.316680
0.515269 0.515269 0.515269
0.686685 0.686685 0.686685
0.809597 0.809597 0.809597
0.896758 0.896758 0.896758
0.954924 0.954924 0.954924
0.979527 0.979527 0.979527
0.092237 0.092237 0.092237
0.131298 0.131298 0.131298
0.342989 0.342989 0.342989
0.576259 0.576259 0.576259
0.761295 0.761295 0.761295
0.859372 0.859372 0.859372
0.920698 0.920698 0.920698
0.961827 0.961827 0.961827
0.981609 0.981609 0.981609
0.092237 0.092237 0.092237
0.132396 0.132396 0.132396
0.352617 0.352617 0.352617
0.606171 0.606171 0.606171
0.797306 0.797306 0.797306
0.886652 0.886652 0.886652
0.940386 0.940386 0.940386
0.970894 0.970894 0.970894
0.983984 0.983984 0.983984
0.092237 0.092237 0.092237
0.130280 0.130280 0.130280
0.349793 0.349793 0.349793
0.611661 0.611661 0.611661
0.808661 0.808661 0.808661
0.898491 0.898491 0.898491
0.951827 0.951827 0.951827
0.977768 0.977768 0.977768
0.986441 0.986441 0.986441
0.092237 0.092237 0.092237
0.092237 0.092237 0.092237
0.092237 0.092237 0.092237
0.092237 0.092237 0.092237
0.092237 0.092237 0.092237
0.092237 0.092237 0.092237
0.092237 0.092237 0.092237
0.092237 0.092237 0.092237
0.092237 0.092237 0.092237
0.092237 0.092237 0.092237
0.179407 0.179407 0.179407
0.404665 0.404665 0.404665
0.564492 0.564492 0.564492
0.669293 0.669293 0.669293
0.742798 0.742798 0.742798
0.798623 0.798623 0.798623
0.836051 0.836051 0.836051
0.869307 0.869307 0.869307
0.092237 0.092237 0.092237
0.148692 0.148692 0.148692
0.371553 0.371553 0.371553
0.583783 0.583783 0.583783
0.742625 0.742625 0.742625
0.830389 0.830389 0.830389
0.885175 0.885175 0.885175
0.922574 0.922574 0.922574
0.948430 0.948430 0.948430
0.092237 0.092237 0.092237
0.118356 0.118356 0.118356
0.295694 0.295694 0.295694
0.496027 0.496027 0.496027
0.696656 0.696656 0.696656
0.827094 0.827094 0.827094
0.899750 0.899750 0.899750
0.943878 0.943878 0.943878
0.967984 0.967984 0.967984
0.092237 0.092237 0.092237
0.113899 0.113899 0.113899
0.276400 0.276400 0.276400
0.451119 0.451119 0.451119
0.638575 0.638575 0.638575
0.805842 0.805842 0.805842
0.896002 0.896002 0.896002
0.949912 0.949912 0.949912
0.975145 0.975145 0.975145
0.092237 0.092237 0.092237
0.120090 0.120090 0.120090
0.302673 0.302673 0.302673
0.498151 0.498151 0.498151
0.669872 0.669872 0.669872
0.785523 0.785523 0.785523
0.893958 0.893958 0.893958
0.953577 0.953577 0.953577
0.979259 0.979259 0.979259
0.092237 0.092237 0.092237
0.126274 0.126274 0.126274
0.328678 0.328678 0.328678
0.556245 0.556245 0.556245
0.746298 0.746298 0.746298
0.848082 0.848082 0.848082
0.913586 0.913586 0.913586
0.959892 0.959892 0.959892
0.981142 0.981142 0.981142
0.092237 0.092237 0.092237
0.128784 0.128784 0.128784
0.341818 0.341818 0.341818
0.590321 0.590321 0.590321
0.785805 0.785805 0.785805
0.880894 0.880894 0.880894
0.936314 0.936314 0.936314
0.969051 0.969051 0.969051
0.983622 0.983622 0.983622
0.092237 0.092237 0.092237
0.128000 0.128000 0.128000
0.342849 0.342849 0.342849
0.601255 0.601255 0.601255
0.803523 0.803523 0.803523
0.895055 0.895055 0.895055
0.949675 0.949675 0.949675
0.976921 0.976921 0.976921
0.986285 0.986285 0.986285
0.092237 0.092237 0.092237
0.092237 0.092237 0.092237
0.092237 0.092237 0.092237
0.092237 0.092237 0.092237
0.092237 0.092237 0.092237
0.092237 0.092237 0.092237
0.092237 0.092237 0.092237
0.092237 0.092237 0.092237
0.092237 0.092237 0.092237
0.092237 0.092237 0.092237
0.181152 0.181152 0.181152
0.425889 0.425889 0.425889
0.609996 0.609996 0.609996
0.718240 0.718240 0.718240
0.776181 0.776181 0.776181
0.817674 0.817674 0.817674
0.847488 0.847488 0.847488
0.874883 0.874883 0.874883
0.092237 0.092237 0.092237
0.168449 0.168449 0.168449
0.424472 0.424472 0.424472
0.658367 0.658367 0.658367
0.794121 0.794121 0.794121
0.858675 0.858675 0.858675
0.900708 0.900708 0.900708
0.929904 0.929904 0.929904
0.952423 0.952423 0.952423
0.092237 0.092237 0.092237
0.133291 0.133291 0.133291
0.346591 0.346591 0.346591
0.578854 0.578854 0.578854
0.762776 0.762776 0.762776
0.858749 0.858749 0.858749
0.916071 0.916071 0.916071
0.951183 0.951183 0.951183
0.970011 0.970011 0.970011
0.092237 0.092237 0.092237
0.118063 0.118063 0.118063
0.300669 0.300669 0.300669
0.510780 0.510780 0.510780
0.713530 0.713530 0.713530
0.837496 0.837496 0.837496
0.911295 0.911295 0.911295
0.956107 0.956107 0.956107
0.976682 0.976682 0.976682
0.092237 0.092237 0.092237
0.117648 0.117648 0.117648
0.299592 0.299592 0.299592
0.504715 0.504715 0.504715
0.694717 0.694717 0.694717
0.822772 0.822772 0.822772
0.904508 0.904508 0.904508
0.956764 0.956764 0.956764
0.979503 0.979503 0.979503
0.092237 0.092237 0.092237
0.122267 0.122267 0.122267
0.317893 0.317893 0.317893
0.542878 0.542878 0.542878
0.738115 0.738115 0.738115
0.842379 0.842379 0.842379
0.905124 0.905124 0.905124
0.959250 0.959250 0.959250
0.980993 0.980993 0.980993
0.092237 0.092237 0.092237
0.125405 0.125405 0.125405
0.331909 0.331909 0.331909
0.576187 0.576187 0.576187
0.775913 0.775913 0.775913
0.876022 0.876022 0.876022
0.932680 0.932680 0.932680
0.967286 0.967286 0.967286
0.983327 0.983327 0.983327
0.092237 0.092237 0.092237
0.125701 0.125701 0.125701
0.335918 0.335918 0.335918
0.591000 0.591000 0.591000
0.796322 0.796322 0.796322
0.891787 0.891787 0.891787
0.947657 0.947657 0.947657
0.976134 0.976134 0.976134
0.986152 0.986152 0.986152
0.092237 0.092237 0.092237
0.092237 0.092237 0.092237
0.092237 0.092237 0.092237
0.092237 0.092237 0.092237
0.092237 0.092237 0.092237
0.092237 0.092237 0.092237
0.092237 0.092237 0.092237
0.092237 0.092237 0.092237
0.092237 0.092237 0.092237
0.092237 0.092237 0.092237
0.176710 0.176710 0.176710
0.429256 0.429256 0.429256
0.633486 0.633486 0.633486
0.744495 0.744495 0.744495
0.802866 0.802866 0.802866
0.833066 0.833066 0.833066
0.859077 0.859077 0.859077
0.880644 0.880644 0.880644
0.092237 0.092237 0.092237
0.179845 0.179845 0.179845
0.458712 0.458712 0.458712
0.704696 0.704696 0.704696
0.823310 0.823310 0.823310
0.879939 0.879939 0.879939
0.915305 0.915305 0.915305
0.937626 0.937626 0.937626
0.956837 0.956837 0.956837
0.092237 0.092237 0.092237
0.147595 0.147595 0.147595
0.389239 0.389239 0.389239
0.645573 0.645573 0.645573
0.808913 0.808913 0.808913
0.883484 0.883484 0.883484
0.928400 0.928400 0.928400
0.958091 0.958091 0.958091
0.972682 0.972682 0.972682
0.092237 0.092237 0.092237
0.126392 0.126392 0.126392
0.331212 0.331212 0.331212
0.567530 0.567530 0.567530
0.764283 0.764283 0.764283
0.867091 0.867091 0.867091
0.925081 0.925081 0.925081
0.960690 0.960690 0.960690
0.979094 0.979094 0.979094
0.092237 0.092237 0.092237
0.119093 0.119093 0.119093
0.308591 0.308591 0.308591
0.531256 0.531256 0.531256
0.735419 0.735419 0.735419
0.849712 0.849712 0.849712
0.919206 0.919206 0.919206
0.960573 0.960573 0.960573
0.980183 0.980183 0.980183
0.092237 0.092237 0.092237
0.120025 0.120025 0.120025
0.312987 0.312987 0.312987
0.540468 0.540468 0.540468
0.742040 0.742040 0.742040
0.850905 0.850905 0.850905
0.918567 0.918567 0.918567
0.961609 0.961609 0.961609
0.981312 0.981312 0.981312
0.092237 0.092237 0.092237
0.122625 0.122625 0.122625
0.324021 0.324021 0.324021
0.565661 0.565661 0.565661
0.769437 0.769437 0.769437
0.873417 0.873417 0.873417
0.930870 0.930870 0.930870
0.965686 0.965686 0.965686
0.983218 0.983218 0.983218
0.092237 0.092237 0.092237
0.123552 0.123552 0.123552
0.329510 0.329510 0.329510
0.581676 0.581676 0.581676
0.789944 0.789944 0.789944
0.889007 0.889007 0.889007
0.945997 0.945997 0.945997
0.975488 0.975488 0.975488
0.986061 0.986061 0.986061
0.092237 0.092237 0.092237
0.092237 0.092237 0.092237
0.092237 0.092237 0.092237
0.092237 0.092237 0.092237
0.092237 0.092237 0.092237
0.092237 0.092237 0.092237
0.092237 0.092237 0.092237
0.092237 0.092237 0.092237
0.092237 0.092237 0.092237
0.092237 0.092237 0.092237
0.168948 0.168948 0.168948
0.420471 0.420471 0.420471
0.638590 0.638590 0.638590
0.757302 0.757302 0.757302
0.815055 0.815055 0.815055
0.844785 0.844785 0.844785
0.868834 0.868834 0.868834
0.885875 0.885875 0.885875
0.092237 0.092237 0.092237
0.184264 0.184264 0.184264
0.475289 0.475289 0.475289
0.729830 0.729830 0.729830
0.840129 0.840129 0.840129
0.893200 0.893200 0.893200
0.924126 0.924126 0.924126
0.944382 0.944382 0.944382
0.959318 0.959318 0.959318
0.092237 0.092237 0.092237
0.158947 0.158947 0.158947
0.420617 0.420617 0.420617
0.688559 0.688559 0.688559
0.832819 0.832819 0.832819
0.900599 0.900599 0.900599
0.938906 0.938906 0.938906
0.962298 0.962298 0.962298
0.975360 0.975360 0.975360
0.092237 0.092237 0.092237
0.134759 0.134759 0.134759
0.359840 0.359840 0.359840
0.616506 0.616506 0.616506
0.803111 0.803111 0.803111
0.886932 0.886932 0.886932
0.936429 0.936429 0.936429
0.965079 0.965079 0.965079
0.980068 0.980068 0.980068
0.092237 0.092237 0.092237
0.123136 0.123136 0.123136
0.324339 0.324339 0.324339
0.563700 0.563700 0.563700
0.766769 0.766769 0.766769
0.872170 0.872170 0.872170
0.930128 0.930128 0.930128
0.964693 0.964693 0.964693
0.981036 0.981036 0.981036
0.092237 0.092237 0.092237
0.119893 0.119893 0.119893
0.314762 0.314762 0.314762
0.549302 0.549302 0.549302
0.755695 0.755695 0.755695
0.865337 0.865337 0.865337
0.927679 0.927679 0.927679
0.965038 0.965038 0.965038
0.981923 0.981923 0.981923
0.092237 0.092237 0.092237
0.120770 0.120770 0.120770
0.319164 0.319164 0.319164
0.560456 0.560456 0.560456
0.768050 0.768050 0.768050
0.874454 0.874454 0.874454
0.933245 0.933245 0.933245
0.968228 0.968228 0.968228
0.983475 0.983475 0.983475
0.092237 0.092237 0.092237
0.121704 0.121704 0.121704
0.324091 0.324091 0.324091
0.574022 0.574022 0.574022
0.784994 0.784994 0.784994
0.887065 0.887065 0.887065
0.945006 0.945006 0.945006
0.975146 0.975146 0.975146
0.986028 0.986028 0.986028
