trix_modern/TriX_Yellow8_ExtraPunchy.cube
TITLE "Tri-X Yellow8 ExtraPunchy"
# Adobe RGB in/out. REPLACES AgX. R=0.5015 G=0.4679 B=0.0307
LUT_3D_SIZE 9
DOMAIN_MIN 0.0 0.0 0.0
DOMAIN_MAX 1.0 1.0 1.0
0.092237 0.092237 0.092237
0.092237 0.092237 0.092237
0.092237 0.092237 0.092237
0.092237 0.092237 0.092237
0.092237 0.092237 0.092237
0.092237 0.092237 0.092237
0.092237 0.092237 0.092237
0.092237 0.092237 0.092237
0.092237 0.092237 0.092237
0.092237 0.092237 0.092237
0.092237 0.092237 0.092237
0.092237 0.092237 0.092237
0.092237 0.092237 0.092237
0.092237 0.092237 0.092237
0.092237 0.092237 0.092237
0.092237 0.092237 0.092237
0.092237 0.092237 0.092237
0.092237 0.092237 0.092237
0.092237 0.092237 0.092237
0.092237 0.092237 0.092237
0.092237 0.092237 0.092237
0.092237 0.092237 0.092237
0.092237 0.092237 0.092237
0.092237 0.092237 0.092237
0.092237 0.092237 0.092237
0.092237 0.092237 0.092237
0.092237 0.092237 0.092237
0.092237 0.092237 0.092237
0.092237 0.092237 0.092237
0.092237 0.092237 0.092237
0.092237 0.092237 0.092237
0.092237 0.092237 0.092237
0.092237 0.092237 0.092237
0.092237 0.092237 0.092237
0.092237 0.092237 0.092237
0.092237 0.092237 0.092237
0.092237 0.092237 0.092237
0.092237 0.092237 0.092237
0.092237 0.092237 0.092237
0.092237 0.092237 0.092237
0.092237 0.092237 0.092237
0.092237 0.092237 0.092237
0.092237 0.092237 0.092237
0.092237 0.092237 0.092237
0.092237 0.092237 0.092237
0.092237 0.092237 0.092237
0.092237 0.092237 0.092237
0.092237 0.092237 0.092237
0.092237 0.092237 0.092237
0.092237 0.092237 0.092237
0.092237 0.092237 0.092237
0.092237 0.092237 0.092237
0.092237 0.092237 0.092237
0.092237 0.092237 0.092237
0.092237 0.092237 0.092237
0.092237 0.092237 0.092237
0.092237 0.092237 0.092237
0.092237 0.092237 0.092237
0.092237 0.092237 0.092237
0.092237 0.092237 0.092237
0.092237 0.092237 0.092237
0.092237 0.092237 0.092237
0.092237 0.092237 0.092237
0.092237 0.092237 0.092237
0.092237 0.092237 0.092237
0.092237 0.092237 0.092237
0.092237 0.092237 0.092237
0.092237 0.092237 0.092237
0.092237 0.092237 0.092237
0.092237 0.092237 0.092237
0.092237 0.092237 0.092237
0.092237 0.092237 0.092237
0.092237 0.092237 0.092237
0.092237 0.092237 0.092237
0.092237 0.092237 0.092237
0.092237 0.092237 0.092237
0.092237 0.092237 0.092237
0.092237 0.092237 0.092237
0.092237 0.092237 0.092237
0.092237 0.092237 0.092237
0.092237 0.092237 0.092237
0.092237 0.092237 0.092237
0.092237 0.092237 0.092237
0.092237 0.092237 0.092237
0.092237 0.092237 0.092237
0.092237 0.092237 0.092237
0.092237 0.092237 0.092237
0.092237 0.092237 0.092237
0.092237 0.092237 0.092237
0.092237 0.092237 0.092237
0.092237 0.092237 0.092237
0.092694 0.092694 0.092694
0.120699 0.120699 0.120699
0.200102 0.200102 0.200102
0.272796 0.272796 0.272796
0.329336 0.329336 0.329336
0.373505 0.373505 0.373505
0.407883 0.407883 0.407883
0.434537 0.434537 0.434537
0.092237 0.092237 0.092237
0.125738 0.125738 0.125738
0.169686 0.169686 0.169686
0.282029 0.282029 0.282029
0.420869 0.420869 0.420869
0.546226 0.546226 0.546226
0.643967 0.643967 0.643967
0.709629 0.709629 0.709629
0.749881 0.749881 0.749881
0.092237 0.092237 0.092237
0.195001 0.195001 0.195001
0.310909 0.310909 0.310909
0.384642 0.384642 0.384642
0.511861 0.511861 0.511861
0.666626 0.666626 0.666626
0.771778 0.771778 0.771778
0.829872 0.829872 0.829872
0.865255 0.865255 0.865255
0.092237 0.092237 0.092237
0.244937 0.244937 0.244937
0.428743 0.428743 0.428743
0.547873 0.547873 0.547873
0.644862 0.644862 0.644862
0.746115 0.746115 0.746115
0.831164 0.831164 0.831164
0.882653 0.882653 0.882653
0.915764 0.915764 0.915764
0.092237 0.092237 0.092237
0.277264 0.277264 0.277264
0.513041 0.513041 0.513041
0.673695 0.673695 0.673695
0.766687 0.766687 0.766687
0.825636 0.825636 0.825636
0.873168 0.873168 0.873168
0.916244 0.916244 0.916244
0.943055 0.943055 0.943055
0.092237 0.092237 0.092237
0.295158 0.295158 0.295158
0.562441 0.562441 0.562441
0.744688 0.744688 0.744688
0.829822 0.829822 0.829822
0.879319 0.879319 0.879319
0.914364 0.914364 0.914364
0.939147 0.939147 0.939147
0.961860 0.961860 0.961860
0.092237 0.092237 0.092237
0.302878 0.302878 0.302878
0.588351 0.588351 0.588351
0.778677 0.778677 0.778677
0.862698 0.862698 0.862698
0.909994 0.909994 0.909994
0.939781 0.939781 0.939781
0.961123 0.961123 0.961123
0.973704 0.973704 0.973704
0.092237 0.092237 0.092237
0.303140 0.303140 0.303140
0.596476 0.596476 0.596476
0.794548 0.794548 0.794548
0.878886 0.878886 0.878886
0.925835 0.925835 0.925835
0.956754 0.956754 0.956754
0.971566 0.971566 0.971566
0.981149 0.981149 0.981149
0.092237 0.092237 0.092237
0.092237 0.092237 0.092237
0.092237 0.092237 0.092237
0.092237 0.092237 0.092237
0.092237 0.092237 0.092237
0.092237 0.092237 0.092237
0.092237 0.092237 0.092237
0.092237 0.092237 0.092237
0.092237 0.092237 0.092237
0.092237 0.092237 0.092237
0.104289 0.104289 0.104289
0.154292 0.154292 0.154292
0.216614 0.216614 0.216614
0.280755 0.280755 0.280755
0.334622 0.334622 0.334622
0.379719 0.379719 0.379719
0.416239 0.416239 0.416239
0.445740 0.445740 0.445740
0.092237 0.092237 0.092237
0.112170 0.112170 0.112170
0.134598 0.134598 0.134598
0.272673 0.272673 0.272673
0.417582 0.417582 0.417582
0.548052 0.548052 0.548052
0.650309 0.650309 0.650309
0.720716 0.720716 0.720716
0.761021 0.761021 0.761021
0.092237 0.092237 0.092237
0.177892 0.177892 0.177892
0.283534 0.283534 0.283534
0.349042 0.349042 0.349042
0.491874 0.491874 0.491874
0.661081 0.661081 0.661081
0.774895 0.774895 0.774895
0.835526 0.835526 0.835526
0.873157 0.873157 0.873157
0.092237 0.092237 0.092237
0.235345 0.235345 0.235345
0.413816 0.413816 0.413816
0.528930 0.528930 0.528930
0.625734 0.625734 0.625734
0.742623 0.742623 0.742623
0.833349 0.833349 0.833349
0.887349 0.887349 0.887349
0.920973 0.920973 0.920973
0.092237 0.092237 0.092237
0.275498 0.275498 0.275498
0.510873 0.510873 0.510873
0.671828 0.671828 0.671828
0.765513 0.765513 0.765513
0.826300 0.826300 0.826300
0.876962 0.876962 0.876962
0.920717 0.920717 0.920717
0.948995 0.948995 0.948995
0.092237 0.092237 0.092237
0.298970 0.298970 0.298970
0.570075 0.570075 0.570075
0.751508 0.751508 0.751508
0.835146 0.835146 0.835146
0.884125 0.884125 0.884125
0.919143 0.919143 0.919143
0.945131 0.945131 0.945131
0.965686 0.965686 0.965686
0.092237 0.092237 0.092237
0.310444 0.310444 0.310444
0.602936 0.602936 0.602936
0.791160 0.791160 0.791160
0.872012 0.872012 0.872012
0.917345 0.917345 0.917345
0.946303 0.946303 0.946303
0.965080 0.965080 0.965080
0.978066 0.978066 0.978066
0.092237 0.092237 0.092237
0.313135 0.313135 0.313135
0.615709 0.615709 0.615709
0.808594 0.808594 0.808594
0.888122 0.888122 0.888122
0.933302 0.933302 0.933302
0.961133 0.961133 0.961133
0.976214 0.976214 0.976214
0.982946 0.982946 0.982946
0.092237 0.092237 0.092237
0.092237 0.092237 0.092237
0.092237 0.092237 0.092237
0.092237 0.092237 0.092237
0.092237 0.092237 0.092237
0.092237 0.092237 0.092237
0.092237 0.092237 0.092237
0.092237 0.092237 0.092237
0.092237 0.092237 0.092237
0.092237 0.092237 0.092237
0.107173 0.107173 0.107173
0.194036 0.194036 0.194036
0.268739 0.268739 0.268739
0.309927 0.309927 0.309927
0.350725 0.350725 0.350725
0.389109 0.389109 0.389109
0.422863 0.422863 0.422863
0.451579 0.451579 0.451579
0.092237 0.092237 0.092237
0.128248 0.128248 0.128248
0.219668 0.219668 0.219668
0.328376 0.328376 0.328376
0.449793 0.449793 0.449793
0.565290 0.565290 0.565290
0.659452 0.659452 0.659452
0.727029 0.727029 0.727029
0.766158 0.766158 0.766158
0.092237 0.092237 0.092237
0.161745 0.161745 0.161745
0.263343 0.263343 0.263343
0.305507 0.305507 0.305507
0.486196 0.486196 0.486196
0.661189 0.661189 0.661189
0.776495 0.776495 0.776495
0.837525 0.837525 0.837525
0.875505 0.875505 0.875505
0.092237 0.092237 0.092237
0.217985 0.217985 0.217985
0.389001 0.389001 0.389001
0.496437 0.496437 0.496437
0.587541 0.587541 0.587541
0.730936 0.730936 0.730936
0.830237 0.830237 0.830237
0.887507 0.887507 0.887507
0.922422 0.922422 0.922422
0.092237 0.092237 0.092237
0.264068 0.264068 0.264068
0.492863 0.492863 0.492863
0.654314 0.654314 0.654314
0.751023 0.751023 0.751023
0.817432 0.817432 0.817432
0.874582 0.874582 0.874582
0.920747 0.920747 0.920747
0.950581 0.950581 0.950581
0.092237 0.092237 0.092237
0.293876 0.293876 0.293876
0.562078 0.562078 0.562078
0.746069 0.746069 0.746069
0.831764 0.831764 0.831764
0.881954 0.881954 0.881954
0.918376 0.918376 0.918376
0.946423 0.946423 0.946423
0.967019 0.967019 0.967019
0.092237 0.092237 0.092237
0.309933 0.309933 0.309933
0.602801 0.602801 0.602801
0.791934 0.791934 0.791934
0.872928 0.872928 0.872928
0.918460 0.918460 0.918460
0.948006 0.948006 0.948006
0.966459 0.966459 0.966459
0.979408 0.979408 0.979408
0.092237 0.092237 0.092237
0.316033 0.316033 0.316033
0.621709 0.621709 0.621709
0.812235 0.812235 0.812235
0.891578 0.891578 0.891578
0.936367 0.936367 0.936367
0.963100 0.963100 0.963100
0.978509 0.978509 0.978509
0.983914 0.983914 0.983914
0.092237 0.092237 0.092237
0.092237 0.092237 0.092237
0.092237 0.092237 0.092237
0.092237 0.092237 0.092237
0.092237 0.092237 0.092237
0.092237 0.092237 0.092237
0.092237 0.092237 0.092237
0.092237 0.092237 0.092237
0.092237 0.092237 0.092237
0.092237 0.092237 0.092237
0.108101 0.108101 0.108101
0.197476 0.197476 0.197476
0.302077 0.302077 0.302077
0.355018 0.355018 0.355018
0.380763 0.380763 0.380763
0.407967 0.407967 0.407967
0.435024 0.435024 0.435024
0.459625 0.459625 0.459625
0.092237 0.092237 0.092237
0.171299 0.171299 0.171299
0.313467 0.313467 0.313467
0.422215 0.422215 0.422215
0.521483 0.521483 0.521483
0.609755 0.609755 0.609755
0.683104 0.683104 0.683104
0.737762 0.737762 0.737762
0.773265 0.773265 0.773265
0.092237 0.092237 0.092237
0.165787 0.165787 0.165787
0.298845 0.298845 0.298845
0.407627 0.407627 0.407627
0.547780 0.547780 0.547780
0.692735 0.692735 0.692735
0.790382 0.790382 0.790382
0.843221 0.843221 0.843221
0.878623 0.878623 0.878623
0.092237 0.092237 0.092237
0.204268 0.204268 0.204268
0.372337 0.372337 0.372337
0.479302 0.479302 0.479302
0.545947 0.545947 0.545947
0.730338 0.730338 0.730338
0.832039 0.832039 0.832039
0.889230 0.889230 0.889230
0.923881 0.923881 0.923881
0.092237 0.092237 0.092237
0.250244 0.250244 0.250244
0.471704 0.471704 0.471704
0.633693 0.633693 0.633693
0.733907 0.733907 0.733907
0.805196 0.805196 0.805196
0.871130 0.871130 0.871130
0.920231 0.920231 0.920231
0.951317 0.951317 0.951317
0.092237 0.092237 0.092237
0.285089 0.285089 0.285089
0.547927 0.547927 0.547927
0.736172 0.736172 0.736172
0.825366 0.825366 0.825366
0.877159 0.877159 0.877159
0.915497 0.915497 0.915497
0.946115 0.946115 0.946115
0.967508 0.967508 0.967508
0.092237 0.092237 0.092237
0.305622 0.305622 0.305622
0.595925 0.595925 0.595925
0.787602 0.787602 0.787602
0.871094 0.871094 0.871094
0.917611 0.917611 0.917611
0.947714 0.947714 0.947714
0.966771 0.966771 0.966771
0.979810 0.979810 0.979810
0.092237 0.092237 0.092237
0.315488 0.315488 0.315488
0.621399 0.621399 0.621399
0.812652 0.812652 0.812652
0.892487 0.892487 0.892487
0.937542 0.937542 0.937542
0.964050 0.964050 0.964050
0.979346 0.979346 0.979346
0.984541 0.984541 0.984541
0.092237 0.092237 0.092237
0.092237 0.092237 0.092237
0.092237 0.092237 0.092237
0.092237 0.092237 0.092237
0.092237 0.092237 0.092237
0.092237 0.092237 0.092237
0.092237 0.092237 0.092237
0.092237 0.092237 0.092237
0.092237 0.092237 0.092237
0.092237 0.092237 0.092237
0.108832 0.108832 0.108832
0.200187 0.200187 0.200187
0.306256 0.306256 0.306256
0.402692 0.402692 0.402692
0.417916 0.417916 0.417916
0.434770 0.434770 0.434770
0.453179 0.453179 0.453179
0.471506 0.471506 0.471506
0.092237 0.092237 0.092237
0.191098 0.191098 0.191098
0.390478 0.390478 0.390478
0.517611 0.517611 0.517611
0.602349 0.602349 0.602349
0.667199 0.667199 0.667199
0.719613 0.719613 0.719613
0.755099 0.755099 0.755099
0.784320 0.784320 0.784320
0.092237 0.092237 0.092237
0.191804 0.191804 0.191804
0.365745 0.365745 0.365745
0.512284 0.512284 0.512284
0.642955 0.642955 0.642955
0.745234 0.745234 0.745234
0.813667 0.813667 0.813667
0.854580 0.854580 0.854580
0.884039 0.884039 0.884039
0.092237 0.092237 0.092237
0.202731 0.202731 0.202731
0.382575 0.382575 0.382575
0.521481 0.521481 0.521481
0.646243 0.646243 0.646243
0.765851 0.765851 0.765851
0.845593 0.845593 0.845593
0.895541 0.895541 0.895541
0.926948 0.926948 0.926948
0.092237 0.092237 0.092237
0.239212 0.239212 0.239212
0.456716 0.456716 0.456716
0.621965 0.621965 0.621965
0.726738 0.726738 0.726738
0.785523 0.785523 0.785523
0.872155 0.872155 0.872155
0.921786 0.921786 0.921786
0.952966 0.952966 0.952966
0.092237 0.092237 0.092237
0.275060 0.275060 0.275060
0.532875 0.532875 0.532875
0.726061 0.726061 0.726061
0.819100 0.819100 0.819100
0.871950 0.871950 0.871950
0.910488 0.910488 0.910488
0.945569 0.945569 0.945569
0.967893 0.967893 0.967893
0.092237 0.092237 0.092237
0.299564 0.299564 0.299564
0.586030 0.586030 0.586030
0.781100 0.781100 0.781100
0.867534 0.867534 0.867534
0.916000 0.916000 0.916000
0.946539 0.946539 0.946539
0.966574 0.966574 0.966574
0.980058 0.980058 0.980058
0.092237 0.092237 0.092237
0.313033 0.313033 0.313033
0.617627 0.617627 0.617627
0.811348 0.811348 0.811348
0.892086 0.892086 0.892086
0.937770 0.937770 0.937770
0.964491 0.964491 0.964491
0.979643 0.979643 0.979643
0.984996 0.984996 0.984996
0.092237 0.092237 0.092237
0.092237 0.092237 0.092237
0.092237 0.092237 0.092237
0.092237 0.092237 0.092237
0.092237 0.092237 0.092237
0.092237 0.092237 0.092237
0.092237 0.092237 0.092237
0.092237 0.092237 0.092237
0.092237 0.092237 0.092237
0.092237 0.092237 0.092237
0.109433 0.109433 0.109433
0.202429 0.202429 0.202429
0.309714 0.309714 0.309714
0.413698 0.413698 0.413698
0.455519 0.455519 0.455519
0.464503 0.464503 0.464503
0.474809 0.474809 0.474809
0.486330 0.486330 0.486330
0.092237 0.092237 0.092237
0.193238 0.193238 0.193238
0.394887 0.394887 0.394887
0.592714 0.592714 0.592714
0.672381 0.672381 0.672381
0.722081 0.722081 0.722081
0.751591 0.751591 0.751591
0.776511 0.776511 0.776511
0.798585 0.798585 0.798585
0.092237 0.092237 0.092237
0.224868 0.224868 0.224868
0.433871 0.433871 0.433871
0.603182 0.603182 0.603182
0.723984 0.723984 0.723984
0.794442 0.794442 0.794442
0.836973 0.836973 0.836973
0.870112 0.870112 0.870112
0.891608 0.891608 0.891608
0.092237 0.092237 0.092237
0.216146 0.216146 0.216146
0.420163 0.420163 0.420163
0.592506 0.592506 0.592506
0.727475 0.727475 0.727475
0.813033 0.813033 0.813033
0.868423 0.868423 0.868423
0.906461 0.906461 0.906461
0.931976 0.931976 0.931976
0.092237 0.092237 0.092237
0.235721 0.235721 0.235721
0.457183 0.457183 0.457183
0.636528 0.636528 0.636528
0.751411 0.751411 0.751411
0.826444 0.826444 0.826444
0.885487 0.885487 0.885487
0.927521 0.927521 0.927521
0.956484 0.956484 0.956484
0.092237 0.092237 0.092237
0.266965 0.266965 0.266965
0.521620 0.521620 0.521620
0.718115 0.718115 0.718115
0.816818 0.816818 0.816818
0.870044 0.870044 0.870044
0.905124 0.905124 0.905124
0.946807 0.946807 0.946807
0.968831 0.968831 0.968831
0.092237 0.092237 0.092237
0.293271 0.293271 0.293271
0.575837 0.575837 0.575837
0.774573 0.774573 0.774573
0.864183 0.864183 0.864183
0.914185 0.914185 0.914185
0.945256 0.945256 0.945256
0.966153 0.966153 0.966153
0.980260 0.980260 0.980260
0.092237 0.092237 0.092237
0.309642 0.309642 0.309642
0.612174 0.612174 0.612174
0.809223 0.809223 0.809223
0.891092 0.891092 0.891092
0.937588 0.937588 0.937588
0.964704 0.964704 0.964704
0.979851 0.979851 0.979851
0.985364 0.985364 0.985364
0.092237 0.092237 0.092237
0.092237 0.092237 0.092237
0.092237 0.092237 0.092237
0.092237 0.092237 0.092237
0.092237 0.092237 0.092237
0.092237 0.092237 0.092237
0.092237 0.092237 0.092237
0.092237 0.092237 0.092237
0.092237 0.092237 0.092237
0.092237 0.092237 0.092237
0.110008 0.110008 0.110008
0.204345 0.204345 0.204345
0.312668 0.312668 0.312668
0.417697 0.417697 0.417697
0.487146 0.487146 0.487146
0.492203 0.492203 0.492203
0.496578 0.496578 0.496578
0.502078 0.502078 0.502078
0.092237 0.092237 0.092237
0.195067 0.195067 0.195067
0.398653 0.398653 0.398653
0.599317 0.599317 0.599317
0.723975 0.723975 0.723975
0.757913 0.757913 0.757913
0.780551 0.780551 0.780551
0.798456 0.798456 0.798456
0.810689 0.810689 0.810689
0.092237 0.092237 0.092237
0.255866 0.255866 0.255866
0.493462 0.493462 0.493462
0.674016 0.674016 0.674016
0.774774 0.774774 0.774774
0.827301 0.827301 0.827301
0.860118 0.860118 0.860118
0.883288 0.883288 0.883288
0.900219 0.900219 0.900219
0.092237 0.092237 0.092237
0.238501 0.238501 0.238501
0.468509 0.468509 0.468509
0.660805 0.660805 0.660805
0.780351 0.780351 0.780351
0.844940 0.844940 0.844940
0.888028 0.888028 0.888028
0.918506 0.918506 0.918506
0.938255 0.938255 0.938255
0.092237 0.092237 0.092237
0.241906 0.241906 0.241906
0.475874 0.475874 0.475874
0.670417 0.670417 0.670417
0.790878 0.790878 0.790878
0.856725 0.856725 0.856725
0.903672 0.903672 0.903672
0.936280 0.936280 0.936280
0.959424 0.959424 0.959424
0.092237 0.092237 0.092237
0.263278 0.263278 0.263278
0.518578 0.518578 0.518578
0.721017 0.721017 0.721017
0.822762 0.822762 0.822762
0.879696 0.879696 0.879696
0.920536 0.920536 0.920536
0.953104 0.953104 0.953104
0.970830 0.970830 0.970830
0.092237 0.092237 0.092237
0.288077 0.288077 0.288077
0.567807 0.567807 0.567807
0.770085 0.770085 0.770085
0.862680 0.862680 0.862680
0.914100 0.914100 0.914100
0.945444 0.945444 0.945444
0.965686 0.965686 0.965686
0.980572 0.980572 0.980572
0.092237 0.092237 0.092237
0.306081 0.306081 0.306081
0.606433 0.606433 0.606433
0.806981 0.806981 0.806981
0.890061 0.890061 0.890061
0.937414 0.937414 0.937414
0.964910 0.964910 0.964910
0.980034 0.980034 0.980034
0.985695 0.985695 0.985695
0.092237 0.092237 0.092237
0.092237 0.092237 0.092237
0.092237 0.092237 0.092237
0.092237 0.092237 0.092237
0.092237 0.092237 0.092237
0.092237 0.092237 0.092237
0.092237 0.092237 0.092237
0.092237 0.092237 0.092237
0.092237 0.092237 0.092237
0.092237 0.092237 0.092237
0.110560 0.110560 0.110560
0.206019 0.206019 0.206019
0.315250 0.315250 0.315250
0.421233 0.421233 0.421233
0.509967 0.509967 0.509967
0.514579 0.514579 0.514579
0.515517 0.515517 0.515517
0.516435 0.516435 0.516435
0.092237 0.092237 0.092237
0.196665 0.196665 0.196665
0.401945 0.401945 0.401945
0.604089 0.604089 0.604089
0.750595 0.750595 0.750595
0.784753 0.784753 0.784753
0.804530 0.804530 0.804530
0.813277 0.813277 0.813277
0.820133 0.820133 0.820133
0.092237 0.092237 0.092237
0.279513 0.279513 0.279513
0.537305 0.537305 0.537305
0.723796 0.723796 0.723796
0.810611 0.810611 0.810611
0.851145 0.851145 0.851145
0.878175 0.878175 0.878175
0.895047 0.895047 0.895047
0.908562 0.908562 0.908562
0.092237 0.092237 0.092237
0.261432 0.261432 0.261432
0.514360 0.514360 0.514360
0.714205 0.714205 0.714205
0.817242 0.817242 0.817242
0.871723 0.871723 0.871723
0.904922 0.904922 0.904922
0.927905 0.927905 0.927905
0.944676 0.944676 0.944676
0.092237 0.092237 0.092237
0.254817 0.254817 0.254817
0.505024 0.505024 0.505024
0.710153 0.710153 0.710153
0.820248 0.820248 0.820248
0.879876 0.879876 0.879876
0.919176 0.919176 0.919176
0.945379 0.945379 0.945379
0.962684 0.962684 0.962684
0.092237 0.092237 0.092237
0.265208 0.265208 0.265208
0.525567 0.525567 0.525567
0.733073 0.733073 0.733073
0.835399 0.835399 0.835399
0.893278 0.893278 0.893278
0.931393 0.931393 0.931393
0.958961 0.958961 0.958961
0.973472 0.973472 0.973472
0.092237 0.092237 0.092237
0.285101 0.285101 0.285101
0.564051 0.564051 0.564051
0.769453 0.769453 0.769453
0.864473 0.864473 0.864473
0.916991 0.916991 0.916991
0.949616 0.949616 0.949616
0.969211 0.969211 0.969211
0.981193 0.981193 0.981193
0.092237 0.092237 0.092237
0.302984 0.302984 0.302984
0.601564 0.601564 0.601564
0.805219 0.805219 0.805219
0.889472 0.889472 0.889472
0.937624 0.937624 0.937624
0.965336 0.965336 0.965336
0.980272 0.980272 0.980272
0.986028 0.986028 0.986028
