trix_modern/TriX_Green58_ExtraPunchy.cube
TITLE "Tri-X Green58 ExtraPunchy"
# Adobe RGB in/out. REPLACES AgX. Tri-X Green58 ExtraPunchy.
LUT_3D_SIZE 5
DOMAIN_MIN 0.0 0.0 0.0
DOMAIN_MAX 1.0 1.0 1.0
0.092237 0.092237 0.092237
0.092306 0.092306 0.092306
0.114060 0.114060 0.114060
0.155531 0.155531 0.155531
0.224110 0.224110 0.224110
0.331610 0.331610 0.331610
0.149163 0.149163 0.149163
0.213445 0.213445 0.213445
0.284439 0.284439 0.284439
0.207421 0.207421 0.207421
0.897065 0.897065 0.897065
0.817217 0.817217 0.817217
0.629321 0.629321 0.629321
0.644612 0.644612 0.644612
0.563392 0.563392 0.563392
0.983403 0.983403 0.983403
0.979214 0.979214 0.979214
0.951428 0.951428 0.951428
0.919578 0.919578 0.919578
0.909956 0.909956 0.909956
0.988934 0.988934 0.988934
0.990464 0.990464 0.990464
0.988294 0.988294 0.988294
0.984369 0.984369 0.984369
0.983183 0.983183 0.983183
0.092237 0.092237 0.092237
0.096067 0.096067 0.096067
0.138666 0.138666 0.138666
0.173465 0.173465 0.173465
0.217748 0.217748 0.217748
0.213645 0.213645 0.213645
0.128236 0.128236 0.128236
0.233141 0.233141 0.233141
0.297328 0.297328 0.297328
0.201455 0.201455 0.201455
0.849320 0.849320 0.849320
0.764608 0.764608 0.764608
0.591445 0.591445 0.591445
0.644179 0.644179 0.644179
0.568732 0.568732 0.568732
0.980372 0.980372 0.980372
0.972526 0.972526 0.972526
0.943776 0.943776 0.943776
0.916414 0.916414 0.916414
0.907440 0.907440 0.907440
0.988997 0.988997 0.988997
0.990514 0.990514 0.990514
0.987604 0.987604 0.987604
0.983884 0.983884 0.983884
0.982904 0.982904 0.982904
0.115582 0.115582 0.115582
0.184505 0.184505 0.184505
0.279445 0.279445 0.279445
0.266023 0.266023 0.266023
0.214945 0.214945 0.214945
0.390039 0.390039 0.390039
0.366351 0.366351 0.366351
0.356884 0.356884 0.356884
0.373842 0.373842 0.373842
0.197915 0.197915 0.197915
0.774833 0.774833 0.774833
0.701056 0.701056 0.701056
0.545947 0.545947 0.545947
0.658998 0.658998 0.658998
0.613670 0.613670 0.613670
0.969050 0.969050 0.969050
0.961100 0.961100 0.961100
0.930570 0.930570 0.930570
0.907664 0.907664 0.907664
0.906797 0.906797 0.906797
0.989283 0.989283 0.989283
0.989095 0.989095 0.989095
0.986003 0.986003 0.986003
0.982921 0.982921 0.982921
0.982673 0.982673 0.982673
0.278191 0.278191 0.278191
0.370577 0.370577 0.370577
0.473789 0.473789 0.473789
0.432105 0.432105 0.432105
0.222244 0.222244 0.222244
0.569508 0.569508 0.569508
0.624365 0.624365 0.624365
0.612782 0.612782 0.612782
0.533269 0.533269 0.533269
0.203990 0.203990 0.203990
0.820558 0.820558 0.820558
0.801988 0.801988 0.801988
0.757121 0.757121 0.757121
0.755103 0.755103 0.755103
0.693636 0.693636 0.693636
0.961807 0.961807 0.961807
0.955390 0.955390 0.955390
0.927997 0.927997 0.927997
0.903272 0.903272 0.903272
0.914905 0.914905 0.914905
0.987703 0.987703 0.987703
0.987790 0.987790 0.987790
0.985368 0.985368 0.985368
0.982787 0.982787 0.982787
0.983201 0.983201 0.983201
0.368207 0.368207 0.368207
0.405297 0.405297 0.405297
0.515996 0.515996 0.515996
0.473995 0.473995 0.473995
0.252951 0.252951 0.252951
0.607465 0.607465 0.607465
0.643039 0.643039 0.643039
0.719719 0.719719 0.719719
0.588538 0.588538 0.588538
0.240639 0.240639 0.240639
0.894097 0.894097 0.894097
0.885419 0.885419 0.885419
0.865121 0.865121 0.865121
0.830167 0.830167 0.830167
0.621821 0.621821 0.621821
0.965532 0.965532 0.965532
0.961480 0.961480 0.961480
0.949749 0.949749 0.949749
0.939508 0.939508 0.939508
0.910763 0.910763 0.910763
0.985639 0.985639 0.985639
0.986573 0.986573 0.986573
0.986165 0.986165 0.986165
0.983968 0.983968 0.983968
0.984304 0.984304 0.984304
