trix_modern/TriX_Orange21_Punchy.cube
TITLE "Tri-X Orange21 Punchy"
# Adobe RGB in/out. REPLACES AgX. R=0.7239 G=0.2761 B=0.0000
LUT_3D_SIZE 5
DOMAIN_MIN 0.0 0.0 0.0
DOMAIN_MAX 1.0 1.0 1.0
0.092306 0.092306 0.092306
0.092306 0.092306 0.092306
0.092306 0.092306 0.092306
0.092306 0.092306 0.092306
0.092306 0.092306 0.092306
0.092306 0.092306 0.092306
0.238937 0.238937 0.238937
0.560968 0.560968 0.560968
0.771539 0.771539 0.771539
0.883333 0.883333 0.883333
0.092306 0.092306 0.092306
0.383366 0.383366 0.383366
0.610374 0.610374 0.610374
0.820193 0.820193 0.820193
0.937447 0.937447 0.937447
0.092306 0.092306 0.092306
0.412342 0.412342 0.412342
0.690624 0.690624 0.690624
0.859051 0.859051 0.859051
0.952481 0.952481 0.952481
0.092306 0.092306 0.092306
0.394226 0.394226 0.394226
0.704073 0.704073 0.704073
0.885630 0.885630 0.885630
0.964077 0.964077 0.964077
0.092306 0.092306 0.092306
0.092306 0.092306 0.092306
0.092306 0.092306 0.092306
0.092306 0.092306 0.092306
0.092306 0.092306 0.092306
0.092306 0.092306 0.092306
0.160896 0.160896 0.160896
0.528396 0.528396 0.528396
0.753105 0.753105 0.753105
0.876194 0.876194 0.876194
0.092306 0.092306 0.092306
0.351545 0.351545 0.351545
0.574792 0.574792 0.574792
0.801191 0.801191 0.801191
0.932875 0.932875 0.932875
0.092306 0.092306 0.092306
0.399928 0.399928 0.399928
0.676586 0.676586 0.676586
0.849226 0.849226 0.849226
0.949783 0.949783 0.949783
0.092306 0.092306 0.092306
0.390232 0.390232 0.390232
0.699746 0.699746 0.699746
0.883597 0.883597 0.883597
0.963697 0.963697 0.963697
0.092306 0.092306 0.092306
0.092306 0.092306 0.092306
0.092306 0.092306 0.092306
0.092306 0.092306 0.092306
0.092306 0.092306 0.092306
0.092306 0.092306 0.092306
0.336899 0.336899 0.336899
0.586557 0.586557 0.586557
0.759386 0.759386 0.759386
0.870751 0.870751 0.870751
0.092306 0.092306 0.092306
0.310900 0.310900 0.310900
0.513339 0.513339 0.513339
0.783064 0.783064 0.783064
0.927515 0.927515 0.927515
0.092306 0.092306 0.092306
0.374246 0.374246 0.374246
0.649104 0.649104 0.649104
0.828734 0.828734 0.828734
0.944571 0.944571 0.944571
0.092306 0.092306 0.092306
0.380117 0.380117 0.380117
0.689210 0.689210 0.689210
0.878709 0.878709 0.878709
0.962787 0.962787 0.962787
0.092306 0.092306 0.092306
0.092306 0.092306 0.092306
0.092306 0.092306 0.092306
0.092306 0.092306 0.092306
0.092306 0.092306 0.092306
0.092306 0.092306 0.092306
0.436657 0.436657 0.436657
0.675635 0.675635 0.675635
0.800270 0.800270 0.800270
0.879455 0.879455 0.879455
0.092306 0.092306 0.092306
0.337167 0.337167 0.337167
0.612879 0.612879 0.612879
0.815327 0.815327 0.815327
0.930071 0.930071 0.930071
0.092306 0.092306 0.092306
0.352381 0.352381 0.352381
0.630335 0.630335 0.630335
0.806640 0.806640 0.806640
0.941939 0.941939 0.941939
0.092306 0.092306 0.092306
0.368120 0.368120 0.368120
0.677411 0.677411 0.677411
0.872929 0.872929 0.872929
0.961919 0.961919 0.961919
0.092306 0.092306 0.092306
0.092306 0.092306 0.092306
0.092306 0.092306 0.092306
0.092306 0.092306 0.092306
0.092306 0.092306 0.092306
0.092306 0.092306 0.092306
0.469074 0.469074 0.469074
0.724904 0.724904 0.724904
0.834297 0.834297 0.834297
0.891157 0.891157 0.891157
0.092306 0.092306 0.092306
0.388741 0.388741 0.388741
0.682891 0.682891 0.682891
0.854400 0.854400 0.854400
0.937999 0.937999 0.937999
0.092306 0.092306 0.092306
0.349628 0.349628 0.349628
0.644572 0.644572 0.644572
0.840080 0.840080 0.840080
0.945914 0.945914 0.945914
0.092306 0.092306 0.092306
0.357814 0.357814 0.357814
0.668264 0.668264 0.668264
0.868539 0.868539 0.868539
0.961544 0.961544 0.961544
