trix_modern/TriX_Green58_Normal.cube
TITLE "Tri-X Green58 Normal"
# Adobe RGB in/out. REPLACES AgX. R=0.1714 G=0.8069 B=0.0217
LUT_3D_SIZE 5
DOMAIN_MIN 0.0 0.0 0.0
DOMAIN_MAX 1.0 1.0 1.0
0.093230 0.093230 0.093230
0.093230 0.093230 0.093230
0.093230 0.093230 0.093230
0.093230 0.093230 0.093230
0.093230 0.093230 0.093230
0.093230 0.093230 0.093230
0.093230 0.093230 0.093230
0.093230 0.093230 0.093230
0.093230 0.093230 0.093230
0.093230 0.093230 0.093230
0.093230 0.093230 0.093230
0.093230 0.093230 0.093230
0.093230 0.093230 0.093230
0.093230 0.093230 0.093230
0.093230 0.093230 0.093230
0.093230 0.093230 0.093230
0.093230 0.093230 0.093230
0.093230 0.093230 0.093230
0.093230 0.093230 0.093230
0.093230 0.093230 0.093230
0.093230 0.093230 0.093230
0.093230 0.093230 0.093230
0.093230 0.093230 0.093230
0.093230 0.093230 0.093230
0.093230 0.093230 0.093230
0.093230 0.093230 0.093230
0.093230 0.093230 0.093230
0.093230 0.093230 0.093230
0.093230 0.093230 0.093230
0.093230 0.093230 0.093230
0.093230 0.093230 0.093230
0.204394 0.204394 0.204394
0.326530 0.326530 0.326530
0.365022 0.365022 0.365022
0.369921 0.369921 0.369921
0.093230 0.093230 0.093230
0.568530 0.568530 0.568530
0.554544 0.554544 0.554544
0.609255 0.609255 0.609255
0.648642 0.648642 0.648642
0.093230 0.093230 0.093230
0.776752 0.776752 0.776752
0.798025 0.798025 0.798025
0.803049 0.803049 0.803049
0.820599 0.820599 0.820599
0.093230 0.093230 0.093230
0.853439 0.853439 0.853439
0.896856 0.896856 0.896856
0.911484 0.911484 0.911484
0.922053 0.922053 0.922053
0.093230 0.093230 0.093230
0.093230 0.093230 0.093230
0.093230 0.093230 0.093230
0.093230 0.093230 0.093230
0.093230 0.093230 0.093230
0.093230 0.093230 0.093230
0.360473 0.360473 0.360473
0.370837 0.370837 0.370837
0.376022 0.376022 0.376022
0.373204 0.373204 0.373204
0.093230 0.093230 0.093230
0.531756 0.531756 0.531756
0.508013 0.508013 0.508013
0.603644 0.603644 0.603644
0.649218 0.649218 0.649218
0.093230 0.093230 0.093230
0.757571 0.757571 0.757571
0.786712 0.786712 0.786712
0.794953 0.794953 0.794953
0.821396 0.821396 0.821396
0.093230 0.093230 0.093230
0.852608 0.852608 0.852608
0.897702 0.897702 0.897702
0.914233 0.914233 0.914233
0.927446 0.927446 0.927446
0.093230 0.093230 0.093230
0.093230 0.093230 0.093230
0.093230 0.093230 0.093230
0.093230 0.093230 0.093230
0.093230 0.093230 0.093230
0.093230 0.093230 0.093230
0.415011 0.415011 0.415011
0.437122 0.437122 0.437122
0.406691 0.406691 0.406691
0.384203 0.384203 0.384203
0.093230 0.093230 0.093230
0.567015 0.567015 0.567015
0.607010 0.607010 0.607010
0.638966 0.638966 0.638966
0.660847 0.660847 0.660847
0.093230 0.093230 0.093230
0.736205 0.736205 0.736205
0.777533 0.777533 0.777533
0.782937 0.782937 0.782937
0.822457 0.822457 0.822457
0.093230 0.093230 0.093230
0.846051 0.846051 0.846051
0.894936 0.894936 0.894936
0.913834 0.913834 0.913834
0.930035 0.930035 0.930035
0.093230 0.093230 0.093230
0.093230 0.093230 0.093230
0.093230 0.093230 0.093230
0.093230 0.093230 0.093230
0.093230 0.093230 0.093230
0.093230 0.093230 0.093230
0.418309 0.418309 0.418309
0.475699 0.475699 0.475699
0.434516 0.434516 0.434516
0.397948 0.397948 0.397948
0.093230 0.093230 0.093230
0.632072 0.632072 0.632072
0.678580 0.678580 0.678580
0.684360 0.684360 0.684360
0.679871 0.679871 0.679871
0.093230 0.093230 0.093230
0.737170 0.737170 0.737170
0.791542 0.791542 0.791542
0.812330 0.812330 0.812330
0.831867 0.831867 0.831867
0.093230 0.093230 0.093230
0.839400 0.839400 0.839400
0.892460 0.892460 0.892460
0.913868 0.913868 0.913868
0.932292 0.932292 0.932292
