trix_modern/TriX_Yellow8_ExtraSoft.cube
TITLE "Tri-X Yellow8 ExtraSoft"
# Adobe RGB in/out. REPLACES AgX. R=0.5015 G=0.4679 B=0.0307
LUT_3D_SIZE 9
DOMAIN_MIN 0.0 0.0 0.0
DOMAIN_MAX 1.0 1.0 1.0
0.121260 0.121260 0.121260
0.121260 0.121260 0.121260
0.121260 0.121260 0.121260
0.121260 0.121260 0.121260
0.121260 0.121260 0.121260
0.121260 0.121260 0.121260
0.121260 0.121260 0.121260
0.121260 0.121260 0.121260
0.121260 0.121260 0.121260
0.121260 0.121260 0.121260
0.121260 0.121260 0.121260
0.121260 0.121260 0.121260
0.121260 0.121260 0.121260
0.121260 0.121260 0.121260
0.121260 0.121260 0.121260
0.121260 0.121260 0.121260
0.121260 0.121260 0.121260
0.121260 0.121260 0.121260
0.121260 0.121260 0.121260
0.121260 0.121260 0.121260
0.121260 0.121260 0.121260
0.121260 0.121260 0.121260
0.121260 0.121260 0.121260
0.121260 0.121260 0.121260
0.121260 0.121260 0.121260
0.121260 0.121260 0.121260
0.121260 0.121260 0.121260
0.121260 0.121260 0.121260
0.121260 0.121260 0.121260
0.121260 0.121260 0.121260
0.121260 0.121260 0.121260
0.121260 0.121260 0.121260
0.121260 0.121260 0.121260
0.121260 0.121260 0.121260
0.121260 0.121260 0.121260
0.121260 0.121260 0.121260
0.121260 0.121260 0.121260
0.121260 0.121260 0.121260
0.121260 0.121260 0.121260
0.121260 0.121260 0.121260
0.121260 0.121260 0.121260
0.121260 0.121260 0.121260
0.121260 0.121260 0.121260
0.121260 0.121260 0.121260
0.121260 0.121260 0.121260
0.121260 0.121260 0.121260
0.121260 0.121260 0.121260
0.121260 0.121260 0.121260
0.121260 0.121260 0.121260
0.121260 0.121260 0.121260
0.121260 0.121260 0.121260
0.121260 0.121260 0.121260
0.121260 0.121260 0.121260
0.121260 0.121260 0.121260
0.121260 0.121260 0.121260
0.121260 0.121260 0.121260
0.121260 0.121260 0.121260
0.121260 0.121260 0.121260
0.121260 0.121260 0.121260
0.121260 0.121260 0.121260
0.121260 0.121260 0.121260
0.121260 0.121260 0.121260
0.121260 0.121260 0.121260
0.121260 0.121260 0.121260
0.121260 0.121260 0.121260
0.121260 0.121260 0.121260
0.121260 0.121260 0.121260
0.121260 0.121260 0.121260
0.121260 0.121260 0.121260
0.121260 0.121260 0.121260
0.121260 0.121260 0.121260
0.121260 0.121260 0.121260
0.121260 0.121260 0.121260
0.121260 0.121260 0.121260
0.121260 0.121260 0.121260
0.121260 0.121260 0.121260
0.121260 0.121260 0.121260
0.121260 0.121260 0.121260
0.121260 0.121260 0.121260
0.121260 0.121260 0.121260
0.121260 0.121260 0.121260
0.121260 0.121260 0.121260
0.121260 0.121260 0.121260
0.121260 0.121260 0.121260
0.121260 0.121260 0.121260
0.121260 0.121260 0.121260
0.121260 0.121260 0.121260
0.121260 0.121260 0.121260
0.121260 0.121260 0.121260
0.121260 0.121260 0.121260
0.121260 0.121260 0.121260
0.146378 0.146378 0.146378
0.247615 0.247615 0.247615
0.315137 0.315137 0.315137
0.359527 0.359527 0.359527
0.389366 0.389366 0.389366
0.410826 0.410826 0.410826
0.430080 0.430080 0.430080
0.445240 0.445240 0.445240
0.121260 0.121260 0.121260
0.253213 0.253213 0.253213
0.292751 0.292751 0.292751
0.364514 0.364514 0.364514
0.437520 0.437520 0.437520
0.504735 0.504735 0.504735
0.551911 0.551911 0.551911
0.587124 0.587124 0.587124
0.614349 0.614349 0.614349
0.121260 0.121260 0.121260
0.311529 0.311529 0.311529
0.379926 0.379926 0.379926
0.416595 0.416595 0.416595
0.486988 0.486988 0.486988
0.564082 0.564082 0.564082
0.630784 0.630784 0.630784
0.683493 0.683493 0.683493
0.717977 0.717977 0.717977
0.121260 0.121260 0.121260
0.343849 0.343849 0.343849
0.441981 0.441981 0.441981
0.505557 0.505557 0.505557
0.552394 0.552394 0.552394
0.611518 0.611518 0.611518
0.684748 0.684748 0.684748
0.738351 0.738351 0.738351
0.781463 0.781463 0.781463
0.121260 0.121260 0.121260
0.361953 0.361953 0.361953
0.487602 0.487602 0.487602
0.567848 0.567848 0.567848
0.626966 0.626966 0.626966
0.679383 0.679383 0.679383
0.726179 0.726179 0.726179
0.782309 0.782309 0.782309
0.820455 0.820455 0.820455
0.121260 0.121260 0.121260
0.371598 0.371598 0.371598
0.512778 0.512778 0.512778
0.610445 0.610445 0.610445
0.683445 0.683445 0.683445
0.734064 0.734064 0.734064
0.779558 0.779558 0.779558
0.814928 0.814928 0.814928
0.853795 0.853795 0.853795
0.121260 0.121260 0.121260
0.375711 0.375711 0.375711
0.525412 0.525412 0.525412
0.635955 0.635955 0.635955
0.715477 0.715477 0.715477
0.773833 0.773833 0.773833
0.815824 0.815824 0.815824
0.851851 0.851851 0.851851
0.877909 0.877909 0.877909
0.121260 0.121260 0.121260
0.375849 0.375849 0.375849
0.529320 0.529320 0.529320
0.647835 0.647835 0.647835
0.733508 0.733508 0.733508
0.796209 0.796209 0.796209
0.840389 0.840389 0.840389
0.873639 0.873639 0.873639
0.900166 0.900166 0.900166
0.121260 0.121260 0.121260
0.121260 0.121260 0.121260
0.121260 0.121260 0.121260
0.121260 0.121260 0.121260
0.121260 0.121260 0.121260
0.121260 0.121260 0.121260
0.121260 0.121260 0.121260
0.121260 0.121260 0.121260
0.121260 0.121260 0.121260
0.121260 0.121260 0.121260
0.221326 0.221326 0.221326
0.280468 0.280468 0.280468
0.326478 0.326478 0.326478
0.363832 0.363832 0.363832
0.392018 0.392018 0.392018
0.413726 0.413726 0.413726
0.434879 0.434879 0.434879
0.451485 0.451485 0.451485
0.121260 0.121260 0.121260
0.236345 0.236345 0.236345
0.262816 0.262816 0.262816
0.359460 0.359460 0.359460
0.435647 0.435647 0.435647
0.505647 0.505647 0.505647
0.555333 0.555333 0.555333
0.593256 0.593256 0.593256
0.622715 0.622715 0.622715
0.121260 0.121260 0.121260
0.299011 0.299011 0.299011
0.365313 0.365313 0.365313
0.399132 0.399132 0.399132
0.476487 0.476487 0.476487
0.561118 0.561118 0.561118
0.633121 0.633121 0.633121
0.688986 0.688986 0.688986
0.726165 0.726165 0.726165
0.121260 0.121260 0.121260
0.338211 0.338211 0.338211
0.433492 0.433492 0.433492
0.496034 0.496034 0.496034
0.543197 0.543197 0.543197
0.608893 0.608893 0.608893
0.686871 0.686871 0.686871
0.744404 0.744404 0.744404
0.789413 0.789413 0.789413
0.121260 0.121260 0.121260
0.360997 0.360997 0.360997
0.486473 0.486473 0.486473
0.566855 0.566855 0.566855
0.626086 0.626086 0.626086
0.680027 0.680027 0.680027
0.731039 0.731039 0.731039
0.789056 0.789056 0.789056
0.828885 0.828885 0.828885
0.121260 0.121260 0.121260
0.373636 0.373636 0.373636
0.516528 0.516528 0.516528
0.615571 0.615571 0.615571
0.688617 0.688617 0.688617
0.740247 0.740247 0.740247
0.786861 0.786861 0.786861
0.823398 0.823398 0.823398
0.861957 0.861957 0.861957
0.121260 0.121260 0.121260
0.379683 0.379683 0.379683
0.532411 0.532411 0.532411
0.645300 0.645300 0.645300
0.724700 0.724700 0.724700
0.784250 0.784250 0.784250
0.825060 0.825060 0.825060
0.860757 0.860757 0.860757
0.886654 0.886654 0.886654
0.121260 0.121260 0.121260
0.381083 0.381083 0.381083
0.538477 0.538477 0.538477
0.660010 0.660010 0.660010
0.745401 0.745401 0.745401
0.806688 0.806688 0.806688
0.851877 0.851877 0.851877
0.882936 0.882936 0.882936
0.910212 0.910212 0.910212
0.121260 0.121260 0.121260
0.121260 0.121260 0.121260
0.121260 0.121260 0.121260
0.121260 0.121260 0.121260
0.121260 0.121260 0.121260
0.121260 0.121260 0.121260
0.121260 0.121260 0.121260
0.121260 0.121260 0.121260
0.121260 0.121260 0.121260
0.121260 0.121260 0.121260
0.274105 0.274105 0.274105
0.330829 0.330829 0.330829
0.357305 0.357305 0.357305
0.379413 0.379413 0.379413
0.399952 0.399952 0.399952
0.419208 0.419208 0.419208
0.438653 0.438653 0.438653
0.454713 0.454713 0.454713
0.121260 0.121260 0.121260
0.255964 0.255964 0.255964
0.328523 0.328523 0.328523
0.388882 0.388882 0.388882
0.453728 0.453728 0.453728
0.514180 0.514180 0.514180
0.560246 0.560246 0.560246
0.597154 0.597154 0.597154
0.626570 0.626570 0.626570
0.121260 0.121260 0.121260
0.286533 0.286533 0.286533
0.354317 0.354317 0.354317
0.377097 0.377097 0.377097
0.473469 0.473469 0.473469
0.561176 0.561176 0.561176
0.634320 0.634320 0.634320
0.690930 0.690930 0.690930
0.729171 0.729171 0.729171
0.121260 0.121260 0.121260
0.327398 0.327398 0.327398
0.419145 0.419145 0.419145
0.478902 0.478902 0.478902
0.525020 0.525020 0.525020
0.600097 0.600097 0.600097
0.683848 0.683848 0.683848
0.744607 0.744607 0.744607
0.791435 0.791435 0.791435
0.121260 0.121260 0.121260
0.354721 0.354721 0.354721
0.477012 0.477012 0.477012
0.557488 0.557488 0.557488
0.615207 0.615207 0.615207
0.670104 0.670104 0.670104
0.727988 0.727988 0.727988
0.789098 0.789098 0.789098
0.831141 0.831141 0.831141
0.121260 0.121260 0.121260
0.370909 0.370909 0.370909
0.512599 0.512599 0.512599
0.611484 0.611484 0.611484
0.685331 0.685331 0.685331
0.737451 0.737451 0.737451
0.785793 0.785793 0.785793
0.825231 0.825231 0.825231
0.864598 0.864598 0.864598
0.121260 0.121260 0.121260
0.379417 0.379417 0.379417
0.532346 0.532346 0.532346
0.645879 0.645879 0.645879
0.725871 0.725871 0.725871
0.785909 0.785909 0.785909
0.827479 0.827479 0.827479
0.863488 0.863488 0.863488
0.890529 0.890529 0.890529
0.121260 0.121260 0.121260
0.382582 0.382582 0.382582
0.541306 0.541306 0.541306
0.664163 0.664163 0.664163
0.749869 0.749869 0.749869
0.811005 0.811005 0.811005
0.856847 0.856847 0.856847
0.887545 0.887545 0.887545
0.915658 0.915658 0.915658
0.121260 0.121260 0.121260
0.121260 0.121260 0.121260
0.121260 0.121260 0.121260
0.121260 0.121260 0.121260
0.121260 0.121260 0.121260
0.121260 0.121260 0.121260
0.121260 0.121260 0.121260
0.121260 0.121260 0.121260
0.121260 0.121260 0.121260
0.121260 0.121260 0.121260
0.301696 0.301696 0.301696
0.367358 0.367358 0.367358
0.389360 0.389360 0.389360
0.402031 0.402031 0.402031
0.414314 0.414314 0.414314
0.430128 0.430128 0.430128
0.445512 0.445512 0.445512
0.459129 0.459129 0.459129
0.121260 0.121260 0.121260
0.293995 0.293995 0.293995
0.381255 0.381255 0.381255
0.438285 0.438285 0.438285
0.492222 0.492222 0.492222
0.535656 0.535656 0.535656
0.572838 0.572838 0.572838
0.605236 0.605236 0.605236
0.631899 0.631899 0.631899
0.121260 0.121260 0.121260
0.289719 0.289719 0.289719
0.373570 0.373570 0.373570
0.429932 0.429932 0.429932
0.505511 0.505511 0.505511
0.577919 0.577919 0.577919
0.644719 0.644719 0.644719
0.696473 0.696473 0.696473
0.733170 0.733170 0.733170
0.121260 0.121260 0.121260
0.318046 0.318046 0.318046
0.410278 0.410278 0.410278
0.469783 0.469783 0.469783
0.504596 0.504596 0.504596
0.599646 0.599646 0.599646
0.685598 0.685598 0.685598
0.746834 0.746834 0.746834
0.793475 0.793475 0.793475
0.121260 0.121260 0.121260
0.346914 0.346914 0.346914
0.465693 0.465693 0.465693
0.546920 0.546920 0.546920
0.602334 0.602334 0.602334
0.656141 0.656141 0.656141
0.723728 0.723728 0.723728
0.788378 0.788378 0.788378
0.832188 0.832188 0.832188
0.121260 0.121260 0.121260
0.366140 0.366140 0.366140
0.505584 0.505584 0.505584
0.604039 0.604039 0.604039
0.679121 0.679121 0.679121
0.731292 0.731292 0.731292
0.781045 0.781045 0.781045
0.824794 0.824794 0.824794
0.865568 0.865568 0.865568
0.121260 0.121260 0.121260
0.377158 0.377158 0.377158
0.529056 0.529056 0.529056
0.642638 0.642638 0.642638
0.723693 0.723693 0.723693
0.784719 0.784719 0.784719
0.827063 0.827063 0.827063
0.864106 0.864106 0.864106
0.892745 0.892745 0.892745
0.121260 0.121260 0.121260
0.382301 0.382301 0.382301
0.541160 0.541160 0.541160
0.664639 0.664639 0.664639
0.751047 0.751047 0.751047
0.812662 0.812662 0.812662
0.858721 0.858721 0.858721
0.890184 0.890184 0.890184
0.919204 0.919204 0.919204
0.121260 0.121260 0.121260
0.121260 0.121260 0.121260
0.121260 0.121260 0.121260
0.121260 0.121260 0.121260
0.121260 0.121260 0.121260
0.121260 0.121260 0.121260
0.121260 0.121260 0.121260
0.121260 0.121260 0.121260
0.121260 0.121260 0.121260
0.121260 0.121260 0.121260
0.313602 0.313602 0.313602
0.388615 0.388615 0.388615
0.414436 0.414436 0.414436
0.427075 0.427075 0.427075
0.435837 0.435837 0.435837
0.445370 0.445370 0.445370
0.455594 0.455594 0.455594
0.465586 0.465586 0.465586
0.121260 0.121260 0.121260
0.324545 0.324545 0.324545
0.421543 0.421543 0.421543
0.490093 0.490093 0.490093
0.532131 0.532131 0.532131
0.564388 0.564388 0.564388
0.592647 0.592647 0.592647
0.618269 0.618269 0.618269
0.640181 0.640181 0.640181
0.121260 0.121260 0.121260
0.309241 0.309241 0.309241
0.407165 0.407165 0.407165
0.487208 0.487208 0.487208
0.551364 0.551364 0.551364
0.610856 0.610856 0.610856
0.665798 0.665798 0.665798
0.707546 0.707546 0.707546
0.740136 0.740136 0.740136
0.121260 0.121260 0.121260
0.316976 0.316976 0.316976
0.415381 0.415381 0.415381
0.492221 0.492221 0.492221
0.553141 0.553141 0.553141
0.626340 0.626340 0.626340
0.698784 0.698784 0.698784
0.755004 0.755004 0.755004
0.797766 0.797766 0.797766
0.121260 0.121260 0.121260
0.340500 0.340500 0.340500
0.457536 0.457536 0.457536
0.541426 0.541426 0.541426
0.596934 0.596934 0.596934
0.641082 0.641082 0.641082
0.724882 0.724882 0.724882
0.790547 0.790547 0.790547
0.834538 0.834538 0.834538
0.121260 0.121260 0.121260
0.360759 0.360759 0.360759
0.498031 0.498031 0.498031
0.596424 0.596424 0.596424
0.672014 0.672014 0.672014
0.724621 0.724621 0.724621
0.774479 0.774479 0.774479
0.824018 0.824018 0.824018
0.866332 0.866332 0.866332
0.121260 0.121260 0.121260
0.373952 0.373952 0.373952
0.524290 0.524290 0.524290
0.637770 0.637770 0.637770
0.720207 0.720207 0.720207
0.781878 0.781878 0.781878
0.825395 0.825395 0.825395
0.863716 0.863716 0.863716
0.894116 0.894116 0.894116
0.121260 0.121260 0.121260
0.381030 0.381030 0.381030
0.539382 0.539382 0.539382
0.663151 0.663151 0.663151
0.750527 0.750527 0.750527
0.812984 0.812984 0.812984
0.859593 0.859593 0.859593
0.891825 0.891825 0.891825
0.921784 0.921784 0.921784
0.121260 0.121260 0.121260
0.121260 0.121260 0.121260
0.121260 0.121260 0.121260
0.121260 0.121260 0.121260
0.121260 0.121260 0.121260
0.121260 0.121260 0.121260
0.121260 0.121260 0.121260
0.121260 0.121260 0.121260
0.121260 0.121260 0.121260
0.121260 0.121260 0.121260
0.316533 0.316533 0.316533
0.399018 0.399018 0.399018
0.435565 0.435565 0.435565
0.450605 0.450605 0.450605
0.456880 0.456880 0.456880
0.461789 0.461789 0.461789
0.467368 0.467368 0.467368
0.473541 0.473541 0.473541
0.121260 0.121260 0.121260
0.345253 0.345253 0.345253
0.456570 0.456570 0.456570
0.527513 0.527513 0.527513
0.567149 0.567149 0.567149
0.594009 0.594009 0.594009
0.615634 0.615634 0.615634
0.634332 0.634332 0.634332
0.650853 0.650853 0.650853
0.121260 0.121260 0.121260
0.331896 0.331896 0.331896
0.444866 0.444866 0.444866
0.532528 0.532528 0.532528
0.595057 0.595057 0.595057
0.647756 0.647756 0.647756
0.690393 0.690393 0.690393
0.722731 0.722731 0.722731
0.749909 0.749909 0.749909
0.121260 0.121260 0.121260
0.326164 0.326164 0.326164
0.437118 0.437118 0.437118
0.527414 0.527414 0.527414
0.597490 0.597490 0.597490
0.665075 0.665075 0.665075
0.721077 0.721077 0.721077
0.769216 0.769216 0.769216
0.804823 0.804823 0.804823
0.121260 0.121260 0.121260
0.338434 0.338434 0.338434
0.457792 0.457792 0.457792
0.548241 0.548241 0.548241
0.615499 0.615499 0.615499
0.680167 0.680167 0.680167
0.742002 0.742002 0.742002
0.798570 0.798570 0.798570
0.839683 0.839683 0.839683
0.121260 0.121260 0.121260
0.356326 0.356326 0.356326
0.492297 0.492297 0.492297
0.591820 0.591820 0.591820
0.669401 0.669401 0.669401
0.722664 0.722664 0.722664
0.767470 0.767470 0.767470
0.825776 0.825776 0.825776
0.868195 0.868195 0.868195
0.121260 0.121260 0.121260
0.370584 0.370584 0.370584
0.519342 0.519342 0.519342
0.632880 0.632880 0.632880
0.716929 0.716929 0.716929
0.779324 0.779324 0.779324
0.823575 0.823575 0.823575
0.862882 0.862882 0.862882
0.895235 0.895235 0.895235
0.121260 0.121260 0.121260
0.379265 0.379265 0.379265
0.536804 0.536804 0.536804
0.660728 0.660728 0.660728
0.749241 0.749241 0.749241
0.812728 0.812728 0.812728
0.860015 0.860015 0.860015
0.892972 0.892972 0.892972
0.923870 0.923870 0.923870
0.121260 0.121260 0.121260
0.121260 0.121260 0.121260
0.121260 0.121260 0.121260
0.121260 0.121260 0.121260
0.121260 0.121260 0.121260
0.121260 0.121260 0.121260
0.121260 0.121260 0.121260
0.121260 0.121260 0.121260
0.121260 0.121260 0.121260
0.121260 0.121260 0.121260
0.314350 0.314350 0.314350
0.401950 0.401950 0.401950
0.447622 0.447622 0.447622
0.467289 0.467289 0.467289
0.473975 0.473975 0.473975
0.476662 0.476662 0.476662
0.478976 0.478976 0.478976
0.481872 0.481872 0.481872
0.121260 0.121260 0.121260
0.356944 0.356944 0.356944
0.478915 0.478915 0.478915
0.553365 0.553365 0.553365
0.595052 0.595052 0.595052
0.620382 0.620382 0.620382
0.637358 0.637358 0.637358
0.650757 0.650757 0.650757
0.662399 0.662399 0.662399
0.121260 0.121260 0.121260
0.350119 0.350119 0.350119
0.477329 0.477329 0.477329
0.568019 0.568019 0.568019
0.633031 0.633031 0.633031
0.680998 0.680998 0.680998
0.712955 0.712955 0.712955
0.739168 0.739168 0.739168
0.761081 0.761081 0.761081
0.121260 0.121260 0.121260
0.340081 0.340081 0.340081
0.463964 0.463964 0.463964
0.560970 0.560970 0.560970
0.637209 0.637209 0.637209
0.698147 0.698147 0.698147
0.745281 0.745281 0.745281
0.785973 0.785973 0.785973
0.813669 0.813669 0.813669
0.121260 0.121260 0.121260
0.342082 0.342082 0.342082
0.467942 0.467942 0.467942
0.566104 0.566104 0.566104
0.645089 0.645089 0.645089
0.709641 0.709641 0.709641
0.765577 0.765577 0.765577
0.810882 0.810882 0.810882
0.847383 0.847383 0.847383
0.121260 0.121260 0.121260
0.354281 0.354281 0.354281
0.490626 0.490626 0.490626
0.593422 0.593422 0.593422
0.676211 0.676211 0.676211
0.734548 0.734548 0.734548
0.788803 0.788803 0.788803
0.834735 0.834735 0.834735
0.872173 0.872173 0.872173
0.121260 0.121260 0.121260
0.367771 0.367771 0.367771
0.515416 0.515416 0.515416
0.629516 0.629516 0.629516
0.715459 0.715459 0.715459
0.779213 0.779213 0.779213
0.823841 0.823841 0.823841
0.861957 0.861957 0.861957
0.896963 0.896963 0.896963
0.121260 0.121260 0.121260
0.377399 0.377399 0.377399
0.534077 0.534077 0.534077
0.658173 0.658173 0.658173
0.747907 0.747907 0.747907
0.812481 0.812481 0.812481
0.860421 0.860421 0.860421
0.893984 0.893984 0.893984
0.925570 0.925570 0.925570
0.121260 0.121260 0.121260
0.121260 0.121260 0.121260
0.121260 0.121260 0.121260
0.121260 0.121260 0.121260
0.121260 0.121260 0.121260
0.121260 0.121260 0.121260
0.121260 0.121260 0.121260
0.121260 0.121260 0.121260
0.121260 0.121260 0.121260
0.121260 0.121260 0.121260
0.309210 0.309210 0.309210
0.399908 0.399908 0.399908
0.451796 0.451796 0.451796
0.476950 0.476950 0.476950
0.486001 0.486001 0.486001
0.488421 0.488421 0.488421
0.488939 0.488939 0.488939
0.489445 0.489445 0.489445
0.121260 0.121260 0.121260
0.362124 0.362124 0.362124
0.490569 0.490569 0.490569
0.569049 0.569049 0.569049
0.614885 0.614885 0.614885
0.640505 0.640505 0.640505
0.655384 0.655384 0.655384
0.665353 0.665353 0.665353
0.673197 0.673197 0.673197
0.121260 0.121260 0.121260
0.363165 0.363165 0.363165
0.500263 0.500263 0.500263
0.594954 0.594954 0.594954
0.662310 0.662310 0.662310
0.704195 0.704195 0.704195
0.732596 0.732596 0.732596
0.754364 0.754364 0.754364
0.771960 0.771960 0.771960
0.121260 0.121260 0.121260
0.353251 0.353251 0.353251
0.488300 0.488300 0.488300
0.589658 0.589658 0.589658
0.669886 0.669886 0.669886
0.724330 0.724330 0.724330
0.767208 0.767208 0.767208
0.799109 0.799109 0.799109
0.822752 0.822752 0.822752
0.121260 0.121260 0.121260
0.349524 0.349524 0.349524
0.483417 0.483417 0.483417
0.587414 0.587414 0.587414
0.673329 0.673329 0.673329
0.734779 0.734779 0.734779
0.786907 0.786907 0.786907
0.823749 0.823749 0.823749
0.855973 0.855973 0.855973
0.121260 0.121260 0.121260
0.355354 0.355354 0.355354
0.494328 0.494328 0.494328
0.601706 0.601706 0.601706
0.688863 0.688863 0.688863
0.752071 0.752071 0.752071
0.804003 0.804003 0.804003
0.846166 0.846166 0.846166
0.877444 0.877444 0.877444
0.121260 0.121260 0.121260
0.366147 0.366147 0.366147
0.513571 0.513571 0.513571
0.629041 0.629041 0.629041
0.717212 0.717212 0.717212
0.783625 0.783625 0.783625
0.829767 0.829767 0.829767
0.868950 0.868950 0.868950
0.900415 0.900415 0.900415
0.121260 0.121260 0.121260
0.375767 0.375767 0.375767
0.531756 0.531756 0.531756
0.656168 0.656168 0.656168
0.747145 0.747145 0.747145
0.812778 0.812778 0.812778
0.861264 0.861264 0.861264
0.895302 0.895302 0.895302
0.927107 0.927107 0.927107
