trix_modern/TriX_Green58_Punchy.cube
TITLE "Tri-X Green58 Punchy"
# Adobe RGB in/out. REPLACES AgX. R=0.1714 G=0.8069 B=0.0217
LUT_3D_SIZE 9
DOMAIN_MIN 0.0 0.0 0.0
DOMAIN_MAX 1.0 1.0 1.0
0.092306 0.092306 0.092306
0.092306 0.092306 0.092306
0.092306 0.092306 0.092306
0.092306 0.092306 0.092306
0.092306 0.092306 0.092306
0.092306 0.092306 0.092306
0.092306 0.092306 0.092306
0.092306 0.092306 0.092306
0.092306 0.092306 0.092306
0.092306 0.092306 0.092306
0.092306 0.092306 0.092306
0.092306 0.092306 0.092306
0.092306 0.092306 0.092306
0.092306 0.092306 0.092306
0.092306 0.092306 0.092306
0.092306 0.092306 0.092306
0.092306 0.092306 0.092306
0.092306 0.092306 0.092306
0.092306 0.092306 0.092306
0.092306 0.092306 0.092306
0.092306 0.092306 0.092306
0.092306 0.092306 0.092306
0.092306 0.092306 0.092306
0.092306 0.092306 0.092306
0.092306 0.092306 0.092306
0.092306 0.092306 0.092306
0.092306 0.092306 0.092306
0.092306 0.092306 0.092306
0.092306 0.092306 0.092306
0.092306 0.092306 0.092306
0.092306 0.092306 0.092306
0.092306 0.092306 0.092306
0.092306 0.092306 0.092306
0.092306 0.092306 0.092306
0.092306 0.092306 0.092306
0.092306 0.092306 0.092306
0.092306 0.092306 0.092306
0.092306 0.092306 0.092306
0.092306 0.092306 0.092306
0.092306 0.092306 0.092306
0.092306 0.092306 0.092306
0.092306 0.092306 0.092306
0.092306 0.092306 0.092306
0.092306 0.092306 0.092306
0.092306 0.092306 0.092306
0.092306 0.092306 0.092306
0.092306 0.092306 0.092306
0.092306 0.092306 0.092306
0.092306 0.092306 0.092306
0.092306 0.092306 0.092306
0.092306 0.092306 0.092306
0.092306 0.092306 0.092306
0.092306 0.092306 0.092306
0.092306 0.092306 0.092306
0.092306 0.092306 0.092306
0.092306 0.092306 0.092306
0.092306 0.092306 0.092306
0.092306 0.092306 0.092306
0.092306 0.092306 0.092306
0.092306 0.092306 0.092306
0.092306 0.092306 0.092306
0.092306 0.092306 0.092306
0.092306 0.092306 0.092306
0.092306 0.092306 0.092306
0.092306 0.092306 0.092306
0.092306 0.092306 0.092306
0.092306 0.092306 0.092306
0.092306 0.092306 0.092306
0.092306 0.092306 0.092306
0.092306 0.092306 0.092306
0.092306 0.092306 0.092306
0.092306 0.092306 0.092306
0.092306 0.092306 0.092306
0.092306 0.092306 0.092306
0.092306 0.092306 0.092306
0.092306 0.092306 0.092306
0.092306 0.092306 0.092306
0.092306 0.092306 0.092306
0.092306 0.092306 0.092306
0.092306 0.092306 0.092306
0.092306 0.092306 0.092306
0.092306 0.092306 0.092306
0.092306 0.092306 0.092306
0.092306 0.092306 0.092306
0.092306 0.092306 0.092306
0.092306 0.092306 0.092306
0.092306 0.092306 0.092306
0.092306 0.092306 0.092306
0.092306 0.092306 0.092306
0.092306 0.092306 0.092306
0.092306 0.092306 0.092306
0.094164 0.094164 0.094164
0.107877 0.107877 0.107877
0.124243 0.124243 0.124243
0.133729 0.133729 0.133729
0.138158 0.138158 0.138158
0.138748 0.138748 0.138748
0.137091 0.137091 0.137091
0.134045 0.134045 0.134045
0.092306 0.092306 0.092306
0.231180 0.231180 0.231180
0.203037 0.203037 0.203037
0.251170 0.251170 0.251170
0.306494 0.306494 0.306494
0.336951 0.336951 0.336951
0.350717 0.350717 0.350717
0.354992 0.354992 0.354992
0.353114 0.353114 0.353114
0.092306 0.092306 0.092306
0.432993 0.432993 0.432993
0.430299 0.430299 0.430299
0.415449 0.415449 0.415449
0.439937 0.439937 0.439937
0.479437 0.479437 0.479437
0.506402 0.506402 0.506402
0.521432 0.521432 0.521432
0.527121 0.527121 0.527121
0.092306 0.092306 0.092306
0.564916 0.564916 0.564916
0.595191 0.595191 0.595191
0.586471 0.586471 0.586471
0.579535 0.579535 0.579535
0.593436 0.593436 0.593436
0.623515 0.623515 0.623515
0.644949 0.644949 0.644949
0.657386 0.657386 0.657386
0.092306 0.092306 0.092306
0.658941 0.658941 0.658941
0.715966 0.715966 0.715966
0.723793 0.723793 0.723793
0.720481 0.720481 0.720481
0.719546 0.719546 0.719546
0.727228 0.727228 0.727228
0.748152 0.748152 0.748152
0.762791 0.762791 0.762791
0.092306 0.092306 0.092306
0.728701 0.728701 0.728701
0.797568 0.797568 0.797568
0.820166 0.820166 0.820166
0.825358 0.825358 0.825358
0.826978 0.826978 0.826978
0.829748 0.829748 0.829748
0.834754 0.834754 0.834754
0.847856 0.847856 0.847856
0.092306 0.092306 0.092306
0.777181 0.777181 0.777181
0.851238 0.851238 0.851238
0.880289 0.880289 0.880289
0.891002 0.891002 0.891002
0.896516 0.896516 0.896516
0.900626 0.900626 0.900626
0.904899 0.904899 0.904899
0.909554 0.909554 0.909554
0.092306 0.092306 0.092306
0.812979 0.812979 0.812979
0.885102 0.885102 0.885102
0.914402 0.914402 0.914402
0.929756 0.929756 0.929756
0.936596 0.936596 0.936596
0.941533 0.941533 0.941533
0.945738 0.945738 0.945738
0.949674 0.949674 0.949674
0.092306 0.092306 0.092306
0.092306 0.092306 0.092306
0.092306 0.092306 0.092306
0.092306 0.092306 0.092306
0.092306 0.092306 0.092306
0.092306 0.092306 0.092306
0.092306 0.092306 0.092306
0.092306 0.092306 0.092306
0.092306 0.092306 0.092306
0.092306 0.092306 0.092306
0.118759 0.118759 0.118759
0.123744 0.123744 0.123744
0.129785 0.129785 0.129785
0.135424 0.135424 0.135424
0.138576 0.138576 0.138576
0.139236 0.139236 0.139236
0.138032 0.138032 0.138032
0.135481 0.135481 0.135481
0.092306 0.092306 0.092306
0.197008 0.197008 0.197008
0.160896 0.160896 0.160896
0.241273 0.241273 0.241273
0.300697 0.300697 0.300697
0.334571 0.334571 0.334571
0.350564 0.350564 0.350564
0.356783 0.356783 0.356783
0.356492 0.356492 0.356492
0.092306 0.092306 0.092306
0.403451 0.403451 0.403451
0.400606 0.400606 0.400606
0.381658 0.381658 0.381658
0.425705 0.425705 0.425705
0.472480 0.472480 0.472480
0.504522 0.504522 0.504522
0.523028 0.523028 0.523028
0.531189 0.531189 0.531189
0.092306 0.092306 0.092306
0.548953 0.548953 0.548953
0.579355 0.579355 0.579355
0.570272 0.570272 0.570272
0.564907 0.564907 0.564907
0.586615 0.586615 0.586615
0.621451 0.621451 0.621451
0.646846 0.646846 0.646846
0.662202 0.662202 0.662202
0.092306 0.092306 0.092306
0.652020 0.652020 0.652020
0.710156 0.710156 0.710156
0.718192 0.718192 0.718192
0.715196 0.715196 0.715196
0.715875 0.715875 0.715875
0.727894 0.727894 0.727894
0.751544 0.751544 0.751544
0.768614 0.768614 0.768614
0.092306 0.092306 0.092306
0.728854 0.728854 0.728854
0.798183 0.798183 0.798183
0.821064 0.821064 0.821064
0.826604 0.826604 0.826604
0.828856 0.828856 0.828856
0.832839 0.832839 0.832839
0.840111 0.840111 0.840111
0.854680 0.854680 0.854680
0.092306 0.092306 0.092306
0.781871 0.781871 0.781871
0.855737 0.855737 0.855737
0.884047 0.884047 0.884047
0.895092 0.895092 0.895092
0.900999 0.900999 0.900999
0.905666 0.905666 0.905666
0.910690 0.910690 0.910690
0.916194 0.916194 0.916194
0.092306 0.092306 0.092306
0.819818 0.819818 0.819818
0.890667 0.890667 0.890667
0.920352 0.920352 0.920352
0.933891 0.933891 0.933891
0.940968 0.940968 0.940968
0.946188 0.946188 0.946188
0.950734 0.950734 0.950734
0.955049 0.955049 0.955049
0.092306 0.092306 0.092306
0.092306 0.092306 0.092306
0.092306 0.092306 0.092306
0.092306 0.092306 0.092306
0.092306 0.092306 0.092306
0.092306 0.092306 0.092306
0.092306 0.092306 0.092306
0.092306 0.092306 0.092306
0.092306 0.092306 0.092306
0.092306 0.092306 0.092306
0.122657 0.122657 0.122657
0.147383 0.147383 0.147383
0.153005 0.153005 0.153005
0.146400 0.146400 0.146400
0.143382 0.143382 0.143382
0.141302 0.141302 0.141302
0.138999 0.138999 0.138999
0.136114 0.136114 0.136114
0.092306 0.092306 0.092306
0.232175 0.232175 0.232175
0.254495 0.254495 0.254495
0.284810 0.284810 0.284810
0.319963 0.319963 0.319963
0.341224 0.341224 0.341224
0.353252 0.353252 0.353252
0.358077 0.358077 0.358077
0.357591 0.357591 0.357591
0.092306 0.092306 0.092306
0.371653 0.371653 0.371653
0.376944 0.376944 0.376944
0.341457 0.341457 0.341457
0.420776 0.420776 0.420776
0.470319 0.470319 0.470319
0.503265 0.503265 0.503265
0.522610 0.522610 0.522610
0.531733 0.531733 0.531733
0.092306 0.092306 0.092306
0.521533 0.521533 0.521533
0.556770 0.556770 0.556770
0.547583 0.547583 0.547583
0.541154 0.541154 0.541154
0.575453 0.575453 0.575453
0.615537 0.615537 0.615537
0.644379 0.644379 0.644379
0.662092 0.662092 0.662092
0.092306 0.092306 0.092306
0.634636 0.634636 0.634636
0.694064 0.694064 0.694064
0.704432 0.704432 0.704432
0.701142 0.701142 0.701142
0.703708 0.703708 0.703708
0.722106 0.722106 0.722106
0.748915 0.748915 0.748915
0.768669 0.768669 0.768669
0.092306 0.092306 0.092306
0.720128 0.720128 0.720128
0.789651 0.789651 0.789651
0.814658 0.814658 0.814658
0.820755 0.820755 0.820755
0.823695 0.823695 0.823695
0.829142 0.829142 0.829142
0.839700 0.839700 0.839700
0.856039 0.856039 0.856039
0.092306 0.092306 0.092306
0.778463 0.778463 0.778463
0.853138 0.853138 0.853138
0.882525 0.882525 0.882525
0.894052 0.894052 0.894052
0.900482 0.900482 0.900482
0.905864 0.905864 0.905864
0.911891 0.911891 0.911891
0.918624 0.918624 0.918624
0.092306 0.092306 0.092306
0.820469 0.820469 0.820469
0.891428 0.891428 0.891428
0.921498 0.921498 0.921498
0.934937 0.934937 0.934937
0.942344 0.942344 0.942344
0.947956 0.947956 0.947956
0.952979 0.952979 0.952979
0.957544 0.957544 0.957544
0.092306 0.092306 0.092306
0.092306 0.092306 0.092306
0.092306 0.092306 0.092306
0.092306 0.092306 0.092306
0.092306 0.092306 0.092306
0.092306 0.092306 0.092306
0.092306 0.092306 0.092306
0.092306 0.092306 0.092306
0.092306 0.092306 0.092306
0.092306 0.092306 0.092306
0.123629 0.123629 0.123629
0.148980 0.148980 0.148980
0.167930 0.167930 0.167930
0.163767 0.163767 0.163767
0.153175 0.153175 0.153175
0.146527 0.146527 0.146527
0.141709 0.141709 0.141709
0.137532 0.137532 0.137532
0.092306 0.092306 0.092306
0.309621 0.309621 0.309621
0.345079 0.345079 0.345079
0.353066 0.353066 0.353066
0.357604 0.357604 0.357604
0.361644 0.361644 0.361644
0.363903 0.363903 0.363903
0.363544 0.363544 0.363544
0.360477 0.360477 0.360477
0.092306 0.092306 0.092306
0.377543 0.377543 0.377543
0.413279 0.413279 0.413279
0.424230 0.424230 0.424230
0.453053 0.453053 0.453053
0.486233 0.486233 0.486233
0.511238 0.511238 0.511238
0.526676 0.526676 0.526676
0.533997 0.533997 0.533997
0.092306 0.092306 0.092306
0.498787 0.498787 0.498787
0.540557 0.540557 0.540557
0.533749 0.533749 0.533749
0.513339 0.513339 0.513339
0.573312 0.573312 0.573312
0.615649 0.615649 0.615649
0.644845 0.644845 0.644845
0.662797 0.662797 0.662797
0.092306 0.092306 0.092306
0.614670 0.614670 0.614670
0.675255 0.675255 0.675255
0.687735 0.687735 0.687735
0.683948 0.683948 0.683948
0.686517 0.686517 0.686517
0.715836 0.715836 0.715836
0.746103 0.746103 0.746103
0.768018 0.768018 0.768018
0.092306 0.092306 0.092306
0.707640 0.707640 0.707640
0.777509 0.777509 0.777509
0.803941 0.803941 0.803941
0.812273 0.812273 0.812273
0.816002 0.816002 0.816002
0.822796 0.822796 0.822796
0.837456 0.837456 0.837456
0.855673 0.855673 0.855673
0.092306 0.092306 0.092306
0.771181 0.771181 0.771181
0.847255 0.847255 0.847255
0.878692 0.878692 0.878692
0.890893 0.890893 0.890893
0.897940 0.897940 0.897940
0.904061 0.904061 0.904061
0.911184 0.911184 0.911184
0.919728 0.919728 0.919728
0.092306 0.092306 0.092306
0.818182 0.818182 0.818182
0.889885 0.889885 0.889885
0.920412 0.920412 0.920412
0.934603 0.934603 0.934603
0.942422 0.942422 0.942422
0.948495 0.948495 0.948495
0.954069 0.954069 0.954069
0.958739 0.958739 0.958739
0.092306 0.092306 0.092306
0.092306 0.092306 0.092306
0.092306 0.092306 0.092306
0.092306 0.092306 0.092306
0.092306 0.092306 0.092306
0.092306 0.092306 0.092306
0.092306 0.092306 0.092306
0.092306 0.092306 0.092306
0.092306 0.092306 0.092306
0.092306 0.092306 0.092306
0.124388 0.124388 0.124388
0.150231 0.150231 0.150231
0.169340 0.169340 0.169340
0.182443 0.182443 0.182443
0.165365 0.165365 0.165365
0.154090 0.154090 0.154090
0.146139 0.146139 0.146139
0.140020 0.140020 0.140020
0.092306 0.092306 0.092306
0.338864 0.338864 0.338864
0.409388 0.409388 0.409388
0.412103 0.412103 0.412103
0.401290 0.401290 0.401290
0.390301 0.390301 0.390301
0.381324 0.381324 0.381324
0.373611 0.373611 0.373611
0.366094 0.366094 0.366094
0.092306 0.092306 0.092306
0.420741 0.420741 0.420741
0.469292 0.469292 0.469292
0.488966 0.488966 0.488966
0.503490 0.503490 0.503490
0.517743 0.517743 0.517743
0.529514 0.529514 0.529514
0.536943 0.536943 0.536943
0.539673 0.539673 0.539673
0.092306 0.092306 0.092306
0.495042 0.495042 0.495042
0.548601 0.548601 0.548601
0.560199 0.560199 0.560199
0.570895 0.570895 0.570895
0.598364 0.598364 0.598364
0.628745 0.628745 0.628745
0.652042 0.652042 0.652042
0.666872 0.666872 0.666872
0.092306 0.092306 0.092306
0.598524 0.598524 0.598524
0.661663 0.661663 0.661663
0.678591 0.678591 0.678591
0.676058 0.676058 0.676058
0.668691 0.668691 0.668691
0.715630 0.715630 0.715630
0.747387 0.747387 0.747387
0.769414 0.769414 0.769414
0.092306 0.092306 0.092306
0.692946 0.692946 0.692946
0.765044 0.765044 0.765044
0.793401 0.793401 0.793401
0.803078 0.803078 0.803078
0.806998 0.806998 0.806998
0.815437 0.815437 0.815437
0.835229 0.835229 0.835229
0.855405 0.855405 0.855405
0.092306 0.092306 0.092306
0.762109 0.762109 0.762109
0.839940 0.839940 0.839940
0.873526 0.873526 0.873526
0.887001 0.887001 0.887001
0.894710 0.894710 0.894710
0.901441 0.901441 0.901441
0.909613 0.909613 0.909613
0.920181 0.920181 0.920181
0.092306 0.092306 0.092306
0.814269 0.814269 0.814269
0.887085 0.887085 0.887085
0.918151 0.918151 0.918151
0.933576 0.933576 0.933576
0.941871 0.941871 0.941871
0.948440 0.948440 0.948440
0.954592 0.954592 0.954592
0.959572 0.959572 0.959572
0.092306 0.092306 0.092306
0.092306 0.092306 0.092306
0.092306 0.092306 0.092306
0.092306 0.092306 0.092306
0.092306 0.092306 0.092306
0.092306 0.092306 0.092306
0.092306 0.092306 0.092306
0.092306 0.092306 0.092306
0.092306 0.092306 0.092306
0.092306 0.092306 0.092306
0.125045 0.125045 0.125045
0.151261 0.151261 0.151261
0.170501 0.170501 0.170501
0.186699 0.186699 0.186699
0.177268 0.177268 0.177268
0.162405 0.162405 0.162405
0.151529 0.151529 0.151529
0.143292 0.143292 0.143292
0.092306 0.092306 0.092306
0.341009 0.341009 0.341009
0.411979 0.411979 0.411979
0.449865 0.449865 0.449865
0.435000 0.435000 0.435000
0.418358 0.418358 0.418358
0.401619 0.401619 0.401619
0.386575 0.386575 0.386575
0.373889 0.373889 0.373889
0.092306 0.092306 0.092306
0.464306 0.464306 0.464306
0.522961 0.522961 0.522961
0.544567 0.544567 0.544567
0.551068 0.551068 0.551068
0.552732 0.552732 0.552732
0.552703 0.552703 0.552703
0.551335 0.551335 0.551335
0.548368 0.548368 0.548368
0.092306 0.092306 0.092306
0.514676 0.514676 0.514676
0.577790 0.577790 0.577790
0.603212 0.603212 0.603212
0.619129 0.619129 0.619129
0.635496 0.635496 0.635496
0.652187 0.652187 0.652187
0.665931 0.665931 0.665931
0.674836 0.674836 0.674836
0.092306 0.092306 0.092306
0.592685 0.592685 0.592685
0.660804 0.660804 0.660804
0.686700 0.686700 0.686700
0.696517 0.696517 0.696517
0.709126 0.709126 0.709126
0.732298 0.732298 0.732298
0.756367 0.756367 0.756367
0.774526 0.774526 0.774526
0.092306 0.092306 0.092306
0.680590 0.680590 0.680590
0.755530 0.755530 0.755530
0.786713 0.786713 0.786713
0.799032 0.799032 0.799032
0.803425 0.803425 0.803425
0.806640 0.806640 0.806640
0.836091 0.836091 0.836091
0.856997 0.856997 0.856997
0.092306 0.092306 0.092306
0.752967 0.752967 0.752967
0.832654 0.832654 0.832654
0.867460 0.867460 0.867460
0.883477 0.883477 0.883477
0.891899 0.891899 0.891899
0.898887 0.898887 0.898887
0.907726 0.907726 0.907726
0.920548 0.920548 0.920548
0.092306 0.092306 0.092306
0.808662 0.808662 0.808662
0.883713 0.883713 0.883713
0.915384 0.915384 0.915384
0.932275 0.932275 0.932275
0.941091 0.941091 0.941091
0.948160 0.948160 0.948160
0.954866 0.954866 0.954866
0.960239 0.960239 0.960239
0.092306 0.092306 0.092306
0.092306 0.092306 0.092306
0.092306 0.092306 0.092306
0.092306 0.092306 0.092306
0.092306 0.092306 0.092306
0.092306 0.092306 0.092306
0.092306 0.092306 0.092306
0.092306 0.092306 0.092306
0.092306 0.092306 0.092306
0.092306 0.092306 0.092306
0.125605 0.125605 0.125605
0.152137 0.152137 0.152137
0.171489 0.171489 0.171489
0.187912 0.187912 0.187912
0.188287 0.188287 0.188287
0.170067 0.170067 0.170067
0.156949 0.156949 0.156949
0.146817 0.146817 0.146817
0.092306 0.092306 0.092306
0.342833 0.342833 0.342833
0.413809 0.413809 0.413809
0.452422 0.452422 0.452422
0.460192 0.460192 0.460192
0.438979 0.438979 0.438979
0.419287 0.419287 0.419287
0.400099 0.400099 0.400099
0.382577 0.382577 0.382577
0.092306 0.092306 0.092306
0.501560 0.501560 0.501560
0.564116 0.564116 0.564116
0.584045 0.584045 0.584045
0.586559 0.586559 0.586559
0.581560 0.581560 0.581560
0.574005 0.574005 0.574005
0.565856 0.565856 0.565856
0.557555 0.557555 0.557555
0.092306 0.092306 0.092306
0.545624 0.545624 0.545624
0.613081 0.613081 0.613081
0.644509 0.644509 0.644509
0.660710 0.660710 0.660710
0.670765 0.670765 0.670765
0.678082 0.678082 0.678082
0.683096 0.683096 0.683096
0.685361 0.685361 0.685361
0.092306 0.092306 0.092306
0.600078 0.600078 0.600078
0.674701 0.674701 0.674701
0.709411 0.709411 0.709411
0.726406 0.726406 0.726406
0.740532 0.740532 0.740532
0.755914 0.755914 0.755914
0.771007 0.771007 0.771007
0.782969 0.782969 0.782969
0.092306 0.092306 0.092306
0.674435 0.674435 0.674435
0.752253 0.752253 0.752253
0.787531 0.787531 0.787531
0.805137 0.805137 0.805137
0.815831 0.815831 0.815831
0.827544 0.827544 0.827544
0.845181 0.845181 0.845181
0.861860 0.861860 0.861860
0.092306 0.092306 0.092306
0.745352 0.745352 0.745352
0.826819 0.826819 0.826819
0.863109 0.863109 0.863109
0.881549 0.881549 0.881549
0.891064 0.891064 0.891064
0.898371 0.898371 0.898371
0.905876 0.905876 0.905876
0.921754 0.921754 0.921754
0.092306 0.092306 0.092306
0.802999 0.802999 0.802999
0.880334 0.880334 0.880334
0.912658 0.912658 0.912658
0.931043 0.931043 0.931043
0.940414 0.940414 0.940414
0.947963 0.947963 0.947963
0.955130 0.955130 0.955130
0.960865 0.960865 0.960865
0.092306 0.092306 0.092306
0.092306 0.092306 0.092306
0.092306 0.092306 0.092306
0.092306 0.092306 0.092306
0.092306 0.092306 0.092306
0.092306 0.092306 0.092306
0.092306 0.092306 0.092306
0.092306 0.092306 0.092306
0.092306 0.092306 0.092306
0.092306 0.092306 0.092306
0.126091 0.126091 0.126091
0.152900 0.152900 0.152900
0.172349 0.172349 0.172349
0.188969 0.188969 0.188969
0.196097 0.196097 0.196097
0.176162 0.176162 0.176162
0.161636 0.161636 0.161636
0.150051 0.150051 0.150051
0.092306 0.092306 0.092306
0.344421 0.344421 0.344421
0.415325 0.415325 0.415325
0.454138 0.454138 0.454138
0.477482 0.477482 0.477482
0.455011 0.455011 0.455011
0.432143 0.432143 0.432143
0.412218 0.412218 0.412218
0.390789 0.390789 0.390789
0.092306 0.092306 0.092306
0.528597 0.528597 0.528597
0.591713 0.591713 0.591713
0.612785 0.612785 0.612785
0.613806 0.613806 0.613806
0.605093 0.605093 0.605093
0.592625 0.592625 0.592625
0.579410 0.579410 0.579410
0.566602 0.566602 0.566602
0.092306 0.092306 0.092306
0.572792 0.572792 0.572792
0.645054 0.645054 0.645054
0.679257 0.679257 0.679257
0.694840 0.694840 0.694840
0.700754 0.700754 0.700754
0.701751 0.701751 0.701751
0.700033 0.700033 0.700033
0.696383 0.696383 0.696383
0.092306 0.092306 0.092306
0.616309 0.616309 0.616309
0.696541 0.696541 0.696541
0.733327 0.733327 0.733327
0.753742 0.753742 0.753742
0.767293 0.767293 0.767293
0.777877 0.777877 0.777877
0.786475 0.786475 0.786475
0.792662 0.792662 0.792662
0.092306 0.092306 0.092306
0.676172 0.676172 0.676172
0.756524 0.756524 0.756524
0.796328 0.796328 0.796328
0.818570 0.818570 0.818570
0.831965 0.831965 0.831965
0.844377 0.844377 0.844377
0.857158 0.857158 0.857158
0.868750 0.868750 0.868750
0.092306 0.092306 0.092306
0.740675 0.740675 0.740675
0.823712 0.823712 0.823712
0.861795 0.861795 0.861795
0.882315 0.882315 0.882315
0.893720 0.893720 0.893720
0.903089 0.903089 0.903089
0.913417 0.913417 0.913417
0.925039 0.925039 0.925039
0.092306 0.092306 0.092306
0.798067 0.798067 0.798067
0.877446 0.877446 0.877446
0.910456 0.910456 0.910456
0.930188 0.930188 0.930188
0.940151 0.940151 0.940151
0.948188 0.948188 0.948188
0.955703 0.955703 0.955703
0.961544 0.961544 0.961544
