trix_modern/TriX_Orange21_Soft.cube
TITLE "Tri-X Orange21 Soft"
# Adobe RGB in/out. REPLACES AgX. R=0.7239 G=0.2761 B=0.0000
LUT_3D_SIZE 9
DOMAIN_MIN 0.0 0.0 0.0
DOMAIN_MAX 1.0 1.0 1.0
0.097688 0.097688 0.097688
0.097688 0.097688 0.097688
0.097688 0.097688 0.097688
0.097688 0.097688 0.097688
0.097688 0.097688 0.097688
0.097688 0.097688 0.097688
0.097688 0.097688 0.097688
0.097688 0.097688 0.097688
0.097688 0.097688 0.097688
0.097688 0.097688 0.097688
0.123959 0.123959 0.123959
0.278187 0.278187 0.278187
0.402457 0.402457 0.402457
0.492176 0.492176 0.492176
0.562472 0.562472 0.562472
0.619521 0.619521 0.619521
0.666251 0.666251 0.666251
0.704538 0.704538 0.704538
0.097688 0.097688 0.097688
0.210650 0.210650 0.210650
0.305272 0.305272 0.305272
0.420193 0.420193 0.420193
0.535336 0.535336 0.535336
0.631483 0.631483 0.631483
0.708723 0.708723 0.708723
0.771498 0.771498 0.771498
0.817430 0.817430 0.817430
0.097688 0.097688 0.097688
0.244868 0.244868 0.244868
0.369262 0.369262 0.369262
0.449108 0.449108 0.449108
0.543162 0.543162 0.543162
0.648796 0.648796 0.648796
0.739442 0.739442 0.739442
0.811533 0.811533 0.811533
0.867136 0.867136 0.867136
0.097688 0.097688 0.097688
0.256883 0.256883 0.256883
0.404518 0.404518 0.404518
0.497895 0.497895 0.497895
0.575137 0.575137 0.575137
0.658734 0.658734 0.658734
0.752667 0.752667 0.752667
0.829366 0.829366 0.829366
0.889080 0.889080 0.889080
0.097688 0.097688 0.097688
0.259488 0.259488 0.259488
0.419526 0.419526 0.419526
0.528385 0.528385 0.528385
0.614285 0.614285 0.614285
0.690047 0.690047 0.690047
0.765300 0.765300 0.765300
0.841689 0.841689 0.841689
0.899129 0.899129 0.899129
0.097688 0.097688 0.097688
0.256883 0.256883 0.256883
0.423034 0.423034 0.423034
0.542800 0.542800 0.542800
0.638776 0.638776 0.638776
0.719663 0.719663 0.719663
0.792235 0.792235 0.792235
0.854428 0.854428 0.854428
0.907792 0.907792 0.907792
0.097688 0.097688 0.097688
0.251049 0.251049 0.251049
0.419644 0.419644 0.419644
0.545532 0.545532 0.545532
0.649420 0.649420 0.649420
0.736802 0.736802 0.736802
0.811158 0.811158 0.811158
0.875547 0.875547 0.875547
0.916960 0.916960 0.916960
0.097688 0.097688 0.097688
0.243071 0.243071 0.243071
0.411774 0.411774 0.411774
0.540103 0.540103 0.540103
0.649207 0.649207 0.649207
0.742286 0.742286 0.742286
0.820292 0.820292 0.820292
0.886229 0.886229 0.886229
0.926299 0.926299 0.926299
0.097688 0.097688 0.097688
0.097688 0.097688 0.097688
0.097688 0.097688 0.097688
0.097688 0.097688 0.097688
0.097688 0.097688 0.097688
0.097688 0.097688 0.097688
0.097688 0.097688 0.097688
0.097688 0.097688 0.097688
0.097688 0.097688 0.097688
0.097688 0.097688 0.097688
0.107900 0.107900 0.107900
0.269133 0.269133 0.269133
0.391806 0.391806 0.391806
0.482788 0.482788 0.482788
0.555164 0.555164 0.555164
0.614111 0.614111 0.614111
0.662386 0.662386 0.662386
0.701717 0.701717 0.701717
0.097688 0.097688 0.097688
0.192322 0.192322 0.192322
0.284340 0.284340 0.284340
0.404150 0.404150 0.404150
0.523289 0.523289 0.523289
0.622828 0.622828 0.622828
0.702633 0.702633 0.702633
0.767087 0.767087 0.767087
0.814651 0.814651 0.814651
0.097688 0.097688 0.097688
0.235799 0.235799 0.235799
0.356868 0.356868 0.356868
0.435267 0.435267 0.435267
0.532213 0.532213 0.532213
0.640377 0.640377 0.640377
0.733352 0.733352 0.733352
0.807670 0.807670 0.807670
0.864366 0.864366 0.864366
0.097688 0.097688 0.097688
0.251976 0.251976 0.251976
0.397868 0.397868 0.397868
0.489930 0.489930 0.489930
0.566816 0.566816 0.566816
0.652229 0.652229 0.652229
0.747419 0.747419 0.747419
0.825918 0.825918 0.825918
0.887488 0.887488 0.887488
0.097688 0.097688 0.097688
0.256733 0.256733 0.256733
0.416079 0.416079 0.416079
0.523950 0.523950 0.523950
0.609281 0.609281 0.609281
0.685233 0.685233 0.685233
0.761504 0.761504 0.761504
0.839015 0.839015 0.839015
0.897864 0.897864 0.897864
0.097688 0.097688 0.097688
0.255310 0.255310 0.255310
0.421051 0.421051 0.421051
0.540264 0.540264 0.540264
0.635897 0.635897 0.635897
0.716777 0.716777 0.716777
0.789889 0.789889 0.789889
0.852665 0.852665 0.852665
0.906935 0.906935 0.906935
0.097688 0.097688 0.097688
0.250162 0.250162 0.250162
0.418518 0.418518 0.418518
0.544102 0.544102 0.544102
0.647864 0.647864 0.647864
0.735200 0.735200 0.735200
0.809840 0.809840 0.809840
0.874442 0.874442 0.874442
0.916453 0.916453 0.916453
0.097688 0.097688 0.097688
0.242599 0.242599 0.242599
0.411173 0.411173 0.411173
0.539350 0.539350 0.539350
0.648411 0.648411 0.648411
0.741499 0.741499 0.741499
0.819680 0.819680 0.819680
0.885932 0.885932 0.885932
0.926134 0.926134 0.926134
0.097688 0.097688 0.097688
0.097688 0.097688 0.097688
0.097688 0.097688 0.097688
0.097688 0.097688 0.097688
0.097688 0.097688 0.097688
0.097688 0.097688 0.097688
0.097688 0.097688 0.097688
0.097688 0.097688 0.097688
0.097688 0.097688 0.097688
0.097688 0.097688 0.097688
0.183067 0.183067 0.183067
0.303529 0.303529 0.303529
0.399111 0.399111 0.399111
0.479091 0.479091 0.479091
0.547979 0.547979 0.547979
0.606333 0.606333 0.606333
0.655440 0.655440 0.655440
0.695819 0.695819 0.695819
0.097688 0.097688 0.097688
0.168240 0.168240 0.168240
0.241770 0.241770 0.241770
0.388867 0.388867 0.388867
0.510625 0.510625 0.510625
0.611049 0.611049 0.611049
0.692468 0.692468 0.692468
0.758497 0.758497 0.758497
0.808555 0.808555 0.808555
0.097688 0.097688 0.097688
0.217197 0.217197 0.217197
0.332718 0.332718 0.332718
0.407055 0.407055 0.407055
0.511504 0.511504 0.511504
0.624132 0.624132 0.624132
0.721027 0.721027 0.721027
0.799220 0.799220 0.799220
0.857836 0.857836 0.857836
0.097688 0.097688 0.097688
0.239988 0.239988 0.239988
0.382251 0.382251 0.382251
0.471183 0.471183 0.471183
0.546523 0.546523 0.546523
0.636614 0.636614 0.636614
0.734838 0.734838 0.734838
0.817417 0.817417 0.817417
0.883407 0.883407 0.883407
0.097688 0.097688 0.097688
0.249255 0.249255 0.249255
0.406682 0.406682 0.406682
0.512338 0.512338 0.512338
0.596017 0.596017 0.596017
0.672187 0.672187 0.672187
0.751386 0.751386 0.751386
0.831765 0.831765 0.831765
0.894369 0.894369 0.894369
0.097688 0.097688 0.097688
0.250725 0.250725 0.250725
0.415340 0.415340 0.415340
0.533058 0.533058 0.533058
0.627728 0.627728 0.627728
0.708494 0.708494 0.708494
0.783056 0.783056 0.783056
0.847586 0.847586 0.847586
0.904428 0.904428 0.904428
0.097688 0.097688 0.097688
0.247442 0.247442 0.247442
0.415088 0.415088 0.415088
0.539791 0.539791 0.539791
0.643140 0.643140 0.643140
0.730383 0.730383 0.730383
0.805844 0.805844 0.805844
0.871063 0.871063 0.871063
0.914893 0.914893 0.914893
0.097688 0.097688 0.097688
0.241095 0.241095 0.241095
0.409238 0.409238 0.409238
0.536977 0.536977 0.536977
0.645913 0.645913 0.645913
0.739035 0.739035 0.739035
0.817759 0.817759 0.817759
0.884994 0.884994 0.884994
0.925609 0.925609 0.925609
0.097688 0.097688 0.097688
0.097688 0.097688 0.097688
0.097688 0.097688 0.097688
0.097688 0.097688 0.097688
0.097688 0.097688 0.097688
0.097688 0.097688 0.097688
0.097688 0.097688 0.097688
0.097688 0.097688 0.097688
0.097688 0.097688 0.097688
0.097688 0.097688 0.097688
0.187318 0.187318 0.187318
0.338964 0.338964 0.338964
0.435319 0.435319 0.435319
0.496677 0.496677 0.496677
0.553888 0.553888 0.553888
0.606174 0.606174 0.606174
0.652482 0.652482 0.652482
0.691794 0.691794 0.691794
0.097688 0.097688 0.097688
0.186710 0.186710 0.186710
0.313469 0.313469 0.313469
0.421086 0.421086 0.421086
0.522572 0.522572 0.522572
0.613176 0.613176 0.613176
0.689830 0.689830 0.689830
0.753819 0.753819 0.753819
0.803969 0.803969 0.803969
0.097688 0.097688 0.097688
0.199432 0.199432 0.199432
0.315980 0.315980 0.315980
0.375048 0.375048 0.375048
0.502469 0.502469 0.502469
0.616651 0.616651 0.616651
0.713750 0.713750 0.713750
0.793016 0.793016 0.793016
0.852161 0.852161 0.852161
0.097688 0.097688 0.097688
0.226247 0.226247 0.226247
0.365395 0.365395 0.365395
0.451058 0.451058 0.451058
0.523030 0.523030 0.523030
0.620931 0.620931 0.620931
0.723035 0.723035 0.723035
0.809259 0.809259 0.809259
0.877044 0.877044 0.877044
0.097688 0.097688 0.097688
0.239630 0.239630 0.239630
0.394248 0.394248 0.394248
0.498205 0.498205 0.498205
0.579814 0.579814 0.579814
0.655811 0.655811 0.655811
0.739487 0.739487 0.739487
0.823315 0.823315 0.823315
0.890250 0.890250 0.890250
0.097688 0.097688 0.097688
0.244392 0.244392 0.244392
0.407412 0.407412 0.407412
0.523544 0.523544 0.523544
0.617065 0.617065 0.617065
0.697496 0.697496 0.697496
0.773135 0.773135 0.773135
0.841017 0.841017 0.841017
0.901155 0.901155 0.901155
0.097688 0.097688 0.097688
0.243477 0.243477 0.243477
0.410141 0.410141 0.410141
0.533690 0.533690 0.533690
0.636440 0.636440 0.636440
0.723680 0.723680 0.723680
0.800230 0.800230 0.800230
0.866274 0.866274 0.866274
0.912720 0.912720 0.912720
0.097688 0.097688 0.097688
0.238801 0.238801 0.238801
0.406090 0.406090 0.406090
0.533423 0.533423 0.533423
0.642133 0.642133 0.642133
0.735416 0.735416 0.735416
0.814936 0.814936 0.814936
0.883610 0.883610 0.883610
0.924835 0.924835 0.924835
0.097688 0.097688 0.097688
0.097688 0.097688 0.097688
0.097688 0.097688 0.097688
0.097688 0.097688 0.097688
0.097688 0.097688 0.097688
0.097688 0.097688 0.097688
0.097688 0.097688 0.097688
0.097688 0.097688 0.097688
0.097688 0.097688 0.097688
0.097688 0.097688 0.097688
0.187318 0.187318 0.187318
0.338964 0.338964 0.338964
0.456332 0.456332 0.456332
0.526226 0.526226 0.526226
0.571543 0.571543 0.571543
0.615020 0.615020 0.615020
0.655555 0.655555 0.655555
0.691634 0.691634 0.691634
0.097688 0.097688 0.097688
0.227349 0.227349 0.227349
0.371769 0.371769 0.371769
0.471822 0.471822 0.471822
0.556013 0.556013 0.556013
0.631591 0.631591 0.631591
0.698008 0.698008 0.698008
0.756150 0.756150 0.756150
0.803168 0.803168 0.803168
0.097688 0.097688 0.097688
0.200477 0.200477 0.200477
0.334492 0.334492 0.334492
0.429674 0.429674 0.429674
0.528263 0.528263 0.528263
0.628374 0.628374 0.628374
0.717673 0.717673 0.717673
0.792811 0.792811 0.792811
0.850053 0.850053 0.850053
0.097688 0.097688 0.097688
0.215359 0.215359 0.215359
0.353945 0.353945 0.353945
0.439650 0.439650 0.439650
0.499564 0.499564 0.499564
0.615193 0.615193 0.615193
0.718878 0.718878 0.718878
0.805505 0.805505 0.805505
0.873189 0.873189 0.873189
0.097688 0.097688 0.097688
0.229890 0.229890 0.229890
0.382088 0.382088 0.382088
0.485017 0.485017 0.485017
0.564250 0.564250 0.564250
0.638570 0.638570 0.638570
0.729026 0.729026 0.729026
0.816501 0.816501 0.816501
0.886915 0.886915 0.886915
0.097688 0.097688 0.097688
0.237364 0.237364 0.237364
0.398204 0.398204 0.398204
0.513490 0.513490 0.513490
0.605998 0.605998 0.605998
0.685830 0.685830 0.685830
0.761760 0.761760 0.761760
0.834414 0.834414 0.834414
0.897936 0.897936 0.897936
0.097688 0.097688 0.097688
0.238833 0.238833 0.238833
0.403953 0.403953 0.403953
0.526773 0.526773 0.526773
0.629005 0.629005 0.629005
0.716288 0.716288 0.716288
0.793972 0.793972 0.793972
0.860909 0.860909 0.860909
0.910651 0.910651 0.910651
0.097688 0.097688 0.097688
0.235999 0.235999 0.235999
0.402275 0.402275 0.402275
0.529176 0.529176 0.529176
0.637665 0.637665 0.637665
0.731220 0.731220 0.731220
0.811678 0.811678 0.811678
0.881384 0.881384 0.881384
0.923960 0.923960 0.923960
0.097688 0.097688 0.097688
0.097688 0.097688 0.097688
0.097688 0.097688 0.097688
0.097688 0.097688 0.097688
0.097688 0.097688 0.097688
0.097688 0.097688 0.097688
0.097688 0.097688 0.097688
0.097688 0.097688 0.097688
0.097688 0.097688 0.097688
0.097688 0.097688 0.097688
0.187318 0.187318 0.187318
0.338964 0.338964 0.338964
0.456332 0.456332 0.456332
0.555787 0.555787 0.555787
0.594099 0.594099 0.594099
0.629842 0.629842 0.629842
0.663708 0.663708 0.663708
0.695290 0.695290 0.695290
0.097688 0.097688 0.097688
0.241111 0.241111 0.241111
0.413267 0.413267 0.413267
0.516863 0.516863 0.516863
0.593988 0.593988 0.593988
0.658355 0.658355 0.658355
0.714432 0.714432 0.714432
0.765003 0.765003 0.765003
0.806403 0.806403 0.806403
0.097688 0.097688 0.097688
0.219799 0.219799 0.219799
0.368762 0.368762 0.368762
0.476188 0.476188 0.476188
0.569062 0.569062 0.569062
0.655242 0.655242 0.655242
0.732813 0.732813 0.732813
0.799357 0.799357 0.799357
0.852343 0.852343 0.852343
0.097688 0.097688 0.097688
0.212130 0.212130 0.212130
0.356406 0.356406 0.356406
0.454952 0.454952 0.454952
0.540802 0.540802 0.540802
0.634939 0.634939 0.634939
0.728070 0.728070 0.728070
0.808701 0.808701 0.808701
0.873531 0.873531 0.873531
0.097688 0.097688 0.097688
0.222179 0.222179 0.222179
0.373243 0.373243 0.373243
0.477167 0.477167 0.477167
0.556070 0.556070 0.556070
0.621499 0.621499 0.621499
0.725489 0.725489 0.725489
0.814402 0.814402 0.814402
0.885503 0.885503 0.885503
0.097688 0.097688 0.097688
0.230601 0.230601 0.230601
0.389514 0.389514 0.389514
0.504357 0.504357 0.504357
0.596355 0.596355 0.596355
0.675106 0.675106 0.675106
0.750417 0.750417 0.750417
0.828837 0.828837 0.828837
0.895457 0.895457 0.895457
0.097688 0.097688 0.097688
0.233988 0.233988 0.233988
0.397500 0.397500 0.397500
0.519777 0.519777 0.519777
0.621679 0.621679 0.621679
0.709064 0.709064 0.709064
0.787713 0.787713 0.787713
0.855476 0.855476 0.855476
0.908706 0.908706 0.908706
0.097688 0.097688 0.097688
0.232932 0.232932 0.232932
0.398120 0.398120 0.398120
0.524613 0.524613 0.524613
0.632956 0.632956 0.632956
0.726874 0.726874 0.726874
0.808334 0.808334 0.808334
0.878844 0.878844 0.878844
0.923109 0.923109 0.923109
0.097688 0.097688 0.097688
0.097688 0.097688 0.097688
0.097688 0.097688 0.097688
0.097688 0.097688 0.097688
0.097688 0.097688 0.097688
0.097688 0.097688 0.097688
0.097688 0.097688 0.097688
0.097688 0.097688 0.097688
0.097688 0.097688 0.097688
0.097688 0.097688 0.097688
0.187318 0.187318 0.187318
0.338964 0.338964 0.338964
0.456332 0.456332 0.456332
0.560138 0.560138 0.560138
0.615534 0.615534 0.615534
0.646359 0.646359 0.646359
0.674543 0.674543 0.674543
0.701553 0.701553 0.701553
0.097688 0.097688 0.097688
0.241111 0.241111 0.241111
0.413267 0.413267 0.413267
0.550425 0.550425 0.550425
0.626978 0.626978 0.626978
0.685168 0.685168 0.685168
0.734027 0.734027 0.734027
0.777743 0.777743 0.777743
0.812606 0.812606 0.812606
0.097688 0.097688 0.097688
0.240028 0.240028 0.240028
0.400364 0.400364 0.400364
0.514656 0.514656 0.514656
0.606948 0.606948 0.606948
0.685238 0.685238 0.685238
0.753792 0.753792 0.753792
0.810676 0.810676 0.810676
0.858305 0.858305 0.858305
0.097688 0.097688 0.097688
0.219395 0.219395 0.219395
0.371962 0.371962 0.371962
0.482945 0.482945 0.482945
0.577141 0.577141 0.577141
0.665075 0.665075 0.665075
0.747492 0.747492 0.747492
0.818348 0.818348 0.818348
0.878128 0.878128 0.878128
0.097688 0.097688 0.097688
0.218823 0.218823 0.218823
0.371271 0.371271 0.371271
0.480180 0.480180 0.480180
0.568128 0.568128 0.568128
0.651164 0.651164 0.651164
0.738850 0.738850 0.738850
0.819873 0.819873 0.819873
0.886787 0.886787 0.886787
0.097688 0.097688 0.097688
0.225156 0.225156 0.225156
0.382845 0.382845 0.382845
0.498127 0.498127 0.498127
0.591078 0.591078 0.591078
0.669699 0.669699 0.669699
0.739633 0.739633 0.739633
0.826989 0.826989 0.826989
0.894661 0.894661 0.894661
0.097688 0.097688 0.097688
0.229424 0.229424 0.229424
0.391492 0.391492 0.391492
0.513458 0.513458 0.513458
0.615362 0.615362 0.615362
0.702974 0.702974 0.702974
0.782146 0.782146 0.782146
0.850298 0.850298 0.850298
0.907117 0.907117 0.907117
0.097688 0.097688 0.097688
0.229825 0.229825 0.229825
0.393933 0.393933 0.393933
0.520078 0.520078 0.520078
0.628379 0.628379 0.628379
0.722750 0.722750 0.722750
0.805203 0.805203 0.805203
0.876486 0.876486 0.876486
0.922389 0.922389 0.922389
0.097688 0.097688 0.097688
0.097688 0.097688 0.097688
0.097688 0.097688 0.097688
0.097688 0.097688 0.097688
0.097688 0.097688 0.097688
0.097688 0.097688 0.097688
0.097688 0.097688 0.097688
0.097688 0.097688 0.097688
0.097688 0.097688 0.097688
0.097688 0.097688 0.097688
0.187318 0.187318 0.187318
0.338964 0.338964 0.338964
0.456332 0.456332 0.456332
0.560138 0.560138 0.560138
0.632539 0.632539 0.632539
0.660885 0.660885 0.660885
0.685550 0.685550 0.685550
0.708751 0.708751 0.708751
0.097688 0.097688 0.097688
0.241111 0.241111 0.241111
0.413267 0.413267 0.413267
0.550959 0.550959 0.550959
0.651672 0.651672 0.651672
0.707870 0.707870 0.707870
0.752615 0.752615 0.752615
0.789727 0.789727 0.789727
0.820080 0.820080 0.820080
0.097688 0.097688 0.097688
0.256935 0.256935 0.256935
0.423869 0.423869 0.423869
0.544098 0.544098 0.544098
0.637908 0.637908 0.637908
0.712310 0.712310 0.712310
0.775119 0.775119 0.775119
0.823666 0.823666 0.823666
0.866203 0.866203 0.866203
0.097688 0.097688 0.097688
0.230760 0.230760 0.230760
0.391066 0.391066 0.391066
0.509550 0.509550 0.509550
0.607915 0.607915 0.607915
0.693179 0.693179 0.693179
0.769349 0.769349 0.769349
0.831133 0.831133 0.831133
0.884634 0.884634 0.884634
0.097688 0.097688 0.097688
0.220812 0.220812 0.220812
0.377003 0.377003 0.377003
0.492650 0.492650 0.492650
0.589337 0.589337 0.589337
0.676653 0.676653 0.676653
0.759186 0.759186 0.759186
0.830798 0.830798 0.830798
0.890375 0.890375 0.890375
0.097688 0.097688 0.097688
0.222090 0.222090 0.222090
0.379774 0.379774 0.379774
0.496996 0.496996 0.496996
0.593611 0.593611 0.593611
0.677785 0.677785 0.677785
0.758086 0.758086 0.758086
0.833786 0.833786 0.833786
0.896356 0.896356 0.896356
0.097688 0.097688 0.097688
0.225645 0.225645 0.225645
0.386648 0.386648 0.386648
0.508702 0.508702 0.508702
0.611218 0.611218 0.611218
0.699725 0.699725 0.699725
0.779379 0.779379 0.779379
0.845621 0.845621 0.845621
0.906533 0.906533 0.906533
0.097688 0.097688 0.097688
0.226907 0.226907 0.226907
0.390024 0.390024 0.390024
0.515921 0.515921 0.515921
0.624318 0.624318 0.624318
0.719248 0.719248 0.719248
0.802633 0.802633 0.802633
0.874555 0.874555 0.874555
0.921893 0.921893 0.921893
0.097688 0.097688 0.097688
0.097688 0.097688 0.097688
0.097688 0.097688 0.097688
0.097688 0.097688 0.097688
0.097688 0.097688 0.097688
0.097688 0.097688 0.097688
0.097688 0.097688 0.097688
0.097688 0.097688 0.097688
0.097688 0.097688 0.097688
0.097688 0.097688 0.097688
0.187318 0.187318 0.187318
0.338964 0.338964 0.338964
0.456332 0.456332 0.456332
0.560138 0.560138 0.560138
0.643857 0.643857 0.643857
0.671980 0.671980 0.671980
0.694840 0.694840 0.694840
0.715311 0.715311 0.715311
0.097688 0.097688 0.097688
0.241111 0.241111 0.241111
0.413267 0.413267 0.413267
0.550959 0.550959 0.550959
0.667568 0.667568 0.667568
0.724532 0.724532 0.724532
0.767691 0.767691 0.767691
0.800136 0.800136 0.800136
0.827187 0.827187 0.827187
0.097688 0.097688 0.097688
0.268907 0.268907 0.268907
0.439895 0.439895 0.439895
0.565157 0.565157 0.565157
0.660651 0.660651 0.660651
0.733889 0.733889 0.733889
0.791693 0.791693 0.791693
0.835777 0.835777 0.835777
0.874173 0.874173 0.874173
0.097688 0.097688 0.097688
0.241984 0.241984 0.241984
0.408215 0.408215 0.408215
0.531287 0.531287 0.531287
0.632694 0.632694 0.632694
0.716639 0.716639 0.716639
0.787889 0.787889 0.787889
0.843852 0.843852 0.843852
0.889766 0.889766 0.889766
0.097688 0.097688 0.097688
0.226342 0.226342 0.226342
0.386844 0.386844 0.386844
0.507800 0.507800 0.507800
0.609508 0.609508 0.609508
0.698171 0.698171 0.698171
0.778134 0.778134 0.778134
0.842726 0.842726 0.842726
0.894890 0.894890 0.894890
0.097688 0.097688 0.097688
0.221909 0.221909 0.221909
0.380888 0.380888 0.380888
0.501130 0.501130 0.501130
0.602402 0.602402 0.602402
0.691508 0.691508 0.691508
0.773863 0.773863 0.773863
0.843731 0.843731 0.843731
0.899607 0.899607 0.899607
0.097688 0.097688 0.097688
0.223111 0.223111 0.223111
0.383636 0.383636 0.383636
0.506305 0.506305 0.506305
0.610330 0.610330 0.610330
0.701018 0.701018 0.701018
0.783010 0.783010 0.783010
0.853058 0.853058 0.853058
0.907916 0.907916 0.907916
0.097688 0.097688 0.097688
0.224388 0.224388 0.224388
0.386691 0.386691 0.386691
0.512484 0.512484 0.512484
0.621162 0.621162 0.621162
0.716806 0.716806 0.716806
0.801100 0.801100 0.801100
0.873534 0.873534 0.873534
0.921710 0.921710 0.921710
