trix_modern/TriX_NoFilter_Punchy.cube
TITLE "Tri-X NoFilter Punchy"
# Adobe RGB in/out. REPLACES AgX. R=0.2974 G=0.2859 B=0.4167
LUT_3D_SIZE 5
DOMAIN_MIN 0.0 0.0 0.0
DOMAIN_MAX 1.0 1.0 1.0
0.092306 0.092306 0.092306
0.092306 0.092306 0.092306
0.092306 0.092306 0.092306
0.092306 0.092306 0.092306
0.092306 0.092306 0.092306
0.092306 0.092306 0.092306
0.092306 0.092306 0.092306
0.092306 0.092306 0.092306
0.092306 0.092306 0.092306
0.092306 0.092306 0.092306
0.092306 0.092306 0.092306
0.092306 0.092306 0.092306
0.092306 0.092306 0.092306
0.092306 0.092306 0.092306
0.092306 0.092306 0.092306
0.092306 0.092306 0.092306
0.092306 0.092306 0.092306
0.092306 0.092306 0.092306
0.092306 0.092306 0.092306
0.092306 0.092306 0.092306
0.092306 0.092306 0.092306
0.092306 0.092306 0.092306
0.092306 0.092306 0.092306
0.092306 0.092306 0.092306
0.092306 0.092306 0.092306
0.092306 0.092306 0.092306
0.092306 0.092306 0.092306
0.092306 0.092306 0.092306
0.092306 0.092306 0.092306
0.092306 0.092306 0.092306
0.092306 0.092306 0.092306
0.160896 0.160896 0.160896
0.349263 0.349263 0.349263
0.431760 0.431760 0.431760
0.458924 0.458924 0.458924
0.092306 0.092306 0.092306
0.355375 0.355375 0.355375
0.394355 0.394355 0.394355
0.472730 0.472730 0.472730
0.532600 0.532600 0.532600
0.092306 0.092306 0.092306
0.406856 0.406856 0.406856
0.479987 0.479987 0.479987
0.519259 0.519259 0.519259
0.565035 0.565035 0.565035
0.092306 0.092306 0.092306
0.398781 0.398781 0.398781
0.500488 0.500488 0.500488
0.556847 0.556847 0.556847
0.596223 0.596223 0.596223
0.092306 0.092306 0.092306
0.092306 0.092306 0.092306
0.092306 0.092306 0.092306
0.092306 0.092306 0.092306
0.092306 0.092306 0.092306
0.092306 0.092306 0.092306
0.508484 0.508484 0.508484
0.581979 0.581979 0.581979
0.625067 0.625067 0.625067
0.647251 0.647251 0.647251
0.092306 0.092306 0.092306
0.482364 0.482364 0.482364
0.513339 0.513339 0.513339
0.652932 0.652932 0.652932
0.728843 0.728843 0.728843
0.092306 0.092306 0.092306
0.560361 0.560361 0.560361
0.652086 0.652086 0.652086
0.703859 0.703859 0.703859
0.765195 0.765195 0.765195
0.092306 0.092306 0.092306
0.568549 0.568549 0.568549
0.694631 0.694631 0.694631
0.759109 0.759109 0.759109
0.809397 0.809397 0.809397
0.092306 0.092306 0.092306
0.092306 0.092306 0.092306
0.092306 0.092306 0.092306
0.092306 0.092306 0.092306
0.092306 0.092306 0.092306
0.092306 0.092306 0.092306
0.701043 0.701043 0.701043
0.797792 0.797792 0.797792
0.791805 0.791805 0.791805
0.785043 0.785043 0.785043
0.092306 0.092306 0.092306
0.628283 0.628283 0.628283
0.738703 0.738703 0.738703
0.812381 0.812381 0.812381
0.857568 0.857568 0.857568
0.092306 0.092306 0.092306
0.651638 0.651638 0.651638
0.759750 0.759750 0.759750
0.806640 0.806640 0.806640
0.880855 0.880855 0.880855
0.092306 0.092306 0.092306
0.674747 0.674747 0.674747
0.810389 0.810389 0.810389
0.874943 0.874943 0.874943
0.914286 0.914286 0.914286
0.092306 0.092306 0.092306
0.092306 0.092306 0.092306
0.092306 0.092306 0.092306
0.092306 0.092306 0.092306
0.092306 0.092306 0.092306
0.092306 0.092306 0.092306
0.789819 0.789819 0.789819
0.916920 0.916920 0.916920
0.902720 0.902720 0.902720
0.883736 0.883736 0.883736
0.092306 0.092306 0.092306
0.785331 0.785331 0.785331
0.889681 0.889681 0.889681
0.922901 0.922901 0.922901
0.935428 0.935428 0.935428
0.092306 0.092306 0.092306
0.738175 0.738175 0.738175
0.861401 0.861401 0.861401
0.913461 0.913461 0.913461
0.944837 0.944837 0.944837
0.092306 0.092306 0.092306
0.750972 0.750972 0.750972
0.883145 0.883145 0.883145
0.934431 0.934431 0.934431
0.961544 0.961544 0.961544
