trix_modern/TriX_Blue47_Hard.cube
TITLE "Tri-X Blue47 Hard"
# Adobe RGB in/out. REPLACES AgX. R=0.0336 G=0.0311 B=0.9353
LUT_3D_SIZE 5
DOMAIN_MIN 0.0 0.0 0.0
DOMAIN_MAX 1.0 1.0 1.0
0.093288 0.093288 0.093288
0.093288 0.093288 0.093288
0.093288 0.093288 0.093288
0.093288 0.093288 0.093288
0.093288 0.093288 0.093288
0.093288 0.093288 0.093288
0.093288 0.093288 0.093288
0.093288 0.093288 0.093288
0.093288 0.093288 0.093288
0.093288 0.093288 0.093288
0.093288 0.093288 0.093288
0.093288 0.093288 0.093288
0.093288 0.093288 0.093288
0.093288 0.093288 0.093288
0.093288 0.093288 0.093288
0.093288 0.093288 0.093288
0.093288 0.093288 0.093288
0.093288 0.093288 0.093288
0.093288 0.093288 0.093288
0.093288 0.093288 0.093288
0.093288 0.093288 0.093288
0.093288 0.093288 0.093288
0.093288 0.093288 0.093288
0.093288 0.093288 0.093288
0.093288 0.093288 0.093288
0.093288 0.093288 0.093288
0.093288 0.093288 0.093288
0.093288 0.093288 0.093288
0.093288 0.093288 0.093288
0.093288 0.093288 0.093288
0.093288 0.093288 0.093288
0.100098 0.100098 0.100098
0.143265 0.143265 0.143265
0.156496 0.156496 0.156496
0.145036 0.145036 0.145036
0.093288 0.093288 0.093288
0.149839 0.149839 0.149839
0.114734 0.114734 0.114734
0.121410 0.121410 0.121410
0.125427 0.125427 0.125427
0.093288 0.093288 0.093288
0.142847 0.142847 0.142847
0.125374 0.125374 0.125374
0.113899 0.113899 0.113899
0.112557 0.112557 0.112557
0.093288 0.093288 0.093288
0.117968 0.117968 0.117968
0.115012 0.115012 0.115012
0.110868 0.110868 0.110868
0.108155 0.108155 0.108155
0.093288 0.093288 0.093288
0.093288 0.093288 0.093288
0.093288 0.093288 0.093288
0.093288 0.093288 0.093288
0.093288 0.093288 0.093288
0.093288 0.093288 0.093288
0.964189 0.964189 0.964189
0.926808 0.926808 0.926808
0.893387 0.893387 0.893387
0.852829 0.852829 0.852829
0.093288 0.093288 0.093288
0.798898 0.798898 0.798898
0.588577 0.588577 0.588577
0.749279 0.749279 0.749279
0.779524 0.779524 0.779524
0.093288 0.093288 0.093288
0.814535 0.814535 0.814535
0.752363 0.752363 0.752363
0.683280 0.683280 0.683280
0.697469 0.697469 0.697469
0.093288 0.093288 0.093288
0.737157 0.737157 0.737157
0.721441 0.721441 0.721441
0.688199 0.688199 0.688199
0.670140 0.670140 0.670140
0.093288 0.093288 0.093288
0.093288 0.093288 0.093288
0.093288 0.093288 0.093288
0.093288 0.093288 0.093288
0.093288 0.093288 0.093288
0.093288 0.093288 0.093288
0.999090 0.999090 0.999090
0.998708 0.998708 0.998708
0.997858 0.997858 0.997858
0.994518 0.994518 0.994518
0.093288 0.093288 0.093288
0.993681 0.993681 0.993681
0.992184 0.992184 0.992184
0.991192 0.991192 0.991192
0.990261 0.990261 0.990261
0.093288 0.093288 0.093288
0.988817 0.988817 0.988817
0.985207 0.985207 0.985207
0.978028 0.978028 0.978028
0.983945 0.983945 0.983945
0.093288 0.093288 0.093288
0.984816 0.984816 0.984816
0.984476 0.984476 0.984476
0.983054 0.983054 0.983054
0.982147 0.982147 0.982147
0.093288 0.093288 0.093288
0.093288 0.093288 0.093288
0.093288 0.093288 0.093288
0.093288 0.093288 0.093288
0.093288 0.093288 0.093288
0.093288 0.093288 0.093288
1.000000 1.000000 1.000000
1.000000 1.000000 1.000000
1.000000 1.000000 1.000000
0.999370 0.999370 0.999370
0.093288 0.093288 0.093288
0.999718 0.999718 0.999718
0.999494 0.999494 0.999494
0.999152 0.999152 0.999152
0.998816 0.998816 0.998816
0.093288 0.093288 0.093288
0.998516 0.998516 0.998516
0.998412 0.998412 0.998412
0.998283 0.998283 0.998283
0.998248 0.998248 0.998248
0.093288 0.093288 0.093288
0.998104 0.998104 0.998104
0.998122 0.998122 0.998122
0.998059 0.998059 0.998059
0.998062 0.998062 0.998062
