trix_modern/TriX_Blue47_Soft.cube
TITLE "Tri-X Blue47 Soft"
# Adobe RGB in/out. REPLACES AgX. R=0.0336 G=0.0311 B=0.9353
LUT_3D_SIZE 9
DOMAIN_MIN 0.0 0.0 0.0
DOMAIN_MAX 1.0 1.0 1.0
0.097688 0.097688 0.097688
0.097688 0.097688 0.097688
0.097688 0.097688 0.097688
0.097688 0.097688 0.097688
0.097688 0.097688 0.097688
0.097688 0.097688 0.097688
0.097688 0.097688 0.097688
0.097688 0.097688 0.097688
0.097688 0.097688 0.097688
0.097688 0.097688 0.097688
0.097688 0.097688 0.097688
0.097688 0.097688 0.097688
0.097688 0.097688 0.097688
0.097688 0.097688 0.097688
0.097688 0.097688 0.097688
0.097688 0.097688 0.097688
0.097688 0.097688 0.097688
0.097688 0.097688 0.097688
0.097688 0.097688 0.097688
0.097688 0.097688 0.097688
0.097688 0.097688 0.097688
0.097688 0.097688 0.097688
0.097688 0.097688 0.097688
0.097688 0.097688 0.097688
0.097688 0.097688 0.097688
0.097688 0.097688 0.097688
0.097688 0.097688 0.097688
0.097688 0.097688 0.097688
0.097688 0.097688 0.097688
0.097688 0.097688 0.097688
0.097688 0.097688 0.097688
0.097688 0.097688 0.097688
0.097688 0.097688 0.097688
0.097688 0.097688 0.097688
0.097688 0.097688 0.097688
0.097688 0.097688 0.097688
0.097688 0.097688 0.097688
0.097688 0.097688 0.097688
0.097688 0.097688 0.097688
0.097688 0.097688 0.097688
0.097688 0.097688 0.097688
0.097688 0.097688 0.097688
0.097688 0.097688 0.097688
0.097688 0.097688 0.097688
0.097688 0.097688 0.097688
0.097688 0.097688 0.097688
0.097688 0.097688 0.097688
0.097688 0.097688 0.097688
0.097688 0.097688 0.097688
0.097688 0.097688 0.097688
0.097688 0.097688 0.097688
0.097688 0.097688 0.097688
0.097688 0.097688 0.097688
0.097688 0.097688 0.097688
0.097688 0.097688 0.097688
0.097688 0.097688 0.097688
0.097688 0.097688 0.097688
0.097688 0.097688 0.097688
0.097688 0.097688 0.097688
0.097688 0.097688 0.097688
0.097688 0.097688 0.097688
0.097688 0.097688 0.097688
0.097688 0.097688 0.097688
0.097688 0.097688 0.097688
0.097688 0.097688 0.097688
0.097688 0.097688 0.097688
0.097688 0.097688 0.097688
0.097688 0.097688 0.097688
0.097688 0.097688 0.097688
0.097688 0.097688 0.097688
0.097688 0.097688 0.097688
0.097688 0.097688 0.097688
0.097688 0.097688 0.097688
0.097688 0.097688 0.097688
0.097688 0.097688 0.097688
0.097688 0.097688 0.097688
0.097688 0.097688 0.097688
0.097688 0.097688 0.097688
0.097688 0.097688 0.097688
0.097688 0.097688 0.097688
0.097688 0.097688 0.097688
0.097688 0.097688 0.097688
0.097688 0.097688 0.097688
0.097688 0.097688 0.097688
0.097688 0.097688 0.097688
0.097688 0.097688 0.097688
0.097688 0.097688 0.097688
0.097688 0.097688 0.097688
0.097688 0.097688 0.097688
0.097688 0.097688 0.097688
0.097688 0.097688 0.097688
0.107900 0.107900 0.107900
0.143201 0.143201 0.143201
0.159576 0.159576 0.159576
0.162333 0.162333 0.162333
0.159730 0.159730 0.159730
0.154887 0.154887 0.154887
0.149059 0.149059 0.149059
0.142823 0.142823 0.142823
0.097688 0.097688 0.097688
0.152538 0.152538 0.152538
0.124965 0.124965 0.124965
0.132453 0.132453 0.132453
0.144012 0.144012 0.144012
0.148800 0.148800 0.148800
0.148807 0.148807 0.148807
0.146076 0.146076 0.146076
0.141824 0.141824 0.141824
0.097688 0.097688 0.097688
0.164288 0.164288 0.164288
0.143329 0.143329 0.143329
0.129053 0.129053 0.129053
0.129828 0.129828 0.129828
0.135138 0.135138 0.135138
0.138259 0.138259 0.138259
0.138482 0.138482 0.138482
0.136598 0.136598 0.136598
0.097688 0.097688 0.097688
0.160726 0.160726 0.160726
0.150132 0.150132 0.150132
0.136749 0.136749 0.136749
0.128938 0.128938 0.128938
0.127587 0.127587 0.127587
0.130072 0.130072 0.130072
0.131283 0.131283 0.131283
0.131013 0.131013 0.131013
0.097688 0.097688 0.097688
0.152359 0.152359 0.152359
0.148049 0.148049 0.148049
0.139287 0.139287 0.139287
0.131795 0.131795 0.131795
0.127269 0.127269 0.127269
0.125567 0.125567 0.125567
0.126441 0.126441 0.126441
0.126581 0.126581 0.126581
0.097688 0.097688 0.097688
0.142500 0.142500 0.142500
0.141705 0.141705 0.141705
0.136792 0.136792 0.136792
0.131656 0.131656 0.131656
0.127601 0.127601 0.127601
0.125117 0.125117 0.125117
0.123505 0.123505 0.123505
0.123585 0.123585 0.123585
0.097688 0.097688 0.097688
0.132788 0.132788 0.132788
0.133740 0.133740 0.133740
0.131864 0.131864 0.131864
0.128901 0.128901 0.128901
0.126305 0.126305 0.126305
0.124234 0.124234 0.124234
0.122672 0.122672 0.122672
0.121525 0.121525 0.121525
0.097688 0.097688 0.097688
0.125000 0.125000 0.125000
0.126519 0.126519 0.126519
0.126183 0.126183 0.126183
0.124999 0.124999 0.124999
0.123539 0.123539 0.123539
0.122150 0.122150 0.122150
0.120992 0.120992 0.120992
0.120079 0.120079 0.120079
0.097688 0.097688 0.097688
0.097688 0.097688 0.097688
0.097688 0.097688 0.097688
0.097688 0.097688 0.097688
0.097688 0.097688 0.097688
0.097688 0.097688 0.097688
0.097688 0.097688 0.097688
0.097688 0.097688 0.097688
0.097688 0.097688 0.097688
0.097688 0.097688 0.097688
0.387904 0.387904 0.387904
0.363342 0.363342 0.363342
0.355924 0.355924 0.355924
0.351150 0.351150 0.351150
0.344856 0.344856 0.344856
0.336928 0.336928 0.336928
0.327462 0.327462 0.327462
0.317135 0.317135 0.317135
0.097688 0.097688 0.097688
0.303871 0.303871 0.303871
0.241770 0.241770 0.241770
0.289898 0.289898 0.289898
0.313652 0.313652 0.313652
0.323996 0.323996 0.323996
0.325498 0.325498 0.325498
0.321880 0.321880 0.321880
0.315274 0.315274 0.315274
0.097688 0.097688 0.097688
0.332954 0.332954 0.332954
0.299243 0.299243 0.299243
0.273912 0.273912 0.273912
0.283699 0.283699 0.283699
0.298459 0.298459 0.298459
0.306263 0.306263 0.306263
0.308273 0.308273 0.308273
0.306218 0.306218 0.306218
0.097688 0.097688 0.097688
0.337021 0.337021 0.337021
0.319613 0.319613 0.319613
0.297124 0.297124 0.297124
0.282906 0.282906 0.282906
0.283492 0.283492 0.283492
0.290849 0.290849 0.290849
0.294920 0.294920 0.294920
0.295521 0.295521 0.295521
0.097688 0.097688 0.097688
0.328529 0.328529 0.328529
0.321343 0.321343 0.321343
0.306407 0.306407 0.306407
0.292939 0.292939 0.292939
0.284133 0.284133 0.284133
0.281726 0.281726 0.281726
0.284939 0.284939 0.284939
0.286196 0.286196 0.286196
0.097688 0.097688 0.097688
0.314489 0.314489 0.314489
0.313268 0.313268 0.313268
0.305120 0.305120 0.305120
0.295460 0.295460 0.295460
0.287277 0.287277 0.287277
0.281667 0.281667 0.281667
0.278629 0.278629 0.278629
0.279396 0.279396 0.279396
0.097688 0.097688 0.097688
0.299046 0.299046 0.299046
0.301084 0.301084 0.301084
0.297427 0.297427 0.297427
0.291566 0.291566 0.291566
0.285640 0.285640 0.285640
0.280791 0.280791 0.280791
0.277293 0.277293 0.277293
0.274864 0.274864 0.274864
0.097688 0.097688 0.097688
0.282943 0.282943 0.282943
0.286783 0.286783 0.286783
0.286053 0.286053 0.286053
0.283242 0.283242 0.283242
0.279774 0.279774 0.279774
0.276524 0.276524 0.276524
0.273887 0.273887 0.273887
0.271883 0.271883 0.271883
0.097688 0.097688 0.097688
0.097688 0.097688 0.097688
0.097688 0.097688 0.097688
0.097688 0.097688 0.097688
0.097688 0.097688 0.097688
0.097688 0.097688 0.097688
0.097688 0.097688 0.097688
0.097688 0.097688 0.097688
0.097688 0.097688 0.097688
0.097688 0.097688 0.097688
0.573392 0.573392 0.573392
0.586596 0.586596 0.586596
0.567337 0.567337 0.567337
0.532274 0.532274 0.532274
0.510439 0.510439 0.510439
0.493759 0.493759 0.493759
0.478943 0.478943 0.478943
0.464665 0.464665 0.464665
0.097688 0.097688 0.097688
0.484270 0.484270 0.484270
0.462603 0.462603 0.462603
0.463967 0.463967 0.463967
0.473813 0.473813 0.473813
0.478285 0.478285 0.478285
0.476699 0.476699 0.476699
0.470736 0.470736 0.470736
0.461849 0.461849 0.461849
0.097688 0.097688 0.097688
0.460134 0.460134 0.460134
0.422821 0.422821 0.422821
0.375048 0.375048 0.375048
0.413608 0.413608 0.413608
0.436025 0.436025 0.436025
0.447708 0.447708 0.447708
0.451126 0.451126 0.451126
0.448841 0.448841 0.448841
0.097688 0.097688 0.097688
0.470926 0.470926 0.470926
0.450998 0.450998 0.450998
0.421225 0.421225 0.421225
0.401418 0.401418 0.401418
0.410397 0.410397 0.410397
0.423703 0.423703 0.423703
0.431281 0.431281 0.431281
0.433415 0.433415 0.433415
0.097688 0.097688 0.097688
0.467434 0.467434 0.467434
0.459302 0.459302 0.459302
0.440167 0.440167 0.440167
0.422056 0.422056 0.422056
0.411080 0.411080 0.411080
0.411391 0.411391 0.411391
0.417567 0.417567 0.417567
0.420733 0.420733 0.420733
0.097688 0.097688 0.097688
0.454423 0.454423 0.454423
0.453396 0.453396 0.453396
0.442710 0.442710 0.442710
0.429801 0.429801 0.429801
0.419108 0.419108 0.419108
0.412338 0.412338 0.412338
0.410087 0.410087 0.410087
0.412141 0.412141 0.412141
0.097688 0.097688 0.097688
0.436442 0.436442 0.436442
0.439600 0.439600 0.439600
0.434914 0.434914 0.434914
0.427288 0.427288 0.427288
0.419568 0.419568 0.419568
0.413431 0.413431 0.413431
0.409305 0.409305 0.409305
0.406581 0.406581 0.406581
0.097688 0.097688 0.097688
0.416631 0.416631 0.416631
0.422070 0.422070 0.422070
0.421324 0.421324 0.421324
0.417760 0.417760 0.417760
0.413323 0.413323 0.413323
0.409209 0.409209 0.409209
0.405763 0.405763 0.405763
0.403329 0.403329 0.403329
0.097688 0.097688 0.097688
0.097688 0.097688 0.097688
0.097688 0.097688 0.097688
0.097688 0.097688 0.097688
0.097688 0.097688 0.097688
0.097688 0.097688 0.097688
0.097688 0.097688 0.097688
0.097688 0.097688 0.097688
0.097688 0.097688 0.097688
0.097688 0.097688 0.097688
0.742672 0.742672 0.742672
0.759204 0.759204 0.759204
0.769045 0.769045 0.769045
0.730621 0.730621 0.730621
0.684014 0.684014 0.684014
0.651754 0.651754 0.651754
0.626552 0.626552 0.626552
0.605021 0.605021 0.605021
0.097688 0.097688 0.097688
0.724214 0.724214 0.724214
0.703248 0.703248 0.703248
0.676078 0.676078 0.676078
0.656081 0.656081 0.656081
0.641381 0.641381 0.641381
0.628218 0.628218 0.628218
0.614933 0.614933 0.614933
0.600833 0.600833 0.600833
0.097688 0.097688 0.097688
0.601463 0.601463 0.601463
0.579339 0.579339 0.579339
0.559796 0.559796 0.559796
0.565940 0.565940 0.565940
0.579066 0.579066 0.579066
0.586663 0.586663 0.586663
0.587566 0.587566 0.587566
0.583094 0.583094 0.583094
0.097688 0.097688 0.097688
0.589437 0.589437 0.589437
0.570253 0.570253 0.570253
0.534831 0.534831 0.534831
0.499564 0.499564 0.499564
0.529178 0.529178 0.529178
0.548558 0.548558 0.548558
0.558855 0.558855 0.558855
0.561847 0.561847 0.561847
0.097688 0.097688 0.097688
0.588804 0.588804 0.588804
0.580899 0.580899 0.580899
0.558642 0.558642 0.558642
0.534889 0.534889 0.534889
0.520704 0.520704 0.520704
0.527606 0.527606 0.527606
0.538343 0.538343 0.538343
0.544085 0.544085 0.544085
0.097688 0.097688 0.097688
0.578297 0.578297 0.578297
0.578108 0.578108 0.578108
0.565836 0.565836 0.565836
0.549922 0.549922 0.549922
0.536321 0.536321 0.536321
0.528535 0.528535 0.528535
0.528748 0.528748 0.528748
0.532892 0.532892 0.532892
0.097688 0.097688 0.097688
0.560103 0.560103 0.560103
0.564714 0.564714 0.564714
0.559435 0.559435 0.559435
0.550113 0.550113 0.550113
0.540559 0.540559 0.540559
0.533178 0.533178 0.533178
0.528785 0.528785 0.528785
0.527132 0.527132 0.527132
0.097688 0.097688 0.097688
0.537308 0.537308 0.537308
0.544806 0.544806 0.544806
0.544299 0.544299 0.544299
0.540135 0.540135 0.540135
0.534836 0.534836 0.534836
0.530052 0.530052 0.530052
0.526587 0.526587 0.526587
0.524450 0.524450 0.524450
0.097688 0.097688 0.097688
0.097688 0.097688 0.097688
0.097688 0.097688 0.097688
0.097688 0.097688 0.097688
0.097688 0.097688 0.097688
0.097688 0.097688 0.097688
0.097688 0.097688 0.097688
0.097688 0.097688 0.097688
0.097688 0.097688 0.097688
0.097688 0.097688 0.097688
0.886101 0.886101 0.886101
0.897059 0.897059 0.897059
0.903531 0.903531 0.903531
0.904337 0.904337 0.904337
0.853777 0.853777 0.853777
0.808390 0.808390 0.808390
0.773733 0.773733 0.773733
0.742748 0.742748 0.742748
0.097688 0.097688 0.097688
0.896255 0.896255 0.896255
0.907338 0.907338 0.907338
0.882778 0.882778 0.882778
0.842617 0.842617 0.842617
0.809719 0.809719 0.809719
0.783559 0.783559 0.783559
0.759348 0.759348 0.759348
0.737296 0.737296 0.737296
0.097688 0.097688 0.097688
0.781941 0.781941 0.781941
0.774163 0.774163 0.774163
0.756523 0.756523 0.756523
0.744323 0.744323 0.744323
0.737778 0.737778 0.737778
0.732298 0.732298 0.732298
0.725025 0.725025 0.725025
0.715146 0.715146 0.715146
0.097688 0.097688 0.097688
0.713242 0.713242 0.713242
0.702142 0.702142 0.702142
0.677454 0.677454 0.677454
0.662689 0.662689 0.662689
0.669068 0.669068 0.669068
0.680547 0.680547 0.680547
0.687285 0.687285 0.687285
0.688030 0.688030 0.688030
0.097688 0.097688 0.097688
0.700873 0.700873 0.700873
0.695329 0.695329 0.695329
0.673289 0.673289 0.673289
0.646417 0.646417 0.646417
0.621499 0.621499 0.621499
0.643789 0.643789 0.643789
0.657813 0.657813 0.657813
0.664688 0.664688 0.664688
0.097688 0.097688 0.097688
0.691524 0.691524 0.691524
0.692941 0.692941 0.692941
0.680569 0.680569 0.680569
0.663129 0.663129 0.663129
0.647076 0.647076 0.647076
0.638195 0.638195 0.638195
0.643309 0.643309 0.643309
0.650032 0.650032 0.650032
0.097688 0.097688 0.097688
0.674791 0.674791 0.674791
0.681042 0.681042 0.681042
0.676018 0.676018 0.676018
0.666145 0.666145 0.666145
0.655690 0.655690 0.655690
0.647695 0.647695 0.647695
0.643641 0.643641 0.643641
0.643898 0.643898 0.643898
0.097688 0.097688 0.097688
0.651853 0.651853 0.651853
0.661155 0.661155 0.661155
0.661266 0.661266 0.661266
0.657148 0.657148 0.657148
0.651675 0.651675 0.651675
0.646815 0.646815 0.646815
0.643583 0.643583 0.643583
0.642068 0.642068 0.642068
0.097688 0.097688 0.097688
0.097688 0.097688 0.097688
0.097688 0.097688 0.097688
0.097688 0.097688 0.097688
0.097688 0.097688 0.097688
0.097688 0.097688 0.097688
0.097688 0.097688 0.097688
0.097688 0.097688 0.097688
0.097688 0.097688 0.097688
0.097688 0.097688 0.097688
0.959455 0.959455 0.959455
0.965123 0.965123 0.965123
0.968033 0.968033 0.968033
0.970102 0.970102 0.970102
0.955499 0.955499 0.955499
0.926114 0.926114 0.926114
0.896549 0.896549 0.896549
0.867029 0.867029 0.867029
0.097688 0.097688 0.097688
0.964761 0.964761 0.964761
0.969738 0.969738 0.969738
0.972448 0.972448 0.972448
0.956614 0.956614 0.956614
0.934607 0.934607 0.934607
0.908840 0.908840 0.908840
0.887400 0.887400 0.887400
0.861344 0.861344 0.861344
0.097688 0.097688 0.097688
0.928768 0.928768 0.928768
0.926668 0.926668 0.926668
0.914605 0.914605 0.914605
0.900287 0.900287 0.900287
0.887021 0.887021 0.887021
0.870925 0.870925 0.870925
0.854250 0.854250 0.854250
0.838106 0.838106 0.838106
0.097688 0.097688 0.097688
0.848281 0.848281 0.848281
0.847351 0.847351 0.847351
0.834528 0.834528 0.834528
0.822881 0.822881 0.822881
0.817409 0.817409 0.817409
0.815658 0.815658 0.815658
0.813558 0.813558 0.813558
0.808962 0.808962 0.808962
0.097688 0.097688 0.097688
0.809389 0.809389 0.809389
0.808739 0.808739 0.808739
0.793863 0.793863 0.793863
0.775737 0.775737 0.775737
0.765364 0.765364 0.765364
0.770714 0.770714 0.770714
0.779083 0.779083 0.779083
0.782690 0.782690 0.782690
0.097688 0.097688 0.097688
0.795297 0.795297 0.795297
0.798686 0.798686 0.798686
0.788901 0.788901 0.788901
0.772696 0.772696 0.772696
0.754515 0.754515 0.754515
0.739633 0.739633 0.739633
0.754303 0.754303 0.754303
0.762824 0.762824 0.762824
0.097688 0.097688 0.097688
0.780741 0.780741 0.780741
0.788015 0.788015 0.788015
0.784338 0.784338 0.784338
0.775201 0.775201 0.775201
0.764068 0.764068 0.764068
0.755152 0.755152 0.755152
0.751371 0.751371 0.751371
0.754532 0.754532 0.754532
0.097688 0.097688 0.097688
0.758235 0.758235 0.758235
0.769623 0.769623 0.769623
0.770689 0.770689 0.770689
0.766965 0.766965 0.766965
0.761616 0.761616 0.761616
0.756906 0.756906 0.756906
0.754220 0.754220 0.754220
0.753765 0.753765 0.753765
0.097688 0.097688 0.097688
0.097688 0.097688 0.097688
0.097688 0.097688 0.097688
0.097688 0.097688 0.097688
0.097688 0.097688 0.097688
0.097688 0.097688 0.097688
0.097688 0.097688 0.097688
0.097688 0.097688 0.097688
0.097688 0.097688 0.097688
0.097688 0.097688 0.097688
0.983515 0.983515 0.983515
0.985167 0.985167 0.985167
0.986134 0.986134 0.986134
0.986822 0.986822 0.986822
0.984710 0.984710 0.984710
0.977454 0.977454 0.977454
0.962912 0.962912 0.962912
0.943674 0.943674 0.943674
0.097688 0.097688 0.097688
0.985046 0.985046 0.985046
0.986701 0.986701 0.986701
0.987670 0.987670 0.987670
0.985779 0.985779 0.985779
0.981035 0.981035 0.981035
0.970432 0.970432 0.970432
0.957544 0.957544 0.957544
0.940977 0.940977 0.940977
0.097688 0.097688 0.097688
0.981702 0.981702 0.981702
0.981536 0.981536 0.981536
0.979574 0.979574 0.979574
0.971831 0.971831 0.971831
0.963665 0.963665 0.963665
0.952271 0.952271 0.952271
0.940324 0.940324 0.940324
0.927039 0.927039 0.927039
0.097688 0.097688 0.097688
0.945168 0.945168 0.945168
0.947088 0.947088 0.947088
0.942684 0.942684 0.942684
0.936318 0.936318 0.936318
0.928134 0.928134 0.928134
0.920477 0.920477 0.920477
0.913295 0.913295 0.913295
0.905843 0.905843 0.905843
0.097688 0.097688 0.097688
0.904870 0.904870 0.904870
0.907903 0.907903 0.907903
0.902503 0.902503 0.902503
0.895046 0.895046 0.895046
0.889729 0.889729 0.889729
0.887689 0.887689 0.887689
0.887096 0.887096 0.887096
0.885797 0.885797 0.885797
0.097688 0.097688 0.097688
0.886002 0.886002 0.886002
0.890056 0.890056 0.890056
0.885618 0.885618 0.885618
0.874506 0.874506 0.874506
0.862366 0.862366 0.862366
0.856935 0.856935 0.856935
0.860209 0.860209 0.860209
0.864171 0.864171 0.864171
0.097688 0.097688 0.097688
0.869674 0.869674 0.869674
0.878974 0.878974 0.878974
0.876649 0.876649 0.876649
0.868844 0.868844 0.868844
0.859371 0.859371 0.859371
0.851015 0.851015 0.851015
0.845621 0.845621 0.845621
0.852563 0.852563 0.852563
0.097688 0.097688 0.097688
0.849690 0.849690 0.849690
0.861469 0.861469 0.861469
0.863496 0.863496 0.863496
0.860970 0.860970 0.860970
0.856777 0.856777 0.856777
0.853038 0.853038 0.853038
0.851236 0.851236 0.851236
0.851949 0.851949 0.851949
0.097688 0.097688 0.097688
0.097688 0.097688 0.097688
0.097688 0.097688 0.097688
0.097688 0.097688 0.097688
0.097688 0.097688 0.097688
0.097688 0.097688 0.097688
0.097688 0.097688 0.097688
0.097688 0.097688 0.097688
0.097688 0.097688 0.097688
0.097688 0.097688 0.097688
0.990364 0.990364 0.990364
0.991041 0.991041 0.991041
0.991436 0.991436 0.991436
0.991717 0.991717 0.991717
0.991381 0.991381 0.991381
0.988924 0.988924 0.988924
0.984067 0.984067 0.984067
0.979545 0.979545 0.979545
0.097688 0.097688 0.097688
0.990991 0.990991 0.990991
0.991668 0.991668 0.991668
0.992064 0.992064 0.992064
0.992029 0.992029 0.992029
0.990062 0.990062 0.990062
0.987051 0.987051 0.987051
0.982894 0.982894 0.982894
0.978046 0.978046 0.978046
0.097688 0.097688 0.097688
0.990706 0.990706 0.990706
0.990674 0.990674 0.990674
0.989924 0.989924 0.989924
0.988625 0.988625 0.988625
0.985553 0.985553 0.985553
0.982488 0.982488 0.982488
0.979207 0.979207 0.979207
0.971057 0.971057 0.971057
0.097688 0.097688 0.097688
0.982074 0.982074 0.982074
0.982621 0.982621 0.982621
0.981844 0.981844 0.981844
0.980435 0.980435 0.980435
0.976707 0.976707 0.976707
0.971565 0.971565 0.971565
0.966560 0.966560 0.966560
0.961672 0.961672 0.961672
0.097688 0.097688 0.097688
0.963223 0.963223 0.963223
0.965531 0.965531 0.965531
0.964362 0.964362 0.964362
0.961830 0.961830 0.961830
0.957685 0.957685 0.957685
0.953655 0.953655 0.953655
0.950055 0.950055 0.950055
0.946340 0.946340 0.946340
0.097688 0.097688 0.097688
0.942865 0.942865 0.942865
0.947165 0.947165 0.947165
0.945774 0.945774 0.945774
0.942044 0.942044 0.942044
0.938220 0.938220 0.938220
0.935772 0.935772 0.935772
0.934552 0.934552 0.934552
0.933654 0.933654 0.933654
0.097688 0.097688 0.097688
0.929543 0.929543 0.929543
0.936272 0.936272 0.936272
0.936112 0.936112 0.936112
0.932797 0.932797 0.932797
0.927967 0.927967 0.927967
0.923987 0.923987 0.923987
0.922660 0.922660 0.922660
0.923725 0.923725 0.923725
0.097688 0.097688 0.097688
0.915895 0.915895 0.915895
0.924424 0.924424 0.924424
0.926506 0.926506 0.926506
0.925581 0.925581 0.925581
0.923472 0.923472 0.923472
0.921520 0.921520 0.921520
0.920714 0.920714 0.920714
0.921710 0.921710 0.921710
