trix_modern/TriX_Red25_ExtraSoft.cube
TITLE "Tri-X Red25 ExtraSoft"
# Adobe RGB in/out. REPLACES AgX. R=0.9735 G=0.0265 B=0.0000
LUT_3D_SIZE 9
DOMAIN_MIN 0.0 0.0 0.0
DOMAIN_MAX 1.0 1.0 1.0
0.121260 0.121260 0.121260
0.121260 0.121260 0.121260
0.121260 0.121260 0.121260
0.121260 0.121260 0.121260
0.121260 0.121260 0.121260
0.121260 0.121260 0.121260
0.121260 0.121260 0.121260
0.121260 0.121260 0.121260
0.121260 0.121260 0.121260
0.121260 0.121260 0.121260
0.165431 0.165431 0.165431
0.341833 0.341833 0.341833
0.534134 0.534134 0.534134
0.715713 0.715713 0.715713
0.840766 0.840766 0.840766
0.914438 0.914438 0.914438
0.960504 0.960504 0.960504
0.983134 0.983134 0.983134
0.121260 0.121260 0.121260
0.202996 0.202996 0.202996
0.317287 0.317287 0.317287
0.464548 0.464548 0.464548
0.655763 0.655763 0.655763
0.807565 0.807565 0.807565
0.898206 0.898206 0.898206
0.955260 0.955260 0.955260
0.981028 0.981028 0.981028
0.121260 0.121260 0.121260
0.206683 0.206683 0.206683
0.340692 0.340692 0.340692
0.447820 0.447820 0.447820
0.595703 0.595703 0.595703
0.759833 0.759833 0.759833
0.870807 0.870807 0.870807
0.938707 0.938707 0.938707
0.973680 0.973680 0.973680
0.121260 0.121260 0.121260
0.200609 0.200609 0.200609
0.345505 0.345505 0.345505
0.464460 0.464460 0.464460
0.586956 0.586956 0.586956
0.721140 0.721140 0.721140
0.842242 0.842242 0.842242
0.918838 0.918838 0.918838
0.964629 0.964629 0.964629
0.121260 0.121260 0.121260
0.192068 0.192068 0.192068
0.339872 0.339872 0.339872
0.466993 0.466993 0.466993
0.594618 0.594618 0.594618
0.716557 0.716557 0.716557
0.818914 0.818914 0.818914
0.899910 0.899910 0.899910
0.955548 0.955548 0.955548
0.121260 0.121260 0.121260
0.182677 0.182677 0.182677
0.328863 0.328863 0.328863
0.457629 0.457629 0.457629
0.590980 0.590980 0.590980
0.715763 0.715763 0.715763
0.815085 0.815085 0.815085
0.886485 0.886485 0.886485
0.944596 0.944596 0.944596
0.121260 0.121260 0.121260
0.173600 0.173600 0.173600
0.315074 0.315074 0.315074
0.440755 0.440755 0.440755
0.577336 0.577336 0.577336
0.706692 0.706692 0.706692
0.809151 0.809151 0.809151
0.882144 0.882144 0.882144
0.936887 0.936887 0.936887
0.121260 0.121260 0.121260
0.165546 0.165546 0.165546
0.300542 0.300542 0.300542
0.420137 0.420137 0.420137
0.557337 0.557337 0.557337
0.689976 0.689976 0.689976
0.797436 0.797436 0.797436
0.874291 0.874291 0.874291
0.931009 0.931009 0.931009
0.121260 0.121260 0.121260
0.121260 0.121260 0.121260
0.121260 0.121260 0.121260
0.121260 0.121260 0.121260
0.121260 0.121260 0.121260
0.121260 0.121260 0.121260
0.121260 0.121260 0.121260
0.121260 0.121260 0.121260
0.121260 0.121260 0.121260
0.121260 0.121260 0.121260
0.146378 0.146378 0.146378
0.332263 0.332263 0.332263
0.519903 0.519903 0.519903
0.702753 0.702753 0.702753
0.832513 0.832513 0.832513
0.909937 0.909937 0.909937
0.959019 0.959019 0.959019
0.982086 0.982086 0.982086
0.121260 0.121260 0.121260
0.191429 0.191429 0.191429
0.298332 0.298332 0.298332
0.444268 0.444268 0.444268
0.639000 0.639000 0.639000
0.799202 0.799202 0.799202
0.893726 0.893726 0.893726
0.952820 0.952820 0.952820
0.980007 0.980007 0.980007
0.121260 0.121260 0.121260
0.200896 0.200896 0.200896
0.330961 0.330961 0.330961
0.432142 0.432142 0.432142
0.582059 0.582059 0.582059
0.750277 0.750277 0.750277
0.866628 0.866628 0.866628
0.936410 0.936410 0.936410
0.972728 0.972728 0.972728
0.121260 0.121260 0.121260
0.197718 0.197718 0.197718
0.340678 0.340678 0.340678
0.456011 0.456011 0.456011
0.577529 0.577529 0.577529
0.714096 0.714096 0.714096
0.837658 0.837658 0.837658
0.916294 0.916294 0.916294
0.963802 0.963802 0.963802
0.121260 0.121260 0.121260
0.190531 0.190531 0.190531
0.337292 0.337292 0.337292
0.462478 0.462478 0.462478
0.589111 0.589111 0.589111
0.711611 0.711611 0.711611
0.815744 0.815744 0.815744
0.898006 0.898006 0.898006
0.954474 0.954474 0.954474
0.121260 0.121260 0.121260
0.181807 0.181807 0.181807
0.327329 0.327329 0.327329
0.455165 0.455165 0.455165
0.587950 0.587950 0.587950
0.712912 0.712912 0.712912
0.812930 0.812930 0.812930
0.885267 0.885267 0.885267
0.943884 0.943884 0.943884
0.121260 0.121260 0.121260
0.173200 0.173200 0.173200
0.314287 0.314287 0.314287
0.439423 0.439423 0.439423
0.575810 0.575810 0.575810
0.705165 0.705165 0.705165
0.807978 0.807978 0.807978
0.881403 0.881403 0.881403
0.936461 0.936461 0.936461
0.121260 0.121260 0.121260
0.165337 0.165337 0.165337
0.300134 0.300134 0.300134
0.419486 0.419486 0.419486
0.556583 0.556583 0.556583
0.689250 0.689250 0.689250
0.796905 0.796905 0.796905
0.873986 0.873986 0.873986
0.930869 0.930869 0.930869
0.121260 0.121260 0.121260
0.121260 0.121260 0.121260
0.121260 0.121260 0.121260
0.121260 0.121260 0.121260
0.121260 0.121260 0.121260
0.121260 0.121260 0.121260
0.121260 0.121260 0.121260
0.121260 0.121260 0.121260
0.121260 0.121260 0.121260
0.121260 0.121260 0.121260
0.217053 0.217053 0.217053
0.368393 0.368393 0.368393
0.529663 0.529663 0.529663
0.697646 0.697646 0.697646
0.824373 0.824373 0.824373
0.903436 0.903436 0.903436
0.955632 0.955632 0.955632
0.979883 0.979883 0.979883
0.121260 0.121260 0.121260
0.174924 0.174924 0.174924
0.262816 0.262816 0.262816
0.426368 0.426368 0.426368
0.621434 0.621434 0.621434
0.787775 0.787775 0.787775
0.886214 0.886214 0.886214
0.948046 0.948046 0.948046
0.977759 0.977759 0.977759
0.121260 0.121260 0.121260
0.188847 0.188847 0.188847
0.311324 0.311324 0.311324
0.403403 0.403403 0.403403
0.557788 0.557788 0.557788
0.732045 0.732045 0.732045
0.858125 0.858125 0.858125
0.931104 0.931104 0.931104
0.970475 0.970475 0.970475
0.121260 0.121260 0.121260
0.190596 0.190596 0.190596
0.329164 0.329164 0.329164
0.436200 0.436200 0.436200
0.555417 0.555417 0.555417
0.697444 0.697444 0.697444
0.826639 0.826639 0.826639
0.910005 0.910005 0.910005
0.961678 0.961678 0.961678
0.121260 0.121260 0.121260
0.186309 0.186309 0.186309
0.330383 0.330383 0.330383
0.450684 0.450684 0.450684
0.574927 0.574927 0.574927
0.698209 0.698209 0.698209
0.807276 0.807276 0.807276
0.892833 0.892833 0.892833
0.951504 0.951504 0.951504
0.121260 0.121260 0.121260
0.179265 0.179265 0.179265
0.322921 0.322921 0.322921
0.448175 0.448175 0.448175
0.579469 0.579469 0.579469
0.704728 0.704728 0.704728
0.806651 0.806651 0.806651
0.881753 0.881753 0.881753
0.941798 0.941798 0.941798
0.121260 0.121260 0.121260
0.171971 0.171971 0.171971
0.311892 0.311892 0.311892
0.435413 0.435413 0.435413
0.571238 0.571238 0.571238
0.700575 0.700575 0.700575
0.804419 0.804419 0.804419
0.879135 0.879135 0.879135
0.935112 0.935112 0.935112
0.121260 0.121260 0.121260
0.164669 0.164669 0.164669
0.298838 0.298838 0.298838
0.417432 0.417432 0.417432
0.554220 0.554220 0.554220
0.686974 0.686974 0.686974
0.795238 0.795238 0.795238
0.873022 0.873022 0.873022
0.930423 0.930423 0.930423
0.121260 0.121260 0.121260
0.121260 0.121260 0.121260
0.121260 0.121260 0.121260
0.121260 0.121260 0.121260
0.121260 0.121260 0.121260
0.121260 0.121260 0.121260
0.121260 0.121260 0.121260
0.121260 0.121260 0.121260
0.121260 0.121260 0.121260
0.121260 0.121260 0.121260
0.220424 0.220424 0.220424
0.402355 0.402355 0.402355
0.581198 0.581198 0.581198
0.721923 0.721923 0.721923
0.831069 0.831069 0.831069
0.903302 0.903302 0.903302
0.953715 0.953715 0.953715
0.978371 0.978371 0.978371
0.121260 0.121260 0.121260
0.187660 0.187660 0.187660
0.324662 0.324662 0.324662
0.465712 0.465712 0.465712
0.638004 0.638004 0.638004
0.789843 0.789843 0.789843
0.884257 0.884257 0.884257
0.945434 0.945434 0.945434
0.976060 0.976060 0.976060
0.121260 0.121260 0.121260
0.178392 0.178392 0.178392
0.298570 0.298570 0.298570
0.377097 0.377097 0.377097
0.547336 0.547336 0.547336
0.723613 0.723613 0.723613
0.852018 0.852018 0.852018
0.927193 0.927193 0.927193
0.968507 0.968507 0.968507
0.121260 0.121260 0.121260
0.182164 0.182164 0.182164
0.316333 0.316333 0.316333
0.415702 0.415702 0.415702
0.529891 0.529891 0.529891
0.680930 0.680930 0.680930
0.816264 0.816264 0.816264
0.903949 0.903949 0.903949
0.959503 0.959503 0.959503
0.121260 0.121260 0.121260
0.180694 0.180694 0.180694
0.321260 0.321260 0.321260
0.436516 0.436516 0.436516
0.558207 0.558207 0.558207
0.681381 0.681381 0.681381
0.797287 0.797287 0.797287
0.886785 0.886785 0.886785
0.948002 0.948002 0.948002
0.121260 0.121260 0.121260
0.175880 0.175880 0.175880
0.317311 0.317311 0.317311
0.438968 0.438968 0.438968
0.568934 0.568934 0.568934
0.693905 0.693905 0.693905
0.798204 0.798204 0.798204
0.877198 0.877198 0.877198
0.939074 0.939074 0.939074
0.121260 0.121260 0.121260
0.170171 0.170171 0.170171
0.308434 0.308434 0.308434
0.429898 0.429898 0.429898
0.564868 0.564868 0.564868
0.694187 0.694187 0.694187
0.799415 0.799415 0.799415
0.875914 0.875914 0.875914
0.933234 0.933234 0.933234
0.121260 0.121260 0.121260
0.163646 0.163646 0.163646
0.296873 0.296873 0.296873
0.414359 0.414359 0.414359
0.550725 0.550725 0.550725
0.683631 0.683631 0.683631
0.792787 0.792787 0.792787
0.871599 0.871599 0.871599
0.929765 0.929765 0.929765
0.121260 0.121260 0.121260
0.121260 0.121260 0.121260
0.121260 0.121260 0.121260
0.121260 0.121260 0.121260
0.121260 0.121260 0.121260
0.121260 0.121260 0.121260
0.121260 0.121260 0.121260
0.121260 0.121260 0.121260
0.121260 0.121260 0.121260
0.121260 0.121260 0.121260
0.220424 0.220424 0.220424
0.402355 0.402355 0.402355
0.612915 0.612915 0.612915
0.762800 0.762800 0.762800
0.850973 0.850973 0.850973
0.910695 0.910695 0.910695
0.955708 0.955708 0.955708
0.978311 0.978311 0.978311
0.121260 0.121260 0.121260
0.214471 0.214471 0.214471
0.374380 0.374380 0.374380
0.528097 0.528097 0.528097
0.683724 0.683724 0.683724
0.807670 0.807670 0.807670
0.890314 0.890314 0.890314
0.946737 0.946737 0.946737
0.975762 0.975762 0.975762
0.121260 0.121260 0.121260
0.179006 0.179006 0.179006
0.312669 0.312669 0.312669
0.425827 0.425827 0.425827
0.577381 0.577381 0.577381
0.736819 0.736819 0.736819
0.855669 0.855669 0.855669
0.927063 0.927063 0.927063
0.967774 0.967774 0.967774
0.121260 0.121260 0.121260
0.175526 0.175526 0.175526
0.307843 0.307843 0.307843
0.406201 0.406201 0.406201
0.504596 0.504596 0.504596
0.674186 0.674186 0.674186
0.812601 0.812601 0.812601
0.901155 0.901155 0.901155
0.958211 0.958211 0.958211
0.121260 0.121260 0.121260
0.175229 0.175229 0.175229
0.312773 0.312773 0.312773
0.423755 0.423755 0.423755
0.542177 0.542177 0.542177
0.661154 0.661154 0.661154
0.788476 0.788476 0.788476
0.881892 0.881892 0.881892
0.945163 0.945163 0.945163
0.121260 0.121260 0.121260
0.172568 0.172568 0.172568
0.311173 0.311173 0.311173
0.429435 0.429435 0.429435
0.558015 0.558015 0.558015
0.682425 0.682425 0.682425
0.789029 0.789029 0.789029
0.872608 0.872608 0.872608
0.936377 0.936377 0.936377
0.121260 0.121260 0.121260
0.168050 0.168050 0.168050
0.304420 0.304420 0.304420
0.423703 0.423703 0.423703
0.557804 0.557804 0.557804
0.687142 0.687142 0.687142
0.793833 0.793833 0.793833
0.872300 0.872300 0.872300
0.931445 0.931445 0.931445
0.121260 0.121260 0.121260
0.162393 0.162393 0.162393
0.294488 0.294488 0.294488
0.411356 0.411356 0.411356
0.546623 0.546623 0.546623
0.679756 0.679756 0.679756
0.789958 0.789958 0.789958
0.869960 0.869960 0.869960
0.929021 0.929021 0.929021
0.121260 0.121260 0.121260
0.121260 0.121260 0.121260
0.121260 0.121260 0.121260
0.121260 0.121260 0.121260
0.121260 0.121260 0.121260
0.121260 0.121260 0.121260
0.121260 0.121260 0.121260
0.121260 0.121260 0.121260
0.121260 0.121260 0.121260
0.121260 0.121260 0.121260
0.220424 0.220424 0.220424
0.402355 0.402355 0.402355
0.612915 0.612915 0.612915
0.799688 0.799688 0.799688
0.871057 0.871057 0.871057
0.922978 0.922978 0.922978
0.959527 0.959527 0.959527
0.979684 0.979684 0.979684
0.121260 0.121260 0.121260
0.224170 0.224170 0.224170
0.408732 0.408732 0.408732
0.581712 0.581712 0.581712
0.728528 0.728528 0.728528
0.833733 0.833733 0.833733
0.902408 0.902408 0.902408
0.951665 0.951665 0.951665
0.976962 0.976962 0.976962
0.121260 0.121260 0.121260
0.190547 0.190547 0.190547
0.340300 0.340300 0.340300
0.478685 0.478685 0.478685
0.628125 0.628125 0.628125
0.767268 0.767268 0.767268
0.866258 0.866258 0.866258
0.931191 0.931191 0.931191
0.968570 0.968570 0.968570
0.121260 0.121260 0.121260
0.174051 0.174051 0.174051
0.309671 0.309671 0.309671
0.419647 0.419647 0.419647
0.549193 0.549193 0.549193
0.695681 0.695681 0.695681
0.820695 0.820695 0.820695
0.903534 0.903534 0.903534
0.958326 0.958326 0.958326
0.121260 0.121260 0.121260
0.171377 0.171377 0.171377
0.306576 0.306576 0.306576
0.416224 0.416224 0.416224
0.533765 0.533765 0.533765
0.641082 0.641082 0.641082
0.785490 0.785490 0.785490
0.880383 0.880383 0.880383
0.943961 0.943961 0.943961
0.121260 0.121260 0.121260
0.169350 0.169350 0.169350
0.305361 0.305361 0.305361
0.420995 0.420995 0.420995
0.548513 0.548513 0.548513
0.670620 0.670620 0.670620
0.778539 0.778539 0.778539
0.868721 0.868721 0.868721
0.934190 0.934190 0.934190
0.121260 0.121260 0.121260
0.165821 0.165821 0.165821
0.300260 0.300260 0.300260
0.417446 0.417446 0.417446
0.550851 0.550851 0.550851
0.680258 0.680258 0.680258
0.788245 0.788245 0.788245
0.868631 0.868631 0.868631
0.929761 0.929761 0.929761
0.121260 0.121260 0.121260
0.161015 0.161015 0.161015
0.291887 0.291887 0.291887
0.408249 0.408249 0.408249
0.542301 0.542301 0.542301
0.675202 0.675202 0.675202
0.787053 0.787053 0.787053
0.868290 0.868290 0.868290
0.928297 0.928297 0.928297
0.121260 0.121260 0.121260
0.121260 0.121260 0.121260
0.121260 0.121260 0.121260
0.121260 0.121260 0.121260
0.121260 0.121260 0.121260
0.121260 0.121260 0.121260
0.121260 0.121260 0.121260
0.121260 0.121260 0.121260
0.121260 0.121260 0.121260
0.121260 0.121260 0.121260
0.220424 0.220424 0.220424
0.402355 0.402355 0.402355
0.612915 0.612915 0.612915
0.804406 0.804406 0.804406
0.888601 0.888601 0.888601
0.934317 0.934317 0.934317
0.963671 0.963671 0.963671
0.982025 0.982025 0.982025
0.121260 0.121260 0.121260
0.224170 0.224170 0.224170
0.408732 0.408732 0.408732
0.624876 0.624876 0.624876
0.767219 0.767219 0.767219
0.859018 0.859018 0.859018
0.916725 0.916725 0.916725
0.958171 0.958171 0.958171
0.979254 0.979254 0.979254
0.121260 0.121260 0.121260
0.203601 0.203601 0.203601
0.364898 0.364898 0.364898
0.520811 0.520811 0.520811
0.675918 0.675918 0.675918
0.798204 0.798204 0.798204
0.880600 0.880600 0.880600
0.938201 0.938201 0.938201
0.970637 0.970637 0.970637
0.121260 0.121260 0.121260
0.177863 0.177863 0.177863
0.321184 0.321184 0.321184
0.448617 0.448617 0.448617
0.589285 0.589285 0.589285
0.728007 0.728007 0.728007
0.837722 0.837722 0.837722
0.910694 0.910694 0.910694
0.959865 0.959865 0.959865
0.121260 0.121260 0.121260
0.169687 0.169687 0.169687
0.305191 0.305191 0.305191
0.419112 0.419112 0.419112
0.546169 0.546169 0.546169
0.676223 0.676223 0.676223
0.796751 0.796751 0.796751
0.884315 0.884315 0.884315
0.945054 0.945054 0.945054
0.121260 0.121260 0.121260
0.166734 0.166734 0.166734
0.300887 0.300887 0.300887
0.415284 0.415284 0.415284
0.543317 0.543317 0.543317
0.664333 0.664333 0.664333
0.767470 0.767470 0.767470
0.867432 0.867432 0.867432
0.933488 0.933488 0.933488
0.121260 0.121260 0.121260
0.163707 0.163707 0.163707
0.296378 0.296378 0.296378
0.412233 0.412233 0.412233
0.544859 0.544859 0.544859
0.673703 0.673703 0.673703
0.782873 0.782873 0.782873
0.865128 0.865128 0.865128
0.928387 0.928387 0.928387
0.121260 0.121260 0.121260
0.159613 0.159613 0.159613
0.289261 0.289261 0.289261
0.405156 0.405156 0.405156
0.538103 0.538103 0.538103
0.670697 0.670697 0.670697
0.784217 0.784217 0.784217
0.866739 0.866739 0.866739
0.927685 0.927685 0.927685
0.121260 0.121260 0.121260
0.121260 0.121260 0.121260
0.121260 0.121260 0.121260
0.121260 0.121260 0.121260
0.121260 0.121260 0.121260
0.121260 0.121260 0.121260
0.121260 0.121260 0.121260
0.121260 0.121260 0.121260
0.121260 0.121260 0.121260
0.121260 0.121260 0.121260
0.220424 0.220424 0.220424
0.402355 0.402355 0.402355
0.612915 0.612915 0.612915
0.804406 0.804406 0.804406
0.902329 0.902329 0.902329
0.943715 0.943715 0.943715
0.967830 0.967830 0.967830
0.984566 0.984566 0.984566
0.121260 0.121260 0.121260
0.224170 0.224170 0.224170
0.408732 0.408732 0.408732
0.625567 0.625567 0.625567
0.793867 0.793867 0.793867
0.875391 0.875391 0.875391
0.929142 0.929142 0.929142
0.962600 0.962600 0.962600
0.982000 0.982000 0.982000
0.121260 0.121260 0.121260
0.214303 0.214303 0.214303
0.383412 0.383412 0.383412
0.552779 0.552779 0.552779
0.709460 0.709460 0.709460
0.822603 0.822603 0.822603
0.895010 0.895010 0.895010
0.945843 0.945843 0.945843
0.973360 0.973360 0.973360
0.121260 0.121260 0.121260
0.184982 0.184982 0.184982
0.335728 0.335728 0.335728
0.476867 0.476867 0.476867
0.625163 0.625163 0.625163
0.758329 0.758329 0.758329
0.856619 0.856619 0.856619
0.920141 0.920141 0.920141
0.962317 0.962317 0.962317
0.121260 0.121260 0.121260
0.170690 0.170690 0.170690
0.309213 0.309213 0.309213
0.431088 0.431088 0.431088
0.568030 0.568030 0.568030
0.702798 0.702798 0.702798
0.813806 0.813806 0.813806
0.892141 0.892141 0.892141
0.948108 0.948108 0.948108
0.121260 0.121260 0.121260
0.165252 0.165252 0.165252
0.298823 0.298823 0.298823
0.414248 0.414248 0.414248
0.545810 0.545810 0.545810
0.673739 0.673739 0.673739
0.786059 0.786059 0.786059
0.872171 0.872171 0.872171
0.934983 0.934983 0.934983
0.121260 0.121260 0.121260
0.161946 0.161946 0.161946
0.293241 0.293241 0.293241
0.408888 0.408888 0.408888
0.540931 0.540931 0.540931
0.670057 0.670057 0.670057
0.779739 0.779739 0.779739
0.861957 0.861957 0.861957
0.927881 0.927881 0.927881
0.121260 0.121260 0.121260
0.158290 0.158290 0.158290
0.286807 0.286807 0.286807
0.402319 0.402319 0.402319
0.534380 0.534380 0.534380
0.666875 0.666875 0.666875
0.781384 0.781384 0.781384
0.865468 0.865468 0.865468
0.927263 0.927263 0.927263
0.121260 0.121260 0.121260
0.121260 0.121260 0.121260
0.121260 0.121260 0.121260
0.121260 0.121260 0.121260
0.121260 0.121260 0.121260
0.121260 0.121260 0.121260
0.121260 0.121260 0.121260
0.121260 0.121260 0.121260
0.121260 0.121260 0.121260
0.121260 0.121260 0.121260
0.220424 0.220424 0.220424
0.402355 0.402355 0.402355
0.612915 0.612915 0.612915
0.804406 0.804406 0.804406
0.911377 0.911377 0.911377
0.950718 0.950718 0.950718
0.971302 0.971302 0.971302
0.985195 0.985195 0.985195
0.121260 0.121260 0.121260
0.224170 0.224170 0.224170
0.408732 0.408732 0.408732
0.625567 0.625567 0.625567
0.808866 0.808866 0.808866
0.887318 0.887318 0.887318
0.937816 0.937816 0.937816
0.966462 0.966462 0.966462
0.984540 0.984540 0.984540
0.121260 0.121260 0.121260
0.221776 0.221776 0.221776
0.396295 0.396295 0.396295
0.575719 0.575719 0.575719
0.734242 0.734242 0.734242
0.841978 0.841978 0.841978
0.907321 0.907321 0.907321
0.952915 0.952915 0.952915
0.976089 0.976089 0.976089
0.121260 0.121260 0.121260
0.191788 0.191788 0.191788
0.348183 0.348183 0.348183
0.499832 0.499832 0.499832
0.654236 0.654236 0.654236
0.783637 0.783637 0.783637
0.869394 0.869394 0.869394
0.928599 0.928599 0.928599
0.964985 0.964985 0.964985
0.121260 0.121260 0.121260
0.173462 0.173462 0.173462
0.316097 0.316097 0.316097
0.446099 0.446099 0.446099
0.589361 0.589361 0.589361
0.724901 0.724901 0.724901
0.829606 0.829606 0.829606
0.900648 0.900648 0.900648
0.951947 0.951947 0.951947
0.121260 0.121260 0.121260
0.165164 0.165164 0.165164
0.299572 0.299572 0.299572
0.418036 0.418036 0.418036
0.554470 0.554470 0.554470
0.688012 0.688012 0.688012
0.798791 0.798791 0.798791
0.879082 0.879082 0.879082
0.937786 0.937786 0.937786
0.121260 0.121260 0.121260
0.160759 0.160759 0.160759
0.291288 0.291288 0.291288
0.407221 0.407221 0.407221
0.540089 0.540089 0.540089
0.671507 0.671507 0.671507
0.783852 0.783852 0.783852
0.866996 0.866996 0.866996
0.929078 0.929078 0.929078
0.121260 0.121260 0.121260
0.157148 0.157148 0.157148
0.284689 0.284689 0.284689
0.399970 0.399970 0.399970
0.531488 0.531488 0.531488
0.664212 0.664212 0.664212
0.779695 0.779695 0.779695
0.864795 0.864795 0.864795
0.927107 0.927107 0.927107
