trix_modern/TriX_NoFilter_Soft.cube
TITLE "Tri-X NoFilter Soft"
# Adobe RGB in/out. REPLACES AgX. R=0.2974 G=0.2859 B=0.4167
LUT_3D_SIZE 5
DOMAIN_MIN 0.0 0.0 0.0
DOMAIN_MAX 1.0 1.0 1.0
0.093873 0.093873 0.093873
0.093873 0.093873 0.093873
0.093873 0.093873 0.093873
0.093873 0.093873 0.093873
0.093873 0.093873 0.093873
0.093873 0.093873 0.093873
0.093873 0.093873 0.093873
0.093873 0.093873 0.093873
0.093873 0.093873 0.093873
0.093873 0.093873 0.093873
0.093873 0.093873 0.093873
0.093873 0.093873 0.093873
0.093873 0.093873 0.093873
0.093873 0.093873 0.093873
0.093873 0.093873 0.093873
0.093873 0.093873 0.093873
0.093873 0.093873 0.093873
0.093873 0.093873 0.093873
0.093873 0.093873 0.093873
0.093873 0.093873 0.093873
0.093873 0.093873 0.093873
0.093873 0.093873 0.093873
0.093873 0.093873 0.093873
0.093873 0.093873 0.093873
0.093873 0.093873 0.093873
0.093873 0.093873 0.093873
0.093873 0.093873 0.093873
0.093873 0.093873 0.093873
0.093873 0.093873 0.093873
0.093873 0.093873 0.093873
0.093873 0.093873 0.093873
0.233250 0.233250 0.233250
0.378667 0.378667 0.378667
0.438063 0.438063 0.438063
0.458829 0.458829 0.458829
0.093873 0.093873 0.093873
0.383140 0.383140 0.383140
0.410978 0.410978 0.410978
0.469269 0.469269 0.469269
0.513640 0.513640 0.513640
0.093873 0.093873 0.093873
0.419034 0.419034 0.419034
0.474728 0.474728 0.474728
0.503931 0.503931 0.503931
0.538492 0.538492 0.538492
0.093873 0.093873 0.093873
0.413842 0.413842 0.413842
0.490042 0.490042 0.490042
0.531883 0.531883 0.531883
0.563530 0.563530 0.563530
0.093873 0.093873 0.093873
0.093873 0.093873 0.093873
0.093873 0.093873 0.093873
0.093873 0.093873 0.093873
0.093873 0.093873 0.093873
0.093873 0.093873 0.093873
0.495973 0.495973 0.495973
0.552121 0.552121 0.552121
0.586507 0.586507 0.586507
0.604068 0.604068 0.604068
0.093873 0.093873 0.093873
0.476512 0.476512 0.476512
0.499564 0.499564 0.499564
0.608550 0.608550 0.608550
0.670254 0.670254 0.670254
0.093873 0.093873 0.093873
0.534721 0.534721 0.534721
0.607883 0.607883 0.607883
0.648370 0.648370 0.648370
0.702156 0.702156 0.702156
0.093873 0.093873 0.093873
0.541323 0.541323 0.541323
0.641269 0.641269 0.641269
0.696820 0.696820 0.696820
0.739564 0.739564 0.739564
0.093873 0.093873 0.093873
0.093873 0.093873 0.093873
0.093873 0.093873 0.093873
0.093873 0.093873 0.093873
0.093873 0.093873 0.093873
0.093873 0.093873 0.093873
0.646238 0.646238 0.646238
0.729946 0.729946 0.729946
0.724979 0.724979 0.724979
0.719364 0.719364 0.719364
0.093873 0.093873 0.093873
0.589059 0.589059 0.589059
0.678914 0.678914 0.678914
0.742035 0.742035 0.742035
0.786018 0.786018 0.786018
0.093873 0.093873 0.093873
0.607530 0.607530 0.607530
0.697382 0.697382 0.697382
0.737280 0.737280 0.737280
0.808062 0.808062 0.808062
0.093873 0.093873 0.093873
0.625706 0.625706 0.625706
0.740385 0.740385 0.740385
0.801254 0.801254 0.801254
0.847240 0.847240 0.847240
0.093873 0.093873 0.093873
0.093873 0.093873 0.093873
0.093873 0.093873 0.093873
0.093873 0.093873 0.093873
0.093873 0.093873 0.093873
0.093873 0.093873 0.093873
0.723330 0.723330 0.723330
0.850344 0.850344 0.850344
0.833641 0.833641 0.833641
0.811422 0.811422 0.811422
0.093873 0.093873 0.093873
0.719604 0.719604 0.719604
0.818366 0.818366 0.818366
0.857400 0.857400 0.857400
0.877425 0.877425 0.877425
0.093873 0.093873 0.093873
0.678450 0.678450 0.678450
0.789380 0.789380 0.789380
0.846269 0.846269 0.846269
0.890436 0.890436 0.890436
0.093873 0.093873 0.093873
0.689682 0.689682 0.689682
0.810732 0.810732 0.810732
0.875616 0.875616 0.875616
0.912373 0.912373 0.912373
