trix_modern/TriX_Yellow8_Normal.cube
TITLE "Tri-X Yellow8 Normal"
# Adobe RGB in/out. REPLACES AgX. R=0.5015 G=0.4679 B=0.0307
LUT_3D_SIZE 9
DOMAIN_MIN 0.0 0.0 0.0
DOMAIN_MAX 1.0 1.0 1.0
0.093230 0.093230 0.093230
0.093230 0.093230 0.093230
0.093230 0.093230 0.093230
0.093230 0.093230 0.093230
0.093230 0.093230 0.093230
0.093230 0.093230 0.093230
0.093230 0.093230 0.093230
0.093230 0.093230 0.093230
0.093230 0.093230 0.093230
0.093230 0.093230 0.093230
0.093230 0.093230 0.093230
0.093230 0.093230 0.093230
0.093230 0.093230 0.093230
0.093230 0.093230 0.093230
0.093230 0.093230 0.093230
0.093230 0.093230 0.093230
0.093230 0.093230 0.093230
0.093230 0.093230 0.093230
0.093230 0.093230 0.093230
0.093230 0.093230 0.093230
0.093230 0.093230 0.093230
0.093230 0.093230 0.093230
0.093230 0.093230 0.093230
0.093230 0.093230 0.093230
0.093230 0.093230 0.093230
0.093230 0.093230 0.093230
0.093230 0.093230 0.093230
0.093230 0.093230 0.093230
0.093230 0.093230 0.093230
0.093230 0.093230 0.093230
0.093230 0.093230 0.093230
0.093230 0.093230 0.093230
0.093230 0.093230 0.093230
0.093230 0.093230 0.093230
0.093230 0.093230 0.093230
0.093230 0.093230 0.093230
0.093230 0.093230 0.093230
0.093230 0.093230 0.093230
0.093230 0.093230 0.093230
0.093230 0.093230 0.093230
0.093230 0.093230 0.093230
0.093230 0.093230 0.093230
0.093230 0.093230 0.093230
0.093230 0.093230 0.093230
0.093230 0.093230 0.093230
0.093230 0.093230 0.093230
0.093230 0.093230 0.093230
0.093230 0.093230 0.093230
0.093230 0.093230 0.093230
0.093230 0.093230 0.093230
0.093230 0.093230 0.093230
0.093230 0.093230 0.093230
0.093230 0.093230 0.093230
0.093230 0.093230 0.093230
0.093230 0.093230 0.093230
0.093230 0.093230 0.093230
0.093230 0.093230 0.093230
0.093230 0.093230 0.093230
0.093230 0.093230 0.093230
0.093230 0.093230 0.093230
0.093230 0.093230 0.093230
0.093230 0.093230 0.093230
0.093230 0.093230 0.093230
0.093230 0.093230 0.093230
0.093230 0.093230 0.093230
0.093230 0.093230 0.093230
0.093230 0.093230 0.093230
0.093230 0.093230 0.093230
0.093230 0.093230 0.093230
0.093230 0.093230 0.093230
0.093230 0.093230 0.093230
0.093230 0.093230 0.093230
0.093230 0.093230 0.093230
0.093230 0.093230 0.093230
0.093230 0.093230 0.093230
0.093230 0.093230 0.093230
0.093230 0.093230 0.093230
0.093230 0.093230 0.093230
0.093230 0.093230 0.093230
0.093230 0.093230 0.093230
0.093230 0.093230 0.093230
0.093230 0.093230 0.093230
0.093230 0.093230 0.093230
0.093230 0.093230 0.093230
0.093230 0.093230 0.093230
0.093230 0.093230 0.093230
0.093230 0.093230 0.093230
0.093230 0.093230 0.093230
0.093230 0.093230 0.093230
0.093230 0.093230 0.093230
0.093230 0.093230 0.093230
0.097009 0.097009 0.097009
0.182730 0.182730 0.182730
0.279543 0.279543 0.279543
0.333680 0.333680 0.333680
0.374781 0.374781 0.374781
0.405704 0.405704 0.405704
0.428544 0.428544 0.428544
0.444581 0.444581 0.444581
0.093230 0.093230 0.093230
0.190629 0.190629 0.190629
0.247765 0.247765 0.247765
0.340020 0.340020 0.340020
0.436489 0.436489 0.436489
0.508172 0.508172 0.508172
0.560254 0.560254 0.560254
0.598717 0.598717 0.598717
0.627058 0.627058 0.627058
0.093230 0.093230 0.093230
0.275357 0.275357 0.275357
0.361431 0.361431 0.361431
0.413283 0.413283 0.413283
0.488465 0.488465 0.488465
0.573661 0.573661 0.573661
0.644180 0.644180 0.644180
0.695808 0.695808 0.695808
0.732709 0.732709 0.732709
0.093230 0.093230 0.093230
0.313958 0.313958 0.313958
0.441164 0.441164 0.441164
0.509107 0.509107 0.509107
0.560785 0.560785 0.560785
0.624110 0.624110 0.624110
0.697149 0.697149 0.697149
0.754566 0.754566 0.754566
0.793308 0.793308 0.793308
0.093230 0.093230 0.093230
0.336760 0.336760 0.336760
0.489112 0.489112 0.489112
0.577814 0.577814 0.577814
0.640201 0.640201 0.640201
0.691415 0.691415 0.691415
0.741498 0.741498 0.741498
0.793933 0.793933 0.793933
0.829117 0.829117 0.829117
0.093230 0.093230 0.093230
0.349785 0.349785 0.349785
0.517317 0.517317 0.517317
0.622992 0.622992 0.622992
0.695756 0.695756 0.695756
0.749954 0.749954 0.749954
0.791900 0.791900 0.791900
0.823957 0.823957 0.823957
0.860187 0.860187 0.860187
0.093230 0.093230 0.093230
0.355522 0.355522 0.355522
0.531150 0.531150 0.531150
0.649568 0.649568 0.649568
0.730030 0.730030 0.730030
0.787660 0.787660 0.787660
0.824794 0.824794 0.824794
0.858378 0.858378 0.858378
0.886859 0.886859 0.886859
0.093230 0.093230 0.093230
0.355715 0.355715 0.355715
0.535435 0.535435 0.535435
0.661951 0.661951 0.661951
0.749357 0.749357 0.749357
0.806461 0.806461 0.806461
0.847705 0.847705 0.847705
0.882948 0.882948 0.882948
0.907217 0.907217 0.907217
0.093230 0.093230 0.093230
0.093230 0.093230 0.093230
0.093230 0.093230 0.093230
0.093230 0.093230 0.093230
0.093230 0.093230 0.093230
0.093230 0.093230 0.093230
0.093230 0.093230 0.093230
0.093230 0.093230 0.093230
0.093230 0.093230 0.093230
0.093230 0.093230 0.093230
0.150165 0.150165 0.150165
0.229461 0.229461 0.229461
0.292881 0.292881 0.292881
0.339150 0.339150 0.339150
0.378559 0.378559 0.378559
0.409943 0.409943 0.409943
0.433722 0.433722 0.433722
0.451134 0.451134 0.451134
0.093230 0.093230 0.093230
0.167395 0.167395 0.167395
0.204394 0.204394 0.204394
0.333594 0.333594 0.333594
0.434526 0.434526 0.434526
0.509209 0.509209 0.509209
0.564020 0.564020 0.564020
0.605098 0.605098 0.605098
0.635773 0.635773 0.635773
0.093230 0.093230 0.093230
0.257390 0.257390 0.257390
0.341079 0.341079 0.341079
0.388756 0.388756 0.388756
0.477409 0.477409 0.477409
0.570393 0.570393 0.570393
0.646614 0.646614 0.646614
0.701680 0.701680 0.701680
0.741483 0.741483 0.741483
0.093230 0.093230 0.093230
0.306945 0.306945 0.306945
0.432244 0.432244 0.432244
0.498279 0.498279 0.498279
0.550670 0.550670 0.550670
0.621376 0.621376 0.621376
0.699418 0.699418 0.699418
0.761043 0.761043 0.761043
0.800102 0.800102 0.800102
0.093230 0.093230 0.093230
0.335545 0.335545 0.335545
0.487923 0.487923 0.487923
0.576718 0.576718 0.576718
0.639285 0.639285 0.639285
0.692103 0.692103 0.692103
0.746710 0.746710 0.746710
0.799767 0.799767 0.799767
0.836982 0.836982 0.836982
0.093230 0.093230 0.093230
0.352625 0.352625 0.352625
0.521420 0.521420 0.521420
0.628331 0.628331 0.628331
0.701285 0.701285 0.701285
0.756608 0.756608 0.756608
0.797712 0.797712 0.797712
0.831864 0.831864 0.831864
0.869616 0.869616 0.869616
0.093230 0.093230 0.093230
0.361090 0.361090 0.361090
0.538825 0.538825 0.538825
0.659309 0.659309 0.659309
0.739913 0.739913 0.739913
0.795368 0.795368 0.795368
0.833414 0.833414 0.833414
0.868118 0.868118 0.868118
0.894864 0.894864 0.894864
0.093230 0.093230 0.093230
0.363059 0.363059 0.363059
0.545484 0.545484 0.545484
0.673796 0.673796 0.673796
0.762059 0.762059 0.762059
0.816259 0.816259 0.816259
0.858402 0.858402 0.858402
0.891462 0.891462 0.891462
0.916391 0.916391 0.916391
0.093230 0.093230 0.093230
0.093230 0.093230 0.093230
0.093230 0.093230 0.093230
0.093230 0.093230 0.093230
0.093230 0.093230 0.093230
0.093230 0.093230 0.093230
0.093230 0.093230 0.093230
0.093230 0.093230 0.093230
0.093230 0.093230 0.093230
0.093230 0.093230 0.093230
0.156970 0.156970 0.156970
0.274560 0.274560 0.274560
0.330864 0.330864 0.330864
0.360711 0.360711 0.360711
0.389936 0.389936 0.389936
0.416300 0.416300 0.416300
0.437676 0.437676 0.437676
0.454521 0.454521 0.454521
0.093230 0.093230 0.093230
0.194569 0.194569 0.194569
0.295209 0.295209 0.295209
0.374092 0.374092 0.374092
0.453487 0.453487 0.453487
0.518851 0.518851 0.518851
0.569432 0.569432 0.569432
0.609155 0.609155 0.609155
0.639788 0.639788 0.639788
0.093230 0.093230 0.093230
0.238366 0.238366 0.238366
0.327090 0.327090 0.327090
0.357462 0.357462 0.357462
0.474234 0.474234 0.474234
0.570457 0.570457 0.570457
0.647864 0.647864 0.647864
0.703758 0.703758 0.703758
0.744707 0.744707 0.744707
0.093230 0.093230 0.093230
0.293928 0.293928 0.293928
0.416227 0.416227 0.416227
0.479950 0.479950 0.479950
0.530721 0.530721 0.530721
0.612218 0.612218 0.612218
0.696187 0.696187 0.696187
0.761250 0.761250 0.761250
0.801995 0.801995 0.801995
0.093230 0.093230 0.093230
0.327599 0.327599 0.327599
0.477961 0.477961 0.477961
0.566394 0.566394 0.566394
0.627952 0.627952 0.627952
0.682922 0.682922 0.682922
0.743438 0.743438 0.743438
0.799807 0.799807 0.799807
0.839086 0.839086 0.839086
0.093230 0.093230 0.093230
0.348828 0.348828 0.348828
0.517121 0.517121 0.517121
0.624074 0.624074 0.624074
0.697772 0.697772 0.697772
0.753596 0.753596 0.753596
0.796712 0.796712 0.796712
0.833573 0.833573 0.833573
0.872917 0.872917 0.872917
0.093230 0.093230 0.093230
0.360716 0.360716 0.360716
0.538754 0.538754 0.538754
0.659913 0.659913 0.659913
0.741169 0.741169 0.741169
0.796821 0.796821 0.796821
0.835671 0.835671 0.835671
0.871530 0.871530 0.871530
0.898408 0.898408 0.898408
0.093230 0.093230 0.093230
0.365172 0.365172 0.365172
0.548592 0.548592 0.548592
0.677553 0.677553 0.677553
0.766608 0.766608 0.766608
0.820293 0.820293 0.820293
0.863237 0.863237 0.863237
0.895679 0.895679 0.895679
0.921360 0.921360 0.921360
0.093230 0.093230 0.093230
0.093230 0.093230 0.093230
0.093230 0.093230 0.093230
0.093230 0.093230 0.093230
0.093230 0.093230 0.093230
0.093230 0.093230 0.093230
0.093230 0.093230 0.093230
0.093230 0.093230 0.093230
0.093230 0.093230 0.093230
0.093230 0.093230 0.093230
0.159084 0.159084 0.159084
0.277394 0.277394 0.277394
0.354929 0.354929 0.354929
0.392935 0.392935 0.392935
0.410653 0.410653 0.410653
0.428596 0.428596 0.428596
0.444867 0.444867 0.444867
0.459159 0.459159 0.459159
0.093230 0.093230 0.093230
0.249664 0.249664 0.249664
0.363301 0.363301 0.363301
0.437290 0.437290 0.437290
0.493981 0.493981 0.493981
0.542387 0.542387 0.542387
0.583320 0.583320 0.583320
0.617568 0.617568 0.617568
0.645341 0.645341 0.645341
0.093230 0.093230 0.093230
0.243161 0.243161 0.243161
0.352532 0.352532 0.352532
0.428384 0.428384 0.428384
0.509054 0.509054 0.509054
0.588932 0.588932 0.588932
0.658703 0.658703 0.658703
0.709687 0.709687 0.709687
0.748994 0.748994 0.748994
0.093230 0.093230 0.093230
0.282928 0.282928 0.282928
0.404904 0.404904 0.404904
0.470357 0.470357 0.470357
0.508013 0.508013 0.508013
0.611749 0.611749 0.611749
0.698058 0.698058 0.698058
0.763517 0.763517 0.763517
0.803903 0.803903 0.803903
0.093230 0.093230 0.093230
0.317788 0.317788 0.317788
0.466057 0.466057 0.466057
0.554763 0.554763 0.554763
0.614547 0.614547 0.614547
0.670293 0.670293 0.670293
0.738871 0.738871 0.738871
0.799133 0.799133 0.799133
0.840062 0.840062 0.840062
0.093230 0.093230 0.093230
0.342221 0.342221 0.342221
0.509138 0.509138 0.509138
0.616322 0.616322 0.616322
0.691136 0.691136 0.691136
0.746980 0.746980 0.746980
0.792999 0.792999 0.792999
0.833166 0.833166 0.833166
0.874131 0.874131 0.874131
0.093230 0.093230 0.093230
0.357547 0.357547 0.357547
0.535145 0.535145 0.535145
0.656534 0.656534 0.656534
0.738833 0.738833 0.738833
0.795714 0.795714 0.795714
0.835283 0.835283 0.835283
0.872303 0.872303 0.872303
0.900435 0.900435 0.900435
0.093230 0.093230 0.093230
0.364776 0.364776 0.364776
0.548431 0.548431 0.548431
0.677983 0.677983 0.677983
0.767807 0.767807 0.767807
0.821841 0.821841 0.821841
0.865575 0.865575 0.865575
0.898093 0.898093 0.898093
0.924593 0.924593 0.924593
0.093230 0.093230 0.093230
0.093230 0.093230 0.093230
0.093230 0.093230 0.093230
0.093230 0.093230 0.093230
0.093230 0.093230 0.093230
0.093230 0.093230 0.093230
0.093230 0.093230 0.093230
0.093230 0.093230 0.093230
0.093230 0.093230 0.093230
0.093230 0.093230 0.093230
0.160742 0.160742 0.160742
0.279612 0.279612 0.279612
0.358014 0.358014 0.358014
0.425288 0.425288 0.425288
0.434726 0.434726 0.434726
0.444718 0.444718 0.444718
0.455446 0.455446 0.455446
0.465944 0.465944 0.465944
0.093230 0.093230 0.093230
0.272124 0.272124 0.272124
0.417222 0.417222 0.417222
0.491738 0.491738 0.491738
0.538518 0.538518 0.538518
0.573998 0.573998 0.573998
0.604465 0.604465 0.604465
0.631141 0.631141 0.631141
0.653973 0.653973 0.653973
0.093230 0.093230 0.093230
0.272711 0.272711 0.272711
0.400374 0.400374 0.400374
0.488697 0.488697 0.488697
0.559651 0.559651 0.559651
0.623420 0.623420 0.623420
0.679031 0.679031 0.679031
0.721537 0.721537 0.721537
0.756489 0.756489 0.756489
0.093230 0.093230 0.093230
0.281683 0.281683 0.281683
0.411883 0.411883 0.411883
0.493980 0.493980 0.493980
0.561607 0.561607 0.561607
0.639549 0.639549 0.639549
0.712159 0.712159 0.712159
0.771837 0.771837 0.771837
0.807918 0.807918 0.807918
0.093230 0.093230 0.093230
0.309787 0.309787 0.309787
0.457486 0.457486 0.457486
0.548724 0.548724 0.548724
0.608927 0.608927 0.608927
0.654911 0.654911 0.654911
0.740109 0.740109 0.740109
0.801163 0.801163 0.801163
0.842253 0.842253 0.842253
0.093230 0.093230 0.093230
0.335243 0.335243 0.335243
0.500547 0.500547 0.500547
0.608396 0.608396 0.608396
0.684648 0.684648 0.684648
0.739828 0.739828 0.739828
0.788139 0.788139 0.788139
0.832442 0.832442 0.832442
0.875086 0.875086 0.875086
0.093230 0.093230 0.093230
0.353066 0.353066 0.353066
0.529921 0.529921 0.529921
0.651460 0.651460 0.651460
0.735098 0.735098 0.735098
0.793615 0.793615 0.793615
0.833727 0.833727 0.833727
0.871815 0.871815 0.871815
0.901688 0.901688 0.901688
0.093230 0.093230 0.093230
0.362984 0.362984 0.362984
0.546478 0.546478 0.546478
0.676637 0.676637 0.676637
0.767278 0.767278 0.767278
0.822142 0.822142 0.822142
0.866664 0.866664 0.866664
0.899593 0.899593 0.899593
0.926946 0.926946 0.926946
0.093230 0.093230 0.093230
0.093230 0.093230 0.093230
0.093230 0.093230 0.093230
0.093230 0.093230 0.093230
0.093230 0.093230 0.093230
0.093230 0.093230 0.093230
0.093230 0.093230 0.093230
0.093230 0.093230 0.093230
0.093230 0.093230 0.093230
0.093230 0.093230 0.093230
0.162111 0.162111 0.162111
0.281438 0.281438 0.281438
0.360555 0.360555 0.360555
0.432171 0.432171 0.432171
0.456797 0.456797 0.456797
0.461954 0.461954 0.461954
0.467818 0.467818 0.467818
0.474309 0.474309 0.474309
0.093230 0.093230 0.093230
0.273900 0.273900 0.273900
0.420184 0.420184 0.420184
0.533454 0.533454 0.533454
0.577043 0.577043 0.577043
0.605882 0.605882 0.605882
0.628396 0.628396 0.628396
0.647877 0.647877 0.647877
0.665099 0.665099 0.665099
0.093230 0.093230 0.093230
0.299141 0.299141 0.299141
0.444189 0.444189 0.444189
0.538954 0.538954 0.538954
0.606973 0.606973 0.606973
0.661869 0.661869 0.661869
0.703184 0.703184 0.703184
0.737802 0.737802 0.737802
0.766649 0.766649 0.766649
0.093230 0.093230 0.093230
0.292523 0.292523 0.292523
0.436068 0.436068 0.436068
0.533344 0.533344 0.533344
0.609505 0.609505 0.609505
0.678377 0.678377 0.678377
0.736030 0.736030 0.736030
0.784234 0.784234 0.784234
0.814516 0.814516 0.814516
0.093230 0.093230 0.093230
0.307222 0.307222 0.307222
0.457755 0.457755 0.457755
0.556216 0.556216 0.556216
0.628256 0.628256 0.628256
0.692253 0.692253 0.692253
0.758500 0.758500 0.758500
0.808670 0.808670 0.808670
0.847048 0.847048 0.847048
0.093230 0.093230 0.093230
0.329627 0.329627 0.329627
0.494061 0.494061 0.494061
0.603604 0.603604 0.603604
0.682288 0.682288 0.682288
0.737731 0.737731 0.737731
0.782937 0.782937 0.782937
0.834082 0.834082 0.834082
0.877417 0.877417 0.877417
0.093230 0.093230 0.093230
0.348375 0.348375 0.348375
0.524501 0.524501 0.524501
0.646363 0.646363 0.646363
0.731585 0.731585 0.731585
0.791726 0.791726 0.791726
0.832029 0.832029 0.832029
0.870772 0.870772 0.870772
0.902711 0.902711 0.902711
0.093230 0.093230 0.093230
0.360502 0.360502 0.360502
0.543646 0.543646 0.543646
0.674445 0.674445 0.674445
0.765968 0.765968 0.765968
0.821902 0.821902 0.821902
0.867191 0.867191 0.867191
0.900643 0.900643 0.900643
0.928847 0.928847 0.928847
0.093230 0.093230 0.093230
0.093230 0.093230 0.093230
0.093230 0.093230 0.093230
0.093230 0.093230 0.093230
0.093230 0.093230 0.093230
0.093230 0.093230 0.093230
0.093230 0.093230 0.093230
0.093230 0.093230 0.093230
0.093230 0.093230 0.093230
0.093230 0.093230 0.093230
0.163277 0.163277 0.163277
0.282990 0.282990 0.282990
0.362718 0.362718 0.362718
0.434595 0.434595 0.434595
0.474766 0.474766 0.474766
0.477593 0.477593 0.477593
0.480029 0.480029 0.480029
0.483077 0.483077 0.483077
0.093230 0.093230 0.093230
0.275411 0.275411 0.275411
0.422704 0.422704 0.422704
0.536928 0.536928 0.536928
0.606968 0.606968 0.606968
0.633342 0.633342 0.633342
0.651031 0.651031 0.651031
0.664998 0.664998 0.664998
0.675957 0.675957 0.675957
0.093230 0.093230 0.093230
0.321806 0.321806 0.321806
0.478295 0.478295 0.478295
0.578002 0.578002 0.578002
0.646520 0.646520 0.646520
0.693141 0.693141 0.693141
0.727329 0.727329 0.727329
0.755446 0.755446 0.755446
0.778025 0.778025 0.778025
0.093230 0.093230 0.093230
0.309266 0.309266 0.309266
0.464239 0.464239 0.464239
0.570230 0.570230 0.570230
0.650875 0.650875 0.650875
0.711477 0.711477 0.711477
0.761935 0.761935 0.761935
0.796881 0.796881 0.796881
0.822781 0.822781 0.822781
0.093230 0.093230 0.093230
0.311756 0.311756 0.311756
0.468420 0.468420 0.468420
0.575890 0.575890 0.575890
0.659089 0.659089 0.659089
0.723780 0.723780 0.723780
0.781530 0.781530 0.781530
0.820178 0.820178 0.820178
0.854219 0.854219 0.854219
0.093230 0.093230 0.093230
0.327044 0.327044 0.327044
0.492299 0.492299 0.492299
0.605271 0.605271 0.605271
0.688437 0.688437 0.688437
0.750473 0.750473 0.750473
0.799531 0.799531 0.799531
0.842436 0.842436 0.842436
0.881605 0.881605 0.881605
0.093230 0.093230 0.093230
0.344475 0.344475 0.344475
0.520204 0.520204 0.520204
0.642858 0.642858 0.642858
0.730011 0.730011 0.730011
0.791644 0.791644 0.791644
0.832277 0.832277 0.832277
0.869617 0.869617 0.869617
0.904290 0.904290 0.904290
0.093230 0.093230 0.093230
0.357886 0.357886 0.357886
0.540654 0.540654 0.540654
0.672133 0.672133 0.672133
0.764610 0.764610 0.764610
0.821672 0.821672 0.821672
0.867698 0.867698 0.867698
0.901567 0.901567 0.901567
0.930566 0.930566 0.930566
0.093230 0.093230 0.093230
0.093230 0.093230 0.093230
0.093230 0.093230 0.093230
0.093230 0.093230 0.093230
0.093230 0.093230 0.093230
0.093230 0.093230 0.093230
0.093230 0.093230 0.093230
0.093230 0.093230 0.093230
0.093230 0.093230 0.093230
0.093230 0.093230 0.093230
0.164293 0.164293 0.164293
0.284391 0.284391 0.284391
0.364602 0.364602 0.364602
0.436706 0.436706 0.436706
0.487426 0.487426 0.487426
0.489976 0.489976 0.489976
0.490521 0.490521 0.490521
0.491054 0.491054 0.491054
0.093230 0.093230 0.093230
0.276727 0.276727 0.276727
0.424818 0.424818 0.424818
0.539429 0.539429 0.539429
0.627616 0.627616 0.627616
0.654311 0.654311 0.654311
0.669607 0.669607 0.669607
0.678629 0.678629 0.678629
0.685716 0.685716 0.685716
0.093230 0.093230 0.093230
0.338301 0.338301 0.338301
0.503085 0.503085 0.503085
0.606865 0.606865 0.606865
0.675876 0.675876 0.675876
0.717949 0.717949 0.717949
0.748379 0.748379 0.748379
0.771185 0.771185 0.771185
0.786271 0.786271 0.786271
0.093230 0.093230 0.093230
0.325746 0.325746 0.325746
0.489848 0.489848 0.489848
0.601354 0.601354 0.601354
0.682726 0.682726 0.682726
0.739517 0.739517 0.739517
0.782742 0.782742 0.782742
0.809173 0.809173 0.809173
0.831261 0.831261 0.831261
0.093230 0.093230 0.093230
0.321059 0.321059 0.321059
0.484705 0.484705 0.484705
0.599019 0.599019 0.599019
0.685836 0.685836 0.685836
0.750721 0.750721 0.750721
0.797755 0.797755 0.797755
0.832191 0.832191 0.832191
0.862213 0.862213 0.862213
0.093230 0.093230 0.093230
0.328398 0.328398 0.328398
0.496342 0.496342 0.496342
0.613893 0.613893 0.613893
0.701548 0.701548 0.701548
0.768850 0.768850 0.768850
0.813750 0.813750 0.813750
0.853086 0.853086 0.853086
0.886433 0.886433 0.886433
0.093230 0.093230 0.093230
0.342229 0.342229 0.342229
0.518185 0.518185 0.518185
0.642363 0.642363 0.642363
0.731889 0.731889 0.731889
0.794906 0.794906 0.794906
0.837805 0.837805 0.837805
0.878362 0.878362 0.878362
0.907444 0.907444 0.907444
0.093230 0.093230 0.093230
0.355600 0.355600 0.355600
0.538106 0.538106 0.538106
0.670317 0.670317 0.670317
0.763835 0.763835 0.763835
0.821949 0.821949 0.821949
0.868750 0.868750 0.868750
0.902773 0.902773 0.902773
0.932292 0.932292 0.932292
