trix_modern/TriX_Green58_ExtraPunchy.cube
TITLE "Tri-X Green58 ExtraPunchy"
# Adobe RGB in/out. REPLACES AgX. Tri-X Green58 ExtraPunchy.
LUT_3D_SIZE 33
DOMAIN_MIN 0.0 0.0 0.0
DOMAIN_MAX 1.0 1.0 1.0
0.092237 0.092237 0.092237
0.092237 0.092237 0.092237
0.092237 0.092237 0.092237
0.092237 0.092237 0.092237
0.092237 0.092237 0.092237
0.092237 0.092237 0.092237
0.092237 0.092237 0.092237
0.092237 0.092237 0.092237
0.092306 0.092306 0.092306
0.092636 0.092636 0.092636
0.093662 0.093662 0.093662
0.094542 0.094542 0.094542
0.096212 0.096212 0.096212
0.098925 0.098925 0.098925
0.104239 0.104239 0.104239
0.108836 0.108836 0.108836
0.114060 0.114060 0.114060
0.122382 0.122382 0.122382
0.133823 0.133823 0.133823
0.138560 0.138560 0.138560
0.144432 0.144432 0.144432
0.151722 0.151722 0.151722
0.157177 0.157177 0.157177
0.155976 0.155976 0.155976
0.155531 0.155531 0.155531
0.152908 0.152908 0.152908
0.136470 0.136470 0.136470
0.127384 0.127384 0.127384
0.101991 0.101991 0.101991
0.101339 0.101339 0.101339
0.100704 0.100704 0.100704
0.100076 0.100076 0.100076
0.224110 0.224110 0.224110
0.092237 0.092237 0.092237
0.092237 0.092237 0.092237
0.092237 0.092237 0.092237
0.092237 0.092237 0.092237
0.092237 0.092237 0.092237
0.092237 0.092237 0.092237
0.092237 0.092237 0.092237
0.092237 0.092237 0.092237
0.092342 0.092342 0.092342
0.092666 0.092666 0.092666
0.093751 0.093751 0.093751
0.094736 0.094736 0.094736
0.096381 0.096381 0.096381
0.099231 0.099231 0.099231
0.104706 0.104706 0.104706
0.109306 0.109306 0.109306
0.114617 0.114617 0.114617
0.123125 0.123125 0.123125
0.134582 0.134582 0.134582
0.139336 0.139336 0.139336
0.145316 0.145316 0.145316
0.152610 0.152610 0.152610
0.158068 0.158068 0.158068
0.156847 0.156847 0.156847
0.156380 0.156380 0.156380
0.153728 0.153728 0.153728
0.137074 0.137074 0.137074
0.127910 0.127910 0.127910
0.101957 0.101957 0.101957
0.101307 0.101307 0.101307
0.100675 0.100675 0.100675
0.100049 0.100049 0.100049
0.223916 0.223916 0.223916
0.092237 0.092237 0.092237
0.092237 0.092237 0.092237
0.092237 0.092237 0.092237
0.092237 0.092237 0.092237
0.092237 0.092237 0.092237
0.092237 0.092237 0.092237
0.092237 0.092237 0.092237
0.092318 0.092318 0.092318
0.092498 0.092498 0.092498
0.092786 0.092786 0.092786
0.094103 0.094103 0.094103
0.095493 0.095493 0.095493
0.097034 0.097034 0.097034
0.100402 0.100402 0.100402
0.106476 0.106476 0.106476
0.111415 0.111415 0.111415
0.116915 0.116915 0.116915
0.125908 0.125908 0.125908
0.137411 0.137411 0.137411
0.142662 0.142662 0.142662
0.148601 0.148601 0.148601
0.155901 0.155901 0.155901
0.161367 0.161367 0.161367
0.160068 0.160068 0.160068
0.159516 0.159516 0.159516
0.156760 0.156760 0.156760
0.139346 0.139346 0.139346
0.129862 0.129862 0.129862
0.101834 0.101834 0.101834
0.101195 0.101195 0.101195
0.100573 0.100573 0.100573
0.099956 0.099956 0.099956
0.223220 0.223220 0.223220
0.092237 0.092237 0.092237
0.092237 0.092237 0.092237
0.092237 0.092237 0.092237
0.092237 0.092237 0.092237
0.092237 0.092237 0.092237
0.092237 0.092237 0.092237
0.092237 0.092237 0.092237
0.092594 0.092594 0.092594
0.092748 0.092748 0.092748
0.093392 0.093392 0.093392
0.095377 0.095377 0.095377
0.097160 0.097160 0.097160
0.099214 0.099214 0.099214
0.102856 0.102856 0.102856
0.110442 0.110442 0.110442
0.115932 0.115932 0.115932
0.122658 0.122658 0.122658
0.131528 0.131528 0.131528
0.143890 0.143890 0.143890
0.149299 0.149299 0.149299
0.155112 0.155112 0.155112
0.162388 0.162388 0.162388
0.167845 0.167845 0.167845
0.166384 0.166384 0.166384
0.165656 0.165656 0.165656
0.162700 0.162700 0.162700
0.144665 0.144665 0.144665
0.133718 0.133718 0.133718
0.101612 0.101612 0.101612
0.100991 0.100991 0.100991
0.100386 0.100386 0.100386
0.099787 0.099787 0.099787
0.221953 0.221953 0.221953
0.094104 0.094104 0.094104
0.093846 0.093846 0.093846
0.093116 0.093116 0.093116
0.092626 0.092626 0.092626
0.092340 0.092340 0.092340
0.092237 0.092237 0.092237
0.092494 0.092494 0.092494
0.093161 0.093161 0.093161
0.093536 0.093536 0.093536
0.094324 0.094324 0.094324
0.097560 0.097560 0.097560
0.100560 0.100560 0.100560
0.103034 0.103034 0.103034
0.108445 0.108445 0.108445
0.120528 0.120528 0.120528
0.126853 0.126853 0.126853
0.132850 0.132850 0.132850
0.141754 0.141754 0.141754
0.155710 0.155710 0.155710
0.160633 0.160633 0.160633
0.166116 0.166116 0.166116
0.173255 0.173255 0.173255
0.178632 0.178632 0.178632
0.176872 0.176872 0.176872
0.175831 0.175831 0.175831
0.172548 0.172548 0.172548
0.153620 0.153620 0.153620
0.140429 0.140429 0.140429
0.101290 0.101290 0.101290
0.100692 0.100692 0.100692
0.100113 0.100113 0.100113
0.099554 0.099554 0.099554
0.220098 0.220098 0.220098
0.103924 0.103924 0.103924
0.102800 0.102800 0.102800
0.099812 0.099812 0.099812
0.096153 0.096153 0.096153
0.093917 0.093917 0.093917
0.092979 0.092979 0.092979
0.093351 0.093351 0.093351
0.094895 0.094895 0.094895
0.095160 0.095160 0.095160
0.096806 0.096806 0.096806
0.102329 0.102329 0.102329
0.105907 0.105907 0.105907
0.109653 0.109653 0.109653
0.117350 0.117350 0.117350
0.132166 0.132166 0.132166
0.139678 0.139678 0.139678
0.148583 0.148583 0.148583
0.161320 0.161320 0.161320
0.175417 0.175417 0.175417
0.179170 0.179170 0.179170
0.183846 0.183846 0.183846
0.190573 0.190573 0.190573
0.195698 0.195698 0.195698
0.193398 0.193398 0.193398
0.191808 0.191808 0.191808
0.188015 0.188015 0.188015
0.167988 0.167988 0.167988
0.153085 0.153085 0.153085
0.100871 0.100871 0.100871
0.100302 0.100302 0.100302
0.099754 0.099754 0.099754
0.222030 0.222030 0.222030
0.217670 0.217670 0.217670
0.165789 0.165789 0.165789
0.163937 0.163937 0.163937
0.151145 0.151145 0.151145
0.130235 0.130235 0.130235
0.111195 0.111195 0.111195
0.102462 0.102462 0.102462
0.098511 0.098511 0.098511
0.100614 0.100614 0.100614
0.099993 0.099993 0.099993
0.102331 0.102331 0.102331
0.111314 0.111314 0.111314
0.117142 0.117142 0.117142
0.121843 0.121843 0.121843
0.131573 0.131573 0.131573
0.149513 0.149513 0.149513
0.159711 0.159711 0.159711
0.166229 0.166229 0.166229
0.177603 0.177603 0.177603
0.194666 0.194666 0.194666
0.201467 0.201467 0.201467
0.209973 0.209973 0.209973
0.218861 0.218861 0.218861
0.223399 0.223399 0.223399
0.220018 0.220018 0.220018
0.217381 0.217381 0.217381
0.212689 0.212689 0.212689
0.191138 0.191138 0.191138
0.173813 0.173813 0.173813
0.100374 0.100374 0.100374
0.099825 0.099825 0.099825
0.099315 0.099315 0.099315
0.218849 0.218849 0.218849
0.214707 0.214707 0.214707
0.271522 0.271522 0.271522
0.269259 0.269259 0.269259
0.258476 0.258476 0.258476
0.223402 0.223402 0.223402
0.187756 0.187756 0.187756
0.158812 0.158812 0.158812
0.137400 0.137400 0.137400
0.125344 0.125344 0.125344
0.111459 0.111459 0.111459
0.113873 0.113873 0.113873
0.129971 0.129971 0.129971
0.135823 0.135823 0.135823
0.139624 0.139624 0.139624
0.151196 0.151196 0.151196
0.171290 0.171290 0.171290
0.179893 0.179893 0.179893
0.187696 0.187696 0.187696
0.201578 0.201578 0.201578
0.220260 0.220260 0.220260
0.224770 0.224770 0.224770
0.231590 0.231590 0.231590
0.242036 0.242036 0.242036
0.252020 0.252020 0.252020
0.254569 0.254569 0.254569
0.258613 0.258613 0.258613
0.252819 0.252819 0.252819
0.231165 0.231165 0.231165
0.209934 0.209934 0.209934
0.099871 0.099871 0.099871
0.099276 0.099276 0.099276
0.098805 0.098805 0.098805
0.215078 0.215078 0.215078
0.211266 0.211266 0.211266
0.331610 0.331610 0.331610
0.329576 0.329576 0.329576
0.314849 0.314849 0.314849
0.284053 0.284053 0.284053
0.247064 0.247064 0.247064
0.212225 0.212225 0.212225
0.184475 0.184475 0.184475
0.163610 0.163610 0.163610
0.149163 0.149163 0.149163
0.140220 0.140220 0.140220
0.157936 0.157936 0.157936
0.163099 0.163099 0.163099
0.165955 0.165955 0.165955
0.176548 0.176548 0.176548
0.197328 0.197328 0.197328
0.205430 0.205430 0.205430
0.213445 0.213445 0.213445
0.227400 0.227400 0.227400
0.246909 0.246909 0.246909
0.254222 0.254222 0.254222
0.264568 0.264568 0.264568
0.272750 0.272750 0.272750
0.281054 0.281054 0.281054
0.281695 0.281695 0.281695
0.284439 0.284439 0.284439
0.287147 0.287147 0.287147
0.278869 0.278869 0.278869
0.271737 0.271737 0.271737
0.102162 0.102162 0.102162
0.098755 0.098755 0.098755
0.098249 0.098249 0.098249
0.210877 0.210877 0.210877
0.207421 0.207421 0.207421
0.426502 0.426502 0.426502
0.420987 0.420987 0.420987
0.399756 0.399756 0.399756
0.369277 0.369277 0.369277
0.331845 0.331845 0.331845
0.294198 0.294198 0.294198
0.258798 0.258798 0.258798
0.229357 0.229357 0.229357
0.206800 0.206800 0.206800
0.190848 0.190848 0.190848
0.200341 0.200341 0.200341
0.197244 0.197244 0.197244
0.197410 0.197410 0.197410
0.207143 0.207143 0.207143
0.229636 0.229636 0.229636
0.236699 0.236699 0.236699
0.243579 0.243579 0.243579
0.257043 0.257043 0.257043
0.279079 0.279079 0.279079
0.286283 0.286283 0.286283
0.292861 0.292861 0.292861
0.304923 0.304923 0.304923
0.317747 0.317747 0.317747
0.319191 0.319191 0.319191
0.319284 0.319284 0.319284
0.320075 0.320075 0.320075
0.310195 0.310195 0.310195
0.301331 0.301331 0.301331
0.281396 0.281396 0.281396
0.256958 0.256958 0.256958
0.189912 0.189912 0.189912
0.206342 0.206342 0.206342
0.203253 0.203253 0.203253
0.566720 0.566720 0.566720
0.560029 0.560029 0.560029
0.538718 0.538718 0.538718
0.509044 0.509044 0.509044
0.466900 0.466900 0.466900
0.421603 0.421603 0.421603
0.378717 0.378717 0.378717
0.340631 0.340631 0.340631
0.309184 0.309184 0.309184
0.284507 0.284507 0.284507
0.265232 0.265232 0.265232
0.248468 0.248468 0.248468
0.236352 0.236352 0.236352
0.244609 0.244609 0.244609
0.267982 0.267982 0.267982
0.273174 0.273174 0.273174
0.278377 0.278377 0.278377
0.291220 0.291220 0.291220
0.313344 0.313344 0.313344
0.318420 0.318420 0.318420
0.327222 0.327222 0.327222
0.341094 0.341094 0.341094
0.351006 0.351006 0.351006
0.353805 0.353805 0.353805
0.360036 0.360036 0.360036
0.367814 0.367814 0.367814
0.355242 0.355242 0.355242
0.343288 0.343288 0.343288
0.320762 0.320762 0.320762
0.292470 0.292470 0.292470
0.203636 0.203636 0.203636
0.201573 0.201573 0.201573
0.198854 0.198854 0.198854
0.653905 0.653905 0.653905
0.648633 0.648633 0.648633
0.629772 0.629772 0.629772
0.600861 0.600861 0.600861
0.561584 0.561584 0.561584
0.518605 0.518605 0.518605
0.473331 0.473331 0.473331
0.430177 0.430177 0.430177
0.392505 0.392505 0.392505
0.361061 0.361061 0.361061
0.335824 0.335824 0.335824
0.316885 0.316885 0.316885
0.292842 0.292842 0.292842
0.288584 0.288584 0.288584
0.310711 0.310711 0.310711
0.313223 0.313223 0.313223
0.317012 0.317012 0.317012
0.329152 0.329152 0.329152
0.350954 0.350954 0.350954
0.355332 0.355332 0.355332
0.365456 0.365456 0.365456
0.377126 0.377126 0.377126
0.390975 0.390975 0.390975
0.396678 0.396678 0.396678
0.399513 0.399513 0.399513
0.404725 0.404725 0.404725
0.400714 0.400714 0.400714
0.398507 0.398507 0.398507
0.381513 0.381513 0.381513
0.347640 0.347640 0.347640
0.243698 0.243698 0.243698
0.196736 0.196736 0.196736
0.194452 0.194452 0.194452
0.719418 0.719418 0.719418
0.714692 0.714692 0.714692
0.698953 0.698953 0.698953
0.674966 0.674966 0.674966
0.644115 0.644115 0.644115
0.602744 0.602744 0.602744
0.558287 0.558287 0.558287
0.515265 0.515265 0.515265
0.473622 0.473622 0.473622
0.437009 0.437009 0.437009
0.406617 0.406617 0.406617
0.381512 0.381512 0.381512
0.362376 0.362376 0.362376
0.350352 0.350352 0.350352
0.358920 0.358920 0.358920
0.359404 0.359404 0.359404
0.361096 0.361096 0.361096
0.372517 0.372517 0.372517
0.394040 0.394040 0.394040
0.397049 0.397049 0.397049
0.405403 0.405403 0.405403
0.418543 0.418543 0.418543
0.434297 0.434297 0.434297
0.436658 0.436658 0.436658
0.444495 0.444495 0.444495
0.455055 0.455055 0.455055
0.447186 0.447186 0.447186
0.441576 0.441576 0.441576
0.430567 0.430567 0.430567
0.414419 0.414419 0.414419
0.389947 0.389947 0.389947
0.192048 0.192048 0.192048
0.190036 0.190036 0.190036
0.783323 0.783323 0.783323
0.780237 0.780237 0.780237
0.769781 0.769781 0.769781
0.753110 0.753110 0.753110
0.732730 0.732730 0.732730
0.699460 0.699460 0.699460
0.660560 0.660560 0.660560
0.618585 0.618585 0.618585
0.575710 0.575710 0.575710
0.536144 0.536144 0.536144
0.500886 0.500886 0.500886
0.470247 0.470247 0.470247
0.444787 0.444787 0.444787
0.425010 0.425010 0.425010
0.430631 0.430631 0.430631
0.413529 0.413529 0.413529
0.410369 0.410369 0.410369
0.419804 0.419804 0.419804
0.441091 0.441091 0.441091
0.443563 0.443563 0.443563
0.450601 0.450601 0.450601
0.463899 0.463899 0.463899
0.478093 0.478093 0.478093
0.483350 0.483350 0.483350
0.492472 0.492472 0.492472
0.499815 0.499815 0.499815
0.498697 0.498697 0.498697
0.500460 0.500460 0.500460
0.485872 0.485872 0.485872
0.465220 0.465220 0.465220
0.435231 0.435231 0.435231
0.396655 0.396655 0.396655
0.352815 0.352815 0.352815
0.842450 0.842450 0.842450
0.840669 0.840669 0.840669
0.834551 0.834551 0.834551
0.824467 0.824467 0.824467
0.812337 0.812337 0.812337
0.790886 0.790886 0.790886
0.763465 0.763465 0.763465
0.734057 0.734057 0.734057
0.697677 0.697677 0.697677
0.659909 0.659909 0.659909
0.623016 0.623016 0.623016
0.587683 0.587683 0.587683
0.557559 0.557559 0.557559
0.532482 0.532482 0.532482
0.512200 0.512200 0.512200
0.488948 0.488948 0.488948
0.470119 0.470119 0.470119
0.473830 0.473830 0.473830
0.494248 0.494248 0.494248
0.494783 0.494783 0.494783
0.501015 0.501015 0.501015
0.513994 0.513994 0.513994
0.526666 0.526666 0.526666
0.532866 0.532866 0.532866
0.539615 0.539615 0.539615
0.550901 0.550901 0.550901
0.550361 0.550361 0.550361
0.548270 0.548270 0.548270
0.543285 0.543285 0.543285
0.534488 0.534488 0.534488
0.502516 0.502516 0.502516
0.453134 0.453134 0.453134
0.361208 0.361208 0.361208
0.874187 0.874187 0.874187
0.872991 0.872991 0.872991
0.867994 0.867994 0.867994
0.858899 0.858899 0.858899
0.847431 0.847431 0.847431
0.832761 0.832761 0.832761
0.816489 0.816489 0.816489
0.793965 0.793965 0.793965
0.765299 0.765299 0.765299
0.737663 0.737663 0.737663
0.705669 0.705669 0.705669
0.672592 0.672592 0.672592
0.643591 0.643591 0.643591
0.614409 0.614409 0.614409
0.590039 0.590039 0.590039
0.570105 0.570105 0.570105
0.547459 0.547459 0.547459
0.538539 0.538539 0.538539
0.551254 0.551254 0.551254
0.550287 0.550287 0.550287
0.553970 0.553970 0.553970
0.565375 0.565375 0.565375
0.577663 0.577663 0.577663
0.582415 0.582415 0.582415
0.590479 0.590479 0.590479
0.602312 0.602312 0.602312
0.601883 0.601883 0.601883
0.605581 0.605581 0.605581
0.600161 0.600161 0.600161
0.587014 0.587014 0.587014
0.569020 0.569020 0.569020
0.545445 0.545445 0.545445
0.421594 0.421594 0.421594
0.897065 0.897065 0.897065
0.896078 0.896078 0.896078
0.892635 0.892635 0.892635
0.886739 0.886739 0.886739
0.878619 0.878619 0.878619
0.867978 0.867978 0.867978
0.852127 0.852127 0.852127
0.835078 0.835078 0.835078
0.817217 0.817217 0.817217
0.796441 0.796441 0.796441
0.769830 0.769830 0.769830
0.744639 0.744639 0.744639
0.720303 0.720303 0.720303
0.692584 0.692584 0.692584
0.668217 0.668217 0.668217
0.647767 0.647767 0.647767
0.629321 0.629321 0.629321
0.617079 0.617079 0.617079
0.619815 0.619815 0.619815
0.608092 0.608092 0.608092
0.610757 0.610757 0.610757
0.620745 0.620745 0.620745
0.632799 0.632799 0.632799
0.636422 0.636422 0.636422
0.644612 0.644612 0.644612
0.653688 0.653688 0.653688
0.656163 0.656163 0.656163
0.658083 0.658083 0.658083
0.656225 0.656225 0.656225
0.651675 0.651675 0.651675
0.633007 0.633007 0.633007
0.602641 0.602641 0.602641
0.563392 0.563392 0.563392
0.920315 0.920315 0.920315
0.919675 0.919675 0.919675
0.917431 0.917431 0.917431
0.912824 0.912824 0.912824
0.905804 0.905804 0.905804
0.897853 0.897853 0.897853
0.887048 0.887048 0.887048
0.875363 0.875363 0.875363
0.859574 0.859574 0.859574
0.842129 0.842129 0.842129
0.825034 0.825034 0.825034
0.808376 0.808376 0.808376
0.786785 0.786785 0.786785
0.764822 0.764822 0.764822
0.745486 0.745486 0.745486
0.728375 0.728375 0.728375
0.709479 0.709479 0.709479
0.693072 0.693072 0.693072
0.693348 0.693348 0.693348
0.676296 0.676296 0.676296
0.667447 0.667447 0.667447
0.675230 0.675230 0.675230
0.684707 0.684707 0.684707
0.686809 0.686809 0.686809
0.694289 0.694289 0.694289
0.702949 0.702949 0.702949
0.705890 0.705890 0.705890
0.708587 0.708587 0.708587
0.710925 0.710925 0.710925
0.702846 0.702846 0.702846
0.692134 0.692134 0.692134
0.677052 0.677052 0.677052
0.633702 0.633702 0.633702
0.940379 0.940379 0.940379
0.939830 0.939830 0.939830
0.937899 0.937899 0.937899
0.934511 0.934511 0.934511
0.929863 0.929863 0.929863
0.924439 0.924439 0.924439
0.917475 0.917475 0.917475
0.907861 0.907861 0.907861
0.896598 0.896598 0.896598
0.884945 0.884945 0.884945
0.872258 0.872258 0.872258
0.856276 0.856276 0.856276
0.840581 0.840581 0.840581
0.825926 0.825926 0.825926
0.812272 0.812272 0.812272
0.798068 0.798068 0.798068
0.781853 0.781853 0.781853
0.767461 0.767461 0.767461
0.755869 0.755869 0.755869
0.741687 0.741687 0.741687
0.732181 0.732181 0.732181
0.728744 0.728744 0.728744
0.734939 0.734939 0.734939
0.735865 0.735865 0.735865
0.740236 0.740236 0.740236
0.746584 0.746584 0.746584
0.748327 0.748327 0.748327
0.751868 0.751868 0.751868
0.752303 0.752303 0.752303
0.750102 0.750102 0.750102
0.744328 0.744328 0.744328
0.730146 0.730146 0.730146
0.706080 0.706080 0.706080
0.954865 0.954865 0.954865
0.954378 0.954378 0.954378
0.952658 0.952658 0.952658
0.949614 0.949614 0.949614
0.945368 0.945368 0.945368
0.940252 0.940252 0.940252
0.934142 0.934142 0.934142
0.926882 0.926882 0.926882
0.919249 0.919249 0.919249
0.909590 0.909590 0.909590
0.898184 0.898184 0.898184
0.886904 0.886904 0.886904
0.875285 0.875285 0.875285
0.861826 0.861826 0.861826
0.848256 0.848256 0.848256
0.835619 0.835619 0.835619
0.824505 0.824505 0.824505
0.814678 0.814678 0.814678
0.805858 0.805858 0.805858
0.795774 0.795774 0.795774
0.784401 0.784401 0.784401
0.779650 0.779650 0.779650
0.776936 0.776936 0.776936
0.776356 0.776356 0.776356
0.779923 0.779923 0.779923
0.785363 0.785363 0.785363
0.787041 0.787041 0.787041
0.790884 0.790884 0.790884
0.792059 0.792059 0.792059
0.791507 0.791507 0.791507
0.785919 0.785919 0.785919
0.777492 0.777492 0.777492
0.757742 0.757742 0.757742
0.963324 0.963324 0.963324
0.963091 0.963091 0.963091
0.962265 0.962265 0.962265
0.960791 0.960791 0.960791
0.958704 0.958704 0.958704
0.955916 0.955916 0.955916
0.950544 0.950544 0.950544
0.943811 0.943811 0.943811
0.936899 0.936899 0.936899
0.929134 0.929134 0.929134
0.921318 0.921318 0.921318
0.912600 0.912600 0.912600
0.901951 0.901951 0.901951
0.891598 0.891598 0.891598
0.881659 0.881659 0.881659
0.872024 0.872024 0.872024
0.860547 0.860547 0.860547
0.850207 0.850207 0.850207
0.841188 0.841188 0.841188
0.833093 0.833093 0.833093
0.826446 0.826446 0.826446
0.821926 0.821926 0.821926
0.819561 0.819561 0.819561
0.814687 0.814687 0.814687
0.815093 0.815093 0.815093
0.818263 0.818263 0.818263
0.819190 0.819190 0.819190
0.821202 0.821202 0.821202
0.822834 0.822834 0.822834
0.822313 0.822313 0.822313
0.820814 0.820814 0.820814
0.815123 0.815123 0.815123
0.805091 0.805091 0.805091
0.970921 0.970921 0.970921
0.970720 0.970720 0.970720
0.970008 0.970008 0.970008
0.968730 0.968730 0.968730
0.966903 0.966903 0.966903
0.964604 0.964604 0.964604
0.961994 0.961994 0.961994
0.958732 0.958732 0.958732
0.954218 0.954218 0.954218
0.947269 0.947269 0.947269
0.940006 0.940006 0.940006
0.932549 0.932549 0.932549
0.925108 0.925108 0.925108
0.917726 0.917726 0.917726
0.908868 0.908868 0.908868
0.899982 0.899982 0.899982
0.891621 0.891621 0.891621
0.883853 0.883853 0.883853
0.876489 0.876489 0.876489
0.869682 0.869682 0.869682
0.862269 0.862269 0.862269
0.856074 0.856074 0.856074
0.852594 0.852594 0.852594
0.847411 0.847411 0.847411
0.844100 0.844100 0.844100
0.844878 0.844878 0.844878
0.845829 0.845829 0.845829
0.847504 0.847504 0.847504
0.849231 0.849231 0.849231
0.849245 0.849245 0.849245
0.848230 0.848230 0.848230
0.844100 0.844100 0.844100
0.836550 0.836550 0.836550
0.978291 0.978291 0.978291
0.978117 0.978117 0.978117
0.977497 0.977497 0.977497
0.976379 0.976379 0.976379
0.974766 0.974766 0.974766
0.972706 0.972706 0.972706
0.970304 0.970304 0.970304
0.967467 0.967467 0.967467
0.964224 0.964224 0.964224
0.960811 0.960811 0.960811
0.957071 0.957071 0.957071
0.950744 0.950744 0.950744
0.943818 0.943818 0.943818
0.936808 0.936808 0.936808
0.929960 0.929960 0.929960
0.923458 0.923458 0.923458
0.917367 0.917367 0.917367
0.910337 0.910337 0.910337
0.903338 0.903338 0.903338
0.896968 0.896968 0.896968
0.891509 0.891509 0.891509
0.886674 0.886674 0.886674
0.882365 0.882365 0.882365
0.878092 0.878092 0.878092
0.875056 0.875056 0.875056
0.873415 0.873415 0.873415
0.872390 0.872390 0.872390
0.873408 0.873408 0.873408
0.874674 0.874674 0.874674
0.875121 0.875121 0.875121
0.874532 0.874532 0.874532
0.872654 0.872654 0.872654
0.865498 0.865498 0.865498
0.981313 0.981313 0.981313
0.981256 0.981256 0.981256
0.981053 0.981053 0.981053
0.980687 0.980687 0.980687
0.980152 0.980152 0.980152
0.979457 0.979457 0.979457
0.977851 0.977851 0.977851
0.975255 0.975255 0.975255
0.972254 0.972254 0.972254
0.969059 0.969059 0.969059
0.965615 0.965615 0.965615
0.962046 0.962046 0.962046
0.958446 0.958446 0.958446
0.953575 0.953575 0.953575
0.947039 0.947039 0.947039
0.940721 0.940721 0.940721
0.934769 0.934769 0.934769
0.929172 0.929172 0.929172
0.924005 0.924005 0.924005
0.919266 0.919266 0.919266
0.914797 0.914797 0.914797
0.909818 0.909818 0.909818
0.905550 0.905550 0.905550
0.901920 0.901920 0.901920
0.898529 0.898529 0.898529
0.896454 0.896454 0.896454
0.894455 0.894455 0.894455
0.893246 0.893246 0.893246
0.894312 0.894312 0.894312
0.894983 0.894983 0.894983
0.894841 0.894841 0.894841
0.893258 0.893258 0.893258
0.889345 0.889345 0.889345
0.983403 0.983403 0.983403
0.983354 0.983354 0.983354
0.983180 0.983180 0.983180
0.982863 0.982863 0.982863
0.982398 0.982398 0.982398
0.981788 0.981788 0.981788
0.981045 0.981045 0.981045
0.980195 0.980195 0.980195
0.979214 0.979214 0.979214
0.976539 0.976539 0.976539
0.973434 0.973434 0.973434
0.970141 0.970141 0.970141
0.966797 0.966797 0.966797
0.963436 0.963436 0.963436
0.960099 0.960099 0.960099
0.956825 0.956825 0.956825
0.951428 0.951428 0.951428
0.945952 0.945952 0.945952
0.940870 0.940870 0.940870
0.936198 0.936198 0.936198
0.931945 0.931945 0.931945
0.928154 0.928154 0.928154
0.924778 0.924778 0.924778
0.921976 0.921976 0.921976
0.919578 0.919578 0.919578
0.917605 0.917605 0.917605
0.916239 0.916239 0.916239
0.914265 0.914265 0.914265
0.913280 0.913280 0.913280
0.913874 0.913874 0.913874
0.914210 0.914210 0.914210
0.913124 0.913124 0.913124
0.909956 0.909956 0.909956
0.985253 0.985253 0.985253
0.985215 0.985215 0.985215
0.985080 0.985080 0.985080
0.984808 0.984808 0.984808
0.984406 0.984406 0.984406
0.983875 0.983875 0.983875
0.983219 0.983219 0.983219
0.982453 0.982453 0.982453
0.981590 0.981590 0.981590
0.980636 0.980636 0.980636
0.979611 0.979611 0.979611
0.977572 0.977572 0.977572
0.974472 0.974472 0.974472
0.971385 0.971385 0.971385
0.968276 0.968276 0.968276
0.965215 0.965215 0.965215
0.962263 0.962263 0.962263
0.959405 0.959405 0.959405
0.956688 0.956688 0.956688
0.952356 0.952356 0.952356
0.948149 0.948149 0.948149
0.944358 0.944358 0.944358
0.940952 0.940952 0.940952
0.937936 0.937936 0.937936
0.935480 0.935480 0.935480
0.933378 0.933378 0.933378
0.932228 0.932228 0.932228
0.930361 0.930361 0.930361
0.929383 0.929383 0.929383
0.928401 0.928401 0.928401
0.928617 0.928617 0.928617
0.928276 0.928276 0.928276
0.926387 0.926387 0.926387
0.987436 0.987436 0.987436
0.987402 0.987402 0.987402
0.987281 0.987281 0.987281
0.987059 0.987059 0.987059
0.986728 0.986728 0.986728
0.986282 0.986282 0.986282
0.985717 0.985717 0.985717
0.985027 0.985027 0.985027
0.984186 0.984186 0.984186
0.983303 0.983303 0.983303
0.982327 0.982327 0.982327
0.981308 0.981308 0.981308
0.980248 0.980248 0.980248
0.979167 0.979167 0.979167
0.976357 0.976357 0.976357
0.973472 0.973472 0.973472
0.970636 0.970636 0.970636
0.967907 0.967907 0.967907
0.965312 0.965312 0.965312
0.962876 0.962876 0.962876
0.960630 0.960630 0.960630
0.958583 0.958583 0.958583
0.956748 0.956748 0.956748
0.954092 0.954092 0.954092
0.951543 0.951543 0.951543
