trix_modern/TriX_Red25_Hard.cube
TITLE "Tri-X Red25 Hard"
# Adobe RGB in/out. REPLACES AgX. R=0.9735 G=0.0265 B=0.0000
LUT_3D_SIZE 33
DOMAIN_MIN 0.0 0.0 0.0
DOMAIN_MAX 1.0 1.0 1.0
0.093288 0.093288 0.093288
0.093288 0.093288 0.093288
0.093288 0.093288 0.093288
0.093288 0.093288 0.093288
0.093288 0.093288 0.093288
0.093288 0.093288 0.093288
0.093288 0.093288 0.093288
0.093288 0.093288 0.093288
0.093288 0.093288 0.093288
0.093288 0.093288 0.093288
0.093288 0.093288 0.093288
0.093288 0.093288 0.093288
0.093288 0.093288 0.093288
0.093288 0.093288 0.093288
0.093288 0.093288 0.093288
0.093288 0.093288 0.093288
0.093288 0.093288 0.093288
0.093288 0.093288 0.093288
0.093288 0.093288 0.093288
0.093288 0.093288 0.093288
0.093288 0.093288 0.093288
0.093288 0.093288 0.093288
0.093288 0.093288 0.093288
0.093288 0.093288 0.093288
0.093288 0.093288 0.093288
0.093288 0.093288 0.093288
0.093288 0.093288 0.093288
0.093288 0.093288 0.093288
0.093288 0.093288 0.093288
0.093288 0.093288 0.093288
0.093288 0.093288 0.093288
0.093288 0.093288 0.093288
0.093288 0.093288 0.093288
0.093288 0.093288 0.093288
0.093288 0.093288 0.093288
0.093316 0.093316 0.093316
0.093430 0.093430 0.093430
0.094443 0.094443 0.094443
0.098082 0.098082 0.098082
0.114409 0.114409 0.114409
0.163205 0.163205 0.163205
0.243224 0.243224 0.243224
0.349502 0.349502 0.349502
0.476113 0.476113 0.476113
0.610039 0.610039 0.610039
0.738936 0.738936 0.738936
0.823982 0.823982 0.823982
0.884022 0.884022 0.884022
0.927552 0.927552 0.927552
0.956505 0.956505 0.956505
0.973355 0.973355 0.973355
0.982714 0.982714 0.982714
0.986965 0.986965 0.986965
0.990651 0.990651 0.990651
0.993053 0.993053 0.993053
0.994527 0.994527 0.994527
0.995920 0.995920 0.995920
0.997237 0.997237 0.997237
0.997927 0.997927 0.997927
0.998140 0.998140 0.998140
0.998337 0.998337 0.998337
0.998519 0.998519 0.998519
0.998692 0.998692 0.998692
0.998857 0.998857 0.998857
0.999014 0.999014 0.999014
0.999164 0.999164 0.999164
0.093288 0.093288 0.093288
0.093288 0.093288 0.093288
0.093302 0.093302 0.093302
0.093371 0.093371 0.093371
0.093828 0.093828 0.093828
0.096517 0.096517 0.096517
0.106048 0.106048 0.106048
0.150086 0.150086 0.150086
0.229582 0.229582 0.229582
0.338688 0.338688 0.338688
0.471370 0.471370 0.471370
0.611450 0.611450 0.611450
0.746145 0.746145 0.746145
0.830121 0.830121 0.830121
0.890539 0.890539 0.890539
0.933580 0.933580 0.933580
0.960983 0.960983 0.960983
0.975781 0.975781 0.975781
0.984201 0.984201 0.984201
0.988204 0.988204 0.988204
0.991948 0.991948 0.991948
0.993660 0.993660 0.993660
0.995153 0.995153 0.995153
0.996561 0.996561 0.996561
0.997820 0.997820 0.997820
0.998047 0.998047 0.998047
0.998261 0.998261 0.998261
0.998454 0.998454 0.998454
0.998638 0.998638 0.998638
0.998812 0.998812 0.998812
0.998978 0.998978 0.998978
0.999136 0.999136 0.999136
0.999287 0.999287 0.999287
0.093288 0.093288 0.093288
0.093288 0.093288 0.093288
0.093314 0.093314 0.093314
0.093364 0.093364 0.093364
0.093552 0.093552 0.093552
0.095033 0.095033 0.095033
0.100139 0.100139 0.100139
0.129158 0.129158 0.129158
0.198410 0.198410 0.198410
0.302481 0.302481 0.302481
0.438228 0.438228 0.438228
0.579054 0.579054 0.579054
0.721219 0.721219 0.721219
0.820495 0.820495 0.820495
0.885039 0.885039 0.885039
0.930791 0.930791 0.930791
0.959961 0.959961 0.959961
0.975611 0.975611 0.975611
0.984252 0.984252 0.984252
0.988363 0.988363 0.988363
0.992188 0.992188 0.992188
0.993810 0.993810 0.993810
0.995334 0.995334 0.995334
0.996771 0.996771 0.996771
0.997862 0.997862 0.997862
0.998093 0.998093 0.998093
0.998308 0.998308 0.998308
0.998504 0.998504 0.998504
0.998689 0.998689 0.998689
0.998866 0.998866 0.998866
0.999034 0.999034 0.999034
0.999194 0.999194 0.999194
0.999346 0.999346 0.999346
0.093288 0.093288 0.093288
0.093288 0.093288 0.093288
0.093323 0.093323 0.093323
0.093390 0.093390 0.093390
0.093620 0.093620 0.093620
0.094476 0.094476 0.094476
0.097711 0.097711 0.097711
0.112928 0.112928 0.112928
0.166963 0.166963 0.166963
0.259792 0.259792 0.259792
0.386412 0.386412 0.386412
0.529697 0.529697 0.529697
0.678134 0.678134 0.678134
0.798537 0.798537 0.798537
0.871242 0.871242 0.871242
0.922397 0.922397 0.922397
0.955459 0.955459 0.955459
0.973817 0.973817 0.973817
0.983610 0.983610 0.983610
0.987865 0.987865 0.987865
0.991828 0.991828 0.991828
0.993693 0.993693 0.993693
0.995262 0.995262 0.995262
0.996736 0.996736 0.996736
0.997862 0.997862 0.997862
0.998098 0.998098 0.998098
0.998317 0.998317 0.998317
0.998517 0.998517 0.998517
0.998706 0.998706 0.998706
0.998886 0.998886 0.998886
0.999057 0.999057 0.999057
0.999219 0.999219 0.999219
0.999374 0.999374 0.999374
0.093288 0.093288 0.093288
0.093288 0.093288 0.093288
0.093338 0.093338 0.093338
0.093436 0.093436 0.093436
0.093847 0.093847 0.093847
0.094808 0.094808 0.094808
0.096798 0.096798 0.096798
0.105010 0.105010 0.105010
0.144850 0.144850 0.144850
0.222848 0.222848 0.222848
0.335468 0.335468 0.335468
0.476255 0.476255 0.476255
0.627315 0.627315 0.627315
0.764036 0.764036 0.764036
0.847805 0.847805 0.847805
0.907616 0.907616 0.907616
0.948470 0.948470 0.948470
0.970832 0.970832 0.970832
0.981439 0.981439 0.981439
0.986880 0.986880 0.986880
0.990996 0.990996 0.990996
0.993379 0.993379 0.993379
0.995002 0.995002 0.995002
0.996524 0.996524 0.996524
0.997831 0.997831 0.997831
0.998074 0.998074 0.998074
0.998300 0.998300 0.998300
0.998505 0.998505 0.998505
0.998699 0.998699 0.998699
0.998883 0.998883 0.998883
0.999057 0.999057 0.999057
0.999223 0.999223 0.999223
0.999380 0.999380 0.999380
0.093288 0.093288 0.093288
0.093288 0.093288 0.093288
0.093347 0.093347 0.093347
0.093533 0.093533 0.093533
0.094141 0.094141 0.094141
0.095549 0.095549 0.095549
0.097580 0.097580 0.097580
0.102355 0.102355 0.102355
0.131425 0.131425 0.131425
0.195000 0.195000 0.195000
0.293108 0.293108 0.293108
0.426795 0.426795 0.426795
0.568862 0.568862 0.568862
0.716380 0.716380 0.716380
0.821194 0.821194 0.821194
0.888203 0.888203 0.888203
0.935113 0.935113 0.935113
0.963890 0.963890 0.963890
0.978022 0.978022 0.978022
0.985525 0.985525 0.985525
0.989809 0.989809 0.989809
0.992912 0.992912 0.992912
0.994595 0.994595 0.994595
0.996172 0.996172 0.996172
0.997651 0.997651 0.997651
0.998027 0.998027 0.998027
0.998262 0.998262 0.998262
0.998473 0.998473 0.998473
0.998672 0.998672 0.998672
0.998861 0.998861 0.998861
0.999040 0.999040 0.999040
0.999209 0.999209 0.999209
0.999370 0.999370 0.999370
0.093288 0.093288 0.093288
0.093288 0.093288 0.093288
0.093352 0.093352 0.093352
0.093597 0.093597 0.093597
0.094485 0.094485 0.094485
0.096237 0.096237 0.096237
0.099099 0.099099 0.099099
0.105442 0.105442 0.105442
0.126096 0.126096 0.126096
0.176716 0.176716 0.176716
0.261768 0.261768 0.261768
0.379276 0.379276 0.379276
0.516691 0.516691 0.516691
0.663606 0.663606 0.663606
0.788766 0.788766 0.788766
0.865508 0.865508 0.865508
0.920283 0.920283 0.920283
0.954981 0.954981 0.954981
0.974028 0.974028 0.974028
0.983907 0.983907 0.983907
0.988359 0.988359 0.988359
0.992327 0.992327 0.992327
0.994074 0.994074 0.994074
0.995708 0.995708 0.995708
0.997240 0.997240 0.997240
0.997962 0.997962 0.997962
0.998206 0.998206 0.998206
0.998425 0.998425 0.998425
0.998630 0.998630 0.998630
0.998824 0.998824 0.998824
0.999008 0.999008 0.999008
0.999182 0.999182 0.999182
0.999347 0.999347 0.999347
0.093288 0.093288 0.093288
0.093288 0.093288 0.093288
0.093352 0.093352 0.093352
0.093628 0.093628 0.093628
0.094695 0.094695 0.094695
0.096745 0.096745 0.096745
0.100330 0.100330 0.100330
0.110867 0.110867 0.110867
0.134311 0.134311 0.134311
0.170872 0.170872 0.170872
0.240191 0.240191 0.240191
0.344123 0.344123 0.344123
0.474059 0.474059 0.474059
0.616425 0.616425 0.616425
0.753471 0.753471 0.753471
0.838961 0.838961 0.838961
0.900873 0.900873 0.900873
0.944069 0.944069 0.944069
0.969439 0.969439 0.969439
0.980704 0.980704 0.980704
0.986733 0.986733 0.986733
0.991029 0.991029 0.991029
0.993469 0.993469 0.993469
0.995160 0.995160 0.995160
0.996745 0.996745 0.996745
0.997881 0.997881 0.997881
0.998133 0.998133 0.998133
0.998363 0.998363 0.998363
0.998575 0.998575 0.998575
0.998775 0.998775 0.998775
0.998964 0.998964 0.998964
0.999143 0.999143 0.999143
0.999312 0.999312 0.999312
0.093288 0.093288 0.093288
0.093288 0.093288 0.093288
0.093351 0.093351 0.093351
0.093639 0.093639 0.093639
0.094813 0.094813 0.094813
0.097079 0.097079 0.097079
0.101744 0.101744 0.101744
0.116273 0.116273 0.116273
0.143447 0.143447 0.143447
0.182959 0.182959 0.182959
0.236301 0.236301 0.236301
0.318396 0.318396 0.318396
0.440698 0.440698 0.440698
0.571414 0.571414 0.571414
0.709204 0.709204 0.709204
0.814260 0.814260 0.814260
0.881336 0.881336 0.881336
0.929591 0.929591 0.929591
0.960499 0.960499 0.960499
0.976581 0.976581 0.976581
0.985010 0.985010 0.985010
0.989436 0.989436 0.989436
0.992808 0.992808 0.992808
0.994554 0.994554 0.994554
0.996189 0.996189 0.996189
0.997724 0.997724 0.997724
0.998050 0.998050 0.998050
0.998292 0.998292 0.998292
0.998510 0.998510 0.998510
0.998715 0.998715 0.998715
0.998910 0.998910 0.998910
0.999094 0.999094 0.999094
0.999268 0.999268 0.999268
0.093288 0.093288 0.093288
0.093288 0.093288 0.093288
0.093349 0.093349 0.093349
0.093637 0.093637 0.093637
0.094867 0.094867 0.094867
0.097374 0.097374 0.097374
0.103297 0.103297 0.103297
0.121716 0.121716 0.121716
0.152001 0.152001 0.152001
0.195023 0.195023 0.195023
0.250029 0.250029 0.250029
0.317559 0.317559 0.317559
0.412430 0.412430 0.412430
0.535595 0.535595 0.535595
0.669851 0.669851 0.669851
0.786393 0.786393 0.786393
0.860162 0.860162 0.860162
0.915309 0.915309 0.915309
0.951811 0.951811 0.951811
0.972481 0.972481 0.972481
0.983238 0.983238 0.983238
0.987797 0.987797 0.987797
0.992043 0.992043 0.992043
0.993912 0.993912 0.993912
0.995594 0.995594 0.995594
0.997174 0.997174 0.997174
0.997958 0.997958 0.997958
0.998210 0.998210 0.998210
0.998436 0.998436 0.998436
0.998648 0.998648 0.998648
0.998848 0.998848 0.998848
0.999037 0.999037 0.999037
0.999217 0.999217 0.999217
0.093288 0.093288 0.093288
0.093288 0.093288 0.093288
0.093347 0.093347 0.093347
0.093626 0.093626 0.093626
0.094876 0.094876 0.094876
0.097602 0.097602 0.097602
0.104295 0.104295 0.104295
0.125753 0.125753 0.125753
0.159022 0.159022 0.159022
0.206107 0.206107 0.206107
0.263108 0.263108 0.263108
0.332514 0.332514 0.332514
0.415817 0.415817 0.415817
0.507689 0.507689 0.507689
0.638149 0.638149 0.638149
0.760761 0.760761 0.760761
0.839664 0.839664 0.839664
0.898720 0.898720 0.898720
0.941117 0.941117 0.941117
0.967055 0.967055 0.967055
0.979436 0.979436 0.979436
0.986167 0.986167 0.986167
0.990498 0.990498 0.990498
0.993256 0.993256 0.993256
0.994979 0.994979 0.994979
0.996598 0.996598 0.996598
0.997861 0.997861 0.997861
0.998120 0.998120 0.998120
0.998357 0.998357 0.998357
0.998575 0.998575 0.998575
0.998781 0.998781 0.998781
0.998975 0.998975 0.998975
0.999159 0.999159 0.999159
0.093288 0.093288 0.093288
0.093288 0.093288 0.093288
0.093345 0.093345 0.093345
0.093609 0.093609 0.093609
0.094854 0.094854 0.094854
0.097669 0.097669 0.097669
0.104845 0.104845 0.104845
0.128467 0.128467 0.128467
0.165059 0.165059 0.165059
0.215294 0.215294 0.215294
0.274856 0.274856 0.274856
0.346715 0.346715 0.346715
0.431668 0.431668 0.431668
0.515344 0.515344 0.515344
0.611469 0.611469 0.611469
0.735444 0.735444 0.735444
0.822188 0.822188 0.822188
0.884131 0.884131 0.884131
0.929683 0.929683 0.929683
0.959606 0.959606 0.959606
0.975834 0.975834 0.975834
0.984595 0.984595 0.984595
0.988987 0.988987 0.988987
0.992605 0.992605 0.992605
0.994361 0.994361 0.994361
0.996014 0.996014 0.996014
0.997572 0.997572 0.997572
0.998027 0.998027 0.998027
0.998275 0.998275 0.998275
0.998498 0.998498 0.998498
0.998709 0.998709 0.998709
0.998908 0.998908 0.998908
0.999097 0.999097 0.999097
0.093288 0.093288 0.093288
0.093288 0.093288 0.093288
0.093343 0.093343 0.093343
0.093587 0.093587 0.093587
0.094807 0.094807 0.094807
0.097616 0.097616 0.097616
0.105040 0.105040 0.105040
0.130042 0.130042 0.130042
0.169369 0.169369 0.169369
0.222499 0.222499 0.222499
0.285194 0.285194 0.285194
0.359697 0.359697 0.359697
0.444707 0.444707 0.444707
0.529293 0.529293 0.529293
0.624385 0.624385 0.624385
0.713889 0.713889 0.713889
0.807516 0.807516 0.807516
0.870795 0.870795 0.870795
0.919598 0.919598 0.919598
0.952874 0.952874 0.952874
0.972507 0.972507 0.972507
0.982909 0.982909 0.982909
0.987543 0.987543 0.987543
0.991727 0.991727 0.991727
0.993756 0.993756 0.993756
0.995436 0.995436 0.995436
0.997022 0.997022 0.997022
0.997933 0.997933 0.997933
0.998188 0.998188 0.998188
0.998419 0.998419 0.998419
0.998634 0.998634 0.998634
0.998838 0.998838 0.998838
0.999031 0.999031 0.999031
0.093288 0.093288 0.093288
0.093288 0.093288 0.093288
0.093341 0.093341 0.093341
0.093563 0.093563 0.093563
0.094745 0.094745 0.094745
0.097480 0.097480 0.097480
0.104978 0.104978 0.104978
0.130719 0.130719 0.130719
0.172058 0.172058 0.172058
0.227725 0.227725 0.227725
0.293430 0.293430 0.293430
0.370777 0.370777 0.370777
0.456422 0.456422 0.456422
0.542423 0.542423 0.542423
0.636162 0.636162 0.636162
0.725596 0.725596 0.725596
0.796630 0.796630 0.796630
0.856986 0.856986 0.856986
0.908572 0.908572 0.908572
0.946142 0.946142 0.946142
0.968987 0.968987 0.968987
0.979879 0.979879 0.979879
0.986195 0.986195 0.986195
0.990403 0.990403 0.990403
0.993175 0.993175 0.993175
0.994875 0.994875 0.994875
0.996483 0.996483 0.996483
0.997840 0.997840 0.997840
0.998099 0.998099 0.998099
0.998339 0.998339 0.998339
0.998559 0.998559 0.998559
0.998767 0.998767 0.998767
0.998964 0.998964 0.998964
0.093288 0.093288 0.093288
0.093288 0.093288 0.093288
0.093339 0.093339 0.093339
0.093537 0.093537 0.093537
0.094672 0.094672 0.094672
0.097282 0.097282 0.097282
0.104713 0.104713 0.104713
0.130644 0.130644 0.130644
0.173272 0.173272 0.173272
0.230996 0.230996 0.230996
0.299374 0.299374 0.299374
0.379514 0.379514 0.379514
0.466248 0.466248 0.466248
0.554030 0.554030 0.554030
0.646997 0.646997 0.646997
0.736760 0.736760 0.736760
0.803695 0.803695 0.803695
0.851587 0.851587 0.851587
0.898638 0.898638 0.898638
0.938072 0.938072 0.938072
0.963538 0.963538 0.963538
0.977142 0.977142 0.977142
0.984957 0.984957 0.984957
0.989172 0.989172 0.989172
0.992628 0.992628 0.992628
0.994341 0.994341 0.994341
0.995964 0.995964 0.995964
0.997502 0.997502 0.997502
0.998013 0.998013 0.998013
0.998261 0.998261 0.998261
0.998484 0.998484 0.998484
0.998696 0.998696 0.998696
0.998896 0.998896 0.998896
0.093288 0.093288 0.093288
0.093288 0.093288 0.093288
0.093337 0.093337 0.093337
0.093509 0.093509 0.093509
0.094591 0.094591 0.094591
0.097126 0.097126 0.097126
0.104285 0.104285 0.104285
0.129947 0.129947 0.129947
0.173195 0.173195 0.173195
0.232443 0.232443 0.232443
0.303021 0.303021 0.303021
0.385704 0.385704 0.385704
0.473831 0.473831 0.473831
0.563581 0.563581 0.563581
0.656349 0.656349 0.656349
0.746804 0.746804 0.746804
0.809550 0.809550 0.809550
0.855975 0.855975 0.855975
0.896168 0.896168 0.896168
0.931123 0.931123 0.931123
0.958760 0.958760 0.958760
0.974704 0.974704 0.974704
0.983837 0.983837 0.983837
0.988044 0.988044 0.988044
0.992051 0.992051 0.992051
0.993839 0.993839 0.993839
0.995472 0.995472 0.995472
0.997023 0.997023 0.997023
0.997929 0.997929 0.997929
0.998181 0.998181 0.998181
0.998410 0.998410 0.998410
0.998625 0.998625 0.998625
0.998829 0.998829 0.998829
0.093288 0.093288 0.093288
0.093288 0.093288 0.093288
0.093335 0.093335 0.093335
0.093480 0.093480 0.093480
0.094502 0.094502 0.094502
0.096994 0.096994 0.096994
0.103729 0.103729 0.103729
0.128744 0.128744 0.128744
0.172022 0.172022 0.172022
0.232258 0.232258 0.232258
0.304494 0.304494 0.304494
0.389325 0.389325 0.389325
0.479007 0.479007 0.479007
0.570736 0.570736 0.570736
0.663814 0.663814 0.663814
0.752777 0.752777 0.752777
0.813652 0.813652 0.813652
0.859917 0.859917 0.859917
0.898946 0.898946 0.898946
0.930336 0.930336 0.930336
0.954604 0.954604 0.954604
0.972553 0.972553 0.972553
0.982286 0.982286 0.982286
0.987023 0.987023 0.987023
0.991021 0.991021 0.991021
0.993376 0.993376 0.993376
0.995013 0.995013 0.995013
0.996571 0.996571 0.996571
0.997849 0.997849 0.997849
0.998103 0.998103 0.998103
0.998339 0.998339 0.998339
0.998557 0.998557 0.998557
0.998763 0.998763 0.998763
0.093288 0.093288 0.093288
0.093288 0.093288 0.093288
0.093333 0.093333 0.093333
0.093456 0.093456 0.093456
0.094408 0.094408 0.094408
0.096847 0.096847 0.096847
0.103070 0.103070 0.103070
0.127135 0.127135 0.127135
0.169939 0.169939 0.169939
0.230655 0.230655 0.230655
0.303985 0.303985 0.303985
0.390488 0.390488 0.390488
0.481762 0.481762 0.481762
0.575335 0.575335 0.575335
0.669138 0.669138 0.669138
0.757022 0.757022 0.757022
0.816947 0.816947 0.816947
0.863217 0.863217 0.863217
0.901346 0.901346 0.901346
0.931966 0.931966 0.931966
0.954653 0.954653 0.954653
0.970665 0.970665 0.970665
0.980309 0.980309 0.980309
0.986108 0.986108 0.986108
0.990087 0.990087 0.990087
0.992951 0.992951 0.992951
0.994588 0.994588 0.994588
0.996149 0.996149 0.996149
0.997637 0.997637 0.997637
0.998030 0.998030 0.998030
0.998271 0.998271 0.998271
0.998491 0.998491 0.998491
0.998699 0.998699 0.998699
0.093288 0.093288 0.093288
0.093288 0.093288 0.093288
0.093331 0.093331 0.093331
0.093440 0.093440 0.093440
0.094310 0.094310 0.094310
0.096689 0.096689 0.096689
0.102328 0.102328 0.102328
0.125203 0.125203 0.125203
0.167115 0.167115 0.167115
0.227852 0.227852 0.227852
0.301727 0.301727 0.301727
0.389386 0.389386 0.389386
0.482191 0.482191 0.482191
0.577358 0.577358 0.577358
0.672201 0.672201 0.672201
0.759810 0.759810 0.759810
0.819298 0.819298 0.819298
0.865714 0.865714 0.865714
0.903241 0.903241 0.903241
0.933295 0.933295 0.933295
0.955413 0.955413 0.955413
0.970898 0.970898 0.970898
0.978753 0.978753 0.978753
0.985291 0.985291 0.985291
0.989247 0.989247 0.989247
0.992565 0.992565 0.992565
0.994198 0.994198 0.994198
0.995759 0.995759 0.995759
0.997249 0.997249 0.997249
0.997960 0.997960 0.997960
0.998205 0.998205 0.998205
0.998428 0.998428 0.998428
0.998638 0.998638 0.998638
0.093288 0.093288 0.093288
0.093288 0.093288 0.093288
0.093329 0.093329 0.093329
0.093435 0.093435 0.093435
0.094208 0.094208 0.094208
0.096522 0.096522 0.096522
0.101520 0.101520 0.101520
0.123019 0.123019 0.123019
0.163701 0.163701 0.163701
0.224053 0.224053 0.224053
0.297964 0.297964 0.297964
0.386257 0.386257 0.386257
0.480460 0.480460 0.480460
0.576894 0.576894 0.576894
0.672993 0.672993 0.672993
0.761077 0.761077 0.761077
0.820620 0.820620 0.820620
0.867293 0.867293 0.867293
0.904530 0.904530 0.904530
0.934243 0.934243 0.934243
0.955974 0.955974 0.955974
0.971135 0.971135 0.971135
0.978944 0.978944 0.978944
0.984746 0.984746 0.984746
0.988495 0.988495 0.988495
0.992216 0.992216 0.992216
0.993844 0.993844 0.993844
0.995401 0.995401 0.995401
0.996891 0.996891 0.996891
0.997896 0.997896 0.997896
0.998142 0.998142 0.998142
0.998369 0.998369 0.998369
0.998580 0.998580 0.998580
0.093288 0.093288 0.093288
0.093288 0.093288 0.093288
0.093327 0.093327 0.093327
0.093429 0.093429 0.093429
0.094104 0.094104 0.094104
0.096347 0.096347 0.096347
0.100798 0.100798 0.100798
0.120638 0.120638 0.120638
0.159826 0.159826 0.159826
0.219446 0.219446 0.219446
0.292933 0.292933 0.292933
0.381361 0.381361 0.381361
0.476773 0.476773 0.476773
0.574102 0.574102 0.574102
0.671586 0.671586 0.671586
0.760822 0.760822 0.760822
0.820876 0.820876 0.820876
0.867880 0.867880 0.867880
0.905138 0.905138 0.905138
0.934748 0.934748 0.934748
0.956291 0.956291 0.956291
0.971272 0.971272 0.971272
0.979053 0.979053 0.979053
0.984780 0.984780 0.984780
0.988073 0.988073 0.988073
0.991567 0.991567 0.991567
0.993523 0.993523 0.993523
0.995075 0.995075 0.995075
0.996562 0.996562 0.996562
0.997836 0.997836 0.997836
0.998082 0.998082 0.998082
0.998313 0.998313 0.998313
0.998525 0.998525 0.998525
0.093288 0.093288 0.093288
0.093288 0.093288 0.093288
0.093325 0.093325 0.093325
0.093423 0.093423 0.093423
0.093996 0.093996 0.093996
0.096166 0.096166 0.096166
0.100422 0.100422 0.100422
0.118110 0.118110 0.118110
0.156171 0.156171 0.156171
0.214196 0.214196 0.214196
0.286856 0.286856 0.286856
0.374956 0.374956 0.374956
0.471356 0.471356 0.471356
0.569188 0.569188 0.569188
0.668111 0.668111 0.668111
0.759089 0.759089 0.759089
0.820063 0.820063 0.820063
0.867443 0.867443 0.867443
0.905019 0.905019 0.905019
0.934762 0.934762 0.934762
0.956331 0.956331 0.956331
0.971292 0.971292 0.971292
0.979061 0.979061 0.979061
0.984774 0.984774 0.984774
0.988057 0.988057 0.988057
0.991242 0.991242 0.991242
0.993232 0.993232 0.993232
0.994778 0.994778 0.994778
0.996260 0.996260 0.996260
0.997682 0.997682 0.997682
0.998027 0.998027 0.998027
0.998261 0.998261 0.998261
0.998474 0.998474 0.998474
0.093288 0.093288 0.093288
0.093288 0.093288 0.093288
0.093323 0.093323 0.093323
0.093417 0.093417 0.093417
0.093943 0.093943 0.093943
0.095989 0.095989 0.095989
0.100030 0.100030 0.100030
0.115471 0.115471 0.115471
0.152278 0.152278 0.152278
0.208448 0.208448 0.208448
0.279936 0.279936 0.279936
0.367289 0.367289 0.367289
0.464435 0.464435 0.464435
0.562379 0.562379 0.562379
0.662730 0.662730 0.662730
0.755954 0.755954 0.755954
0.818210 0.818210 0.818210
0.865980 0.865980 0.865980
0.904153 0.904153 0.904153
0.934258 0.934258 0.934258
0.956069 0.956069 0.956069
0.971180 0.971180 0.971180
0.978954 0.978954 0.978954
0.984724 0.984724 0.984724
0.988002 0.988002 0.988002
0.991180 0.991180 0.991180
0.993118 0.993118 0.993118
0.994508 0.994508 0.994508
0.995985 0.995985 0.995985
0.997403 0.997403 0.997403
0.997977 0.997977 0.997977
0.998212 0.998212 0.998212
0.998427 0.998427 0.998427
0.093288 0.093288 0.093288
0.093288 0.093288 0.093288
0.093321 0.093321 0.093321
0.093411 0.093411 0.093411
0.093906 0.093906 0.093906
0.095807 0.095807 0.095807
0.099624 0.099624 0.099624
0.113213 0.113213 0.113213
0.148210 0.148210 0.148210
0.202326 0.202326 0.202326
0.272353 0.272353 0.272353
0.358590 0.358590 0.358590
0.456232 0.456232 0.456232
0.553909 0.553909 0.553909
0.655630 0.655630 0.655630
0.751514 0.751514 0.751514
0.815363 0.815363 0.815363
0.863516 0.863516 0.863516
0.902537 0.902537 0.902537
0.933222 0.933222 0.933222
0.955490 0.955490 0.955490
0.970927 0.970927 0.970927
0.978721 0.978721 0.978721
0.984624 0.984624 0.984624
0.987903 0.987903 0.987903
0.991078 0.991078 0.991078
0.993071 0.993071 0.993071
0.994417 0.994417 0.994417
0.995733 0.995733 0.995733
0.997147 0.997147 0.997147
0.997930 0.997930 0.997930
0.998165 0.998165 0.998165
0.998382 0.998382 0.998382
0.093288 0.093288 0.093288
0.093288 0.093288 0.093288
0.093319 0.093319 0.093319
0.093405 0.093405 0.093405
0.093867 0.093867 0.093867
0.095622 0.095622 0.095622
0.099207 0.099207 0.099207
0.111213 0.111213 0.111213
0.144020 0.144020 0.144020
0.195935 0.195935 0.195935
0.264553 0.264553 0.264553
0.349065 0.349065 0.349065
0.446954 0.446954 0.446954
0.544010 0.544010 0.544010
0.647002 0.647002 0.647002
0.744779 0.744779 0.744779
0.811582 0.811582 0.811582
0.860091 0.860091 0.860091
0.900188 0.900188 0.900188
0.931652 0.931652 0.931652
0.954586 0.954586 0.954586
0.970526 0.970526 0.970526
0.978353 0.978353 0.978353
0.984469 0.984469 0.984469
0.987754 0.987754 0.987754
0.990933 0.990933 0.990933
0.993006 0.993006 0.993006
0.994352 0.994352 0.994352
0.995658 0.995658 0.995658
0.996925 0.996925 0.996925
0.997887 0.997887 0.997887
0.998122 0.998122 0.998122
0.998341 0.998341 0.998341
0.093288 0.093288 0.093288
0.093288 0.093288 0.093288
0.093318 0.093318 0.093318
0.093399 0.093399 0.093399
0.093828 0.093828 0.093828
0.095433 0.095433 0.095433
0.098780 0.098780 0.098780
0.109176 0.109176 0.109176
0.139843 0.139843 0.139843
0.189363 0.189363 0.189363
0.256408 0.256408 0.256408
0.338900 0.338900 0.338900
0.436791 0.436791 0.436791
0.532903 0.532903 0.532903
0.637036 0.637036 0.637036
0.734637 0.734637 0.734637
0.806611 0.806611 0.806611
0.855760 0.855760 0.855760
0.897130 0.897130 0.897130
0.929558 0.929558 0.929558
0.953356 0.953356 0.953356
0.969957 0.969957 0.969957
0.977844 0.977844 0.977844
0.984256 0.984256 0.984256
0.987552 0.987552 0.987552
