trix_modern/TriX_Yellow8_ExtraSoft.cube
TITLE "Tri-X Yellow8 ExtraSoft"
# Adobe RGB in/out. REPLACES AgX. R=0.5015 G=0.4679 B=0.0307
LUT_3D_SIZE 5
DOMAIN_MIN 0.0 0.0 0.0
DOMAIN_MAX 1.0 1.0 1.0
0.121260 0.121260 0.121260
0.121260 0.121260 0.121260
0.121260 0.121260 0.121260
0.121260 0.121260 0.121260
0.121260 0.121260 0.121260
0.121260 0.121260 0.121260
0.121260 0.121260 0.121260
0.121260 0.121260 0.121260
0.121260 0.121260 0.121260
0.121260 0.121260 0.121260
0.121260 0.121260 0.121260
0.121260 0.121260 0.121260
0.121260 0.121260 0.121260
0.121260 0.121260 0.121260
0.121260 0.121260 0.121260
0.121260 0.121260 0.121260
0.121260 0.121260 0.121260
0.121260 0.121260 0.121260
0.121260 0.121260 0.121260
0.121260 0.121260 0.121260
0.121260 0.121260 0.121260
0.121260 0.121260 0.121260
0.121260 0.121260 0.121260
0.121260 0.121260 0.121260
0.121260 0.121260 0.121260
0.121260 0.121260 0.121260
0.121260 0.121260 0.121260
0.121260 0.121260 0.121260
0.121260 0.121260 0.121260
0.121260 0.121260 0.121260
0.121260 0.121260 0.121260
0.262816 0.262816 0.262816
0.435647 0.435647 0.435647
0.555333 0.555333 0.555333
0.622715 0.622715 0.622715
0.121260 0.121260 0.121260
0.433492 0.433492 0.433492
0.543197 0.543197 0.543197
0.686871 0.686871 0.686871
0.789413 0.789413 0.789413
0.121260 0.121260 0.121260
0.516528 0.516528 0.516528
0.688617 0.688617 0.688617
0.786861 0.786861 0.786861
0.861957 0.861957 0.861957
0.121260 0.121260 0.121260
0.538477 0.538477 0.538477
0.745401 0.745401 0.745401
0.851877 0.851877 0.851877
0.910212 0.910212 0.910212
0.121260 0.121260 0.121260
0.121260 0.121260 0.121260
0.121260 0.121260 0.121260
0.121260 0.121260 0.121260
0.121260 0.121260 0.121260
0.121260 0.121260 0.121260
0.381255 0.381255 0.381255
0.492222 0.492222 0.492222
0.572838 0.572838 0.572838
0.631899 0.631899 0.631899
0.121260 0.121260 0.121260
0.410278 0.410278 0.410278
0.504596 0.504596 0.504596
0.685598 0.685598 0.685598
0.793475 0.793475 0.793475
0.121260 0.121260 0.121260
0.505584 0.505584 0.505584
0.679121 0.679121 0.679121
0.781045 0.781045 0.781045
0.865568 0.865568 0.865568
0.121260 0.121260 0.121260
0.541160 0.541160 0.541160
0.751047 0.751047 0.751047
0.858721 0.858721 0.858721
0.919204 0.919204 0.919204
0.121260 0.121260 0.121260
0.121260 0.121260 0.121260
0.121260 0.121260 0.121260
0.121260 0.121260 0.121260
0.121260 0.121260 0.121260
0.121260 0.121260 0.121260
0.456570 0.456570 0.456570
0.567149 0.567149 0.567149
0.615634 0.615634 0.615634
0.650853 0.650853 0.650853
0.121260 0.121260 0.121260
0.437118 0.437118 0.437118
0.597490 0.597490 0.597490
0.721077 0.721077 0.721077
0.804823 0.804823 0.804823
0.121260 0.121260 0.121260
0.492297 0.492297 0.492297
0.669401 0.669401 0.669401
0.767470 0.767470 0.767470
0.868195 0.868195 0.868195
0.121260 0.121260 0.121260
0.536804 0.536804 0.536804
0.749241 0.749241 0.749241
0.860015 0.860015 0.860015
0.923870 0.923870 0.923870
0.121260 0.121260 0.121260
0.121260 0.121260 0.121260
0.121260 0.121260 0.121260
0.121260 0.121260 0.121260
0.121260 0.121260 0.121260
0.121260 0.121260 0.121260
0.490569 0.490569 0.490569
0.614885 0.614885 0.614885
0.655384 0.655384 0.655384
0.673197 0.673197 0.673197
0.121260 0.121260 0.121260
0.488300 0.488300 0.488300
0.669886 0.669886 0.669886
0.767208 0.767208 0.767208
0.822752 0.822752 0.822752
0.121260 0.121260 0.121260
0.494328 0.494328 0.494328
0.688863 0.688863 0.688863
0.804003 0.804003 0.804003
0.877444 0.877444 0.877444
0.121260 0.121260 0.121260
0.531756 0.531756 0.531756
0.747145 0.747145 0.747145
0.861264 0.861264 0.861264
0.927107 0.927107 0.927107
