trix_modern/TriX_Red25_Punchy.cube
TITLE "Tri-X Red25 Punchy"
# Adobe RGB in/out. REPLACES AgX. R=0.9735 G=0.0265 B=0.0000
LUT_3D_SIZE 5
DOMAIN_MIN 0.0 0.0 0.0
DOMAIN_MAX 1.0 1.0 1.0
0.091936 0.091936 0.091936
0.091936 0.091936 0.091936
0.091936 0.091936 0.091936
0.091936 0.091936 0.091936
0.091936 0.091936 0.091936
0.091936 0.091936 0.091936
0.232313 0.232313 0.232313
0.683760 0.683760 0.683760
0.935032 0.935032 0.935032
0.984445 0.984445 0.984445
0.091936 0.091936 0.091936
0.280590 0.280590 0.280590
0.609983 0.609983 0.609983
0.881469 0.881469 0.881469
0.977461 0.977461 0.977461
0.091936 0.091936 0.091936
0.251419 0.251419 0.251419
0.614291 0.614291 0.614291
0.853790 0.853790 0.853790
0.966453 0.966453 0.966453
0.091936 0.091936 0.091936
0.204790 0.204790 0.204790
0.576747 0.576747 0.576747
0.834486 0.834486 0.834486
0.958751 0.958751 0.958751
0.091936 0.091936 0.091936
0.091936 0.091936 0.091936
0.091936 0.091936 0.091936
0.091936 0.091936 0.091936
0.091936 0.091936 0.091936
0.091936 0.091936 0.091936
0.152941 0.152941 0.152941
0.646921 0.646921 0.646921
0.925991 0.925991 0.925991
0.983607 0.983607 0.983607
0.091936 0.091936 0.091936
0.251899 0.251899 0.251899
0.574573 0.574573 0.574573
0.866438 0.866438 0.866438
0.975604 0.975604 0.975604
0.091936 0.091936 0.091936
0.242031 0.242031 0.242031
0.601858 0.601858 0.601858
0.844563 0.844563 0.844563
0.964834 0.964834 0.964834
0.091936 0.091936 0.091936
0.202100 0.202100 0.202100
0.573217 0.573217 0.573217
0.832083 0.832083 0.832083
0.958396 0.958396 0.958396
0.091936 0.091936 0.091936
0.091936 0.091936 0.091936
0.091936 0.091936 0.091936
0.091936 0.091936 0.091936
0.091936 0.091936 0.091936
0.091936 0.091936 0.091936
0.333815 0.333815 0.333815
0.713364 0.713364 0.713364
0.929336 0.929336 0.929336
0.983095 0.983095 0.983095
0.091936 0.091936 0.091936
0.216547 0.216547 0.216547
0.513339 0.513339 0.513339
0.851072 0.851072 0.851072
0.973420 0.973420 0.973420
0.091936 0.091936 0.091936
0.222035 0.222035 0.222035
0.577515 0.577515 0.577515
0.825297 0.825297 0.825297
0.961699 0.961699 0.961699
0.091936 0.091936 0.091936
0.195323 0.195323 0.195323
0.564624 0.564624 0.564624
0.826312 0.826312 0.826312
0.957541 0.957541 0.957541
0.091936 0.091936 0.091936
0.091936 0.091936 0.091936
0.091936 0.091936 0.091936
0.091936 0.091936 0.091936
0.091936 0.091936 0.091936
0.091936 0.091936 0.091936
0.395286 0.395286 0.395286
0.803704 0.803704 0.803704
0.948339 0.948339 0.948339
0.983991 0.983991 0.983991
0.091936 0.091936 0.091936
0.239139 0.239139 0.239139
0.612475 0.612475 0.612475
0.877746 0.877746 0.877746
0.974462 0.974462 0.974462
0.091936 0.091936 0.091936
0.205337 0.205337 0.205337
0.560888 0.560888 0.560888
0.803966 0.803966 0.803966
0.960113 0.960113 0.960113
0.091936 0.091936 0.091936
0.187355 0.187355 0.187355
0.555000 0.555000 0.555000
0.820165 0.820165 0.820165
0.956659 0.956659 0.956659
0.091936 0.091936 0.091936
0.091936 0.091936 0.091936
0.091936 0.091936 0.091936
0.091936 0.091936 0.091936
0.091936 0.091936 0.091936
0.091936 0.091936 0.091936
0.395286 0.395286 0.395286
0.846986 0.846986 0.846986
0.962525 0.962525 0.962525
0.985356 0.985356 0.985356
0.091936 0.091936 0.091936
0.285496 0.285496 0.285496
0.682121 0.682121 0.682121
0.907464 0.907464 0.907464
0.977685 0.977685 0.977685
0.091936 0.091936 0.091936
0.203256 0.203256 0.203256
0.573501 0.573501 0.573501
0.835967 0.835967 0.835967
0.962507 0.962507 0.962507
0.091936 0.091936 0.091936
0.180572 0.180572 0.180572
0.547531 0.547531 0.547531
0.816267 0.816267 0.816267
0.956150 0.956150 0.956150
