trix_modern/TriX_NoFilter_ExtraPunchy.cube
TITLE "Tri-X NoFilter ExtraPunchy"
# Adobe RGB in/out. REPLACES AgX. R=0.2974 G=0.2859 B=0.4167
LUT_3D_SIZE 5
DOMAIN_MIN 0.0 0.0 0.0
DOMAIN_MAX 1.0 1.0 1.0
0.092237 0.092237 0.092237
0.092237 0.092237 0.092237
0.092237 0.092237 0.092237
0.092237 0.092237 0.092237
0.092237 0.092237 0.092237
0.092237 0.092237 0.092237
0.092237 0.092237 0.092237
0.092237 0.092237 0.092237
0.092237 0.092237 0.092237
0.092237 0.092237 0.092237
0.092237 0.092237 0.092237
0.092237 0.092237 0.092237
0.092237 0.092237 0.092237
0.092237 0.092237 0.092237
0.092237 0.092237 0.092237
0.092237 0.092237 0.092237
0.092237 0.092237 0.092237
0.092237 0.092237 0.092237
0.092237 0.092237 0.092237
0.092237 0.092237 0.092237
0.092237 0.092237 0.092237
0.092237 0.092237 0.092237
0.092237 0.092237 0.092237
0.092237 0.092237 0.092237
0.092237 0.092237 0.092237
0.092237 0.092237 0.092237
0.092237 0.092237 0.092237
0.092237 0.092237 0.092237
0.092237 0.092237 0.092237
0.092237 0.092237 0.092237
0.092237 0.092237 0.092237
0.134598 0.134598 0.134598
0.314347 0.314347 0.314347
0.416981 0.416981 0.416981
0.459152 0.459152 0.459152
0.092237 0.092237 0.092237
0.321306 0.321306 0.321306
0.366411 0.366411 0.366411
0.481152 0.481152 0.481152
0.576652 0.576652 0.576652
0.092237 0.092237 0.092237
0.381131 0.381131 0.381131
0.492867 0.492867 0.492867
0.555326 0.555326 0.555326
0.633507 0.633507 0.633507
0.092237 0.092237 0.092237
0.371609 0.371609 0.371609
0.525766 0.525766 0.525766
0.618129 0.618129 0.618129
0.685730 0.685730 0.685730
0.092237 0.092237 0.092237
0.092237 0.092237 0.092237
0.092237 0.092237 0.092237
0.092237 0.092237 0.092237
0.092237 0.092237 0.092237
0.092237 0.092237 0.092237
0.538293 0.538293 0.538293
0.662229 0.662229 0.662229
0.731616 0.731616 0.731616
0.759004 0.759004 0.759004
0.092237 0.092237 0.092237
0.496728 0.496728 0.496728
0.545947 0.545947 0.545947
0.766026 0.766026 0.766026
0.843802 0.843802 0.843802
0.092237 0.092237 0.092237
0.624710 0.624710 0.624710
0.764980 0.764980 0.764980
0.820523 0.820523 0.820523
0.876148 0.876148 0.876148
0.092237 0.092237 0.092237
0.640154 0.640154 0.640154
0.813060 0.813060 0.813060
0.871842 0.871842 0.871842
0.907031 0.907031 0.907031
0.092237 0.092237 0.092237
0.092237 0.092237 0.092237
0.092237 0.092237 0.092237
0.092237 0.092237 0.092237
0.092237 0.092237 0.092237
0.092237 0.092237 0.092237
0.864866 0.864866 0.864866
0.898986 0.898986 0.898986
0.894819 0.894819 0.894819
0.890097 0.890097 0.890097
0.092237 0.092237 0.092237
0.735583 0.735583 0.735583
0.852981 0.852981 0.852981
0.909092 0.909092 0.909092
0.938357 0.938357 0.938357
0.092237 0.092237 0.092237
0.764427 0.764427 0.764427
0.872297 0.872297 0.872297
0.905124 0.905124 0.905124
0.953542 0.953542 0.953542
0.092237 0.092237 0.092237
0.793021 0.793021 0.793021
0.907716 0.907716 0.907716
0.948871 0.948871 0.948871
0.969297 0.969297 0.969297
0.092237 0.092237 0.092237
0.092237 0.092237 0.092237
0.092237 0.092237 0.092237
0.092237 0.092237 0.092237
0.092237 0.092237 0.092237
0.092237 0.092237 0.092237
0.951177 0.951177 0.951177
0.970424 0.970424 0.970424
0.964326 0.964326 0.964326
0.955841 0.955841 0.955841
0.092237 0.092237 0.092237
0.890299 0.890299 0.890299
0.958676 0.958676 0.958676
0.972976 0.972976 0.972976
0.979463 0.979463 0.979463
0.092237 0.092237 0.092237
0.852489 0.852489 0.852489
0.940684 0.940684 0.940684
0.968944 0.968944 0.968944
0.981671 0.981671 0.981671
0.092237 0.092237 0.092237
0.864368 0.864368 0.864368
0.955369 0.955369 0.955369
0.979228 0.979228 0.979228
0.986028 0.986028 0.986028
