velvia/Velvia50_Modern_Normal.cube
TITLE "Velvia 50 Modern Normal"
# Adobe RGB in/out. REPLACES AgX. Velvia 50 Modern Normal.
LUT_3D_SIZE 33
DOMAIN_MIN 0.0 0.0 0.0
DOMAIN_MAX 1.0 1.0 1.0
0.090873 0.083221 0.090772
0.090873 0.083221 0.090772
0.090956 0.083221 0.090772
0.091619 0.083221 0.090772
0.093177 0.083308 0.090772
0.099613 0.083605 0.090772
0.120335 0.084135 0.090772
0.182482 0.084921 0.090772
0.271804 0.086516 0.090772
0.402897 0.089179 0.090776
0.558148 0.097408 0.090783
0.690221 0.108066 0.090790
0.780390 0.133724 0.090798
0.851026 0.176028 0.090807
0.893313 0.226991 0.090815
0.918882 0.291907 0.090827
0.935669 0.357934 0.090847
0.948166 0.427375 0.090868
0.957262 0.495285 0.090906
0.964960 0.560927 0.090941
0.970718 0.622477 0.090973
0.976151 0.677379 0.091029
0.980548 0.731546 0.091085
0.982619 0.777610 0.091137
0.984581 0.816875 0.091196
0.986443 0.836965 0.091294
0.988213 0.854111 0.091397
0.989896 0.868028 0.091525
0.989973 0.886566 0.091721
0.989973 0.904578 0.091893
0.989973 0.922079 0.092183
0.989973 0.930062 0.092518
0.989973 0.935503 0.092897
0.090873 0.083221 0.090772
0.090873 0.083221 0.090772
0.090873 0.083221 0.090772
0.091387 0.083221 0.090772
0.092644 0.083309 0.090772
0.098647 0.083607 0.090772
0.116864 0.084133 0.090772
0.174598 0.084921 0.090772
0.262206 0.086521 0.090772
0.389418 0.089192 0.090775
0.549181 0.097476 0.090783
0.683521 0.108173 0.090790
0.771536 0.133979 0.090798
0.847989 0.176365 0.090807
0.891776 0.227442 0.090815
0.918147 0.292329 0.090826
0.935024 0.358335 0.090846
0.947777 0.427881 0.090867
0.956967 0.495721 0.090905
0.964764 0.561380 0.090940
0.970543 0.622814 0.090973
0.975993 0.677829 0.091028
0.980488 0.731859 0.091083
0.982565 0.777871 0.091136
0.984533 0.817135 0.091194
0.986399 0.837081 0.091292
0.988172 0.854224 0.091395
0.989859 0.868155 0.091522
0.989973 0.886690 0.091720
0.989973 0.904699 0.091888
0.989973 0.922197 0.092179
0.989973 0.930102 0.092512
0.989973 0.935533 0.092891
0.090873 0.083221 0.090772
0.090873 0.083221 0.090772
0.090873 0.083221 0.090772
0.091033 0.083221 0.090772
0.091942 0.083315 0.090772
0.095735 0.083613 0.090772
0.107716 0.084132 0.090772
0.149203 0.084929 0.090772
0.236529 0.086552 0.090772
0.352679 0.089250 0.090773
0.507808 0.097752 0.090781
0.660914 0.108591 0.090788
0.760337 0.134950 0.090796
0.837472 0.177628 0.090805
0.886406 0.229115 0.090814
0.915565 0.293885 0.090823
0.932754 0.360202 0.090844
0.946400 0.429729 0.090863
0.955920 0.497311 0.090901
0.964066 0.563028 0.090936
0.969919 0.624036 0.090970
0.975435 0.679461 0.091023
0.980275 0.732989 0.091079
0.982373 0.778816 0.091132
0.984359 0.818076 0.091189
0.986242 0.837501 0.091285
0.988029 0.854631 0.091388
0.989728 0.868612 0.091513
0.989973 0.887136 0.091718
0.989973 0.905135 0.091870
0.989973 0.922624 0.092162
0.989973 0.930246 0.092490
0.989973 0.935645 0.092871
0.090873 0.083312 0.090772
0.090873 0.083309 0.090772
0.090873 0.083300 0.090772
0.091018 0.083296 0.090772
0.091582 0.083377 0.090772
0.093289 0.083641 0.090772
0.100245 0.084166 0.090772
0.123275 0.084992 0.090772
0.198836 0.086698 0.090772
0.303941 0.089421 0.090772
0.458916 0.098383 0.090779
0.612289 0.109485 0.090787
0.738540 0.136954 0.090794
0.819602 0.180165 0.090803
0.877116 0.232416 0.090812
0.910971 0.297551 0.090820
0.928754 0.363581 0.090840
0.943958 0.433252 0.090859
0.954056 0.500322 0.090894
0.962584 0.566134 0.090930
0.968800 0.626336 0.090964
0.974430 0.682526 0.091014
0.979746 0.735105 0.091071
0.982026 0.780579 0.091124
0.984045 0.819828 0.091179
0.985956 0.838281 0.091271
0.987769 0.855389 0.091376
0.989491 0.869459 0.091497
0.989973 0.887963 0.091708
0.989973 0.905943 0.091837
0.989973 0.923414 0.092132
0.989973 0.930513 0.092450
0.989973 0.935851 0.092834
0.090873 0.083756 0.090772
0.090873 0.083740 0.090772
0.090915 0.083687 0.090772
0.091090 0.083659 0.090772
0.091669 0.083653 0.090772
0.092514 0.083823 0.090772
0.097450 0.084299 0.090772
0.111105 0.085181 0.090772
0.163564 0.087111 0.090772
0.253356 0.089937 0.090772
0.386291 0.099473 0.090776
0.555700 0.111383 0.090784
0.695582 0.140473 0.090791
0.793467 0.184847 0.090801
0.860800 0.238448 0.090809
0.900241 0.305292 0.090817
0.923168 0.368814 0.090834
0.940302 0.438822 0.090854
0.951409 0.505033 0.090885
0.960202 0.570962 0.090922
0.967195 0.629902 0.090957
0.972984 0.687262 0.091001
0.978439 0.738356 0.091059
0.981522 0.783277 0.091114
0.983588 0.821744 0.091165
0.985540 0.839467 0.091251
0.987390 0.855902 0.091357
0.989144 0.870743 0.091472
0.989973 0.889214 0.091666
0.989973 0.907164 0.091789
0.989973 0.924606 0.092088
0.989973 0.930916 0.092393
0.989973 0.936160 0.092781
0.090873 0.085396 0.090772
0.090873 0.085322 0.090772
0.090992 0.085122 0.090772
0.091445 0.084875 0.090772
0.091961 0.084565 0.090772
0.092935 0.084463 0.090772
0.096016 0.084741 0.090772
0.105825 0.085868 0.090772
0.137133 0.087901 0.090772
0.220172 0.091344 0.090772
0.328141 0.101193 0.090774
0.482578 0.114577 0.090782
0.643852 0.146851 0.090789
0.755446 0.192304 0.090797
0.835077 0.248064 0.090807
0.886489 0.317013 0.090815
0.916304 0.376515 0.090828
0.934065 0.446910 0.090848
0.947618 0.511785 0.090873
0.957182 0.577827 0.090911
0.965150 0.634956 0.090947
0.971132 0.693948 0.090984
0.976755 0.742910 0.091044
0.980871 0.787038 0.091100
0.982995 0.823541 0.091153
0.984999 0.841106 0.091225
0.986894 0.856551 0.091334
0.988689 0.872509 0.091441
0.989973 0.890933 0.091611
0.989973 0.908838 0.091736
0.989973 0.925598 0.092030
0.989973 0.931467 0.092320
0.989973 0.936583 0.092711
0.090873 0.090288 0.090772
0.090873 0.090510 0.090772
0.091046 0.089662 0.090772
0.091669 0.088592 0.090772
0.092296 0.087444 0.090772
0.093756 0.086723 0.090772
0.097296 0.086613 0.090772
0.103064 0.087088 0.090772
0.123236 0.089121 0.090772
0.187508 0.095388 0.090772
0.282265 0.104143 0.090772
0.424206 0.121251 0.090779
0.582346 0.156487 0.090787
0.716803 0.203826 0.090794
0.807809 0.262287 0.090804
0.870744 0.327824 0.090812
0.907128 0.387334 0.090820
0.926934 0.458117 0.090842
0.943115 0.521000 0.090861
0.953650 0.587102 0.090899
0.962478 0.641769 0.090936
0.968931 0.702026 0.090970
0.974744 0.748965 0.091026
0.980089 0.792008 0.091084
0.982279 0.825771 0.091138
0.984343 0.843249 0.091201
0.986292 0.857396 0.091305
0.988135 0.874807 0.091411
0.989881 0.893162 0.091549
0.989973 0.911006 0.091728
0.989973 0.926334 0.091960
0.989973 0.932176 0.092255
0.989973 0.937077 0.092624
0.090873 0.107601 0.090772
0.090924 0.108091 0.090772
0.091131 0.107277 0.090772
0.091814 0.102192 0.090772
0.092744 0.098063 0.090772
0.095117 0.094239 0.090772
0.098902 0.092198 0.090772
0.106256 0.092136 0.090772
0.119307 0.093858 0.090772
0.170041 0.100659 0.090772
0.250150 0.110371 0.090772
0.367168 0.133482 0.090778
0.524119 0.170710 0.090785
0.670712 0.217316 0.090791
0.766786 0.276707 0.090801
0.845848 0.340409 0.090809
0.892243 0.402056 0.090817
0.919275 0.470790 0.090834
0.936933 0.533208 0.090855
0.949577 0.598859 0.090886
0.958891 0.650658 0.090924
0.966460 0.709939 0.090959
0.972469 0.756750 0.091007
0.978118 0.798353 0.091066
0.981459 0.828595 0.091122
0.983588 0.845953 0.091178
0.985595 0.858907 0.091273
0.987491 0.877688 0.091381
0.989286 0.895952 0.091508
0.989973 0.913711 0.091718
0.989973 0.927250 0.091878
0.989973 0.933057 0.092179
0.989973 0.937635 0.092524
0.090920 0.163853 0.090772
0.090980 0.165090 0.090772
0.091281 0.159361 0.090772
0.091928 0.142019 0.090772
0.093223 0.125977 0.090772
0.096464 0.114945 0.090772
0.100827 0.109644 0.090772
0.109169 0.107495 0.090772
0.127596 0.107775 0.090772
0.164462 0.110353 0.090772
0.232089 0.123510 0.090772
0.330939 0.152894 0.090777
0.473154 0.191827 0.090783
0.620292 0.238692 0.090790
0.740491 0.296246 0.090798
0.820089 0.357203 0.090807
0.877444 0.421585 0.090815
0.911444 0.486755 0.090827
0.929536 0.549130 0.090848
0.944809 0.611992 0.090872
0.955077 0.661985 0.090911
0.963805 0.719934 0.090947
0.970004 0.766524 0.090986
0.975829 0.806262 0.091047
0.980556 0.832082 0.091104
0.982752 0.849278 0.091158
0.984820 0.862565 0.091237
0.986773 0.881210 0.091348
0.988618 0.899352 0.091463
0.989973 0.917001 0.091656
0.989973 0.928358 0.091787
0.989973 0.934121 0.092094
0.989973 0.938309 0.092411
0.090985 0.267521 0.090772
0.091030 0.265149 0.090772
0.091421 0.247912 0.090772
0.092026 0.223047 0.090772
0.093596 0.202640 0.090772
0.097507 0.179881 0.090772
0.103559 0.164082 0.090772
0.114074 0.154055 0.090772
0.135958 0.149945 0.090772
0.176154 0.151462 0.090772
0.228881 0.158172 0.090772
0.305077 0.180109 0.090776
0.435750 0.219056 0.090783
0.577615 0.271512 0.090789
0.703613 0.329665 0.090796
0.794115 0.382697 0.090805
0.858839 0.446977 0.090813
0.898493 0.507326 0.090821
0.922204 0.569498 0.090842
0.939551 0.626577 0.090861
0.951176 0.680437 0.090898
0.960229 0.732324 0.090936
0.967426 0.777369 0.090970
0.973415 0.815935 0.091027
0.979056 0.836303 0.091085
0.981857 0.853289 0.091140
0.983986 0.866965 0.091204
0.985994 0.885433 0.091312
0.987892 0.903417 0.091419
0.989688 0.920924 0.091571
0.989973 0.929674 0.091732
0.989973 0.935214 0.092001
0.989973 0.939105 0.092300
0.091035 0.373500 0.090772
0.091071 0.369386 0.090772
0.091555 0.355797 0.090772
0.092130 0.337106 0.090772
0.093902 0.310166 0.090772
0.098325 0.279913 0.090772
0.105759 0.256749 0.090772
0.118311 0.234626 0.090772
0.145273 0.223167 0.090772
0.187975 0.220206 0.090772
0.240492 0.222492 0.090773
0.304307 0.231835 0.090777
0.401438 0.261847 0.090782
0.543865 0.310329 0.090788
0.670880 0.358235 0.090794
0.761897 0.415353 0.090803
0.836791 0.476031 0.090811
0.885545 0.533339 0.090818
0.915199 0.594630 0.090836
0.932736 0.644599 0.090856
0.946730 0.702344 0.090886
0.956548 0.747428 0.090924
0.964811 0.789476 0.090959
0.970944 0.824163 0.091007
0.976725 0.841332 0.091066
0.980924 0.856521 0.091122
0.983111 0.872174 0.091180
0.985174 0.890418 0.091276
0.987123 0.908203 0.091385
0.988967 0.925351 0.091516
0.989973 0.931212 0.091720
0.989973 0.936383 0.091904
0.989973 0.940031 0.092208
0.091102 0.486584 0.090772
0.091256 0.483157 0.090772
0.091683 0.471523 0.090772
0.092349 0.450803 0.090772
0.094441 0.422283 0.090772
0.098983 0.392715 0.090772
0.107435 0.365644 0.090772
0.121827 0.345248 0.090772
0.157330 0.331355 0.090772
0.203783 0.323274 0.090773
0.251987 0.321084 0.090776
0.319641 0.324570 0.090780
0.405329 0.333363 0.090784
0.507061 0.351661 0.090788
0.639814 0.400141 0.090794
0.743899 0.456735 0.090802
0.817671 0.509116 0.090809
0.873785 0.565595 0.090817
0.907402 0.620040 0.090831
0.926312 0.667762 0.090851
0.942408 0.721259 0.090876
0.952961 0.765562 0.090913
0.961800 0.803903 0.090949
0.968479 0.830446 0.090988
0.974378 0.847234 0.091048
0.979952 0.859870 0.091105
0.982216 0.878260 0.091159
0.984329 0.896226 0.091239
0.986326 0.913765 0.091350
0.988216 0.927213 0.091468
0.989973 0.932985 0.091668
0.989973 0.937574 0.091804
0.989973 0.941095 0.092113
0.091304 0.594646 0.090772
0.091433 0.591460 0.090772
0.091804 0.580272 0.090772
0.092557 0.561190 0.090772
0.095046 0.536818 0.090772
0.099527 0.510191 0.090772
0.108571 0.484233 0.090772
0.128114 0.461265 0.090772
0.165452 0.438964 0.090773
0.215994 0.423320 0.090776
0.265010 0.414915 0.090779
0.334950 0.413747 0.090783
0.424248 0.419579 0.090786
0.514923 0.432067 0.090789
0.611887 0.451788 0.090793
0.721736 0.498884 0.090801
0.800476 0.549405 0.090808
0.859447 0.603899 0.090816
0.896770 0.647384 0.090827
0.920420 0.701486 0.090846
0.937176 0.743695 0.090866
0.949340 0.784375 0.090904
0.958481 0.820766 0.090939
0.966078 0.837736 0.090973
0.972068 0.854069 0.091031
0.977738 0.867273 0.091088
0.981318 0.885283 0.091142
0.983476 0.902914 0.091207
0.985516 0.920155 0.091316
0.987448 0.929340 0.091423
0.989279 0.934915 0.091582
0.989973 0.938841 0.091733
0.989973 0.942303 0.092017
0.091486 0.686945 0.090772
0.091595 0.683966 0.090772
0.091920 0.673671 0.090772
0.092813 0.657676 0.090772
0.095605 0.640108 0.090772
0.100178 0.620094 0.090772
0.110223 0.597780 0.090772
0.131632 0.572108 0.090774
0.172324 0.549691 0.090777
0.224319 0.532354 0.090780
0.277792 0.520790 0.090782
0.349805 0.515298 0.090785
0.443496 0.515890 0.090788
0.536196 0.522383 0.090791
0.623856 0.534474 0.090796
0.704661 0.551803 0.090801
0.776790 0.596897 0.090808
0.844451 0.637936 0.090815
0.887493 0.684802 0.090824
0.915145 0.729022 0.090843
0.931812 0.769897 0.090861
0.945652 0.805054 0.090896
0.955355 0.830037 0.090931
0.963786 0.846079 0.090965
0.969839 0.858088 0.091015
0.975582 0.875733 0.091072
0.980435 0.893295 0.091127
0.982630 0.910531 0.091185
0.984708 0.926010 0.091283
0.986678 0.931744 0.091391
0.988545 0.936728 0.091524
0.989973 0.940267 0.091722
0.989973 0.943662 0.091922
0.091651 0.768408 0.090772
0.091744 0.766545 0.090772
0.092031 0.760052 0.090772
0.093114 0.748882 0.090772
0.096140 0.733853 0.090772
0.101150 0.716285 0.090774
0.111914 0.696566 0.090776
0.135246 0.670142 0.090778
0.178125 0.650161 0.090780
0.231463 0.635044 0.090783
0.289948 0.623690 0.090785
0.363544 0.616550 0.090788
0.459730 0.613833 0.090791
0.552272 0.615549 0.090794
0.638518 0.621556 0.090799
0.714157 0.631607 0.090804
0.767042 0.645399 0.090808
0.831997 0.681059 0.090814
0.879558 0.722923 0.090823
0.910363 0.760651 0.090841
0.927021 0.795140 0.090858
0.942297 0.824677 0.090889
0.952469 0.840135 0.090924
0.961011 0.855475 0.090958
0.967729 0.868009 0.091001
0.973519 0.885290 0.091058
0.979024 0.902338 0.091113
0.981806 0.919117 0.091165
0.983915 0.928856 0.091253
0.985916 0.934432 0.091361
0.987816 0.938423 0.091482
0.989620 0.941858 0.091691
0.989973 0.945176 0.091829
0.091802 0.826792 0.090773
0.091883 0.826159 0.090773
0.092189 0.823938 0.090774
0.093409 0.818615 0.090774
0.096660 0.807032 0.090776
0.102094 0.793201 0.090777
0.113392 0.778177 0.090779
0.138283 0.761343 0.090781
0.182937 0.744279 0.090783
0.237424 0.729336 0.090785
0.299901 0.717264 0.090788
0.375712 0.708588 0.090790
0.470818 0.703624 0.090793
0.564809 0.702508 0.090797
0.652807 0.705227 0.090802
0.723656 0.711652 0.090806
0.771574 0.721571 0.090811
0.827212 0.734725 0.090815
0.872551 0.760397 0.090822
0.903405 0.792144 0.090840
0.922815 0.822185 0.090857
0.938532 0.836739 0.090885
0.949684 0.851367 0.090919
0.958374 0.862588 0.090952
0.965763 0.879330 0.090989
0.971576 0.895964 0.091046
0.977116 0.912435 0.091101
0.981015 0.926456 0.091153
0.983148 0.932010 0.091224
0.985174 0.936827 0.091334
0.987101 0.940277 0.091442
0.988932 0.943617 0.091617
0.989973 0.946693 0.091741
0.091940 0.855225 0.090777
0.092011 0.854678 0.090777
0.092455 0.852755 0.090777
0.093697 0.849376 0.090778
0.097170 0.844680 0.090779
0.102990 0.838948 0.090780
0.114709 0.832555 0.090782
0.140957 0.825911 0.090784
0.186875 0.817231 0.090786
0.242271 0.804321 0.090788
0.307962 0.793333 0.090790
0.388099 0.784761 0.090793
0.480460 0.778951 0.090797
0.576063 0.776104 0.090801
0.662758 0.776302 0.090805
0.732463 0.779518 0.090809
0.784735 0.785643 0.090813
0.831303 0.794504 0.090817
0.870597 0.805895 0.090825
0.897217 0.822952 0.090839
0.919175 0.836314 0.090856
0.934693 0.849922 0.090882
0.946954 0.859943 0.090915
0.955985 0.875863 0.090947
0.963959 0.891825 0.090980
0.969774 0.907756 0.091036
0.975328 0.923596 0.091090
0.980266 0.930135 0.091142
0.982416 0.935287 0.091204
0.984461 0.938980 0.091308
0.986408 0.942311 0.091413
0.988262 0.945545 0.091551
0.989973 0.947947 0.091728
0.092068 0.881314 0.090780
0.092174 0.880768 0.090780
0.092739 0.878842 0.090781
0.093977 0.875443 0.090781
0.097670 0.870683 0.090782
0.103851 0.864815 0.090784
0.115905 0.858200 0.090785
0.143403 0.855705 0.090787
0.190063 0.849978 0.090789
0.246112 0.844242 0.090791
0.314416 0.839140 0.090793
0.399146 0.834912 0.090796
0.498028 0.831746 0.090800
0.585715 0.829772 0.090804
0.670780 0.829066 0.090808
0.738886 0.829653 0.090811
0.792034 0.831513 0.090815
0.835219 0.834589 0.090819
0.872968 0.838798 0.090831
0.896553 0.844036 0.090843
0.916055 0.851459 0.090856
0.931354 0.860451 0.090880
0.944543 0.875282 0.090913
0.953848 0.890312 0.090944
0.961925 0.905457 0.090975
0.968123 0.920644 0.091028
0.973674 0.928928 0.091082
0.978986 0.934132 0.091133
0.981725 0.938032 0.091190
0.983784 0.941318 0.091286
0.985747 0.944522 0.091391
0.987618 0.947236 0.091519
0.989402 0.949310 0.091720
0.092321 0.911018 0.090783
0.092469 0.910541 0.090783
0.093112 0.908857 0.090784
0.094665 0.905870 0.090784
0.098162 0.901659 0.090785
0.104687 0.896420 0.090786
0.117011 0.890431 0.090788
0.145510 0.884016 0.090789
0.192769 0.877514 0.090791
0.249069 0.871254 0.090793
0.319371 0.865535 0.090797
0.406758 0.860612 0.090800
0.503726 0.857670 0.090803
0.593593 0.856689 0.090807
0.677498 0.856158 0.090810
0.744414 0.856101 0.090814
0.796842 0.856521 0.090818
0.838778 0.857408 0.090825
0.875059 0.859702 0.090836
0.898121 0.864614 0.090848
0.916113 0.870598 0.090859
0.928474 0.877845 0.090880
0.942434 0.891721 0.090912
0.951954 0.905855 0.090942
0.959968 0.920167 0.090972
0.966627 0.928503 0.091023
0.972160 0.933496 0.091075
0.977466 0.937501 0.091126
0.981082 0.940699 0.091179
0.983147 0.943837 0.091268
0.985120 0.946733 0.091372
0.987004 0.948783 0.091490
0.988803 0.951095 0.091698
0.092612 0.930172 0.090786
0.092793 0.930028 0.090786
0.093466 0.929517 0.090787
0.095350 0.928606 0.090787
0.098645 0.927312 0.090788
0.105504 0.925685 0.090789
0.118050 0.921098 0.090790
0.147346 0.915254 0.090792
0.195924 0.909246 0.090794
0.251265 0.903359 0.090797
0.322971 0.897860 0.090800
0.412339 0.892985 0.090803
0.506384 0.888934 0.090806
0.599642 0.885867 0.090810
0.682801 0.883900 0.090813
0.748614 0.883110 0.090817
0.800859 0.883532 0.090820
0.841832 0.885170 0.090831
0.876673 0.887994 0.090842
0.899532 0.891949 0.090853
0.916755 0.896963 0.090865
0.928853 0.902952 0.090889
0.940718 0.909826 0.090913
0.950198 0.922396 0.090942
0.958229 0.928951 0.090971
0.965283 0.933659 0.091019
0.970787 0.937449 0.091071
0.976075 0.940516 0.091121
0.980487 0.943545 0.091170
0.982555 0.946473 0.091253
0.984533 0.948477 0.091356
0.986425 0.950444 0.091466
0.988234 0.954095 0.091651
0.093008 0.938181 0.090789
0.093191 0.938099 0.090789
0.093802 0.937810 0.090789
0.096015 0.937293 0.090790
0.099119 0.936496 0.090790
0.106304 0.935368 0.090791
0.119036 0.933917 0.090793
0.150495 0.932096 0.090795
0.198692 0.930193 0.090798
0.252812 0.928294 0.090800
0.325373 0.926481 0.090803
0.416052 0.924046 0.090806
0.508181 0.919990 0.090809
0.603895 0.916761 0.090812
0.686659 0.914480 0.090816
0.750895 0.913234 0.090819
0.803976 0.913076 0.090827
0.844268 0.914028 0.090837
0.877993 0.916086 0.090848
0.900713 0.919218 0.090858
0.917301 0.923376 0.090875
0.929290 0.926384 0.090898
0.941022 0.928474 0.090921
0.948922 0.930834 0.090944
0.956693 0.934657 0.090971
0.964085 0.937922 0.091018
0.969552 0.940814 0.091068
0.974813 0.943695 0.091117
0.979872 0.946491 0.091164
0.982009 0.948424 0.091241
0.983988 0.950326 0.091343
0.985883 0.953794 0.091446
0.987699 0.957289 0.091611
0.093398 0.943908 0.090791
0.093564 0.943837 0.090791
0.094332 0.943589 0.090792
0.096658 0.943143 0.090792
0.099583 0.942505 0.090793
0.107091 0.941692 0.090795
0.119982 0.940737 0.090797
0.153589 0.939678 0.090799
0.200853 0.938560 0.090801
0.253913 0.937431 0.090803
0.326734 0.936234 0.090806
0.418086 0.935008 0.090809
0.509287 0.933764 0.090812
0.606438 0.932639 0.090815
0.689098 0.931792 0.090818
0.752409 0.931255 0.090824
0.806015 0.931053 0.090833
0.846016 0.931198 0.090843
0.878967 0.931693 0.090853
0.901603 0.932535 0.090863
0.917719 0.933711 0.090885
0.929624 0.935072 0.090908
0.941190 0.936492 0.090930
0.949024 0.937903 0.090952
0.955847 0.939414 0.090974
0.962855 0.941624 0.091018
0.968446 0.944322 0.091067
0.973673 0.946811 0.091115
0.978708 0.948649 0.091162
0.981508 0.950509 0.091233
0.983484 0.953942 0.091334
0.985381 0.957331 0.091431
0.987199 0.959927 0.091580
0.093763 0.948349 0.090795
0.093914 0.948308 0.090795
0.095116 0.948161 0.090795
0.097279 0.947899 0.090796
0.100267 0.947521 0.090797
0.107714 0.947038 0.090798
0.120894 0.946468 0.090800
0.154873 0.945588 0.090802
0.202514 0.944597 0.090804
0.254586 0.943586 0.090806
0.327200 0.942595 0.090809
0.418638 0.941662 0.090812
0.510318 0.940823 0.090814
0.607398 0.940110 0.090817
0.690186 0.939549 0.090821
0.753170 0.939162 0.090830
0.806949 0.938965 0.090839
0.847037 0.938970 0.090849
0.879559 0.939181 0.090858
0.902159 0.939599 0.090874
0.917981 0.940221 0.090895
0.929829 0.941037 0.090917
0.941284 0.942038 0.090938
0.949067 0.943209 0.090959
0.955839 0.944538 0.090985
0.962204 0.946008 0.091025
0.967460 0.947446 0.091068
0.972650 0.949170 0.091115
0.977656 0.951311 0.091161
0.981052 0.954579 0.091229
0.983023 0.957826 0.091327
0.984916 0.960188 0.091423
0.986735 0.962399 0.091556
0.094288 0.953005 0.090798
0.094645 0.952938 0.090798
0.095862 0.952698 0.090799
0.097877 0.952267 0.090799
0.101307 0.951647 0.090800
0.108322 0.950850 0.090801
0.121777 0.950154 0.090803
0.156140 0.949597 0.090805
0.203766 0.948999 0.090807
0.254789 0.948384 0.090809
0.326905 0.947775 0.090812
0.417902 0.947195 0.090814
0.509279 0.946665 0.090817
0.606916 0.946136 0.090820
0.690014 0.945591 0.090827
0.753213 0.945194 0.090836
0.807128 0.944961 0.090845
0.847319 0.944905 0.090854
0.879753 0.945031 0.090864
0.902351 0.945344 0.090884
0.918067 0.945842 0.090905
0.929881 0.946469 0.090926
0.941288 0.947053 0.090946
0.949034 0.947748 0.090967
0.955775 0.948547 0.090998
0.962104 0.949442 0.091037
0.967083 0.950422 0.091076
0.971734 0.952655 0.091116
0.976707 0.955728 0.091161
0.980637 0.958626 0.091228
0.982601 0.960762 0.091325
0.984490 0.962880 0.091419
0.986306 0.964976 0.091547
0.095117 0.958865 0.090801
0.095445 0.958825 0.090801
0.096571 0.958681 0.090802
0.098452 0.958422 0.090802
0.102350 0.957971 0.090803
0.109044 0.957281 0.090804
0.123028 0.956458 0.090806
0.157329 0.955530 0.090808
0.204668 0.954529 0.090810
0.254599 0.953494 0.090812
0.325965 0.952460 0.090814
0.416060 0.951467 0.090816
0.508332 0.950550 0.090819
0.605142 0.950069 0.090825
0.688688 0.949716 0.090834
0.752582 0.949450 0.090842
0.806581 0.949281 0.090851
0.846874 0.949216 0.090860
0.879542 0.949262 0.090875
0.902162 0.949422 0.090894
0.917964 0.949697 0.090914
0.929764 0.950086 0.090934
0.941189 0.950725 0.090954
0.948911 0.951876 0.090974
0.955645 0.953218 0.091011
0.961947 0.954738 0.091049
0.966944 0.956420 0.091087
0.971436 0.958242 0.091125
0.975852 0.959649 0.091163
0.980262 0.961660 0.091229
0.982218 0.963668 0.091324
0.984100 0.965666 0.091417
0.985912 0.967647 0.091542
0.095897 0.962885 0.090804
0.096200 0.962850 0.090804
0.097245 0.962727 0.090805
0.099003 0.962504 0.090805
0.103366 0.962182 0.090806
0.110232 0.961767 0.090807
0.126263 0.961269 0.090809
0.158431 0.960706 0.090810
0.205274 0.960096 0.090812
0.254081 0.959460 0.090814
0.324485 0.958822 0.090816
0.413275 0.958195 0.090819
0.506992 0.957369 0.090824
0.602224 0.956632 0.090831
0.686317 0.956012 0.090839
0.751328 0.955531 0.090848
0.805291 0.955209 0.090856
0.845726 0.955061 0.090866
0.878930 0.955100 0.090885
0.901590 0.955333 0.090904
0.917664 0.955763 0.090923
0.929465 0.956391 0.090943
0.940976 0.957214 0.090962
0.948687 0.958224 0.090986
0.955438 0.959056 0.091023
0.961722 0.960006 0.091061
0.966761 0.961065 0.091098
0.971236 0.962226 0.091135
0.975605 0.963479 0.091174
0.979871 0.964816 0.091235
0.981869 0.966649 0.091327
0.983744 0.968485 0.091418
0.985550 0.970152 0.091542
0.096631 0.966656 0.090807
0.096913 0.966626 0.090807
0.097884 0.966521 0.090808
0.099530 0.966330 0.090808
0.104352 0.966054 0.090809
0.111452 0.965697 0.090810
0.127498 0.965268 0.090811
0.159453 0.964781 0.090813
0.205628 0.964252 0.090815
0.253309 0.963698 0.090816
0.322550 0.963139 0.090819
0.409695 0.962594 0.090823
0.505236 0.962082 0.090830
0.598303 0.961622 0.090837
0.683012 0.961230 0.090845
0.749505 0.960922 0.090853
0.802920 0.960709 0.090861
0.843912 0.960602 0.090876
0.877931 0.960611 0.090894
0.900636 0.960740 0.090913
0.917164 0.960993 0.090932
0.928980 0.961371 0.090951
0.940495 0.961874 0.090970
0.948355 0.962499 0.090999
0.955147 0.963241 0.091036
