velvia/Velvia50_Modern_Punchy.cube
TITLE "Velvia 50 Modern Punchy"
# Adobe RGB in/out. REPLACES AgX. Velvia 50 Modern Punchy.
LUT_3D_SIZE 5
DOMAIN_MIN 0.0 0.0 0.0
DOMAIN_MAX 1.0 1.0 1.0
0.093920 0.090395 0.084157
0.332070 0.091081 0.084157
0.825165 0.379700 0.084157
0.938289 0.679785 0.084697
0.960838 0.831012 0.090717
0.093920 0.183798 0.084157
0.153782 0.118406 0.084157
0.735529 0.429753 0.084157
0.921456 0.698835 0.084511
0.958331 0.839546 0.089201
0.093920 0.733804 0.084157
0.236019 0.680026 0.084157
0.646534 0.658509 0.084157
0.884627 0.780571 0.084253
0.949853 0.873674 0.086663
0.095601 0.890891 0.084157
0.255099 0.885698 0.084157
0.659888 0.878286 0.084157
0.867448 0.884224 0.084315
0.941899 0.905113 0.085923
0.104495 0.930512 0.084157
0.254546 0.929759 0.084157
0.637972 0.928763 0.084157
0.858925 0.930651 0.084496
0.933593 0.935402 0.086312
0.093920 0.090395 0.291940
0.349586 0.091688 0.310890
0.813341 0.362925 0.242716
0.930207 0.663131 0.241863
0.959881 0.823936 0.273311
0.093920 0.111935 0.140608
0.103471 0.092826 0.086589
0.693161 0.380104 0.123763
0.916000 0.678745 0.179895
0.956979 0.832266 0.236888
0.093920 0.684315 0.153861
0.199131 0.636251 0.119211
0.605983 0.617639 0.097871
0.874947 0.761301 0.120080
0.948605 0.867506 0.171733
0.095055 0.885754 0.125375
0.242113 0.880836 0.119859
0.647377 0.870696 0.109819
0.862155 0.880657 0.113740
0.940730 0.903321 0.138917
0.103909 0.929492 0.105543
0.250394 0.928799 0.105395
0.633744 0.927965 0.107291
0.857531 0.930101 0.116330
0.932606 0.935324 0.135756
0.093920 0.090395 0.915405
0.349586 0.092776 0.916702
0.861540 0.475768 0.914770
0.936809 0.680628 0.855329
0.959451 0.822059 0.814093
0.093920 0.184081 0.905791
0.276420 0.254223 0.879804
0.761679 0.481143 0.829529
0.918342 0.689320 0.806813
0.956140 0.828938 0.789699
0.093920 0.610938 0.774309
0.155631 0.574683 0.720055
0.531130 0.532808 0.574757
0.866173 0.745428 0.680154
0.947135 0.859959 0.722458
0.094221 0.871109 0.754085
0.208754 0.862340 0.728962
0.619064 0.850224 0.669433
0.851203 0.868674 0.629459
0.938466 0.899992 0.664202
0.102384 0.926828 0.682361
0.234149 0.925983 0.674669
0.623460 0.925419 0.649595
0.854176 0.928818 0.634998
0.931166 0.935153 0.645544
0.093920 0.090395 0.962392
0.349586 0.096669 0.962425
0.868118 0.504047 0.962674
0.945304 0.732312 0.956467
0.960562 0.833449 0.942686
0.093920 0.244624 0.962403
0.364705 0.385662 0.962447
0.835836 0.607198 0.960635
0.928699 0.743118 0.948022
0.957607 0.839550 0.937973
0.093920 0.621444 0.939242
0.183535 0.625395 0.935388
0.649396 0.670304 0.930066
0.881831 0.780753 0.927494
0.947837 0.865883 0.926315
0.094098 0.846433 0.929394
0.186357 0.842072 0.925171
0.599260 0.837138 0.907221
0.833053 0.851631 0.888753
0.936506 0.898703 0.901950
0.100795 0.921300 0.913963
0.220020 0.921014 0.910878
0.611958 0.921818 0.902808
0.850806 0.927548 0.896052
0.930532 0.935033 0.895748
0.093920 0.090403 0.972857
0.349586 0.112128 0.972876
0.868118 0.531056 0.972945
0.949276 0.773426 0.970811
0.962037 0.849217 0.965484
0.093920 0.291760 0.972864
0.364705 0.425683 0.972883
0.865449 0.675319 0.972680
0.941368 0.788093 0.969170
0.959382 0.855858 0.963669
0.093920 0.695339 0.967544
0.246289 0.709784 0.966582
0.731004 0.758670 0.964039
0.902479 0.819001 0.961897
0.950003 0.878394 0.960571
0.094075 0.841384 0.960182
0.183180 0.842229 0.958767
0.614405 0.851198 0.955167
0.857201 0.879054 0.952453
0.939050 0.902289 0.951563
0.099403 0.916615 0.953056
0.208221 0.916947 0.952362
0.603051 0.919332 0.950075
0.847201 0.926951 0.947942
0.930258 0.935076 0.947690
