velvia/Velvia50_Modern_ExtraSoft.cube
TITLE "Velvia 50 Modern ExtraSoft"
# Adobe RGB in/out. REPLACES AgX. Velvia 50 Modern ExtraSoft.
LUT_3D_SIZE 33
DOMAIN_MIN 0.0 0.0 0.0
DOMAIN_MAX 1.0 1.0 1.0
0.065698 0.081183 0.086406
0.065698 0.081183 0.086406
0.065698 0.081183 0.086406
0.065698 0.081183 0.086406
0.065733 0.081183 0.086406
0.069131 0.081183 0.086406
0.092759 0.081183 0.086406
0.177209 0.081189 0.086406
0.298862 0.081405 0.086406
0.431290 0.082892 0.086406
0.517248 0.088076 0.086406
0.609346 0.099682 0.086406
0.671689 0.120336 0.086406
0.744044 0.169695 0.086406
0.794557 0.238326 0.086406
0.843737 0.296538 0.086406
0.876760 0.367852 0.086406
0.903677 0.433597 0.086406
0.918384 0.486478 0.086406
0.932292 0.533254 0.086406
0.945471 0.584220 0.086424
0.954156 0.628976 0.086448
0.959810 0.663070 0.086469
0.964073 0.696823 0.086491
0.971937 0.729604 0.086512
0.976968 0.761291 0.086564
0.978793 0.785948 0.086619
0.979892 0.807280 0.086725
0.980939 0.826320 0.086839
0.981936 0.840180 0.087023
0.982887 0.854296 0.087248
0.983794 0.870516 0.087570
0.984661 0.886281 0.087870
0.065698 0.081183 0.086406
0.065698 0.081183 0.086406
0.065698 0.081183 0.086406
0.065698 0.081183 0.086406
0.065719 0.081183 0.086406
0.068293 0.081183 0.086406
0.086861 0.081183 0.086406
0.165726 0.081189 0.086406
0.287457 0.081406 0.086406
0.423216 0.082906 0.086406
0.510698 0.088122 0.086406
0.604259 0.099767 0.086406
0.668717 0.120576 0.086406
0.740185 0.170255 0.086406
0.792798 0.238782 0.086406
0.841664 0.297069 0.086406
0.875532 0.368220 0.086406
0.903115 0.434242 0.086406
0.917883 0.486750 0.086406
0.931844 0.533605 0.086406
0.945067 0.584514 0.086423
0.953954 0.629242 0.086447
0.959687 0.663294 0.086469
0.963962 0.697042 0.086490
0.971806 0.729821 0.086511
0.976848 0.761458 0.086563
0.978766 0.786112 0.086617
0.979868 0.807410 0.086723
0.980917 0.826447 0.086837
0.981916 0.840268 0.087018
0.982868 0.854409 0.087242
0.983777 0.870627 0.087565
0.984645 0.886390 0.087865
0.065698 0.081183 0.086406
0.065698 0.081183 0.086406
0.065698 0.081183 0.086406
0.065698 0.081183 0.086406
0.065698 0.081183 0.086406
0.066542 0.081183 0.086406
0.075351 0.081183 0.086406
0.135011 0.081190 0.086406
0.244645 0.081413 0.086406
0.395101 0.082971 0.086406
0.488939 0.088306 0.086406
0.587042 0.100095 0.086406
0.658497 0.121489 0.086406
0.726869 0.172363 0.086406
0.786663 0.240472 0.086406
0.834410 0.299028 0.086406
0.871212 0.369571 0.086406
0.901415 0.436330 0.086406
0.916112 0.487740 0.086406
0.930254 0.534879 0.086406
0.943634 0.585582 0.086421
0.953233 0.630061 0.086445
0.959248 0.664108 0.086467
0.963566 0.697831 0.086488
0.971161 0.730605 0.086509
0.976422 0.762058 0.086559
0.978673 0.786702 0.086610
0.979783 0.807879 0.086716
0.980839 0.826906 0.086827
0.981844 0.840587 0.087002
0.982802 0.854816 0.087223
0.983717 0.871025 0.087547
0.984590 0.886781 0.087851
0.065698 0.081183 0.086406
0.065698 0.081183 0.086406
0.065698 0.081183 0.086406
0.065698 0.081183 0.086406
0.065698 0.081183 0.086406
0.065737 0.081183 0.086406
0.069537 0.081183 0.086406
0.097770 0.081192 0.086406
0.201389 0.081436 0.086406
0.333295 0.083137 0.086406
0.458794 0.088728 0.086406
0.556107 0.100798 0.086406
0.641403 0.123375 0.086406
0.704420 0.175646 0.086406
0.776075 0.243804 0.086406
0.820020 0.302800 0.086406
0.863625 0.372162 0.086406
0.895259 0.440156 0.086406
0.912961 0.489612 0.086406
0.927416 0.537281 0.086406
0.941068 0.587593 0.086416
0.951937 0.631596 0.086442
0.958457 0.665630 0.086464
0.962851 0.699305 0.086485
0.968848 0.732066 0.086507
0.975650 0.763173 0.086552
0.978503 0.787798 0.086604
0.979628 0.808748 0.086704
0.980697 0.827756 0.086810
0.981714 0.841179 0.086971
0.982683 0.855569 0.087188
0.983606 0.871763 0.087515
0.984488 0.887503 0.087824
0.065698 0.081183 0.086406
0.065698 0.081183 0.086406
0.065698 0.081183 0.086406
0.065698 0.081183 0.086406
0.065698 0.081183 0.086406
0.065714 0.081183 0.086406
0.067316 0.081183 0.086406
0.080331 0.081199 0.086406
0.149516 0.081540 0.086406
0.276753 0.083491 0.086406
0.421474 0.090051 0.086406
0.515463 0.102078 0.086406
0.613412 0.126688 0.086406
0.677546 0.181114 0.086406
0.756505 0.249328 0.086406
0.812732 0.308924 0.086406
0.853088 0.376291 0.086406
0.885617 0.445340 0.086406
0.908493 0.492533 0.086406
0.923368 0.541008 0.086406
0.937395 0.590708 0.086409
0.950073 0.633962 0.086437
0.957110 0.667966 0.086459
0.961814 0.701561 0.086481
0.966071 0.734295 0.086502
0.974526 0.764872 0.086542
0.978255 0.789463 0.086595
0.979401 0.810066 0.086686
0.980489 0.828911 0.086788
0.981523 0.842072 0.086937
0.982507 0.856707 0.087137
0.983444 0.872875 0.087468
0.984338 0.888592 0.087784
0.065698 0.081204 0.086406
0.065698 0.081202 0.086406
0.065698 0.081197 0.086406
0.065698 0.081188 0.086406
0.065698 0.081183 0.086406
0.065726 0.081183 0.086406
0.066661 0.081183 0.086406
0.073950 0.081260 0.086406
0.116168 0.081955 0.086406
0.221494 0.084185 0.086406
0.363904 0.092692 0.086406
0.474894 0.104454 0.086406
0.576757 0.132083 0.086406
0.654035 0.189799 0.086406
0.723848 0.256817 0.086406
0.786758 0.318131 0.086406
0.836482 0.382345 0.086406
0.873705 0.450777 0.086406
0.902887 0.496702 0.086406
0.918248 0.546297 0.086406
0.932725 0.595122 0.086406
0.946420 0.637290 0.086431
0.954937 0.671235 0.086453
0.960475 0.704704 0.086476
0.964848 0.737389 0.086497
0.973065 0.767220 0.086529
0.977917 0.791759 0.086583
0.979104 0.811879 0.086663
0.980216 0.830174 0.086768
0.981272 0.843297 0.086906
0.982275 0.858264 0.087099
0.983230 0.874396 0.087406
0.984140 0.890080 0.087726
0.065698 0.083671 0.086406
0.065698 0.083771 0.086406
0.065698 0.083303 0.086406
0.065698 0.082364 0.086406
0.065707 0.081684 0.086406
0.065757 0.081439 0.086406
0.067202 0.081424 0.086406
0.071194 0.081533 0.086406
0.097751 0.082829 0.086406
0.187153 0.086718 0.086406
0.309866 0.096147 0.086406
0.442004 0.110031 0.086406
0.534748 0.142057 0.086406
0.629384 0.203083 0.086406
0.689637 0.265970 0.086406
0.768816 0.331409 0.086406
0.817129 0.390801 0.086406
0.860185 0.458255 0.086406
0.892890 0.502359 0.086406
0.912275 0.553480 0.086406
0.927235 0.601067 0.086406
0.941369 0.641734 0.086422
0.952342 0.675576 0.086446
0.958866 0.708856 0.086469
0.963373 0.741460 0.086491
0.971045 0.770296 0.086514
0.976557 0.794757 0.086569
0.978742 0.814237 0.086634
0.979883 0.831811 0.086742
0.980964 0.844882 0.086869
0.981991 0.860277 0.087086
0.982967 0.876360 0.087330
0.983896 0.891997 0.087656
0.065698 0.099316 0.086406
0.065698 0.099702 0.086406
0.065698 0.099061 0.086406
0.065698 0.093976 0.086406
0.065722 0.088515 0.086406
0.066288 0.085915 0.086406
0.068501 0.084589 0.086406
0.074384 0.084560 0.086406
0.090656 0.085627 0.086406
0.158423 0.091914 0.086406
0.271990 0.101402 0.086406
0.407062 0.120109 0.086406
0.497250 0.160953 0.086406
0.594514 0.223018 0.086406
0.664381 0.278828 0.086406
0.737468 0.350082 0.086406
0.793332 0.402453 0.086406
0.844845 0.468202 0.086406
0.879173 0.511598 0.086406
0.905713 0.562945 0.086406
0.921143 0.608818 0.086406
0.935714 0.647470 0.086411
0.949409 0.681146 0.086439
0.956696 0.714154 0.086462
0.961683 0.746632 0.086484
0.966070 0.774181 0.086506
0.974673 0.797928 0.086553
0.978321 0.817196 0.086606
0.979494 0.833858 0.086712
0.980604 0.846859 0.086826
0.981657 0.862784 0.087009
0.982657 0.878801 0.087242
0.983608 0.894377 0.087575
0.065698 0.151440 0.086406
0.065698 0.152953 0.086406
0.065698 0.145977 0.086406
0.065698 0.128145 0.086406
0.065735 0.114126 0.086406
0.066850 0.104740 0.086406
0.069787 0.100915 0.086406
0.078207 0.099232 0.086406
0.101159 0.099453 0.086406
0.150514 0.101390 0.086406
0.238024 0.112173 0.086406
0.368117 0.138164 0.086406
0.468512 0.189256 0.086406
0.561777 0.249545 0.086406
0.642610 0.301764 0.086406
0.705029 0.367180 0.086406
0.776448 0.426231 0.086406
0.820710 0.481019 0.086406
0.865105 0.524092 0.086406
0.897654 0.575048 0.086406
0.914686 0.618684 0.086406
0.929660 0.654699 0.086406
0.943829 0.688122 0.086431
0.953742 0.720754 0.086454
0.959827 0.753043 0.086477
0.964346 0.778970 0.086499
0.972581 0.801677 0.086535
0.977787 0.820815 0.086590
0.979058 0.836351 0.086679
0.980199 0.849454 0.086785
0.981281 0.865827 0.086935
0.982307 0.881758 0.087144
0.983281 0.897255 0.087483
0.065698 0.270507 0.086406
0.065698 0.268365 0.086406
0.065698 0.256718 0.086406
0.065698 0.232927 0.086406
0.065750 0.201710 0.086406
0.067362 0.175288 0.086406
0.071687 0.151721 0.086406
0.082969 0.139346 0.086406
0.114131 0.135167 0.086406
0.168213 0.136707 0.086406
0.233473 0.144529 0.086406
0.334580 0.175575 0.086406
0.447381 0.225932 0.086406
0.531352 0.274113 0.086406
0.619494 0.334121 0.086406
0.677995 0.387183 0.086406
0.754001 0.450822 0.086406
0.806375 0.493951 0.086406
0.851277 0.539878 0.086406
0.884178 0.587803 0.086406
0.908101 0.630550 0.086406
0.923414 0.663629 0.086406
0.937921 0.696621 0.086421
0.950629 0.728821 0.086447
0.957854 0.760345 0.086469
0.962502 0.784761 0.086492
0.968415 0.806189 0.086517
0.975753 0.825155 0.086573
0.978584 0.839329 0.086643
0.979757 0.853195 0.086753
0.980868 0.869448 0.086888
0.981921 0.885269 0.087095
0.982921 0.900593 0.087382
0.065698 0.379978 0.086406
0.065698 0.376742 0.086406
0.065698 0.365886 0.086406
0.065700 0.345151 0.086406
0.065828 0.312761 0.086406
0.068029 0.281734 0.086406
0.073884 0.262429 0.086406
0.088966 0.245941 0.086406
0.129714 0.233142 0.086406
0.188953 0.227866 0.086406
0.257997 0.231934 0.086406
0.333710 0.243218 0.086406
0.430447 0.265690 0.086406
0.506922 0.312890 0.086406
0.594642 0.368129 0.086406
0.659920 0.418331 0.086406
0.726010 0.472447 0.086406
0.785681 0.511702 0.086406
0.833385 0.559543 0.086406
0.871176 0.603535 0.086406
0.901832 0.641965 0.086406
0.917174 0.674475 0.086406
0.931952 0.706741 0.086411
0.945990 0.738524 0.086439
0.954898 0.767544 0.086462
0.960584 0.791655 0.086485
0.965087 0.811535 0.086507
0.973537 0.829796 0.086554
0.978081 0.842832 0.086609
0.979286 0.857589 0.086718
0.980426 0.873691 0.086837
0.981507 0.889376 0.087034
0.982533 0.902814 0.087276
0.065698 0.480890 0.086406
0.065698 0.478204 0.086406
0.065698 0.468796 0.086406
0.065708 0.453382 0.086406
0.066059 0.427118 0.086406
0.068567 0.394987 0.086406
0.075204 0.373791 0.086406
0.095999 0.355603 0.086406
0.142617 0.336617 0.086406
0.204749 0.324773 0.086406
0.274716 0.321611 0.086406
0.351065 0.326649 0.086406
0.432691 0.339588 0.086406
0.487900 0.362077 0.086406
0.574605 0.400919 0.086406
0.644717 0.457337 0.086406
0.702007 0.495056 0.086406
0.772420 0.536864 0.086406
0.817304 0.582089 0.086406
0.859010 0.622594 0.086406
0.890910 0.655655 0.086406
0.911112 0.687436 0.086406
0.926083 0.718786 0.086406
0.940333 0.750032 0.086432
0.951870 0.776025 0.086455
0.958637 0.798914 0.086477
0.963242 0.817784 0.086499
0.970941 0.834059 0.086536
0.976650 0.846898 0.086591
0.978795 0.862685 0.086683
0.979964 0.878601 0.086789
0.981072 0.894118 0.086944
0.982124 0.905370 0.087166
0.065698 0.559556 0.086406
0.065698 0.556991 0.086406
0.065698 0.548178 0.086406
0.065716 0.533458 0.086406
0.066264 0.514437 0.086406
0.069046 0.495720 0.086406
0.077089 0.479073 0.086406
0.101979 0.460465 0.086406
0.151617 0.445436 0.086406
0.216356 0.428436 0.086406
0.290853 0.417778 0.086406
0.374179 0.416300 0.086406
0.442024 0.423685 0.086406
0.493237 0.438868 0.086406
0.555822 0.454039 0.086406
0.632203 0.488719 0.086406
0.682389 0.524308 0.086406
0.754777 0.566994 0.086406
0.799967 0.605964 0.086406
0.847928 0.641342 0.086406
0.879636 0.671799 0.086406
0.905370 0.702479 0.086406
0.920449 0.732921 0.086406
0.934840 0.762394 0.086424
0.948575 0.785889 0.086448
0.956205 0.806505 0.086471
0.961394 0.825000 0.086493
0.965839 0.838961 0.086519
0.974461 0.852462 0.086574
0.978293 0.868529 0.086648
0.979490 0.884221 0.086757
0.980623 0.899536 0.086895
0.981699 0.908277 0.087097
0.065698 0.633804 0.086406
0.065698 0.632316 0.086406
0.065698 0.626519 0.086406
0.065723 0.614932 0.086406
0.066487 0.599618 0.086406
0.069505 0.582136 0.086406
0.079578 0.562077 0.086406
0.107520 0.541892 0.086406
0.162065 0.524532 0.086406
0.227045 0.510927 0.086406
0.305221 0.502231 0.086406
0.392791 0.498863 0.086406
0.450945 0.499227 0.086406
0.503186 0.503205 0.086406
0.564377 0.512594 0.086406
0.620287 0.526183 0.086406
0.670770 0.561367 0.086406
0.735697 0.597723 0.086406
0.787904 0.632734 0.086406
0.833233 0.661252 0.086406
0.869422 0.690525 0.086406
0.900027 0.719746 0.086406
0.915156 0.749280 0.086406
0.929617 0.774362 0.086416
0.943452 0.796865 0.086442
0.953422 0.815189 0.086464
0.959579 0.831908 0.086487
0.964096 0.844534 0.086508
0.972280 0.859391 0.086558
0.977602 0.875163 0.086613
0.979010 0.890590 0.086724
0.980168 0.903382 0.086846
0.981266 0.911553 0.087050
0.065698 0.689465 0.086406
0.065698 0.688137 0.086406
0.065698 0.683505 0.086406
0.065730 0.675516 0.086406
0.066713 0.664729 0.086406
0.069918 0.652062 0.086406
0.080706 0.638590 0.086406
0.112906 0.624176 0.086406
0.170999 0.608385 0.086406
0.237134 0.595199 0.086406
0.317834 0.585280 0.086406
0.404081 0.579037 0.086406
0.459353 0.576660 0.086406
0.512959 0.578161 0.086406
0.573778 0.583414 0.086406
0.627464 0.592197 0.086406
0.664615 0.604233 0.086406
0.719969 0.630861 0.086406
0.778856 0.656856 0.086406
0.819406 0.683932 0.086406
0.860349 0.711472 0.086406
0.890599 0.739462 0.086406
0.910282 0.765829 0.086406
0.924742 0.787954 0.086410
0.938616 0.807260 0.086437
0.950762 0.825008 0.086459
0.957825 0.838539 0.086481
0.962398 0.851471 0.086502
0.967896 0.867194 0.086543
0.975542 0.882623 0.086597
0.978533 0.897743 0.086693
0.979712 0.907206 0.086799
0.980832 0.915212 0.086963
0.065698 0.743328 0.086406
0.065698 0.742169 0.086406
0.065703 0.738112 0.086406
0.065742 0.731055 0.086406
0.066933 0.721397 0.086406
0.070484 0.709852 0.086406
0.082167 0.697297 0.086406
0.118181 0.684427 0.086406
0.177861 0.672217 0.086406
0.248018 0.661478 0.086406
0.328728 0.652770 0.086406
0.414059 0.646492 0.086406
0.466924 0.642893 0.086406
0.522099 0.642083 0.086406
0.581488 0.644056 0.086406
0.633226 0.648711 0.086406
0.668752 0.655880 0.086406
0.713953 0.665356 0.086406
0.771254 0.683751 0.086406
0.814753 0.708970 0.086406
0.852426 0.734918 0.086406
0.882229 0.760968 0.086406
0.905867 0.781984 0.086406
0.920268 0.801701 0.086406
0.934124 0.818884 0.086433
0.947443 0.833867 0.086454
0.955402 0.845927 0.086476
0.960771 0.860611 0.086497
0.965163 0.875900 0.086529
0.973537 0.890939 0.086583
0.978066 0.903405 0.086663
0.979263 0.911445 0.086770
0.980401 0.919264 0.086913
0.065698 0.787561 0.086406
0.065698 0.786770 0.086406
0.065712 0.783989 0.086406
0.065754 0.779111 0.086406
0.067148 0.772350 0.086406
0.071121 0.764129 0.086406
0.083774 0.753916 0.086406
0.122728 0.741715 0.086406
0.184539 0.729901 0.086406
0.260547 0.719135 0.086406
0.337845 0.709963 0.086406
0.422482 0.702802 0.086406
0.473463 0.697944 0.086406
0.530236 0.695564 0.086406
0.588449 0.695729 0.086406
0.637636 0.698419 0.086406
0.672795 0.703538 0.086406
0.719095 0.710941 0.086406
0.768604 0.720448 0.086406
0.801628 0.736316 0.086406
0.844563 0.760360 0.086406
0.874900 0.779898 0.086406
0.902059 0.798989 0.086406
0.916222 0.815322 0.086406
0.930012 0.830829 0.086429
0.943302 0.842505 0.086450
0.953096 0.855743 0.086472
0.959231 0.870718 0.086493
0.963654 0.885524 0.086516
0.971613 0.900129 0.086571
0.976873 0.908296 0.086636
0.978825 0.916106 0.086744
0.979979 0.923718 0.086873
0.065698 0.820922 0.086406
0.065702 0.820361 0.086406
0.065721 0.818382 0.086406
0.065895 0.814891 0.086406
0.067495 0.810004 0.086406
0.071977 0.803984 0.086406
0.085482 0.797187 0.086406
0.126665 0.788767 0.086406
0.193659 0.779979 0.086406
0.266074 0.771721 0.086406
0.345148 0.764403 0.086406
0.429120 0.758269 0.086406
0.478877 0.752426 0.086406
0.537163 0.748794 0.086406
0.594565 0.747497 0.086406
0.641617 0.748575 0.086406
0.676555 0.751996 0.086406
0.724028 0.757672 0.086406
0.771647 0.763913 0.086406
0.799163 0.771426 0.086406
0.835785 0.782117 0.086406
0.868552 0.799510 0.086406
0.896903 0.814726 0.086406
0.912608 0.829717 0.086406
0.926295 0.840823 0.086425
0.939517 0.852928 0.086447
0.950962 0.867392 0.086468
0.957793 0.881789 0.086489
0.962232 0.896071 0.086510
0.966931 0.905905 0.086560
0.975083 0.913631 0.086612
0.978404 0.921190 0.086720
0.979570 0.928575 0.086836
0.065707 0.844891 0.086406
0.065713 0.844542 0.086406
0.065730 0.843310 0.086406
0.066135 0.841125 0.086406
0.067896 0.838041 0.086406
0.072811 0.834201 0.086406
0.087075 0.829805 0.086406
0.130102 0.823698 0.086406
0.196807 0.817018 0.086406
0.270389 0.810591 0.086406
0.350759 0.804723 0.086406
0.433512 0.799675 0.086406
0.483263 0.795661 0.086406
0.542798 0.792248 0.086406
0.599680 0.790371 0.086406
0.645035 0.790168 0.086406
0.679879 0.791656 0.086406
0.728520 0.794802 0.086406
0.773735 0.798742 0.086406
0.804988 0.803778 0.086406
0.835945 0.809917 0.086406
0.863096 0.817358 0.086406
0.890983 0.830753 0.086406
0.909413 0.841114 0.086406
0.922970 0.852472 0.086423
0.936095 0.866225 0.086445
0.948787 0.880021 0.086465
0.955854 0.893806 0.086486
0.960908 0.904419 0.086506
0.965162 0.911975 0.086550
0.973391 0.919405 0.086602
0.978003 0.926695 0.086699
0.979179 0.932129 0.086804
0.065718 0.870822 0.086406
0.065723 0.870423 0.086406
0.065745 0.869015 0.086406
0.066378 0.866508 0.086406
0.068291 0.862955 0.086406
0.073628 0.858501 0.086406
0.088584 0.853360 0.086406
0.133132 0.847986 0.086406
0.199312 0.843595 0.086406
0.273643 0.839287 0.086406
0.355956 0.835257 0.086406
0.436393 0.831680 0.086406
0.486957 0.828705 0.086406
0.547115 0.825601 0.086406
0.603712 0.823579 0.086406
0.647805 0.822767 0.086406
0.682653 0.823202 0.086406
0.732380 0.824885 0.086406
0.775571 0.827788 0.086406
0.810259 0.830920 0.086406
0.837747 0.834599 0.086406
0.863813 0.838989 0.086406
0.886414 0.844019 0.086406
0.906608 0.854599 0.086406
0.920021 0.867458 0.086422
0.933028 0.880474 0.086444
0.945629 0.893585 0.086464
0.954059 0.903977 0.086484
0.959685 0.911270 0.086504
0.963941 0.918485 0.086543
0.971807 0.925604 0.086594
0.976918 0.931376 0.086681
0.978807 0.935604 0.086783
0.065728 0.896710 0.086406
0.065733 0.896361 0.086406
0.065760 0.895124 0.086406
0.066660 0.892918 0.086406
0.068678 0.889774 0.086406
0.074432 0.885808 0.086406
0.090178 0.881192 0.086406
0.135835 0.876138 0.086406
0.201286 0.870879 0.086406
0.275944 0.865651 0.086406
0.359748 0.860680 0.086406
0.438158 0.856172 0.086406
0.489460 0.852304 0.086406
0.550143 0.849225 0.086406
0.606642 0.847421 0.086406
0.649885 0.846510 0.086406
0.685198 0.846395 0.086406
0.735466 0.847091 0.086406
0.777073 0.848593 0.086406
0.813033 0.851568 0.086406
0.839283 0.855533 0.086406
0.864639 0.860415 0.086406
0.887034 0.866145 0.086406
0.904767 0.872649 0.086406
0.917420 0.883316 0.086422
0.930297 0.895602 0.086443
0.942792 0.904695 0.086463
0.952430 0.911633 0.086483
0.958567 0.918547 0.086502
0.962815 0.925414 0.086537
0.968429 0.931130 0.086588
0.975453 0.935255 0.086667
0.978457 0.939306 0.086768
0.065742 0.912146 0.086406
0.065749 0.911977 0.086406
0.066022 0.911376 0.086406
0.066933 0.910301 0.086406
0.069101 0.908762 0.086406
0.075062 0.906806 0.086406
0.092001 0.904509 0.086406
0.137946 0.901967 0.086406
0.202822 0.898333 0.086406
0.277436 0.893507 0.086406
0.361790 0.888850 0.086406
0.439121 0.884548 0.086406
0.490874 0.880765 0.086406
0.551952 0.877643 0.086406
0.608494 0.875296 0.086406
0.651265 0.873812 0.086406
0.687357 0.873253 0.086406
0.737681 0.873653 0.086406
0.778182 0.875024 0.086406
0.813602 0.877355 0.086406
0.840459 0.880619 0.086406
0.865273 0.884772 0.086406
0.887501 0.889759 0.086406
0.904915 0.895521 0.086406
0.915989 0.901333 0.086425
0.927877 0.906642 0.086443
0.940257 0.913147 0.086462
0.950961 0.919681 0.086482
0.957458 0.926217 0.086501
0.961784 0.931450 0.086533
0.965857 0.935427 0.086583
0.974094 0.939354 0.086655
0.978130 0.943222 0.086756
0.065757 0.925148 0.086406
0.065839 0.925001 0.086406
0.066288 0.924480 0.086406
0.067195 0.923545 0.086406
0.069547 0.922203 0.086406
0.075346 0.920489 0.086406
0.093963 0.918465 0.086406
0.139731 0.916209 0.086406
0.203922 0.913812 0.086406
0.278249 0.911370 0.086406
0.362490 0.908980 0.086406
0.439382 0.906734 0.086406
0.491307 0.904717 0.086406
0.552634 0.903003 0.086406
0.609319 0.901657 0.086406
0.651959 0.900730 0.086406
0.688543 0.900068 0.086406
0.738976 0.900088 0.086406
0.778857 0.900776 0.086406
0.813957 0.901779 0.086406
0.841197 0.903269 0.086406
0.865661 0.905230 0.086406
0.887764 0.907637 0.086406
0.904976 0.910461 0.086412
0.915974 0.913669 0.086431
0.926769 0.917226 0.086446
0.937999 0.921936 0.086463
0.949642 0.928076 0.086482
0.956099 0.932379 0.086500
0.960845 0.936165 0.086531
0.964905 0.939928 0.086580
0.972841 0.943656 0.086647
0.977747 0.947339 0.086747
0.066007 0.934341 0.086406
0.066128 0.934263 0.086406
0.066595 0.933986 0.086406
0.067664 0.933487 0.086406
0.069981 0.932768 0.086406
0.076430 0.931846 0.086406
0.095889 0.930750 0.086406
0.141307 0.929336 0.086406
0.204738 0.927466 0.086406
0.278493 0.925274 0.086406
0.362046 0.923107 0.086406
0.439034 0.921045 0.086406
0.490870 0.919166 0.086406
0.552292 0.917537 0.086406
0.609189 0.916217 0.086406
0.651999 0.915256 0.086406
0.688770 0.914693 0.086406
0.739334 0.914555 0.086406
0.779077 0.914861 0.086406
0.814080 0.915618 0.086406
0.841439 0.916824 0.086406
0.865760 0.918470 0.086406
0.887775 0.920539 0.086406
0.904928 0.923010 0.086418
0.915866 0.925855 0.086436
0.926600 0.928925 0.086450
0.937138 0.931341 0.086466
0.947805 0.933936 0.086482
0.954874 0.937496 0.086500
0.959994 0.941060 0.086530
0.964037 0.944612 0.086579
0.971691 0.948142 0.086643
0.976596 0.950606 0.086741
0.066288 0.941457 0.086406
0.066419 0.941390 0.086406
0.066896 0.941150 0.086406
0.068133 0.940720 0.086406
0.070660 0.940097 0.086406
0.078018 0.939297 0.086406
0.097645 0.938343 0.086406
0.142617 0.937267 0.086406
0.205324 0.936107 0.086406
0.278264 0.934907 0.086406
0.360636 0.933710 0.086406
0.438161 0.932560 0.086406
0.489670 0.931498 0.086406
0.551030 0.930561 0.086406
0.608182 0.929653 0.086406
0.651423 0.928948 0.086406
0.688076 0.928471 0.086406
0.738769 0.928240 0.086406
0.778836 0.928404 0.086406
0.813960 0.928874 0.086406
0.841148 0.929603 0.086406
0.865537 0.930600 0.086406
0.887500 0.931700 0.086407
0.904751 0.933034 0.086425
0.915646 0.934588 0.086441
0.926332 0.936349 0.086455
0.936821 0.938298 0.086470
0.947120 0.940421 0.086486
0.953772 0.942761 0.086501
0.959223 0.946108 0.086531
0.963246 0.949384 0.086579
0.969256 0.951249 0.086641
0.975530 0.953098 0.086738
0.066610 0.948150 0.086406
0.066739 0.948092 0.086406
0.067180 0.947886 0.086406
0.068583 0.947515 0.086406
0.071495 0.946978 0.086406
0.079589 0.946286 0.086406
0.099278 0.945457 0.086406
0.143831 0.944519 0.086406
0.205718 0.943504 0.086406
0.277639 0.942446 0.086406
0.358417 0.941385 0.086406
0.436838 0.940357 0.086406
0.487803 0.939399 0.086406
0.548954 0.938545 0.086406
0.606383 0.937826 0.086406
0.650280 0.937268 0.086406
0.686513 0.936894 0.086406
0.737313 0.936724 0.086406
0.778140 0.936768 0.086406
0.813594 0.937038 0.086406
0.840303 0.937537 0.086406
0.864972 0.938265 0.086406
0.886910 0.939219 0.086414
0.904428 0.940392 0.086431
0.915296 0.941774 0.086445
0.925949 0.943353 0.086459
0.936401 0.945117 0.086475
0.946661 0.947051 0.086490
0.953452 0.949141 0.086505
0.958565 0.950456 0.086534
0.962528 0.952167 0.086580
0.966640 0.953922 0.086642
0.974553 0.955667 0.086737
0.066921 0.952173 0.086406
0.067040 0.952146 0.086406
0.067669 0.952047 0.086406
0.069049 0.951869 0.086406
0.072476 0.951612 0.086406
0.080492 0.951278 0.086406
0.101003 0.950878 0.086406
0.144960 0.950424 0.086406
0.205947 0.949930 0.086406
0.276682 0.949413 0.086406
0.355273 0.948573 0.086406
0.435130 0.947664 0.086406
0.485360 0.946811 0.086406
0.546160 0.946045 0.086406
0.603872 0.945392 0.086406
0.648617 0.944878 0.086406
0.684143 0.944524 0.086406
0.735014 0.944347 0.086406
0.777003 0.944361 0.086406
0.812985 0.944575 0.086406
0.838898 0.944997 0.086406
0.864053 0.945627 0.086406
0.885987 0.946464 0.086421
0.903949 0.947506 0.086436
0.914804 0.948744 0.086450
