velvia/Velvia50_Classic_Normal.cube
TITLE "Velvia 50 Classic Normal"
# Adobe RGB in/out. REPLACES AgX. Velvia 50 Classic Normal.
LUT_3D_SIZE 9
DOMAIN_MIN 0.0 0.0 0.0
DOMAIN_MAX 1.0 1.0 1.0
0.090873 0.083221 0.090772
0.091111 0.083221 0.090772
0.099253 0.083591 0.090772
0.219991 0.085450 0.090772
0.567013 0.098135 0.090784
0.844488 0.171082 0.090806
0.934550 0.354054 0.090846
0.966307 0.576418 0.090948
0.982261 0.770478 0.091128
0.090873 0.083285 0.090772
0.091160 0.083415 0.090772
0.099377 0.084100 0.090772
0.220914 0.086864 0.090772
0.568220 0.103225 0.090784
0.844940 0.194569 0.090807
0.934655 0.380718 0.090847
0.966341 0.601031 0.090950
0.982272 0.784136 0.091130
0.090873 0.085454 0.090772
0.091321 0.086017 0.090772
0.099816 0.088497 0.090772
0.224236 0.100992 0.090772
0.572558 0.152511 0.090786
0.846561 0.288571 0.090809
0.935031 0.479521 0.090851
0.966463 0.670445 0.090956
0.982312 0.826080 0.091139
0.090873 0.116806 0.090772
0.091575 0.122503 0.090772
0.101601 0.149455 0.090772
0.230373 0.211348 0.090772
0.580552 0.325891 0.090790
0.849535 0.470992 0.090812
0.935720 0.633496 0.090858
0.966687 0.785535 0.090968
0.982384 0.859884 0.091155
0.091026 0.354329 0.090772
0.091883 0.364968 0.090772
0.104324 0.405533 0.090772
0.239609 0.479747 0.090779
0.592542 0.580129 0.090795
0.853963 0.695376 0.090817
0.936745 0.803989 0.090874
0.967020 0.858571 0.090991
0.982491 0.918072 0.091185
0.091470 0.677076 0.090772
0.092384 0.687005 0.090772
0.107677 0.715551 0.090775
0.252196 0.760019 0.090787
0.608799 0.816232 0.090804
0.859908 0.850863 0.090829
0.938120 0.888030 0.090901
0.967468 0.928976 0.091030
0.982636 0.942910 0.091240
0.091995 0.863360 0.090778
0.093579 0.865889 0.090780
0.113550 0.874873 0.090786
0.272019 0.891001 0.090797
0.630009 0.914233 0.090813
0.867057 0.931797 0.090849
0.939854 0.941154 0.090934
0.968034 0.948884 0.091078
0.982819 0.959374 0.091326
0.093187 0.940804 0.090790
0.096315 0.941256 0.090791
0.122001 0.942860 0.090798
0.299305 0.945736 0.090809
0.657294 0.948760 0.090828
0.873297 0.954139 0.090879
0.941645 0.961107 0.090970
0.968719 0.967601 0.091132
0.983042 0.973973 0.091425
0.096093 0.963895 0.090805
0.099616 0.964209 0.090807
0.140428 0.965328 0.090812
0.331103 0.967346 0.090823
0.680282 0.970039 0.090857
0.879554 0.973420 0.090928
0.943327 0.977503 0.091039
0.969523 0.982197 0.091203
0.983303 0.987056 0.091614
0.090873 0.083221 0.090795
0.091111 0.083221 0.090797
0.099253 0.083595 0.090803
0.219991 0.085470 0.090814
0.567013 0.098221 0.090839
0.844488 0.171378 0.090897
0.934550 0.354370 0.090992
0.966307 0.576764 0.091153
0.982261 0.770701 0.091482
0.090873 0.083287 0.090796
0.091160 0.083421 0.090798
0.099377 0.084107 0.090804
0.220914 0.086891 0.090814
0.568220 0.103317 0.090840
0.844940 0.194921 0.090899
0.934655 0.381094 0.090995
0.966341 0.601363 0.091156
0.982272 0.784320 0.091488
0.090873 0.085474 0.090798
0.091321 0.086035 0.090800
0.099816 0.088521 0.090806
0.224236 0.101060 0.090816
0.572558 0.152792 0.090844
0.846561 0.288912 0.090906
0.935031 0.479852 0.091005
0.966463 0.670775 0.091164
0.982312 0.826162 0.091512
0.090873 0.116995 0.090802
0.091575 0.122694 0.090804
0.101601 0.149733 0.090810
0.230373 0.211617 0.090819
0.580552 0.326199 0.090851
0.849535 0.471322 0.090919
0.935720 0.633749 0.091025
0.966687 0.785719 0.091187
0.982384 0.859969 0.091556
0.091026 0.354645 0.090808
0.091883 0.365338 0.090809
0.104324 0.405917 0.090815
0.239609 0.480078 0.090830
0.592542 0.580476 0.090862
0.853963 0.695709 0.090937
0.936745 0.804171 0.091053
0.967020 0.858656 0.091225
0.982491 0.918149 0.091675
0.091470 0.677407 0.090815
0.092384 0.687337 0.090816
0.107677 0.715777 0.090823
0.252196 0.760242 0.090846
0.608799 0.816412 0.090889
0.859908 0.850940 0.090961
0.938120 0.888110 0.091090
0.967468 0.929002 0.091293
0.982636 0.942925 0.091731
0.091995 0.863445 0.090828
0.093579 0.865974 0.090831
0.113550 0.874955 0.090844
0.272019 0.891081 0.090865
0.630009 0.914310 0.090923
0.867057 0.931822 0.091000
0.939854 0.941169 0.091134
0.968034 0.948893 0.091376
0.982819 0.959385 0.091916
0.093187 0.940820 0.090852
0.096315 0.941271 0.090855
0.122001 0.942875 0.090869
0.299305 0.945751 0.090908
0.657294 0.948769 0.090960
0.873297 0.954155 0.091060
0.941645 0.961118 0.091192
0.968719 0.967612 0.091493
0.983042 0.973982 0.092193
0.096093 0.963906 0.090893
0.099616 0.964220 0.090899
0.140428 0.965338 0.090919
0.331103 0.967356 0.090954
0.680282 0.970047 0.091021
0.879554 0.973428 0.091126
0.943327 0.977511 0.091308
0.969523 0.982204 0.091718
0.983303 0.987061 0.092580
0.090873 0.083221 0.091581
0.091111 0.083221 0.091615
0.099253 0.083611 0.091718
0.219991 0.085540 0.091832
0.567013 0.098529 0.092211
0.844488 0.172441 0.092840
0.934550 0.355504 0.093634
0.966307 0.578006 0.095601
0.982261 0.771498 0.099693
0.090873 0.083296 0.091593
0.091160 0.083442 0.091627
0.099377 0.084133 0.091720
0.220914 0.086987 0.091846
0.568220 0.103651 0.092224
0.844940 0.196189 0.092857
0.934655 0.382444 0.093649
0.966341 0.602555 0.095639
0.982272 0.784980 0.099775
0.090873 0.085543 0.091636
0.091321 0.086099 0.091670
0.099816 0.088606 0.091725
0.224236 0.101302 0.091895
0.572558 0.153803 0.092271
0.846561 0.290139 0.092918
0.935031 0.481043 0.093705
0.966463 0.671963 0.095774
0.982312 0.826454 0.100070
0.090873 0.117675 0.091715
0.091575 0.123382 0.091720
0.101601 0.150735 0.091736
0.230373 0.212584 0.091985
0.580552 0.327308 0.092366
0.849535 0.472508 0.093029
0.935720 0.634659 0.093847
0.966687 0.786378 0.096097
0.982384 0.860275 0.100612
0.091026 0.355779 0.091731
0.091883 0.366667 0.091735
0.104324 0.407299 0.091862
0.239609 0.481269 0.092117
0.592542 0.581720 0.092543
0.853963 0.696905 0.093193
0.936745 0.804824 0.094129
0.967020 0.858963 0.096609
0.982491 0.918422 0.101417
0.091470 0.678597 0.091865
0.092384 0.688530 0.091904
0.107677 0.716589 0.092043
0.252196 0.761044 0.092291
0.608799 0.817061 0.092775
0.859908 0.851215 0.093409
0.938120 0.888400 0.094639
0.967468 0.929094 0.097292
0.982636 0.942978 0.102586
0.091995 0.863749 0.092094
0.093579 0.866276 0.092132
0.113550 0.875253 0.092266
0.272019 0.891369 0.092579
0.630009 0.914585 0.093063
0.867057 0.931912 0.093677
0.939854 0.941223 0.095297
0.968034 0.948926 0.098219
0.982819 0.959425 0.104071
0.093187 0.940874 0.092378
0.096315 0.941325 0.092429
0.122001 0.942928 0.092611
0.299305 0.945802 0.092936
0.657294 0.948802 0.093402
0.873297 0.954215 0.094210
0.941645 0.961157 0.096180
0.968719 0.967648 0.099830
0.983042 0.974011 0.106797
0.096093 0.963944 0.092810
0.099616 0.964257 0.092859
0.140428 0.965375 0.093033
0.331103 0.967392 0.093343
0.680282 0.970078 0.093816
0.879554 0.973458 0.095173
0.943327 0.977539 0.097443
0.969523 0.982230 0.101870
0.983303 0.987081 0.110011
0.090873 0.083221 0.147063
0.091111 0.083221 0.148026
0.099253 0.083638 0.151679
0.219991 0.085666 0.158526
0.567013 0.099056 0.169974
0.844488 0.174404 0.187118
0.934550 0.357594 0.210038
0.966307 0.580294 0.240329
0.982261 0.772721 0.283158
0.090873 0.083312 0.147377
0.091160 0.083478 0.148379
0.099377 0.084179 0.152037
0.220914 0.087162 0.158892
0.568220 0.104263 0.170416
0.844940 0.198532 0.187573
0.934655 0.384932 0.210526
0.966341 0.604751 0.240906
0.982272 0.786194 0.283797
0.090873 0.085670 0.148637
0.091321 0.086217 0.149651
0.099816 0.088760 0.153326
0.224236 0.101745 0.160212
0.572558 0.155671 0.172007
0.846561 0.292400 0.189216
0.935031 0.483237 0.212284
0.966463 0.674148 0.242985
0.982312 0.826993 0.286100
0.090873 0.118929 0.150985
0.091575 0.124841 0.152008
0.101601 0.152587 0.155714
0.230373 0.214366 0.162657
0.580552 0.329352 0.174960
0.849535 0.474692 0.192259
0.935720 0.636331 0.215541
0.966687 0.787591 0.246839
0.982384 0.860838 0.290367
0.091026 0.357869 0.154535
0.091883 0.369117 0.155571
0.104324 0.409847 0.159322
0.239609 0.483463 0.166811
0.592542 0.584011 0.179407
0.853963 0.699105 0.196865
0.936745 0.806025 0.220467
0.967020 0.859527 0.252676
0.982491 0.918925 0.296825
0.091470 0.680786 0.159402
0.092384 0.690725 0.160455
0.107677 0.718081 0.164398
0.252196 0.762520 0.172702
0.608799 0.818254 0.185398
0.859908 0.851720 0.203192
0.938120 0.888932 0.227229
0.967468 0.929263 0.260699
0.982636 0.943075 0.305200
0.091995 0.864308 0.166068
0.093579 0.866832 0.167316
0.113550 0.875799 0.171846
0.272019 0.891898 0.180321
0.630009 0.915092 0.193187
0.867057 0.932077 0.211411
0.939854 0.941323 0.236004
0.968034 0.948988 0.271131
0.982819 0.959498 0.315806
0.093187 0.940974 0.175249
0.096315 0.941425 0.176538
0.122001 0.943025 0.181144
0.299305 0.945896 0.189709
0.657294 0.948864 0.202961
0.873297 0.954326 0.221713
0.941645 0.961229 0.247770
0.968719 0.967714 0.284225
0.983042 0.974065 0.328874
0.096093 0.964013 0.186324
0.099616 0.964327 0.187626
0.140428 0.965443 0.192349
0.331103 0.967458 0.201221
0.680282 0.970136 0.214935
0.879554 0.973512 0.234322
0.943327 0.977590 0.262512
0.969523 0.982278 0.300198
0.983303 0.987117 0.343518
0.090873 0.083221 0.559895
0.091111 0.083221 0.561101
0.099253 0.083678 0.565184
0.219991 0.085851 0.572712
0.567013 0.099736 0.584003
0.844488 0.177360 0.599322
0.934550 0.361377 0.617062
0.966307 0.583719 0.630317
0.982261 0.774549 0.658736
0.090873 0.083361 0.560332
0.091160 0.083528 0.561498
0.099377 0.084246 0.565582
0.220914 0.087420 0.573110
0.568220 0.105175 0.584403
0.844940 0.202063 0.599723
0.934655 0.388666 0.617246
0.966341 0.607419 0.630719
0.982272 0.788008 0.659140
0.090873 0.085855 0.561788
0.091321 0.086388 0.562924
0.099816 0.088988 0.567010
0.224236 0.102403 0.574542
0.572558 0.158483 0.585840
0.846561 0.295806 0.601166
0.935031 0.486522 0.617908
0.966463 0.677420 0.632161
0.982312 0.827796 0.660594
0.090873 0.120810 0.564413
0.091575 0.127201 0.565550
0.101601 0.155375 0.569640
0.230373 0.217041 0.577177
0.580552 0.332415 0.588484
0.849535 0.477964 0.603822
0.935720 0.638833 0.619124
0.966687 0.789405 0.634816
0.982384 0.861678 0.663270
0.091026 0.361698 0.568344
0.091883 0.372794 0.569483
0.104324 0.413668 0.573577
0.239609 0.486749 0.581124
0.592542 0.587358 0.592444
0.853963 0.701672 0.607800
0.936745 0.807820 0.620941
0.967020 0.860370 0.638791
0.982491 0.919677 0.667276
0.091470 0.684064 0.573664
0.092384 0.694012 0.574805
0.107677 0.720313 0.578905
0.252196 0.764726 0.586464
0.608799 0.820038 0.597801
0.859908 0.852475 0.613181
0.938120 0.889728 0.623388
0.967468 0.929515 0.644169
0.982636 0.943221 0.672696
0.091995 0.865142 0.580442
0.093579 0.867663 0.581585
0.113550 0.876615 0.585694
0.272019 0.892690 0.593268
0.630009 0.915849 0.604628
0.867057 0.932324 0.617579
0.939854 0.941471 0.627119
0.968034 0.949079 0.651022
0.982819 0.959608 0.679133
0.093187 0.941123 0.588742
0.096315 0.941573 0.589888
0.122001 0.943171 0.594007
0.299305 0.946037 0.601599
0.657294 0.948956 0.612986
0.873297 0.954491 0.621396
0.941645 0.961336 0.635453
0.968719 0.967813 0.659411
0.983042 0.974146 0.685031
0.096093 0.964117 0.598621
0.099616 0.964430 0.599770
0.140428 0.965545 0.603901
0.331103 0.967558 0.611514
0.680282 0.970221 0.618899
0.879554 0.973594 0.625901
0.943327 0.977667 0.645371
0.969523 0.982351 0.669395
0.983303 0.987172 0.692021
0.090873 0.083221 0.832922
0.091111 0.083261 0.833224
0.099253 0.083791 0.834308
0.219991 0.086094 0.836295
0.567013 0.100646 0.839252
0.844488 0.181485 0.843218
0.934550 0.366310 0.846588
0.966307 0.588228 0.849587
0.982261 0.777017 0.854571
0.090873 0.083441 0.833028
0.091160 0.083591 0.833330
0.099377 0.084331 0.834413
0.220914 0.087760 0.836400
0.568220 0.106399 0.839356
0.844940 0.206884 0.843321
0.934655 0.393733 0.846638
0.966341 0.610809 0.849638
0.982272 0.790457 0.854641
0.090873 0.086098 0.833407
0.091321 0.086632 0.833709
0.099816 0.089289 0.834791
0.224236 0.103309 0.836777
0.572558 0.162319 0.839730
0.846561 0.303077 0.843692
0.935031 0.490970 0.846821
0.966463 0.681846 0.849895
0.982312 0.828879 0.854894
0.090873 0.123364 0.834104
0.091575 0.130418 0.834405
0.101601 0.159177 0.835486
0.230373 0.220672 0.837468
0.580552 0.336566 0.840418
0.849535 0.482394 0.844373
0.935720 0.642213 0.847157
0.966687 0.791852 0.850367
0.982384 0.862812 0.855358
0.091026 0.366632 0.835144
0.091883 0.377783 0.835445
0.104324 0.418854 0.836523
0.239609 0.491197 0.838501
0.592542 0.591776 0.841444
0.853963 0.704700 0.845093
0.936745 0.810243 0.847658
0.967020 0.861506 0.851072
0.982491 0.920691 0.856050
0.091470 0.688498 0.836546
0.092384 0.698458 0.836846
0.107677 0.723327 0.837921
0.252196 0.767705 0.839893
0.608799 0.821709 0.842827
0.859908 0.853492 0.845864
0.938120 0.890801 0.848333
0.967468 0.929854 0.852022
0.982636 0.943417 0.856984
0.091995 0.866268 0.838323
0.093579 0.868783 0.838622
0.113550 0.877716 0.839693
0.272019 0.893757 0.841657
0.630009 0.916870 0.844579
0.867057 0.932657 0.846731
0.939854 0.941672 0.849188
0.968034 0.949203 0.853225
0.982819 0.959756 0.858167
0.093187 0.941324 0.840485
0.096315 0.941773 0.840782
0.122001 0.943367 0.841848
0.299305 0.946227 0.843803
0.657294 0.949080 0.845839
0.873297 0.954713 0.847783
0.941645 0.961481 0.850480
0.968719 0.967946 0.854688
0.983042 0.974255 0.859605
0.096093 0.964256 0.843037
0.099616 0.964569 0.843333
0.140428 0.965682 0.844393
0.331103 0.967692 0.845653
0.680282 0.970336 0.847095
0.879554 0.973704 0.849026
0.943327 0.977771 0.852233
0.969523 0.982448 0.856416
0.983303 0.987245 0.861304
0.090873 0.083221 0.918090
0.091111 0.083305 0.918251
0.099253 0.083934 0.918826
0.219991 0.086392 0.919881
0.567013 0.101790 0.921453
0.844488 0.187131 0.923564
0.934550 0.372619 0.926230
0.966307 0.593850 0.929456
0.982261 0.780150 0.933243
0.090873 0.083530 0.918146
0.091160 0.083661 0.918307
0.099377 0.084468 0.918881
0.220914 0.088180 0.919937
0.568220 0.108219 0.921508
0.844940 0.211878 0.923619
0.934655 0.400213 0.926284
0.966341 0.615119 0.929510
0.982272 0.793567 0.933296
0.090873 0.086395 0.918347
0.091321 0.087091 0.918508
0.099816 0.089843 0.919082
0.224236 0.104882 0.920136
0.572558 0.167255 0.921707
0.846561 0.312481 0.923817
0.935031 0.496640 0.926480
0.966463 0.687483 0.929703
0.982312 0.830253 0.933488
0.090873 0.127297 0.918717
0.091575 0.134554 0.918877
0.101601 0.164072 0.919451
0.230373 0.225850 0.920504
0.580552 0.341866 0.922073
0.849535 0.488041 0.924180
0.935720 0.646509 0.926840
0.966687 0.794959 0.930060
0.982384 0.864250 0.933840
0.091026 0.372943 0.919269
0.091883 0.384164 0.919429
0.104324 0.425483 0.920002
0.239609 0.496867 0.921053
0.592542 0.597404 0.922619
0.853963 0.708549 0.924723
0.936745 0.813320 0.927378
0.967020 0.862948 0.930593
0.982491 0.921978 0.934367
0.091470 0.694146 0.920014
0.092384 0.702842 0.920173
0.107677 0.727156 0.920745
0.252196 0.771490 0.921793
0.608799 0.823214 0.923356
0.859908 0.854783 0.925455
0.938120 0.892163 0.928104
0.967468 0.930285 0.931311
0.982636 0.943666 0.934891
0.091995 0.867696 0.920958
0.093579 0.870204 0.921117
0.113550 0.879112 0.921687
0.272019 0.895111 0.922733
0.630009 0.918167 0.924290
0.867057 0.933079 0.926383
0.939854 0.941926 0.929025
0.968034 0.949360 0.932222
0.982819 0.959944 0.935350
0.093187 0.941579 0.922108
0.096315 0.942027 0.922267
0.122001 0.943617 0.922834
0.299305 0.946433 0.923876
0.657294 0.949237 0.925428
0.873297 0.954996 0.927513
0.941645 0.961665 0.930146
0.968719 0.968116 0.933332
0.983042 0.974394 0.935908
0.096093 0.964434 0.923468
0.099616 0.964746 0.923626
0.140428 0.965857 0.924191
0.331103 0.967862 0.925228
0.680282 0.970482 0.926774
0.879554 0.973843 0.928850
0.943327 0.977903 0.931471
0.969523 0.982572 0.934644
0.983303 0.987339 0.936568
0.090873 0.083283 0.965679
0.091111 0.083410 0.965726
0.099253 0.084093 0.965894
0.219991 0.086840 0.966204
0.567013 0.103166 0.966666
0.844488 0.194253 0.967286
0.934550 0.380381 0.968070
0.966307 0.600732 0.969020
0.982261 0.783970 0.970137
0.090873 0.083624 0.965695
0.091160 0.083819 0.965742
0.099377 0.084733 0.965911
0.220914 0.088675 0.966220
0.568220 0.110777 0.966682
0.844940 0.217486 0.967302
0.934655 0.408183 0.968086
0.966341 0.620382 0.969036
0.982272 0.797360 0.970152
0.090873 0.086845 0.965754
0.091321 0.087629 0.965801
0.099816 0.090833 0.965970
0.224236 0.106784 0.966279
0.572558 0.173374 0.966740
0.846561 0.322562 0.967360
0.935031 0.503587 0.968144
0.966463 0.694382 0.969093
0.982312 0.831924 0.970209
0.090873 0.132310 0.965863
0.091575 0.139675 0.965910
0.101601 0.170140 0.966078
0.230373 0.233772 0.966387
0.580552 0.348371 0.966848
0.849535 0.494961 0.967467
0.935720 0.651757 0.968250
0.966687 0.798749 0.969198
0.982384 0.866001 0.970313
0.091026 0.380708 0.966025
0.091883 0.392014 0.966071
0.104324 0.433635 0.966240
0.239609 0.503815 0.966548
0.592542 0.604294 0.967008
0.853963 0.713246 0.967627
0.936745 0.817072 0.968408
0.967020 0.864704 0.969355
0.982491 0.923547 0.970468
0.091470 0.700758 0.966243
0.092384 0.707546 0.966290
0.107677 0.731829 0.966458
0.252196 0.775329 0.966766
0.608799 0.824916 0.967225
0.859908 0.855826 0.967842
0.938120 0.893822 0.968622
0.967468 0.930810 0.969567
0.982636 0.943969 0.970678
0.091995 0.869436 0.966520
0.093579 0.871935 0.966567
0.113550 0.880813 0.966734
0.272019 0.896760 0.967041
0.630009 0.919746 0.967499
0.867057 0.933594 0.968115
0.939854 0.942235 0.968893
0.968034 0.949551 0.969835
0.982819 0.960172 0.970944
0.093187 0.941890 0.966858
0.096315 0.942336 0.966905
0.122001 0.943920 0.967071
0.299305 0.946634 0.967378
0.657294 0.949429 0.967834
0.873297 0.955340 0.968448
0.941645 0.961889 0.969223
0.968719 0.968301 0.970163
0.983042 0.974562 0.971268
0.096093 0.964650 0.967258
0.099616 0.964962 0.967304
0.140428 0.966069 0.967470
0.331103 0.968069 0.967775
0.680282 0.970661 0.968230
0.879554 0.974013 0.968841
0.943327 0.978064 0.969614
0.969523 0.982722 0.970550
0.983303 0.987452 0.971651
0.090873 0.083378 0.978320
0.091111 0.083541 0.978329
0.099253 0.084263 0.978361
0.219991 0.087489 0.978420
0.567013 0.105419 0.978507
0.844488 0.203017 0.978624
0.934550 0.389672 0.978773
0.966307 0.608093 0.978954
0.982261 0.788496 0.979166
0.090873 0.083773 0.978323
0.091160 0.084020 0.978332
0.099377 0.085025 0.978364
0.220914 0.089239 0.978423
0.568220 0.114083 0.978510
0.844940 0.224315 0.978628
0.934655 0.417719 0.978776
0.966341 0.626626 0.978957
0.982272 0.801852 0.979169
0.090873 0.087493 0.978335
0.091321 0.088240 0.978343
0.099816 0.092722 0.978375
0.224236 0.109582 0.978434
0.572558 0.180804 0.978521
0.846561 0.330169 0.978639
0.935031 0.511863 0.978787
0.966463 0.701800 0.978967
0.982312 0.833899 0.979180
0.090873 0.138359 0.978355
0.091575 0.146477 0.978364
0.101601 0.177468 0.978396
0.230373 0.244685 0.978454
0.580552 0.356137 0.978541
0.849535 0.503204 0.978659
0.935720 0.657982 0.978807
0.966687 0.803238 0.978987
0.982384 0.868073 0.979200
0.091026 0.390002 0.978386
0.091883 0.401410 0.978395
0.104324 0.443387 0.978426
0.239609 0.512092 0.978485
0.592542 0.610815 0.978572
0.853963 0.718813 0.978689
0.936745 0.821159 0.978837
0.967020 0.866781 0.979017
0.982491 0.925306 0.979229
0.091470 0.706344 0.978427
0.092384 0.713122 0.978436
0.107677 0.737369 0.978468
0.252196 0.779876 0.978526
0.608799 0.826926 0.978613
0.859908 0.856587 0.978730
0.938120 0.895784 0.978878
0.967468 0.931431 0.979058
0.982636 0.944328 0.979269
0.091995 0.871493 0.978479
0.093579 0.873982 0.978488
0.113550 0.882826 0.978520
0.272019 0.898712 0.978578
0.630009 0.921615 0.978665
0.867057 0.934202 0.978782
0.939854 0.942601 0.978929
0.968034 0.949778 0.979109
0.982819 0.960443 0.979320
0.093187 0.942257 0.978543
0.096315 0.942701 0.978552
0.122001 0.944279 0.978584
0.299305 0.946872 0.978642
0.657294 0.949655 0.978728
0.873297 0.955747 0.978845
0.941645 0.962154 0.978992
0.968719 0.968519 0.979171
0.983042 0.974762 0.979382
0.096093 0.964906 0.978619
0.099616 0.965217 0.978628
0.140428 0.966321 0.978659
0.331103 0.968293 0.978717
0.680282 0.970872 0.978804
0.879554 0.974215 0.978920
0.943327 0.978254 0.979067
0.969523 0.982901 0.979245
0.983303 0.987587 0.979455
