velvia/Velvia50_Modern_RadianceIII.cube
TITLE "Velvia 50 Modern RadianceIII"
# Adobe RGB in/out. REPLACES AgX. Velvia 50 Modern RadianceIII.
LUT_3D_SIZE 9
DOMAIN_MIN 0.0 0.0 0.0
DOMAIN_MAX 1.0 1.0 1.0
0.087650 0.087576 0.084044
0.172816 0.105607 0.086813
0.387385 0.201278 0.091909
0.577028 0.318000 0.108079
0.729272 0.423000 0.131634
0.831568 0.519129 0.163520
0.889355 0.599696 0.193748
0.927362 0.652648 0.221369
0.946032 0.699753 0.251887
0.091628 0.129462 0.085323
0.140976 0.125448 0.086388
0.320411 0.208295 0.090156
0.538310 0.322741 0.104109
0.702443 0.427110 0.126979
0.819983 0.522423 0.159434
0.884004 0.601714 0.190728
0.923516 0.654460 0.218777
0.944428 0.701400 0.249624
0.109756 0.337414 0.087585
0.173525 0.312289 0.088095
0.289295 0.291338 0.090185
0.465108 0.352720 0.099241
0.637508 0.446160 0.117428
0.787225 0.536247 0.148781
0.867143 0.609719 0.181711
0.911375 0.661391 0.211353
0.939206 0.707571 0.242510
0.129670 0.507767 0.090614
0.192664 0.487876 0.091280
0.321857 0.452066 0.093742
0.447545 0.445468 0.100638
0.584904 0.492280 0.113616
0.732491 0.568047 0.139012
0.836037 0.626930 0.171477
0.894415 0.675599 0.202165
0.931427 0.719621 0.232691
0.149970 0.627836 0.095502
0.207961 0.619577 0.096819
0.337599 0.599824 0.100650
0.468353 0.584299 0.107275
0.577841 0.587843 0.116247
0.693828 0.613029 0.135023
0.809447 0.656246 0.164705
0.877724 0.699213 0.194575
0.919171 0.738727 0.223168
0.170242 0.707182 0.102310
0.223168 0.702242 0.103527
0.344139 0.688763 0.107744
0.478125 0.675486 0.114011
0.586687 0.670766 0.124284
0.689810 0.677796 0.140920
0.791600 0.697639 0.162860
0.862236 0.732310 0.190585
0.906320 0.766016 0.217343
0.193158 0.770447 0.109708
0.237701 0.767644 0.110771
0.346466 0.759455 0.114256
0.478238 0.750059 0.120859
0.588152 0.744644 0.133104
0.691230 0.746501 0.149505
0.788823 0.756351 0.168801
0.848667 0.773140 0.190322
0.896562 0.799417 0.215256
0.214081 0.817054 0.115785
0.250637 0.815737 0.116660
0.346861 0.811756 0.120687
0.472312 0.806882 0.129288
0.582629 0.803727 0.141450
0.686126 0.804402 0.157196
0.785007 0.809913 0.175326
0.844772 0.820169 0.195289
0.889971 0.834366 0.216381
0.232075 0.851875 0.122539
0.261542 0.851253 0.123863
0.346128 0.849377 0.128439
0.462913 0.847160 0.136380
0.572077 0.846082 0.148557
0.674797 0.847520 0.163484
0.774234 0.852336 0.180755
0.838082 0.860755 0.199583
0.885562 0.870949 0.219876
0.087650 0.088357 0.172018
0.180008 0.108585 0.175358
0.387363 0.202126 0.182290
0.567189 0.312115 0.189810
0.717796 0.414908 0.204608
0.825496 0.511965 0.223344
0.886424 0.595842 0.246719
0.925255 0.649744 0.269299
0.945182 0.697599 0.290227
0.091241 0.123428 0.136632
0.125791 0.112090 0.107737
0.308610 0.200354 0.143879
0.525422 0.314193 0.172366
0.689666 0.417953 0.195279
0.813827 0.514986 0.216740
0.881065 0.597806 0.241784
0.921419 0.651545 0.265998
0.943585 0.699251 0.287894
0.107712 0.319531 0.166969
0.162603 0.291545 0.146521
0.268154 0.269207 0.125564
0.444288 0.337408 0.144087
0.623726 0.434714 0.173518
0.778173 0.528335 0.200842
0.862714 0.605687 0.227371
0.909326 0.658465 0.255682
0.938388 0.705451 0.280104
0.127214 0.490835 0.168088
0.186224 0.471550 0.160446
0.309781 0.435703 0.146139
0.431403 0.429810 0.142249
0.573632 0.481238 0.158497
0.723553 0.559974 0.185514
0.831928 0.622922 0.212044
0.892500 0.672743 0.241419
0.930664 0.717668 0.269100
0.148405 0.620498 0.167161
0.204225 0.612402 0.164406
0.331434 0.592817 0.158349
0.459614 0.574277 0.155843
0.569858 0.578581 0.161136
0.687020 0.608324 0.177281
0.806080 0.652668 0.202161
0.876083 0.696625 0.229097
0.918014 0.736966 0.258511
0.168651 0.702583 0.166769
0.220864 0.697717 0.166072
0.340721 0.684385 0.164773
0.473386 0.671191 0.165569
0.582103 0.666623 0.170871
0.685027 0.674105 0.181579
0.789012 0.694938 0.197952
0.860367 0.730320 0.221602
0.905423 0.764583 0.250176
0.192035 0.767678 0.167096
0.236337 0.764912 0.167329
0.344503 0.756818 0.168540
0.475604 0.747519 0.171854
0.585606 0.742210 0.178381
0.688463 0.744257 0.188752
0.786940 0.754433 0.202372
0.847473 0.771784 0.219452
0.895967 0.798574 0.246075
0.213338 0.815629 0.167829
0.249807 0.814329 0.168494
0.345735 0.810400 0.170974
0.470848 0.805596 0.175821
0.581257 0.802521 0.183479
0.684637 0.803304 0.194006
0.783780 0.808969 0.207179
0.844045 0.819432 0.224013
0.889625 0.833859 0.245977
0.231632 0.851066 0.168599
0.261110 0.850454 0.169456
0.345517 0.848614 0.172536
0.462150 0.846452 0.178187
0.571387 0.845442 0.186564
0.674083 0.846967 0.197335
0.773601 0.851892 0.210484
0.837783 0.860447 0.227636
0.885451 0.870852 0.248826
0.087650 0.091056 0.400506
0.180008 0.111963 0.402142
0.396879 0.210791 0.407971
0.582604 0.323770 0.398412
0.715885 0.414734 0.381194
0.820206 0.506428 0.378186
0.882389 0.590842 0.380845
0.921543 0.644830 0.386265
0.943422 0.693275 0.393165
0.092622 0.149123 0.401078
0.180060 0.174326 0.394892
0.353549 0.236321 0.362358
0.534291 0.321712 0.357473
0.684631 0.415333 0.360858
0.807741 0.508282 0.366618
0.876813 0.592438 0.373589
0.917630 0.646471 0.381391
0.941812 0.694870 0.389715
0.103352 0.280995 0.330681
0.151379 0.261593 0.295778
0.228829 0.225928 0.222450
0.425588 0.324347 0.278797
0.609222 0.423203 0.312921
0.764507 0.517731 0.335535
0.855287 0.599146 0.352398
0.905315 0.652902 0.366414
0.936585 0.700900 0.378791
0.121975 0.453753 0.341905
0.173358 0.437645 0.324754
0.286398 0.404148 0.285156
0.397689 0.397329 0.258414
0.552305 0.460169 0.276694
0.706177 0.544859 0.304378
0.823568 0.614922 0.327449
0.888294 0.666595 0.346724
0.928859 0.713074 0.363364
0.144443 0.602090 0.338403
0.195080 0.594774 0.330023
0.317000 0.570659 0.307724
0.439139 0.550919 0.286027
0.550366 0.556250 0.276123
0.670928 0.597256 0.287128
0.797967 0.644159 0.308643
0.872021 0.690312 0.329319
0.915044 0.732513 0.348131
0.164282 0.689953 0.328319
0.214606 0.685413 0.324202
0.331661 0.672780 0.312329
0.461004 0.659980 0.298749
0.569999 0.655664 0.290129
0.672067 0.664129 0.289643
0.780556 0.687775 0.299080
0.855291 0.724966 0.317919
0.902943 0.760666 0.336569
0.188816 0.759573 0.316176
0.232319 0.756955 0.314224
0.338857 0.749247 0.308410
0.468112 0.740331 0.301389
0.578408 0.735330 0.296632
0.680524 0.737839 0.296538
0.780334 0.748873 0.301847
0.844028 0.767904 0.312372
0.894224 0.796130 0.329658
0.211052 0.811253 0.303546
0.247263 0.810017 0.302790
0.342310 0.806283 0.300569
0.466439 0.801731 0.298088
0.577140 0.798919 0.297112
0.680160 0.800014 0.299106
0.779534 0.806125 0.304834
0.841820 0.817191 0.314300
0.888560 0.832312 0.326827
0.230216 0.848492 0.291168
0.259731 0.847919 0.291083
0.343577 0.846202 0.290977
0.459746 0.844228 0.291461
0.569223 0.843448 0.293415
0.671847 0.845245 0.297644
0.771610 0.850509 0.304650
0.836836 0.859482 0.314556
0.885098 0.870549 0.327012
0.087650 0.093774 0.600097
0.180008 0.117566 0.600922
0.396879 0.216705 0.603875
0.606120 0.343104 0.609260
0.740851 0.435489 0.575494
0.826052 0.515181 0.547202
0.882624 0.592022 0.532224
0.920088 0.643442 0.523448
0.942249 0.690747 0.517934
0.092622 0.155402 0.600385
0.183302 0.185114 0.601210
0.398634 0.273224 0.604161
0.580397 0.358838 0.582282
0.708565 0.435194 0.549204
0.812748 0.516025 0.532362
0.876725 0.593143 0.523047
0.916009 0.644808 0.517443
0.940596 0.692203 0.513851
0.103932 0.289410 0.519237
0.159890 0.288623 0.499954
0.298058 0.303111 0.469175
0.466304 0.356688 0.468502
0.622905 0.436383 0.480378
0.766977 0.521027 0.489653
0.853353 0.598058 0.495395
0.903119 0.650278 0.498777
0.935222 0.697761 0.500783
0.117767 0.420666 0.488414
0.162937 0.409945 0.470804
0.271982 0.384209 0.423528
0.362809 0.364044 0.367929
0.543069 0.451851 0.412742
0.698007 0.538605 0.441634
0.818605 0.610574 0.460692
0.885190 0.662375 0.473493
0.926617 0.709202 0.482066
0.139679 0.576279 0.489908
0.184936 0.567882 0.479996
0.301310 0.545656 0.451010
0.417160 0.526200 0.418098
0.527735 0.530749 0.396686
0.654970 0.585073 0.411417
0.790248 0.636402 0.432998
0.867538 0.684443 0.449827
0.912005 0.728127 0.462756
0.159981 0.673437 0.481749
0.206688 0.669522 0.476214
0.320406 0.658368 0.459215
0.446140 0.646542 0.437684
0.555198 0.642357 0.420141
0.655797 0.651670 0.411743
0.768691 0.679458 0.419054
0.849357 0.718836 0.434053
0.900017 0.756164 0.447623
0.184563 0.748290 0.466939
0.226611 0.745957 0.463869
0.331217 0.739026 0.454284
0.458248 0.730902 0.441234
0.569024 0.726410 0.429229
0.670026 0.729412 0.421823
0.770294 0.741472 0.420670
0.839562 0.762962 0.426244
0.891947 0.793004 0.438269
0.207811 0.804856 0.448969
0.243551 0.803744 0.447391
0.337380 0.800378 0.442367
0.460212 0.796299 0.435282
0.571399 0.793938 0.428464
0.673931 0.795479 0.424065
0.773573 0.802171 0.423438
0.838662 0.814058 0.426805
0.887075 0.830204 0.433521
0.228050 0.844575 0.429757
0.257539 0.844070 0.429059
0.340640 0.842574 0.426842
0.456149 0.840929 0.423773
0.566023 0.840531 0.421069
0.668563 0.842750 0.419956
0.768685 0.848511 0.421297
0.835439 0.858092 0.425437
0.884578 0.870122 0.432196
0.087650 0.101337 0.765253
0.180008 0.125657 0.765667
0.396879 0.225369 0.767149
0.606120 0.348139 0.769861
0.779170 0.467646 0.764325
0.841044 0.536036 0.719896
0.887643 0.600142 0.690607
0.921921 0.647044 0.665983
0.942252 0.691558 0.648480
0.092622 0.164357 0.765398
0.183302 0.194640 0.765811
0.398634 0.279655 0.767293
0.607003 0.383689 0.770003
0.747645 0.468672 0.739762
0.827576 0.536824 0.704925
0.881560 0.601013 0.678336
0.917693 0.648190 0.658087
0.940547 0.692861 0.643199
0.108628 0.337585 0.751261
0.184928 0.343681 0.740590
0.359259 0.366975 0.713966
0.526478 0.410763 0.686253
0.661217 0.471547 0.664182
0.787317 0.540384 0.650595
0.859341 0.604727 0.641123
0.904214 0.652759 0.633358
0.934984 0.697853 0.626253
0.117234 0.417481 0.635109
0.163396 0.414134 0.621767
0.288029 0.410054 0.587650
0.424635 0.426998 0.563630
0.569568 0.480510 0.568374
0.710809 0.551327 0.582422
0.821283 0.614106 0.593248
0.885087 0.662968 0.599340
0.925587 0.708243 0.601687
0.135661 0.551047 0.616167
0.177159 0.545327 0.605885
0.290704 0.529463 0.575145
0.404726 0.512699 0.535857
0.504634 0.505223 0.499644
0.649128 0.580192 0.530203
0.787045 0.634188 0.552167
0.864792 0.682167 0.567111
0.910203 0.725850 0.576517
0.155626 0.656519 0.609549
0.198783 0.653429 0.603250
0.309344 0.644408 0.583673
0.432378 0.634273 0.557218
0.540962 0.629759 0.532878
0.638881 0.638822 0.519904
0.758253 0.672344 0.529736
0.844558 0.714087 0.544841
0.897645 0.752728 0.556670
0.179801 0.735695 0.595670
0.220272 0.733759 0.591982
0.322905 0.727952 0.580224
0.447859 0.721043 0.563488
0.559278 0.717261 0.546728
0.658891 0.720572 0.534556
0.759415 0.733545 0.529835
0.835063 0.758122 0.534501
0.889706 0.789938 0.544546
0.204004 0.797349 0.576127
0.239199 0.796412 0.574073
0.331679 0.793581 0.567398
0.453167 0.790125 0.557515
0.565024 0.788088 0.547103
0.667060 0.790533 0.538803
0.766933 0.797835 0.534435
0.835117 0.810614 0.534529
0.885661 0.828297 0.538718
0.225399 0.839810 0.553448
0.254709 0.839402 0.552403
0.337084 0.838218 0.548979
0.451858 0.837036 0.543849
0.562262 0.837158 0.538408
0.664756 0.839915 0.534149
0.765312 0.846264 0.532206
0.833830 0.856549 0.533103
0.883989 0.869676 0.536694
0.087650 0.111878 0.875766
0.180008 0.135636 0.875927
0.396879 0.236627 0.876506
0.606120 0.354859 0.877567
0.789760 0.481994 0.879144
0.859244 0.561896 0.849173
0.895605 0.612848 0.812507
0.926419 0.654839 0.785963
0.943391 0.695628 0.763482
0.092622 0.178281 0.875822
0.183302 0.206715 0.875984
0.398634 0.288029 0.876563
0.607003 0.389871 0.877623
0.786007 0.503444 0.876434
0.846242 0.563462 0.835333
0.889566 0.613794 0.803587
0.922137 0.655905 0.778990
0.941653 0.696828 0.758762
0.109756 0.354954 0.876025
0.195036 0.369662 0.876186
0.404881 0.418704 0.876764
0.573908 0.461107 0.848438
0.704749 0.511780 0.817740
0.807173 0.568707 0.793768
0.870579 0.617430 0.773084
0.908355 0.660040 0.756739
0.935946 0.701400 0.743407
0.120125 0.448695 0.792174
0.175166 0.450498 0.785913
0.321373 0.459748 0.767875
0.479185 0.483667 0.749088
0.611663 0.525072 0.737324
0.739443 0.579668 0.731706
0.831564 0.625553 0.728377
0.888363 0.668976 0.724952
0.926706 0.710851 0.720628
0.134236 0.543847 0.735896
0.175170 0.541327 0.729454
0.292980 0.535326 0.709795
0.421416 0.534402 0.682251
0.544864 0.553516 0.663874
0.669224 0.598395 0.669405
0.793580 0.641551 0.681985
0.867130 0.685476 0.691408
0.910362 0.726815 0.695681
0.152532 0.643074 0.722253
0.192510 0.640952 0.717535
0.301296 0.634691 0.701955
0.424140 0.627472 0.674863
0.533473 0.623638 0.644348
0.622471 0.626478 0.619073
0.754722 0.670493 0.641675
0.843077 0.713105 0.658220
0.896640 0.751690 0.669042
0.175174 0.723564 0.711768
0.214168 0.722091 0.708664
0.315054 0.717649 0.698558
0.438510 0.712237 0.680309
0.550779 0.709282 0.659326
0.648652 0.712524 0.642212
0.748561 0.725757 0.634336
0.831253 0.754234 0.641640
0.887978 0.787463 0.652082
0.200015 0.789327 0.696401
0.234652 0.788469 0.694555
0.325793 0.785897 0.686788
0.446057 0.782943 0.674707
0.558741 0.781855 0.661377
0.660347 0.784961 0.649867
0.760297 0.793596 0.642647
0.831519 0.807218 0.640913
0.884330 0.826617 0.644775
0.222490 0.834624 0.671936
0.251607 0.834334 0.670627
0.333215 0.833533 0.666285
0.447254 0.832921 0.659593
0.558298 0.833678 0.652111
0.660814 0.837058 0.645593
0.761851 0.844040 0.641493
0.832191 0.855060 0.640540
0.883416 0.869297 0.642611
0.087650 0.125971 0.935236
0.180008 0.152669 0.935298
0.396879 0.250075 0.935518
0.606120 0.363273 0.935921
0.789760 0.488138 0.936521
0.873598 0.587453 0.929444
0.904193 0.627070 0.899905
0.930476 0.664952 0.876870
0.945278 0.701985 0.854024
0.092622 0.195011 0.935258
0.183302 0.221768 0.935319
0.398634 0.297816 0.935539
0.607003 0.397635 0.935942
0.790193 0.513741 0.936542
0.863703 0.590007 0.921173
0.898370 0.628325 0.893658
0.927992 0.666089 0.872587
0.943536 0.703161 0.849532
0.109756 0.363366 0.935335
0.195036 0.377773 0.935396
0.404881 0.425989 0.935616
0.609592 0.501605 0.935824
0.741401 0.548139 0.915842
0.826518 0.595847 0.892688
0.879875 0.632732 0.873807
0.914263 0.670321 0.853304
0.937784 0.707574 0.834800
0.125081 0.489939 0.902710
0.189129 0.493508 0.899682
0.352142 0.506648 0.890332
0.519454 0.531309 0.877626
0.650746 0.566969 0.862934
0.771754 0.605497 0.846775
0.845668 0.641261 0.833608
0.893991 0.678917 0.822509
0.928989 0.716425 0.812557
0.136097 0.559200 0.839944
0.180047 0.559498 0.836093
0.307412 0.562261 0.824399
0.451969 0.572760 0.809691
0.579764 0.594667 0.798303
0.700465 0.621869 0.792823
0.806127 0.656359 0.791123
0.872467 0.694008 0.790041
0.912511 0.731080 0.787754
0.151060 0.637433 0.808890
0.189776 0.636401 0.805445
0.299505 0.633630 0.794346
0.427304 0.631733 0.776073
0.544511 0.635136 0.757629
0.651179 0.650502 0.748203
0.768055 0.681284 0.751586
0.846934 0.718218 0.758240
0.897554 0.753959 0.762732
0.171392 0.713886 0.795859
0.209304 0.712878 0.793418
0.308989 0.709886 0.784404
0.432190 0.706523 0.769805
0.546125 0.705364 0.753335
0.643500 0.708844 0.738205
0.738234 0.718502 0.726736
0.829989 0.753466 0.738027
0.887423 0.787159 0.745702
0.196240 0.780690 0.781844
0.230245 0.780105 0.780031
0.320323 0.778397 0.773995
0.439652 0.776646 0.764585
0.553320 0.776688 0.753777
0.654708 0.780496 0.743820
0.754399 0.789861 0.736757
0.828085 0.804100 0.734485
0.883243 0.825415 0.738202
0.219538 0.829430 0.763146
0.248464 0.829270 0.762111
0.329321 0.828895 0.758650
0.442686 0.828926 0.753213
0.554442 0.830400 0.746942
0.657072 0.834461 0.741201
0.758611 0.842073 0.737200
0.830668 0.853793 0.735715
0.882931 0.868996 0.736762
0.087650 0.143701 0.964700
0.180008 0.172662 0.964722
0.396879 0.265168 0.964802
0.606120 0.373315 0.964947
0.789760 0.495542 0.965164
0.881917 0.603363 0.964051
0.911714 0.640477 0.946772
0.933749 0.675479 0.932377
0.947401 0.709321 0.913952
0.092622 0.213635 0.964708
0.183302 0.239248 0.964730
0.398634 0.309350 0.964809
0.607003 0.406938 0.964955
0.790193 0.520785 0.965171
0.874572 0.606136 0.959980
0.906207 0.642157 0.943487
0.931418 0.676794 0.929960
0.945684 0.710545 0.910823
0.109756 0.373406 0.964736
0.195036 0.387470 0.964758
0.404881 0.434696 0.964837
0.610160 0.509358 0.964982
0.768675 0.577846 0.959639
0.842657 0.614421 0.945371
0.888555 0.647782 0.932884
0.920479 0.681498 0.916887
0.939985 0.715036 0.900468
0.129227 0.526761 0.955643
0.201574 0.530930 0.954127
0.376648 0.545194 0.949176
0.548035 0.569639 0.941676
0.682753 0.598879 0.933154
0.795588 0.626638 0.921514
0.859845 0.657591 0.907463
0.900397 0.690445 0.895232
0.931170 0.723511 0.884527
0.139628 0.586934 0.916934
0.188146 0.588720 0.915004
0.325140 0.593836 0.908854
0.481100 0.604007 0.900072
0.609399 0.620804 0.891034
0.729283 0.644259 0.883260
0.820090 0.673134 0.876960
0.878564 0.705222 0.871594
0.915937 0.737568 0.865157
0.151577 0.641682 0.882450
0.191397 0.641691 0.880714
0.304714 0.642341 0.875115
0.440335 0.645690 0.865933
0.563899 0.654733 0.853967
0.676504 0.671953 0.845885
0.787319 0.697394 0.842451
0.854613 0.727653 0.841453
0.900106 0.759099 0.840436
0.169166 0.708611 0.865661
0.206624 0.708167 0.863510
0.306201 0.707023 0.856373
0.431044 0.706509 0.845337
0.548359 0.708824 0.832912
0.651210 0.716602 0.822246
0.755900 0.733137 0.817286
0.834634 0.759762 0.819194
0.888604 0.790011 0.822297
0.193088 0.773728 0.850627
0.226557 0.773426 0.849171
0.315904 0.772637 0.844287
0.434841 0.772238 0.836540
0.549762 0.773694 0.827400
0.651702 0.778577 0.818588
0.751469 0.788193 0.811609
0.824977 0.801435 0.807515
0.882842 0.825377 0.812673
0.216757 0.824648 0.834702
0.245508 0.824623 0.833836
0.325690 0.824692 0.830923
0.438504 0.825404 0.826287
0.551022 0.827647 0.820828
0.653895 0.832426 0.815671
0.755953 0.840639 0.811882
0.829420 0.852928 0.810269
0.882598 0.868956 0.811104
0.087650 0.167027 0.978022
0.180008 0.197082 0.978039
0.396879 0.281361 0.978099
0.606120 0.384925 0.978209
0.789760 0.504192 0.978373
0.886569 0.614419 0.978594
0.917263 0.651771 0.969805
0.936439 0.685009 0.960768
0.949306 0.716373 0.947762
0.092622 0.234971 0.978028
0.183302 0.258448 0.978044
0.398634 0.322438 0.978104
0.607003 0.417736 0.978214
0.790193 0.529018 0.978378
0.880480 0.618795 0.976684
0.912124 0.653927 0.968270
0.934215 0.686557 0.958470
0.947635 0.717644 0.946085
0.109756 0.385013 0.978049
0.195036 0.398741 0.978065
0.404881 0.444764 0.978125
0.610160 0.517780 0.978235
0.786035 0.597331 0.977308
0.854418 0.629496 0.970007
0.895500 0.660945 0.962985
0.925908 0.691945 0.950882
0.942064 0.722232 0.940488
0.132389 0.555496 0.976562
0.210390 0.559929 0.975852
0.393982 0.574973 0.973470
0.568265 0.596691 0.969679
0.706712 0.618903 0.965086
0.809863 0.644442 0.956955
0.871015 0.672336 0.947665
0.906320 0.701628 0.939235
0.933356 0.730904 0.931719
0.143161 0.607888 0.956073
0.196605 0.609521 0.955173
0.341032 0.615429 0.952184
0.503605 0.626352 0.947507
0.633235 0.642510 0.941971
0.752884 0.663631 0.936326
0.832619 0.688761 0.930988
0.884577 0.716579 0.923890
0.919670 0.744784 0.915367
0.153465 0.652960 0.933012
0.195898 0.653653 0.932308
0.313681 0.656455 0.929910
0.456192 0.662656 0.924628
0.582311 0.673698 0.917377
0.697879 0.690461 0.910861
0.799484 0.712685 0.905624
0.862960 0.738065 0.901377
0.903313 0.765517 0.897477
0.168859 0.709256 0.912823
0.206466 0.709355 0.911683
0.307212 0.710030 0.907889
0.435235 0.712417 0.902009
0.556109 0.718120 0.895416
0.664310 0.728861 0.889720
0.770990 0.745928 0.886098
0.841409 0.768743 0.884473
0.890870 0.794241 0.883612
0.190935 0.769425 0.899331
0.224083 0.769409 0.898482
0.313136 0.769573 0.895620
0.432449 0.770670 0.891037
0.548999 0.773908 0.885569
0.652898 0.780665 0.880286
0.755314 0.792077 0.876292
0.829916 0.807393 0.874716
0.883790 0.827527 0.875282
0.214348 0.820683 0.888162
0.242955 0.820791 0.887631
0.322596 0.821302 0.885833
0.435051 0.822705 0.882942
0.548362 0.825749 0.879482
0.651679 0.831289 0.876138
0.754367 0.840110 0.873585
0.828759 0.852817 0.872377
0.882474 0.869281 0.872891
