velvia/Velvia50_Classic_IlfochromeP.cube
TITLE "Velvia 50 Classic IlfochromeP"
# Adobe RGB in/out. REPLACES AgX. Velvia 50 Classic IlfochromeP.
LUT_3D_SIZE 33
DOMAIN_MIN 0.0 0.0 0.0
DOMAIN_MAX 1.0 1.0 1.0
0.172658 0.130191 0.128175
0.172658 0.130191 0.128175
0.172658 0.130191 0.128175
0.172815 0.130191 0.128175
0.173420 0.130191 0.128175
0.175481 0.130191 0.128175
0.178108 0.130844 0.128175
0.184147 0.132163 0.128175
0.196398 0.134028 0.128175
0.223150 0.136723 0.128175
0.258886 0.141245 0.128175
0.293309 0.147722 0.128175
0.328755 0.158230 0.128175
0.369331 0.169690 0.128175
0.416544 0.186343 0.128329
0.461725 0.206679 0.128814
0.505261 0.222935 0.129269
0.547392 0.239142 0.129699
0.585100 0.259491 0.130146
0.622899 0.281543 0.130764
0.660812 0.304636 0.131353
0.697401 0.329052 0.131916
0.725748 0.354594 0.132455
0.750014 0.381768 0.133619
0.774006 0.409879 0.135347
0.797740 0.436170 0.137026
0.823752 0.462900 0.138658
0.863047 0.493069 0.140247
0.892469 0.523700 0.141795
0.920450 0.552987 0.143305
0.945966 0.582590 0.146572
0.963167 0.609918 0.149968
0.980121 0.637082 0.153331
0.172658 0.130191 0.128175
0.172658 0.130191 0.128175
0.172658 0.130191 0.128175
0.172818 0.130191 0.128175
0.173428 0.130191 0.128175
0.175485 0.130206 0.128175
0.178116 0.130933 0.128175
0.184168 0.132373 0.128175
0.196417 0.134188 0.128175
0.223189 0.137037 0.128175
0.258929 0.141566 0.128175
0.293342 0.148342 0.128175
0.328790 0.158871 0.128175
0.369367 0.170458 0.128175
0.416579 0.187276 0.128332
0.461754 0.207576 0.128817
0.505289 0.223571 0.129272
0.547414 0.239763 0.129701
0.585121 0.260245 0.130149
0.622919 0.282269 0.130767
0.660831 0.305360 0.131355
0.697415 0.329777 0.131918
0.725758 0.355300 0.132457
0.750023 0.382484 0.133626
0.774015 0.410579 0.135353
0.797749 0.436780 0.137031
0.823766 0.463565 0.138663
0.863061 0.493720 0.140251
0.892478 0.524316 0.141799
0.920459 0.553561 0.143310
0.945971 0.583151 0.146581
0.963172 0.610405 0.149976
0.980125 0.637557 0.153339
0.172658 0.130191 0.128175
0.172658 0.130191 0.128175
0.172658 0.130191 0.128175
0.172827 0.130191 0.128175
0.173455 0.130191 0.128175
0.175502 0.130615 0.128175
0.178147 0.131271 0.128175
0.184242 0.133076 0.128175
0.196484 0.134731 0.128175
0.223328 0.138211 0.128175
0.259084 0.142688 0.128175
0.293460 0.150525 0.128175
0.328916 0.161142 0.128175
0.369497 0.173193 0.128175
0.416708 0.190609 0.128344
0.461858 0.210168 0.128827
0.505388 0.225842 0.129281
0.547493 0.241986 0.129709
0.585195 0.262943 0.130160
0.622988 0.284870 0.130777
0.660896 0.307957 0.131365
0.697467 0.332378 0.131926
0.725796 0.357830 0.132464
0.750058 0.385052 0.133649
0.774048 0.413090 0.135375
0.797780 0.438970 0.137051
0.823815 0.465948 0.138681
0.863108 0.496057 0.140269
0.892510 0.526530 0.141815
0.920490 0.555620 0.143339
0.945989 0.585165 0.146614
0.963190 0.612155 0.150008
0.980142 0.639262 0.153369
0.172658 0.130191 0.128175
0.172658 0.130191 0.128175
0.172658 0.130191 0.128175
0.172845 0.130290 0.128175
0.173504 0.130728 0.128175
0.175533 0.131197 0.128175
0.178202 0.132714 0.128175
0.184378 0.134204 0.128175
0.196609 0.136554 0.128175
0.223584 0.140521 0.128175
0.259367 0.145248 0.128175
0.293678 0.154525 0.128175
0.329147 0.165196 0.128175
0.369736 0.178125 0.128175
0.416943 0.196672 0.128366
0.462050 0.214569 0.128846
0.505570 0.229966 0.129298
0.547637 0.246767 0.129723
0.585331 0.267875 0.130181
0.623115 0.289626 0.130795
0.661016 0.312712 0.131381
0.697561 0.337143 0.131941
0.725865 0.362645 0.132478
0.750123 0.389762 0.133692
0.774109 0.417319 0.135414
0.797837 0.442987 0.137088
0.823905 0.470323 0.138715
0.863195 0.500348 0.140300
0.892569 0.530490 0.141845
0.920546 0.559400 0.143392
0.946023 0.588675 0.146674
0.963221 0.615367 0.150065
0.980172 0.642391 0.153424
0.172658 0.130845 0.128175
0.172658 0.130882 0.128175
0.172658 0.131009 0.128175
0.172871 0.131273 0.128175
0.173577 0.132194 0.128175
0.175579 0.133265 0.128175
0.178285 0.134418 0.128175
0.184581 0.136487 0.128175
0.196794 0.139898 0.128175
0.223967 0.143614 0.128175
0.259792 0.151348 0.128175
0.294003 0.160916 0.128175
0.329492 0.171574 0.128175
0.370094 0.186957 0.128175
0.417296 0.205627 0.128399
0.462338 0.221002 0.128875
0.505843 0.236075 0.129322
0.547853 0.254341 0.129745
0.585534 0.275176 0.130211
0.623305 0.296864 0.130823
0.661197 0.319842 0.131406
0.697703 0.344226 0.131964
0.725968 0.369817 0.132498
0.750220 0.396774 0.133756
0.774200 0.423463 0.135473
0.797908 0.448963 0.137142
0.824040 0.476845 0.138766
0.863325 0.506744 0.140347
0.892658 0.536254 0.141889
0.920631 0.565034 0.143470
0.946074 0.593590 0.146765
0.963269 0.620152 0.150152
0.980217 0.647055 0.153506
0.172658 0.133127 0.128175
0.172658 0.133202 0.128175
0.172658 0.133465 0.128175
0.172904 0.133924 0.128175
0.173674 0.134557 0.128175
0.175639 0.135798 0.128175
0.178396 0.138035 0.128175
0.184854 0.140989 0.128175
0.197044 0.144089 0.128175
0.224484 0.151321 0.128175
0.260365 0.159810 0.128175
0.294443 0.168987 0.128175
0.329959 0.182012 0.128175
0.370577 0.199229 0.128175
0.417773 0.215220 0.128443
0.462725 0.229430 0.128912
0.506211 0.244647 0.129355
0.548144 0.264416 0.129774
0.585809 0.284903 0.130253
0.623562 0.306587 0.130860
0.661440 0.329584 0.131439
0.697895 0.353712 0.131994
0.726107 0.379440 0.132525
0.750350 0.406187 0.133842
0.774322 0.431699 0.135552
0.798001 0.456979 0.137216
0.824223 0.485613 0.138834
0.863502 0.515345 0.140411
0.892778 0.544000 0.141948
0.920745 0.572610 0.143577
0.946142 0.600191 0.146887
0.963334 0.626584 0.150268
0.980279 0.653325 0.153617
0.172658 0.136732 0.128175
0.172658 0.136862 0.128175
0.172658 0.137319 0.128175
0.172944 0.138221 0.128175
0.173793 0.139662 0.128175
0.175716 0.141482 0.128175
0.178535 0.143619 0.128175
0.185199 0.148397 0.128175
0.197360 0.154516 0.128175
0.225139 0.162058 0.128175
0.261092 0.170335 0.128175
0.295001 0.182140 0.128175
0.330552 0.197745 0.128175
0.371191 0.212948 0.128175
0.418379 0.226143 0.128498
0.463218 0.239975 0.128960
0.506679 0.257651 0.129397
0.548515 0.276981 0.129811
0.586158 0.297261 0.130305
0.623888 0.318814 0.130906
0.661749 0.341823 0.131481
0.698139 0.365945 0.132031
0.726284 0.391568 0.132560
0.750516 0.417645 0.133950
0.774478 0.442070 0.135653
0.798120 0.467966 0.137309
0.824455 0.496693 0.138921
0.863726 0.525849 0.140491
0.892930 0.553783 0.142023
0.920891 0.582183 0.143711
0.946228 0.608525 0.147042
0.963416 0.634707 0.150416
0.980327 0.661248 0.153758
0.172658 0.143526 0.128175
0.172658 0.143647 0.128175
0.172658 0.144075 0.128175
0.172991 0.145742 0.128175
0.173935 0.148285 0.128175
0.175807 0.151590 0.128175
0.178703 0.155945 0.128175
0.185617 0.161392 0.128175
0.197745 0.167512 0.128175
0.225938 0.175895 0.128175
0.261980 0.187432 0.128175
0.295681 0.201278 0.128175
0.331275 0.214358 0.128175
0.371941 0.226349 0.128175
0.419118 0.239043 0.128563
0.463820 0.255110 0.129017
0.507251 0.273142 0.129447
0.548967 0.292021 0.129855
0.586585 0.312306 0.130368
0.624287 0.333923 0.130963
0.662127 0.356560 0.131532
0.698436 0.380913 0.132077
0.726500 0.406225 0.132602
0.750718 0.430493 0.134083
0.774669 0.454587 0.135775
0.798265 0.481648 0.137422
0.824739 0.510125 0.139026
0.863999 0.538089 0.140589
0.893116 0.565636 0.142115
0.921068 0.593067 0.143875
0.946334 0.618615 0.147231
0.963516 0.644546 0.150596
0.980368 0.670851 0.153930
0.172658 0.158265 0.128175
0.172658 0.158528 0.128175
0.172658 0.159468 0.128175
0.173044 0.161175 0.128175
0.174097 0.163677 0.128175
0.175913 0.166968 0.128175
0.178900 0.171606 0.128175
0.186109 0.177982 0.128175
0.198198 0.186972 0.128175
0.226895 0.197768 0.128175
0.263033 0.209468 0.128175
0.296488 0.219444 0.128175
0.332133 0.230098 0.128175
0.372830 0.241654 0.128175
0.419996 0.256920 0.128639
0.464534 0.273534 0.129084
0.507929 0.291028 0.129505
0.549504 0.309975 0.129907
0.587091 0.330187 0.130442
0.624759 0.351539 0.131029
0.662575 0.374396 0.131592
0.698789 0.398442 0.132132
0.726756 0.422436 0.132651
0.750959 0.445516 0.134238
0.774894 0.470383 0.135919
0.798437 0.497733 0.137555
0.825076 0.525562 0.139150
0.864324 0.552320 0.140705
0.893337 0.579571 0.142223
0.921279 0.605217 0.144070
0.946460 0.630465 0.147455
0.963635 0.656111 0.150809
0.980418 0.680708 0.154133
0.172658 0.177282 0.128175
0.172658 0.177585 0.128175
0.172674 0.178669 0.128175
0.173100 0.180906 0.128175
0.174279 0.184723 0.128175
0.176033 0.189824 0.128175
0.179125 0.196220 0.128175
0.186674 0.203933 0.128175
0.199265 0.211814 0.128175
0.228041 0.219517 0.128175
0.264253 0.228024 0.128175
0.297423 0.237395 0.128175
0.333128 0.248967 0.128175
0.373863 0.263099 0.128271
0.421015 0.278208 0.128726
0.465363 0.294361 0.129159
0.508717 0.311877 0.129572
0.550126 0.330727 0.129966
0.587678 0.350705 0.130526
0.625308 0.372147 0.131105
0.663096 0.394848 0.131660
0.699199 0.418046 0.132194
0.727054 0.440019 0.132812
0.751238 0.463040 0.134418
0.775157 0.489193 0.136085
0.798636 0.516187 0.137710
0.825467 0.542384 0.139294
0.864701 0.568660 0.140839
0.893593 0.594666 0.142349
0.921524 0.619153 0.144342
0.946606 0.644067 0.147714
0.963773 0.669396 0.151056
0.980475 0.688853 0.154369
0.172658 0.206759 0.128175
0.172658 0.207127 0.128175
0.172774 0.208399 0.128175
0.173161 0.210226 0.128175
0.174477 0.212933 0.128175
0.176166 0.216541 0.128175
0.179377 0.221052 0.128175
0.187312 0.226450 0.128175
0.200521 0.232708 0.128175
0.229346 0.240012 0.128175
0.265644 0.249540 0.128175
0.298478 0.261022 0.128175
0.334264 0.273560 0.128175
0.375041 0.287117 0.128381
0.422178 0.302011 0.128822
0.466309 0.318049 0.129243
0.509615 0.335588 0.129646
0.550837 0.354123 0.130032
0.588349 0.374244 0.130622
0.625935 0.395532 0.131190
0.663690 0.417425 0.131737
0.699667 0.438206 0.132264
0.727394 0.459729 0.133004
0.751556 0.484618 0.134622
0.775456 0.510412 0.136274
0.798864 0.535953 0.137885
0.825913 0.561181 0.139456
0.865132 0.587087 0.140991
0.893886 0.610740 0.142491
0.921804 0.634849 0.144652
0.946772 0.659402 0.148009
0.963931 0.682180 0.151337
0.980540 0.697896 0.154637
0.172658 0.230996 0.128175
0.172658 0.231248 0.128175
0.172874 0.232153 0.128175
0.173224 0.233808 0.128175
0.174690 0.236339 0.128175
0.176311 0.239760 0.128175
0.179655 0.244257 0.128175
0.188023 0.250810 0.128175
0.201929 0.258488 0.128175
0.230811 0.267281 0.128175
0.267075 0.277169 0.128175
0.299620 0.288127 0.128175
0.335541 0.300432 0.128175
0.376368 0.313891 0.128501
0.423488 0.328734 0.128927
0.467374 0.344748 0.129336
0.510628 0.361941 0.129729
0.551638 0.380712 0.130146
0.589104 0.400535 0.130727
0.626641 0.420623 0.131285
0.664359 0.440139 0.131823
0.700194 0.460524 0.132342
0.727776 0.484090 0.133218
0.751915 0.508591 0.134849
0.775793 0.533123 0.136484
0.799121 0.557233 0.138080
0.826417 0.582055 0.139639
0.865617 0.605334 0.141161
0.894216 0.628563 0.142650
0.922119 0.652270 0.145000
0.946960 0.676306 0.148339
0.964109 0.692516 0.151652
0.980614 0.707877 0.154938
0.172658 0.259592 0.128175
0.172727 0.259901 0.128175
0.172972 0.261009 0.128175
0.173289 0.263041 0.128175
0.174915 0.266068 0.128175
0.176467 0.270134 0.128175
0.179957 0.275265 0.128175
0.188803 0.281474 0.128175
0.203488 0.288766 0.128175
0.232437 0.297337 0.128175
0.268526 0.307087 0.128175
0.300890 0.317944 0.128175
0.336963 0.330244 0.128204
0.377845 0.343644 0.128629
0.424948 0.358128 0.129040
0.468561 0.374276 0.129436
0.511755 0.391523 0.129818
0.552530 0.409846 0.130274
0.589945 0.427635 0.130842
0.627428 0.445832 0.131389
0.665105 0.465458 0.131918
0.700782 0.487653 0.132428
0.728203 0.510811 0.133453
0.752315 0.533955 0.135099
0.776169 0.556885 0.136717
0.799407 0.580561 0.138296
0.826978 0.603015 0.139840
0.866158 0.625296 0.141350
0.894584 0.648088 0.142826
0.922470 0.671375 0.145385
0.947169 0.688860 0.148706
0.964307 0.703766 0.152002
0.980696 0.718755 0.155273
0.172784 0.292973 0.128175
0.172855 0.293274 0.128175
0.173068 0.294357 0.128175
0.173593 0.296345 0.128175
0.175152 0.299309 0.128175
0.176650 0.303296 0.128175
0.180315 0.308334 0.128175
0.189652 0.314445 0.128175
0.205198 0.321768 0.128175
0.234226 0.330310 0.128175
0.270123 0.339972 0.128175
0.302288 0.350745 0.128175
0.338531 0.362800 0.128359
0.379485 0.376277 0.128766
0.426559 0.390882 0.129161
0.469870 0.406600 0.129544
0.513000 0.422437 0.129914
0.553514 0.438409 0.130412
0.590874 0.455252 0.130966
0.628296 0.474526 0.131502
0.665929 0.495315 0.132020
0.701430 0.517030 0.132521
0.728673 0.538474 0.133738
0.752756 0.560173 0.135373
0.776584 0.582649 0.136970
0.799723 0.603833 0.138533
0.827598 0.625103 0.140061
0.866756 0.646919 0.141556
0.894990 0.669262 0.143019
0.922858 0.686986 0.145808
0.947400 0.701377 0.149110
0.964526 0.715880 0.152387
0.980787 0.730484 0.155640
0.172914 0.329188 0.128175
0.172975 0.329485 0.128175
0.173162 0.330552 0.128175
0.173941 0.332512 0.128175
0.175397 0.335435 0.128175
0.177116 0.339370 0.128175
0.180762 0.344351 0.128175
0.190567 0.350401 0.128175
0.207058 0.357533 0.128175
0.236178 0.366060 0.128175
0.271866 0.375746 0.128175
0.303815 0.386574 0.128175
0.340246 0.398536 0.128521
0.381322 0.411625 0.128909
0.428323 0.424601 0.129289
0.471303 0.438265 0.129658
0.514362 0.452846 0.130016
0.554591 0.469352 0.130559
0.591890 0.487688 0.131099
0.629247 0.507050 0.131623
0.666830 0.527003 0.132130
0.702140 0.546672 0.132622
0.729189 0.567099 0.134057
0.753240 0.588203 0.135669
0.777039 0.607807 0.137246
0.800069 0.628012 0.138789
0.828277 0.648798 0.140300
0.867411 0.670143 0.141780
0.895435 0.686933 0.143229
0.923283 0.700752 0.146270
0.947653 0.714715 0.149550
0.964766 0.728808 0.152807
0.980887 0.743018 0.156074
0.173036 0.368173 0.128175
0.173088 0.368469 0.128175
0.173253 0.369534 0.128175
0.174291 0.371492 0.128175
0.175649 0.374414 0.128175
0.177605 0.378350 0.128175
0.181236 0.383339 0.128175
0.191545 0.389405 0.128175
0.209066 0.396568 0.128175
0.238337 0.404840 0.128175
0.273756 0.414207 0.128175
0.305471 0.423616 0.128313
0.342110 0.433994 0.128689
0.383320 0.445330 0.129059
0.430242 0.457609 0.129422
0.472862 0.472145 0.129777
0.515845 0.487981 0.130176
0.555763 0.504871 0.130715
0.592997 0.522542 0.131241
0.630281 0.540229 0.131751
0.667812 0.558505 0.132247
0.702913 0.577634 0.132877
0.729749 0.596458 0.134400
0.753765 0.614923 0.135987
0.777534 0.634021 0.137541
0.800445 0.653732 0.139065
0.829017 0.674033 0.140558
0.867987 0.688716 0.142021
0.895920 0.701912 0.143591
0.923746 0.715284 0.146769
0.947929 0.728816 0.150026
0.965028 0.742495 0.153261
0.980995 0.756308 0.156709
0.173149 0.410055 0.128175
0.173195 0.410342 0.128175
0.173522 0.411371 0.128175
0.174640 0.413263 0.128175
0.175907 0.415877 0.128175
0.178113 0.419290 0.128175
0.182082 0.423611 0.128175
0.192585 0.428862 0.128175
0.211221 0.435058 0.128175
0.240957 0.442205 0.128175
0.275792 0.450305 0.128175
0.307257 0.459358 0.128506
0.344122 0.470513 0.128861
0.385480 0.482776 0.129214
0.432300 0.496113 0.129561
0.474547 0.510516 0.129902
0.517448 0.525607 0.130357
0.557030 0.540895 0.130880
0.594193 0.556952 0.131390
0.631400 0.573899 0.131887
0.668873 0.591222 0.132372
0.703749 0.607838 0.133220
0.730356 0.625138 0.134765
0.754334 0.643099 0.136326
0.778069 0.661701 0.137857
0.800852 0.679766 0.139360
0.829817 0.692327 0.140834
0.868537 0.704856 0.142280
0.896445 0.717593 0.144056
0.924247 0.730521 0.147305
0.948227 0.743625 0.150538
0.965310 0.756890 0.153751
0.981112 0.770303 0.157393
0.173256 0.449470 0.128175
0.173296 0.449717 0.128175
0.173967 0.450603 0.128175
0.174987 0.452230 0.128175
0.176169 0.454660 0.128175
0.178637 0.457933 0.128175
0.183430 0.462372 0.128175
0.193780 0.468014 0.128175
0.213676 0.474684 0.128175
0.243766 0.482397 0.128175
0.277974 0.491163 0.128369
0.309172 0.500989 0.128702
0.346285 0.511875 0.129038
0.387804 0.523529 0.129373
0.434267 0.535710 0.129705
0.476359 0.548595 0.130032
0.519173 0.562407 0.130545
0.558392 0.577133 0.131051
0.595479 0.592149 0.131546
0.632604 0.606841 0.132030
0.670016 0.622259 0.132503
0.704648 0.638381 0.133590
0.731008 0.655188 0.135151
0.754947 0.672660 0.136686
0.778645 0.686155 0.138193
0.801291 0.697731 0.139674
0.830679 0.709562 0.141128
0.869129 0.721630 0.142556
0.897010 0.733917 0.144655
0.924787 0.746407 0.147879
0.948549 0.759087 0.151085
0.965615 0.771941 0.154274
0.981238 0.784956 0.158127
0.173606 0.493281 0.128175
0.173791 0.493548 0.128175
0.174398 0.494506 0.128175
0.175331 0.496267 0.128175
0.176433 0.498898 0.128175
0.179176 0.502446 0.128175
0.184836 0.506947 0.128175
0.195103 0.512429 0.128175
0.216391 0.518788 0.128175
0.246764 0.526032 0.128283
0.280302 0.533984 0.128588
0.311217 0.542760 0.128900
0.348597 0.552475 0.129217
0.390292 0.563128 0.129535
0.436372 0.574712 0.129852
0.478300 0.587210 0.130244
0.521020 0.599169 0.130740
0.559851 0.611901 0.131229
0.596857 0.625388 0.131709
0.633893 0.639614 0.132180
0.671240 0.654559 0.132640
0.705611 0.670207 0.134028
0.731707 0.683521 0.135559
0.755603 0.694049 0.137065
0.779262 0.704877 0.138548
0.801760 0.715985 0.140005
0.831604 0.727357 0.141439
0.869764 0.738976 0.142848
0.897615 0.750824 0.145295
0.925366 0.762886 0.148489
0.948893 0.775149 0.151668
0.965941 0.787597 0.154832
0.981374 0.799129 0.158910
0.174103 0.538602 0.128175
0.174269 0.538840 0.128175
0.174816 0.539693 0.128175
0.175670 0.541263 0.128175
0.176821 0.543607 0.128175
0.179727 0.546768 0.128175
0.186297 0.550777 0.128175
0.196488 0.555658 0.128175
0.219265 0.561429 0.128252
0.249951 0.568102 0.128522
0.282775 0.575686 0.128806
0.313659 0.584185 0.129100
0.351061 0.592902 0.129399
0.392945 0.602102 0.129701
0.438616 0.612095 0.130003
0.480369 0.622871 0.130464
0.522990 0.634420 0.130942
0.561406 0.646727 0.131413
0.598327 0.659779 0.131878
0.635269 0.673561 0.132335
0.672546 0.684466 0.133039
0.706639 0.693873 0.134486
0.732453 0.703621 0.135985
0.756303 0.713690 0.137464
0.779921 0.724064 0.138920
0.802262 0.734725 0.140355
0.832591 0.745655 0.141766
0.870442 0.756839 0.143156
0.898262 0.768261 0.145972
0.925983 0.779907 0.149136
0.949261 0.791761 0.152286
0.966290 0.802096 0.155423
0.981518 0.811514 0.159743
0.174576 0.582820 0.128175
0.174725 0.583050 0.128175
0.175220 0.583876 0.128175
0.176005 0.585393 0.128175
0.177529 0.587603 0.128175
0.180320 0.590330 0.128175
0.187807 0.593787 0.128175
0.197931 0.597994 0.128275
0.222296 0.602966 0.128508
0.253325 0.608712 0.128759
0.285390 0.615237 0.129024
0.316430 0.622545 0.129300
0.353675 0.630635 0.129582
0.395765 0.639503 0.129868
0.441000 0.649145 0.130228
0.482567 0.659551 0.130689
0.525132 0.670714 0.131148
0.563059 0.681076 0.131603
0.599890 0.688937 0.132053
0.636732 0.697182 0.132496
0.673935 0.705800 0.133484
0.707732 0.714773 0.134963
0.733246 0.724086 0.136431
0.757047 0.733722 0.137881
0.780621 0.743664 0.139311
0.802795 0.753896 0.140721
0.833642 0.764403 0.142110
0.871163 0.775169 0.143636
0.898950 0.786179 0.146686
0.926641 0.796816 0.149818
0.949652 0.806204 0.152938
0.966660 0.814837 0.156082
0.981672 0.823581 0.160624
0.175028 0.623680 0.128175
0.175162 0.623877 0.128175
0.175612 0.624585 0.128175
0.176334 0.625886 0.128175
0.178237 0.627830 0.128175
0.181052 0.630450 0.128186
0.189363 0.633774 0.128353
0.200765 0.637820 0.128545
0.225479 0.642603 0.128760
0.256885 0.648134 0.128993
0.288149 0.654420 0.129241
0.319358 0.661463 0.129499
0.356439 0.669266 0.129766
0.398751 0.677377 0.130037
0.443524 0.683894 0.130477
0.484895 0.690136 0.130918
0.527526 0.696798 0.131359
0.564809 0.703870 0.131798
0.601544 0.711337 0.132232
0.638281 0.719185 0.132674
0.675407 0.727400 0.134009
0.708890 0.735967 0.135459
0.734085 0.744870 0.136895
0.757835 0.754096 0.138315
0.781364 0.763628 0.139718
0.803360 0.773451 0.141103
0.834756 0.783552 0.142470
0.871928 0.793916 0.144330
0.899680 0.802689 0.147436
0.927338 0.811021 0.150535
0.950067 0.819203 0.153625
0.967054 0.827511 0.157043
0.981835 0.835937 0.161553
0.175459 0.664799 0.128175
0.175581 0.664989 0.128175
0.175991 0.665670 0.128192
0.176712 0.666923 0.128258
0.178945 0.668793 0.128354
0.182232 0.671316 0.128479
0.190960 0.674517 0.128631
0.204071 0.677832 0.128809
0.228916 0.681333 0.129007
0.260630 0.684653 0.129224
0.291048 0.688416 0.129456
0.322444 0.692620 0.129698
0.359354 0.697263 0.129950
0.401905 0.702338 0.130310
0.446188 0.707839 0.130728
0.487353 0.713756 0.131151
0.530054 0.720081 0.131574
0.566657 0.726803 0.131996
0.603271 0.733909 0.132416
0.639918 0.741388 0.133184
0.676962 0.749227 0.134557
0.710113 0.757412 0.135971
0.734972 0.765931 0.137375
0.758668 0.774768 0.138765
0.782148 0.783911 0.140141
0.803956 0.793347 0.141501
0.835935 0.801476 0.142845
0.872737 0.809289 0.145152
0.900451 0.816857 0.148221
0.928075 0.824576 0.151286
0.950505 0.832438 0.154344
0.967470 0.840433 0.158053
0.982007 0.848550 0.162531
0.175873 0.695951 0.128458
0.175983 0.696063 0.128467
0.176359 0.696467 0.128500
0.177555 0.697210 0.128560
0.179650 0.698319 0.128647
0.184170 0.699812 0.128762
0.192594 0.701705 0.128902
0.207508 0.704006 0.129066
0.232563 0.706723 0.129250
0.264558 0.709860 0.129452
0.294086 0.713417 0.129668
0.325686 0.717395 0.129896
0.362418 0.721792 0.130192
0.405225 0.726602 0.130583
0.448993 0.731821 0.130982
0.489941 0.737441 0.131386
0.532579 0.743455 0.131792
0.568603 0.749852 0.132198
0.605091 0.756624 0.132603
0.641643 0.763759 0.133735
0.678600 0.771246 0.135121
0.711402 0.779074 0.136500
0.735907 0.787230 0.137870
0.759546 0.795395 0.139231
0.782975 0.802645 0.140579
0.804586 0.809662 0.141913
0.837178 0.816573 0.143234
0.873590 0.823660 0.146009
0.901265 0.830914 0.149041
0.928853 0.838323 0.152071
0.950968 0.845878 0.155096
0.967908 0.853570 0.159111
0.982188 0.861390 0.163555
0.176269 0.721829 0.128757
0.176370 0.721935 0.128765
0.176865 0.722317 0.128795
0.178384 0.723018 0.128850
0.180403 0.724066 0.128930
0.186132 0.725477 0.129036
0.194445 0.727267 0.129165
0.211072 0.729443 0.129316
0.236364 0.732014 0.129487
0.268291 0.734984 0.129675
0.297261 0.738354 0.129878
0.329083 0.742125 0.130127
0.365632 0.746297 0.130486
0.408714 0.750864 0.130857
0.451924 0.755824 0.131237
0.492659 0.761170 0.131623
0.534744 0.766896 0.132013
0.570646 0.772994 0.132403
0.607002 0.779454 0.133073
0.643455 0.786269 0.134352
0.680323 0.793428 0.135699
0.712757 0.799708 0.137043
0.736889 0.806098 0.138381
0.760469 0.812118 0.139711
0.783844 0.818345 0.141031
0.805247 0.824768 0.142340
0.838486 0.831379 0.143936
0.874487 0.838166 0.146900
0.902121 0.845120 0.149894
0.929672 0.852233 0.152888
0.951454 0.859495 0.155880
0.968370 0.866897 0.160217
0.982380 0.873197 0.164627
0.176694 0.747554 0.129045
0.176939 0.747654 0.129052
0.177783 0.748016 0.129080
0.179198 0.748680 0.129130
0.181300 0.749672 0.129204
0.188115 0.751009 0.129301
0.196396 0.752705 0.129420
0.215051 0.754768 0.129561
0.240668 0.757206 0.129720
0.271863 0.760023 0.129896
0.300464 0.763222 0.130115
0.332635 0.766804 0.130439
0.369265 0.770769 0.130779
0.412370 0.775113 0.131131
0.454916 0.779834 0.131493
0.495507 0.784928 0.131862
0.537012 0.790387 0.132235
0.572787 0.795813 0.132611
0.609005 0.800913 0.133675
0.645355 0.806216 0.134981
0.682130 0.811293 0.136291
0.714177 0.816599 0.137600
0.737918 0.822127 0.138905
0.761437 0.827868 0.140205
0.784755 0.833813 0.141497
0.805941 0.839952 0.142780
0.839860 0.846278 0.144874
0.875428 0.852780 0.147825
0.903020 0.859451 0.150780
0.930531 0.866281 0.153737
0.951965 0.872319 0.157028
0.968854 0.877667 0.161370
0.982580 0.883104 0.165745
0.177669 0.773133 0.129322
0.177896 0.773228 0.129329
0.178678 0.773571 0.129354
0.179998 0.774202 0.129400
0.183263 0.775143 0.129468
0.190115 0.776412 0.129558
0.198544 0.778022 0.129669
0.219283 0.779981 0.129799
0.245397 0.782298 0.129947
0.275572 0.784975 0.130157
0.303746 0.788018 0.130443
0.336340 0.791426 0.130749
0.373128 0.794981 0.131070
0.416194 0.798403 0.131405
0.458043 0.802120 0.131750
0.498485 0.806072 0.132102
0.539382 0.809936 0.132460
0.575026 0.814050 0.133154
0.611100 0.818410 0.134355
0.647343 0.823008 0.135622
0.684020 0.827837 0.136895
0.715345 0.832891 0.138169
0.738995 0.838161 0.139442
0.762449 0.843640 0.140712
