velvia/Velvia50_Modern_IlfochromeP.cube
TITLE "Velvia 50 Modern IlfochromeP"
# Adobe RGB in/out. REPLACES AgX. Velvia 50 Modern IlfochromeP.
LUT_3D_SIZE 33
DOMAIN_MIN 0.0 0.0 0.0
DOMAIN_MAX 1.0 1.0 1.0
0.139782 0.101046 0.099244
0.144369 0.107281 0.100332
0.156025 0.115448 0.101674
0.173614 0.125719 0.103177
0.205041 0.139740 0.104571
0.246847 0.160651 0.106463
0.299327 0.183330 0.108797
0.347399 0.208477 0.111855
0.394935 0.232814 0.114790
0.442770 0.257349 0.118363
0.488652 0.281476 0.123418
0.529245 0.306444 0.128663
0.569011 0.331111 0.133754
0.607538 0.355166 0.139244
0.644544 0.379438 0.144523
0.680434 0.403247 0.150526
0.715021 0.426489 0.156274
0.740976 0.449169 0.161783
0.765905 0.472683 0.167069
0.789870 0.496926 0.172756
0.810005 0.520502 0.179457
0.827856 0.543003 0.186708
0.845030 0.565087 0.194318
0.857951 0.586754 0.201784
0.869016 0.605721 0.209083
0.876941 0.624206 0.215950
0.884523 0.642260 0.222671
0.891785 0.659888 0.229247
0.898744 0.677096 0.235679
0.905419 0.689210 0.242254
0.911824 0.698279 0.248702
0.917974 0.707039 0.255010
0.923881 0.715500 0.261178
0.139993 0.109714 0.099743
0.142555 0.109293 0.100155
0.151072 0.115847 0.101392
0.167878 0.126057 0.102878
0.198819 0.139989 0.104351
0.240585 0.160778 0.106183
0.292766 0.183259 0.108572
0.342208 0.208458 0.111566
0.390556 0.232887 0.114552
0.439080 0.257473 0.118067
0.485583 0.281631 0.123108
0.526804 0.306615 0.128393
0.566874 0.331284 0.133495
0.605669 0.355337 0.139018
0.642877 0.379612 0.144285
0.678935 0.403416 0.150315
0.713887 0.426651 0.156085
0.740032 0.449324 0.161613
0.765050 0.472851 0.166915
0.789092 0.497088 0.172566
0.809432 0.520652 0.179282
0.827335 0.543150 0.186516
0.844555 0.565232 0.194139
0.857633 0.586897 0.201618
0.868810 0.605845 0.208935
0.876752 0.624328 0.215812
0.884351 0.642379 0.222542
0.891626 0.660005 0.229126
0.898598 0.677212 0.235566
0.905284 0.689273 0.242143
0.911700 0.698341 0.248597
0.917858 0.707098 0.254912
0.923774 0.715558 0.261086
0.140319 0.122660 0.100509
0.143752 0.122184 0.100833
0.148967 0.121566 0.101337
0.160343 0.127837 0.102268
0.183658 0.140903 0.103799
0.224294 0.161271 0.105524
0.272597 0.183201 0.107867
0.325936 0.208670 0.110700
0.376458 0.233312 0.113842
0.426854 0.258022 0.117304
0.475242 0.282256 0.122063
0.518908 0.307275 0.127470
0.559515 0.331940 0.132710
0.599162 0.355977 0.138234
0.637064 0.380255 0.143561
0.673686 0.404035 0.149576
0.709121 0.427245 0.155423
0.736702 0.449892 0.161017
0.762027 0.473459 0.166375
0.786335 0.497673 0.171895
0.807401 0.521197 0.178662
0.825486 0.543684 0.185835
0.842866 0.565756 0.193506
0.856501 0.587381 0.201028
0.868073 0.606294 0.208402
0.876079 0.624768 0.215320
0.883734 0.642811 0.222082
0.891060 0.660428 0.228696
0.898077 0.677627 0.235163
0.904803 0.689500 0.241747
0.911255 0.698561 0.248225
0.917447 0.707313 0.254561
0.923392 0.715767 0.260756
0.141765 0.140415 0.101303
0.144554 0.139934 0.101461
0.151040 0.138579 0.101818
0.159493 0.137946 0.102434
0.172577 0.145121 0.103419
0.206361 0.163445 0.104873
0.249543 0.184801 0.106966
0.303590 0.210159 0.109498
0.356169 0.234745 0.112787
0.407965 0.259445 0.116155
0.458681 0.283687 0.120391
0.506171 0.308687 0.125975
0.547169 0.333284 0.131395
0.587998 0.357253 0.136904
0.627049 0.381513 0.142382
0.664559 0.405229 0.148296
0.700770 0.428379 0.154267
0.730822 0.450971 0.159968
0.756664 0.474609 0.165420
0.781425 0.498775 0.170706
0.803770 0.522222 0.177561
0.822171 0.544686 0.184622
0.839832 0.566736 0.192375
0.854463 0.588238 0.199972
0.866379 0.607131 0.207415
0.874862 0.625586 0.214436
0.882618 0.643612 0.221255
0.890033 0.661213 0.227920
0.897131 0.678396 0.234435
0.903930 0.689919 0.241030
0.910447 0.698969 0.247550
0.916697 0.707710 0.253926
0.922696 0.716153 0.260157
0.143130 0.169303 0.102017
0.146149 0.168746 0.102165
0.153777 0.167013 0.102670
0.163492 0.164879 0.103236
0.175023 0.164404 0.103776
0.196531 0.171546 0.104661
0.233615 0.191227 0.106315
0.281692 0.214704 0.108570
0.334676 0.238412 0.111683
0.386416 0.262490 0.114851
0.438337 0.286463 0.118732
0.487818 0.311248 0.124185
0.531189 0.335610 0.129705
0.573217 0.359444 0.135156
0.613547 0.383571 0.140803
0.652076 0.407148 0.146557
0.689216 0.430178 0.152678
0.722584 0.452662 0.158512
0.749093 0.476400 0.164082
0.774450 0.500480 0.169409
0.798582 0.523808 0.176002
0.817416 0.546228 0.182899
0.835462 0.568239 0.190760
0.851514 0.589547 0.198458
0.863671 0.608407 0.205994
0.873091 0.626831 0.213161
0.880990 0.644828 0.220057
0.888534 0.662402 0.226795
0.895747 0.679561 0.233377
0.902650 0.690554 0.239987
0.909261 0.699585 0.246567
0.915597 0.708308 0.252998
0.921674 0.716736 0.259281
0.145669 0.217646 0.103324
0.148468 0.216684 0.103437
0.158027 0.213287 0.103762
0.168807 0.207393 0.104210
0.184378 0.200198 0.104643
0.202216 0.197891 0.105157
0.225808 0.204251 0.106169
0.265825 0.223942 0.108178
0.316480 0.245532 0.110886
0.366554 0.268060 0.113928
0.417589 0.291277 0.117405
0.467853 0.315473 0.122317
0.514240 0.339302 0.127860
0.556297 0.362860 0.133228
0.597668 0.386664 0.138973
0.637154 0.409980 0.144503
0.675185 0.432792 0.150766
0.711871 0.455092 0.156734
0.739649 0.478950 0.162430
0.765673 0.502890 0.167873
0.790623 0.526048 0.174051
0.811352 0.548395 0.180953
0.829861 0.570341 0.188716
0.847592 0.591370 0.196531
0.860166 0.610176 0.204177
0.870790 0.628553 0.211521
0.878868 0.646506 0.218512
0.886575 0.664040 0.225339
0.893935 0.681150 0.232004
0.900970 0.691423 0.238630
0.907702 0.700427 0.245284
0.914148 0.709126 0.251785
0.920325 0.717531 0.258134
0.148120 0.264038 0.104375
0.151157 0.264905 0.104516
0.161270 0.260865 0.104797
0.175019 0.251872 0.105126
0.192796 0.241397 0.105593
0.211920 0.234968 0.106151
0.232767 0.234013 0.107040
0.257301 0.238207 0.108104
0.303572 0.256812 0.110465
0.350632 0.276877 0.113297
0.399220 0.299004 0.116467
0.448892 0.321901 0.120633
0.496786 0.344783 0.126098
0.538810 0.367822 0.131502
0.580614 0.391069 0.137064
0.620887 0.413945 0.142611
0.659593 0.436401 0.148674
0.696993 0.458409 0.154753
0.728797 0.482397 0.160560
0.755499 0.506143 0.166117
0.781114 0.529055 0.171806
0.804195 0.551284 0.178832
0.823206 0.573127 0.186328
0.841400 0.593773 0.194263
0.855951 0.612500 0.202024
0.868006 0.630806 0.209569
0.876293 0.648695 0.216664
0.884189 0.666171 0.223589
0.891721 0.682831 0.230347
0.898913 0.692548 0.236987
0.905788 0.701516 0.243727
0.912365 0.710181 0.250308
0.918662 0.718555 0.256734
0.150566 0.305707 0.105338
0.154259 0.306484 0.105490
0.164095 0.305192 0.105879
0.179154 0.294157 0.106203
0.200020 0.282963 0.106734
0.220988 0.274382 0.107368
0.242225 0.269930 0.108101
0.267254 0.269794 0.109010
0.297426 0.273552 0.110548
0.339137 0.289777 0.112985
0.384537 0.309896 0.115836
0.432117 0.330947 0.119447
0.479219 0.352430 0.124659
0.522274 0.374666 0.129927
0.563754 0.397067 0.135242
0.604351 0.419277 0.140814
0.643383 0.441199 0.146550
0.681235 0.463146 0.152695
0.717081 0.486908 0.158583
0.744402 0.510397 0.164236
0.770630 0.532956 0.169668
0.795824 0.555006 0.176516
0.815726 0.576697 0.183698
0.834392 0.596834 0.191744
0.851142 0.615447 0.199616
0.863669 0.633652 0.207315
0.873323 0.651450 0.214568
0.881426 0.668845 0.221594
0.889148 0.684719 0.228450
0.896515 0.693950 0.235137
0.903551 0.702870 0.241930
0.910276 0.711492 0.248599
0.916709 0.719825 0.255108
0.154051 0.348805 0.106589
0.157332 0.349467 0.106747
0.166299 0.346369 0.107092
0.183143 0.336618 0.107465
0.205582 0.325738 0.107938
0.228227 0.315955 0.108486
0.251213 0.308921 0.109287
0.277874 0.305538 0.110445
0.306535 0.305982 0.111734
0.335302 0.309873 0.113230
0.373814 0.323920 0.115538
0.418669 0.342769 0.118792
0.464234 0.362650 0.123574
0.508359 0.383650 0.128627
0.548042 0.404902 0.133642
0.588303 0.426193 0.139160
0.627402 0.447376 0.144530
0.665382 0.469395 0.150684
0.702398 0.492699 0.156616
0.732868 0.515801 0.162332
0.759598 0.537891 0.167836
0.785305 0.559684 0.174109
0.807678 0.581157 0.181130
0.826791 0.600638 0.189076
0.845094 0.619092 0.197042
0.858731 0.637157 0.204838
0.870029 0.654831 0.212293
0.878348 0.672116 0.219416
0.886270 0.686491 0.226366
0.893822 0.695654 0.233147
0.901029 0.704512 0.239939
0.907914 0.713077 0.246697
0.914495 0.721359 0.253292
0.157611 0.393215 0.108007
0.160139 0.392205 0.108082
0.168386 0.386616 0.108274
0.186886 0.377778 0.108591
0.210006 0.367322 0.109120
0.233923 0.357111 0.109927
0.258651 0.348928 0.110832
0.287418 0.343424 0.111846
0.315386 0.341090 0.113035
0.343244 0.341957 0.114321
0.371883 0.345716 0.116003
0.408428 0.357225 0.118494
0.452096 0.375616 0.122888
0.495213 0.394900 0.127669
0.534087 0.414733 0.132506
0.573539 0.434862 0.137744
0.612342 0.455112 0.142960
0.650173 0.477268 0.148838
0.687235 0.499964 0.154763
0.721355 0.522330 0.160496
0.748431 0.544004 0.166036
0.774529 0.565448 0.171717
0.799325 0.586623 0.178792
0.818831 0.605271 0.186361
0.837524 0.623512 0.194396
0.853471 0.641392 0.202267
0.866029 0.658903 0.209912
0.875025 0.676042 0.217119
0.883148 0.688606 0.224156
0.890888 0.697683 0.231022
0.898272 0.706464 0.237804
0.905322 0.714958 0.244648
0.912057 0.723176 0.251328
0.160422 0.431773 0.109310
0.163087 0.430373 0.109388
0.171834 0.425622 0.109657
0.190323 0.417890 0.110113
0.213857 0.408336 0.110720
0.238518 0.398391 0.111440
0.265607 0.389377 0.112300
0.295530 0.382313 0.113261
0.323391 0.377842 0.114304
0.350929 0.376242 0.115666
0.378793 0.377478 0.117257
0.408115 0.381293 0.119249
0.442342 0.390936 0.122585
0.483805 0.408376 0.127073
0.522331 0.426611 0.131695
0.560541 0.445427 0.136631
0.598737 0.465211 0.141727
0.636134 0.486956 0.147245
0.672943 0.508873 0.153107
0.709082 0.530300 0.158811
0.737499 0.551434 0.164346
0.763838 0.572421 0.169708
0.789280 0.592549 0.176524
0.810741 0.610824 0.183698
0.829760 0.628790 0.191768
0.848014 0.646429 0.199687
0.860851 0.663729 0.207451
0.871533 0.680682 0.214772
0.879849 0.691093 0.221879
0.887773 0.700063 0.228820
0.895332 0.708747 0.235595
0.902546 0.717155 0.242500
0.909438 0.725293 0.249259
0.163667 0.469328 0.110944
0.165922 0.467997 0.111010
0.175410 0.463435 0.111240
0.193662 0.456251 0.111636
0.217408 0.447593 0.112218
0.242748 0.438169 0.112919
0.271436 0.429090 0.113711
0.302021 0.421292 0.114579
0.330272 0.415454 0.115779
0.357906 0.411984 0.117112
0.385616 0.411034 0.118718
0.414266 0.412544 0.120975
0.443480 0.416308 0.123707
0.474743 0.423935 0.126823
0.513263 0.440582 0.131214
0.549566 0.458003 0.135865
0.586790 0.477944 0.140795
0.623598 0.498584 0.145963
0.659892 0.519413 0.151711
0.695703 0.539837 0.157338
0.727105 0.560302 0.162826
0.753527 0.580719 0.168166
0.779124 0.599505 0.174406
0.802731 0.617381 0.181327
0.821999 0.635001 0.189241
0.840520 0.652340 0.197176
0.855578 0.669376 0.204970
0.867946 0.684862 0.212439
0.876440 0.693978 0.219598
0.884538 0.702817 0.226597
0.892263 0.711384 0.233434
0.899637 0.719687 0.240306
0.906681 0.727730 0.247133
0.166635 0.508878 0.112487
0.168561 0.507725 0.112549
0.178885 0.503744 0.112766
0.197278 0.497020 0.113142
0.220614 0.488230 0.113660
0.246283 0.478350 0.114292
0.276138 0.468416 0.115113
0.307162 0.459382 0.116163
0.335989 0.452705 0.117296
0.363950 0.447915 0.118685
0.391847 0.445290 0.120562
0.420207 0.444922 0.122935
0.448904 0.446751 0.125440
0.477303 0.450608 0.128154
0.506061 0.456543 0.131050
0.540564 0.474061 0.135441
0.576692 0.492799 0.140175
0.612716 0.512206 0.145019
0.648298 0.531522 0.150613
0.683576 0.551029 0.156121
0.717476 0.570703 0.161524
0.743825 0.590079 0.166806
0.769439 0.607621 0.172498
0.794302 0.625015 0.179377
0.814412 0.642216 0.186888
0.833127 0.659188 0.194804
0.850320 0.675902 0.202596
0.863007 0.688345 0.210182
0.872989 0.697285 0.217370
0.881242 0.705969 0.224407
0.889120 0.714397 0.231290
0.896643 0.722574 0.238113
0.903831 0.730504 0.244996
0.169913 0.546125 0.113947
0.172940 0.545156 0.114001
0.182849 0.541785 0.114191
0.200813 0.536018 0.114523
0.223600 0.528324 0.115078
0.249332 0.519437 0.115837
0.279983 0.510009 0.116713
0.311306 0.500883 0.117682
0.340682 0.492902 0.118981
0.369107 0.486594 0.120654
0.397424 0.482319 0.122721
0.425793 0.480268 0.124914
0.454160 0.480490 0.127278
0.482039 0.482911 0.129838
0.509358 0.487372 0.132502
0.534464 0.493662 0.135510
0.568350 0.509691 0.139857
0.603491 0.527365 0.144417
0.638239 0.545428 0.149826
0.672834 0.563915 0.155185
0.707148 0.582691 0.160469
0.734897 0.600057 0.165662
0.760399 0.616953 0.170849
0.785231 0.633784 0.177650
0.807144 0.650492 0.184765
0.825973 0.667030 0.192627
0.844139 0.682931 0.200387
0.858016 0.692301 0.208032
0.869555 0.701037 0.215246
0.877942 0.709538 0.222299
0.885955 0.717803 0.229207
0.893613 0.725834 0.235968
0.900934 0.733632 0.242891
0.174503 0.582014 0.115479
0.177163 0.581167 0.115542
0.187072 0.578206 0.115765
0.204309 0.573089 0.116159
0.226476 0.566156 0.116712
0.252091 0.557979 0.117405
0.283255 0.549240 0.118292
0.314720 0.540623 0.119492
0.344549 0.532738 0.121073
0.373438 0.526087 0.122892
0.402256 0.521043 0.124827
0.430814 0.517849 0.126905
0.459002 0.516629 0.129181
0.486645 0.517400 0.131569
0.512948 0.520090 0.134140
0.537866 0.524565 0.137112
0.563923 0.530651 0.140174
0.595745 0.544207 0.144139
0.629677 0.561078 0.149347
0.663503 0.578480 0.154534
0.697173 0.595286 0.159676
0.726840 0.611360 0.164753
0.752119 0.627533 0.169747
0.776813 0.643726 0.176180
0.800305 0.659869 0.182917
0.819171 0.675909 0.190692
0.837414 0.688045 0.198389
0.853175 0.696748 0.205991
0.865610 0.705249 0.213270
0.874691 0.713541 0.220316
0.882818 0.721619 0.227229
0.890592 0.729482 0.234005
0.898031 0.737128 0.240860
0.178801 0.613565 0.117125
0.181439 0.612904 0.117182
0.191187 0.610589 0.117381
0.207779 0.606552 0.117736
0.229295 0.601007 0.118328
0.254660 0.594350 0.119175
0.286105 0.587063 0.120262
0.317546 0.578796 0.121721
0.347694 0.570972 0.123319
0.376988 0.564061 0.125036
0.406307 0.558437 0.126891
0.435153 0.554372 0.128926
0.463330 0.552037 0.131067
0.490913 0.551511 0.133310
0.516392 0.552791 0.135973
0.541245 0.555810 0.138776
0.566900 0.560448 0.141673
0.592756 0.566560 0.144770
0.622497 0.578364 0.149158
0.655526 0.593839 0.154162
0.688491 0.608763 0.159145
0.719690 0.623969 0.164086
0.744662 0.639361 0.168969
0.769129 0.654852 0.174988
0.793054 0.670370 0.181492
0.812805 0.684726 0.189031
0.831059 0.693289 0.196637
0.848550 0.701697 0.204168
0.861068 0.709934 0.211479
0.871534 0.717990 0.218495
0.879752 0.725857 0.225392
0.887622 0.733529 0.232164
0.895161 0.741003 0.238938
0.183603 0.643438 0.118884
0.186320 0.642860 0.118952
0.195506 0.640827 0.119193
0.211214 0.637260 0.119622
0.232075 0.632311 0.120345
0.257099 0.626287 0.121363
0.288637 0.619587 0.122573
0.319903 0.612646 0.123946
0.350228 0.605891 0.125456
0.379854 0.599705 0.127126
0.409600 0.594413 0.128954
0.438767 0.590267 0.130885
0.467043 0.587447 0.132913
0.494694 0.585933 0.135264
0.519543 0.586041 0.137816
0.544442 0.587723 0.140471
0.569806 0.590694 0.143219
0.595312 0.594979 0.146470
0.620756 0.600461 0.149996
0.648785 0.609563 0.154048
0.681031 0.623523 0.158863
0.713189 0.637835 0.163658
0.738040 0.652407 0.168414
0.762214 0.667151 0.174083
0.785915 0.681823 0.180455
0.806931 0.690861 0.187663
0.825135 0.699063 0.195153
0.842802 0.707147 0.202591
0.856753 0.715095 0.209899
0.868507 0.722890 0.216864
0.876792 0.730522 0.223725
0.884738 0.737983 0.230474
0.892358 0.745265 0.237156
0.188514 0.672213 0.121068
0.190966 0.671705 0.121148
0.199963 0.669917 0.121434
0.214880 0.666761 0.121947
0.234824 0.662347 0.122684
0.259446 0.656913 0.123631
0.290932 0.650782 0.124764
0.321888 0.644320 0.126059
0.352253 0.637894 0.127553
0.382148 0.631850 0.129187
0.412194 0.626488 0.130930
0.441668 0.622055 0.132771
0.470102 0.618741 0.134883
0.497902 0.616677 0.137213
0.522297 0.615939 0.139644
0.547324 0.616553 0.142171
0.572506 0.618497 0.144939
0.597757 0.621717 0.148217
0.622869 0.626129 0.151592
0.648062 0.631634 0.155053
0.674680 0.639458 0.158814
0.706190 0.652877 0.163457
0.732227 0.666612 0.168077
0.756065 0.680583 0.173460
0.779491 0.689667 0.179686
0.801578 0.697538 0.186595
0.819682 0.705356 0.193952
0.837290 0.713094 0.201276
0.852701 0.720728 0.208551
0.864831 0.728241 0.215444
0.873968 0.735617 0.222250
0.881969 0.742846 0.228957
0.889652 0.749918 0.235558
0.193185 0.692554 0.123401
0.195740 0.692307 0.123475
0.204281 0.691433 0.123738
0.218591 0.689881 0.124211
0.237544 0.687692 0.124896
0.262069 0.684963 0.125779
0.293049 0.680694 0.126871
0.323580 0.674724 0.128160
0.353861 0.668684 0.129594
0.383900 0.662877 0.131153
0.414160 0.657579 0.132819
0.443896 0.653026 0.134742
0.472507 0.649406 0.136876
0.500497 0.646863 0.139109
0.524598 0.645492 0.141436
0.549796 0.645344 0.143853
0.574892 0.646430 0.146842
0.599977 0.648728 0.149984
0.624839 0.652184 0.153224
0.649768 0.656726 0.156551
0.674797 0.662269 0.159953
0.700189 0.668991 0.163464
0.727168 0.681745 0.167945
0.750649 0.689874 0.173109
0.773767 0.697291 0.179180
0.796488 0.704727 0.185828
0.814714 0.712146 0.193036
0.832222 0.719520 0.200231
0.848939 0.726823 0.207394
0.861065 0.734035 0.214249
0.871304 0.741137 0.220983
0.879339 0.748117 0.227633
0.887066 0.754961 0.234189
0.198251 0.707203 0.125600
0.200586 0.706989 0.125668
0.208455 0.706230 0.125912
0.222235 0.704880 0.126352
0.240573 0.702963 0.127024
0.264764 0.700556 0.127896
0.295031 0.697772 0.128953
0.325042 0.694749 0.130173
0.355128 0.691635 0.131537
0.385192 0.688576 0.133025
0.415575 0.685714 0.134789
0.445511 0.682697 0.136740
0.474289 0.679301 0.138793
0.502475 0.676446 0.140941
0.526541 0.674617 0.143179
0.551799 0.673882 0.145805
0.576881 0.674275 0.148726
0.601877 0.675798 0.151749
0.626573 0.678425 0.154867
0.651304 0.681916 0.158072
0.676101 0.685246 0.161355
0.700977 0.688365 0.164704
0.723265 0.691936 0.168108
0.745912 0.698443 0.173012
0.768707 0.705391 0.178924
0.791148 0.712389 0.185350
0.810229 0.719402 0.192400
0.827606 0.726402 0.199454
0.844549 0.733362 0.206494
0.857574 0.740258 0.213285
0.868812 0.747072 0.219933
0.876863 0.753787 0.226511
0.884616 0.760390 0.233008
0.203068 0.721069 0.127748
0.205212 0.720883 0.127815
0.212522 0.720223 0.128054
0.225803 0.719046 0.128485
0.243631 0.717368 0.129114
0.267413 0.715247 0.129933
0.296910 0.712774 0.130930
0.326324 0.710062 0.132087
0.356118 0.707234 0.133386
0.386099 0.704417 0.135005
0.416513 0.701734 0.136772
0.446576 0.699295 0.138651
0.475493 0.697200 0.140632
0.503856 0.695530 0.142705
0.527948 0.694349 0.145033
0.553302 0.693703 0.147753
0.578422 0.693621 0.150575
0.603378 0.694114 0.153493
0.627993 0.695180 0.156504
0.652590 0.696801 0.159599
0.677212 0.698949 0.162772
0.701885 0.701590 0.166013
0.723794 0.704684 0.169313
0.742810 0.708186 0.173464
0.764258 0.713912 0.178900
0.786409 0.720478 0.185146
0.806209 0.727086 0.192034
0.823432 0.733708 0.198940
0.840253 0.740317 0.205847
0.854362 0.746889 0.212554
0.866041 0.753404 0.219104
0.874552 0.759843 0.225598
0.882316 0.766192 0.232024
0.207650 0.734198 0.129815
0.209625 0.734037 0.129878
0.216833 0.733463 0.130100
0.229286 0.732437 0.130504
0.246646 0.730967 0.131094
0.270021 0.729101 0.131865
0.298687 0.726909 0.132808
0.327463 0.724486 0.133965
0.356883 0.721934 0.135392
0.386684 0.719361 0.136965
0.417043 0.716874 0.138665
0.447157 0.714572 0.140478
0.476171 0.712545 0.142392
0.504560 0.710870 0.144467
0.528837 0.709609 0.147002
0.554298 0.708812 0.149639
0.579489 0.708511 0.152374
0.604454 0.708726 0.155201
0.629040 0.709463 0.158117
0.653560 0.710716 0.161114
0.678063 0.712467 0.164188
0.702582 0.714692 0.167330
0.724193 0.717360 0.170558
0.743059 0.720435 0.175006
0.761817 0.723882 0.179544
0.782221 0.728944 0.185197
0.802623 0.735155 0.191922
0.819679 0.741402 0.198677
0.836361 0.747659 0.205445
0.851429 0.753903 0.212050
0.863058 0.760112 0.218493
0.872410 0.766268 0.224895
0.880172 0.772355 0.231240
0.212008 0.746635 0.131769
0.214023 0.746494 0.131828
0.220985 0.745995 0.132037
0.232676 0.745100 0.132416
0.249611 0.743815 0.132971
0.272586 0.742175 0.133725
0.300337 0.740238 0.134753
0.328487 0.738081 0.135958
0.357466 0.735790 0.137324
0.387002 0.733457 0.138833
0.417224 0.731175 0.140471
0.447314 0.729032 0.142222
0.476379 0.727107 0.144075
0.504825 0.725473 0.146431
0.529232 0.724190 0.148894
0.554799 0.723306 0.151458
0.580074 0.722858 0.154115
0.605083 0.722868 0.156862
0.629678 0.723350 0.159693
0.654166 0.724306 0.162603
0.678597 0.725727 0.165588
0.703009 0.727597 0.168641
0.724418 0.729894 0.172223
0.743162 0.732589 0.176562
0.761791 0.735654 0.180993
0.780309 0.739054 0.186148
0.799435 0.743560 0.192045
0.816320 0.749440 0.198649
0.832852 0.755350 0.205276
0.848763 0.761267 0.211764
0.860330 0.767170 0.218096
0.870438 0.773039 0.224397
0.878185 0.778857 0.230654
0.216602 0.758415 0.133631
0.218484 0.758293 0.133695
0.224978 0.757859 0.133921
0.235967 0.757080 0.134332
0.252517 0.755957 0.134935
0.275108 0.754519 0.135729
0.301931 0.752813 0.136707
0.329419 0.750901 0.137856
0.357900 0.748856 0.139164
0.387097 0.746755 0.140614
0.417109 0.744680 0.142192
0.447105 0.742707 0.143884
0.476169 0.740909 0.146020
0.504692 0.739351 0.148311
0.529170 0.738089 0.150708
0.554828 0.737170 0.153204
0.580187 0.736632 0.155792
0.605257 0.736500 0.158467
0.629887 0.736793 0.161223
0.654375 0.737516 0.164056
0.678772 0.738669 0.166961
0.703117 0.740244 0.169933
0.724428 0.742223 0.173877
0.743081 0.744587 0.178116
0.761608 0.747312 0.182505
0.780016 0.750369 0.187767
0.798220 0.753733 0.193143
0.813319 0.757781 0.198838
0.829699 0.763353 0.205325
0.845736 0.768948 0.211686
0.857846 0.774547 0.217903
0.868629 0.780129 0.224099
0.876354 0.785678 0.230262
0.220989 0.769574 0.135645
0.222742 0.769468 0.135705
0.228811 0.769091 0.135918
0.239330 0.768414 0.136307
0.255357 0.767436 0.136878
0.277581 0.766178 0.137633
0.303475 0.764680 0.138564
0.330272 0.762993 0.139662
0.358211 0.761177 0.140915
0.387008 0.759300 0.142310
0.416744 0.757429 0.143832
0.446579 0.755633 0.145765
0.475593 0.753977 0.147878
0.504201 0.752519 0.150107
0.528687 0.751311 0.152442
0.554413 0.750399 0.154876
0.579844 0.749818 0.157400
0.604983 0.749597 0.160010
0.629659 0.749755 0.162698
0.654170 0.750303 0.165462
0.678562 0.751245 0.168296
0.702872 0.752578 0.171459
0.724192 0.754293 0.175505
0.742783 0.756373 0.179652
0.761233 0.758801 0.184224
0.779554 0.761555 0.189384
0.797754 0.764610 0.194660
0.812346 0.767944 0.200043
0.826868 0.771627 0.205576
0.842770 0.776910 0.211802
0.855590 0.782210 0.217902
0.866709 0.787509 0.223991
0.874673 0.792790 0.230056
0.225165 0.780141 0.137552
0.226802 0.780049 0.137609
0.232486 0.779723 0.137811
0.242876 0.779136 0.138180
0.258124 0.778286 0.138722
0.280001 0.777191 0.139440
0.304969 0.775881 0.140328
0.331058 0.774400 0.141379
0.358419 0.772798 0.142581
0.386763 0.771132 0.143923
0.416167 0.769461 0.145673
0.445780 0.767844 0.147597
0.474696 0.766339 0.149650
0.503315 0.764998 0.151820
0.527824 0.763869 0.154097
0.553587 0.762995 0.156472
0.579072 0.762410 0.158938
0.604276 0.762142 0.161487
0.629001 0.762212 0.164115
0.653546 0.762635 0.166816
0.677950 0.763417 0.169585
0.702251 0.764558 0.173129
0.723688 0.766055 0.177094
0.742240 0.767898 0.181158
0.760637 0.770072 0.185917
0.778895 0.772561 0.190984
0.797022 0.775344 0.196168
0.811695 0.778402 0.201459
0.826049 0.781711 0.206849
0.840248 0.785252 0.212167
0.853545 0.790126 0.218081
0.864596 0.794938 0.224062
0.873133 0.799085 0.230027
0.229138 0.790145 0.139358
0.230670 0.790066 0.139412
0.236003 0.789784 0.139604
0.246300 0.789277 0.139954
0.260965 0.788542 0.140471
0.282362 0.787592 0.141155
0.306415 0.786453 0.142004
0.331785 0.785160 0.143010
0.358541 0.783756 0.144185
0.386389 0.782290 0.145752
0.415410 0.780811 0.147476
0.444748 0.779372 0.149341
0.473519 0.778022 0.151337
0.502038 0.776810 0.153451
0.526618 0.775779 0.155673
0.552386 0.774967 0.157993
0.577900 0.774407 0.160403
0.603158 0.774128 0.162897
0.627927 0.774150 0.165469
0.652507 0.774489 0.168112
0.676934 0.775154 0.170952
0.701241 0.776149 0.174742
0.722900 0.777474 0.178633
0.741433 0.779121 0.182712
