velvia/Velvia50_Classic_RadianceIII.cube
TITLE "Velvia 50 Classic RadianceIII"
# Adobe RGB in/out. REPLACES AgX. Velvia 50 Classic RadianceIII.
LUT_3D_SIZE 5
DOMAIN_MIN 0.0 0.0 0.0
DOMAIN_MAX 1.0 1.0 1.0
0.160296 0.123833 0.126067
0.193455 0.128139 0.126067
0.502573 0.234927 0.127750
0.739495 0.416410 0.137088
0.953633 0.592370 0.163605
0.160296 0.160060 0.126067
0.195698 0.195720 0.126067
0.505047 0.307956 0.128114
0.740404 0.467679 0.137989
0.954005 0.626476 0.164703
0.161086 0.416564 0.126067
0.212133 0.438370 0.126067
0.513866 0.508495 0.129430
0.743655 0.611660 0.141056
0.955335 0.713106 0.169182
0.166136 0.666080 0.126961
0.242526 0.675949 0.128086
0.529151 0.709795 0.132004
0.749570 0.762554 0.146130
0.957766 0.819687 0.179213
0.181724 0.834400 0.130831
0.282521 0.839102 0.131870
0.546581 0.855484 0.139018
0.758267 0.878775 0.155348
0.961360 0.907661 0.194959
0.160296 0.123833 0.193977
0.193455 0.128375 0.198704
0.502573 0.235938 0.215446
0.739495 0.417224 0.237926
0.953633 0.592864 0.272415
0.160296 0.161157 0.195634
0.195698 0.196938 0.200344
0.505047 0.308887 0.217085
0.740404 0.468345 0.238985
0.954005 0.626838 0.273569
0.161086 0.417379 0.201538
0.212133 0.439068 0.206187
0.513866 0.509103 0.221782
0.743655 0.612140 0.242755
0.955335 0.713407 0.277688
0.166136 0.666413 0.212251
0.242526 0.676275 0.216956
0.529151 0.710099 0.229442
0.749570 0.762782 0.251529
0.957766 0.819852 0.285823
0.181724 0.834558 0.225698
0.282521 0.839258 0.228992
0.546581 0.855633 0.240222
0.758267 0.878865 0.263998
0.961360 0.907806 0.297045
0.160296 0.123833 0.498054
0.193455 0.129169 0.500052
0.502573 0.239544 0.507075
0.739495 0.420137 0.519764
0.953633 0.594637 0.537968
0.160296 0.165039 0.498770
0.195698 0.201278 0.500739
0.505047 0.312218 0.507754
0.740404 0.470734 0.520427
0.954005 0.628136 0.538593
0.161086 0.420275 0.501241
0.212133 0.441569 0.503201
0.513866 0.511248 0.510183
0.743655 0.613863 0.522800
0.955335 0.714490 0.540830
0.166136 0.667607 0.505756
0.242526 0.677443 0.507700
0.529151 0.711189 0.514625
0.749570 0.763600 0.527142
0.957766 0.820444 0.544922
0.181724 0.835125 0.512442
0.282521 0.839817 0.514361
0.546581 0.856167 0.521203
0.758267 0.879188 0.533446
0.961360 0.908328 0.550987
0.160296 0.123833 0.736592
0.193455 0.132259 0.737427
0.502573 0.246084 0.740414
0.739495 0.424928 0.745854
0.953633 0.597888 0.753861
0.160296 0.171955 0.736884
0.195698 0.209130 0.737719
0.505047 0.318280 0.740703
0.740404 0.475106 0.746139
0.954005 0.630514 0.754141
0.161086 0.425065 0.737931
0.212133 0.446145 0.738764
0.513866 0.515042 0.741741
0.743655 0.617023 0.747163
0.955335 0.716407 0.755146
0.166136 0.669795 0.739852
0.242526 0.679586 0.740680
0.529151 0.713187 0.743644
0.749570 0.765100 0.749042
0.957766 0.821531 0.756989
0.181724 0.836166 0.742708
0.282521 0.840844 0.743531
0.546581 0.857147 0.746474
0.758267 0.879782 0.751836
0.961360 0.909286 0.759732
0.160296 0.125639 0.897391
0.193455 0.137199 0.897866
0.502573 0.255651 0.899565
0.739495 0.432014 0.902672
0.953633 0.602720 0.907279
0.160296 0.184460 0.897557
0.195698 0.220616 0.898031
0.505047 0.327139 0.899729
0.740404 0.481487 0.902836
0.954005 0.634047 0.907440
0.161086 0.432148 0.898152
0.212133 0.452927 0.898625
0.513866 0.520673 0.900321
0.743655 0.621722 0.903423
0.955335 0.719248 0.908021
0.166136 0.673050 0.899244
0.242526 0.682774 0.899716
0.529151 0.716106 0.901408
0.749570 0.767334 0.904502
0.957766 0.823150 0.909088
0.181724 0.837717 0.900873
0.282521 0.842374 0.901343
0.546581 0.858608 0.903028
0.758267 0.880666 0.906110
0.961360 0.910716 0.910679
