velvia/Velvia50_Classic_RadianceIII.cube
TITLE "Velvia 50 Classic RadianceIII"
# Adobe RGB in/out. REPLACES AgX. Velvia 50 Classic RadianceIII.
LUT_3D_SIZE 9
DOMAIN_MIN 0.0 0.0 0.0
DOMAIN_MAX 1.0 1.0 1.0
0.160296 0.123833 0.126067
0.161522 0.123833 0.126067
0.193455 0.128139 0.126067
0.334200 0.160014 0.126067
0.502573 0.234927 0.127750
0.633291 0.320836 0.130977
0.739495 0.416410 0.137088
0.871276 0.507075 0.147361
0.953633 0.592370 0.163605
0.160296 0.124565 0.126067
0.161774 0.126078 0.126067
0.193948 0.134285 0.126067
0.334918 0.177472 0.126067
0.503112 0.250679 0.127832
0.633606 0.335033 0.131059
0.739693 0.428324 0.137286
0.871450 0.516402 0.147512
0.953714 0.600197 0.163845
0.160296 0.160060 0.126067
0.162613 0.167087 0.126067
0.195698 0.195720 0.126067
0.337493 0.243540 0.126067
0.505047 0.307956 0.128114
0.634738 0.385046 0.131348
0.740404 0.467679 0.137989
0.872075 0.547697 0.148053
0.954005 0.626476 0.164703
0.160296 0.276274 0.126067
0.163936 0.283128 0.126067
0.202324 0.305733 0.126067
0.342199 0.344701 0.126111
0.508593 0.400223 0.128597
0.636815 0.463923 0.131856
0.741710 0.531546 0.139248
0.873222 0.601007 0.149028
0.954539 0.663103 0.166265
0.161086 0.416564 0.126067
0.165546 0.421677 0.126067
0.212133 0.438370 0.126067
0.349170 0.467778 0.127122
0.513866 0.508495 0.129430
0.639905 0.556279 0.132564
0.743655 0.611660 0.141056
0.874935 0.661979 0.151025
0.955335 0.713106 0.169182
0.163387 0.549997 0.126067
0.168193 0.553417 0.126067
0.225418 0.565549 0.126579
0.358511 0.587299 0.128232
0.520933 0.618693 0.130658
0.644053 0.650564 0.134306
0.746269 0.687244 0.143371
0.877239 0.728002 0.154572
0.956408 0.768359 0.173646
0.166136 0.666080 0.126961
0.172844 0.668247 0.127228
0.242526 0.675949 0.128086
0.370214 0.689798 0.129631
0.529151 0.709795 0.132004
0.649301 0.734777 0.137642
0.749570 0.762554 0.146130
0.880157 0.792053 0.158919
0.957766 0.819687 0.179213
0.171479 0.761401 0.128641
0.182519 0.762890 0.128835
0.262577 0.768193 0.129807
0.385578 0.777773 0.131433
0.537207 0.791532 0.134215
0.655651 0.806821 0.141497
0.753568 0.825305 0.149259
0.883699 0.846605 0.164005
0.959415 0.869930 0.185859
0.181724 0.834400 0.130831
0.194901 0.835430 0.131068
0.282521 0.839102 0.131870
0.403611 0.845758 0.133519
0.546581 0.855484 0.139018
0.662034 0.868216 0.145621
0.758267 0.878775 0.155348
0.887874 0.890628 0.170937
0.961360 0.907661 0.194959
0.160296 0.123833 0.129371
0.161522 0.123833 0.129651
0.193455 0.128191 0.130588
0.334200 0.160254 0.132085
0.502573 0.235147 0.135874
0.633291 0.321032 0.142995
0.739495 0.416587 0.151120
0.871276 0.507207 0.166058
0.953633 0.592477 0.189123
0.160296 0.124594 0.129470
0.161774 0.126146 0.129747
0.193948 0.134374 0.130674
0.334918 0.177766 0.132158
0.503112 0.250890 0.136079
0.633606 0.335230 0.143164
0.739693 0.428481 0.151389
0.871450 0.516527 0.166293
0.953714 0.600304 0.189506
0.160296 0.160299 0.129816
0.162613 0.167317 0.130083
0.195698 0.195985 0.130976
0.337493 0.243755 0.132413
0.505047 0.308159 0.136804
0.634738 0.385230 0.143767
0.740404 0.467824 0.152351
0.872075 0.547812 0.167133
0.954005 0.626555 0.190825
0.160296 0.276504 0.130419
0.163936 0.283355 0.130668
0.202324 0.305937 0.131506
0.342199 0.344895 0.132864
0.508593 0.400404 0.138103
0.636815 0.464069 0.144852
0.741710 0.531664 0.154099
0.873222 0.601114 0.169328
0.954539 0.663176 0.193226
0.161086 0.416742 0.131249
0.165546 0.421835 0.131475
0.212133 0.438522 0.132242
0.349170 0.467923 0.134485
0.513866 0.508628 0.139966
0.639905 0.556392 0.146422
0.743655 0.611764 0.156660
0.874935 0.662052 0.172637
0.955335 0.713171 0.196794
0.163387 0.550112 0.132257
0.168193 0.553531 0.132459
0.225418 0.565660 0.133430
0.358511 0.587407 0.137115
0.520933 0.618797 0.142346
0.644053 0.650639 0.148448
0.746269 0.687314 0.160028
0.877239 0.728064 0.177041
0.956408 0.768408 0.201568
0.166136 0.666153 0.134165
0.172844 0.668319 0.134700
0.242526 0.676020 0.136732
0.370214 0.689867 0.140342
0.529151 0.709861 0.145175
0.649301 0.734837 0.151875
0.749570 0.762603 0.164167
0.880157 0.792092 0.182537
0.957766 0.819723 0.207570
0.171479 0.761451 0.138228
0.182519 0.762939 0.138774
0.262577 0.768242 0.140676
0.385578 0.777821 0.143946
0.537207 0.791571 0.148377
0.655651 0.806859 0.157294
0.753568 0.825340 0.169861
0.883699 0.846638 0.189759
0.959415 0.869950 0.214936
0.181724 0.834435 0.142697
0.194901 0.835464 0.143184
0.282521 0.839136 0.144884
0.403611 0.845791 0.147832
0.546581 0.855517 0.153777
0.662034 0.868247 0.163393
0.758267 0.878795 0.178015
0.887874 0.890646 0.198667
0.961360 0.907693 0.222327
0.160296 0.123833 0.193977
0.161522 0.123833 0.195010
0.193455 0.128375 0.198704
0.334200 0.161112 0.205422
0.502573 0.235938 0.215446
0.633291 0.321734 0.226139
0.739495 0.417224 0.237926
0.871276 0.507683 0.253841
0.953633 0.592864 0.272415
0.160296 0.124696 0.194338
0.161774 0.126387 0.195371
0.193948 0.134691 0.199062
0.334918 0.178822 0.205774
0.503112 0.251646 0.215804
0.633606 0.335936 0.226390
0.739693 0.429042 0.238157
0.871450 0.516973 0.254130
0.953714 0.600686 0.272666
0.160296 0.161157 0.195634
0.162613 0.168139 0.196664
0.195698 0.196938 0.200344
0.337493 0.244526 0.207038
0.505047 0.308887 0.217085
0.634738 0.385891 0.227292
0.740404 0.468345 0.238985
0.872075 0.548225 0.255168
0.954005 0.626838 0.273569
0.160296 0.277330 0.198009
0.163936 0.284172 0.199033
0.202324 0.306668 0.202694
0.342199 0.345591 0.209354
0.508593 0.401055 0.219234
0.636815 0.464594 0.228944
0.741710 0.532089 0.240503
0.873222 0.601495 0.257071
0.954539 0.663438 0.275224
0.161086 0.417379 0.201538
0.165546 0.422403 0.202554
0.212133 0.439068 0.206187
0.349170 0.468444 0.212864
0.513866 0.509103 0.221782
0.639905 0.556799 0.231394
0.743655 0.612140 0.242755
0.874935 0.662315 0.259775
0.955335 0.713407 0.277688
0.163387 0.550523 0.206263
0.168193 0.553940 0.207269
0.225418 0.566061 0.210865
0.358511 0.587797 0.217641
0.520933 0.619169 0.225183
0.644053 0.650909 0.234623
0.746269 0.687562 0.246564
0.877239 0.728283 0.263231
0.956408 0.768584 0.281268
0.166136 0.666413 0.212251
0.172844 0.668578 0.213279
0.242526 0.676275 0.216956
0.370214 0.690114 0.222308
0.529151 0.710099 0.229442
0.649301 0.735054 0.238575
0.749570 0.762782 0.251529
0.880157 0.792232 0.267582
0.957766 0.819852 0.285823
0.171479 0.761630 0.219401
0.182519 0.763118 0.220141
0.262577 0.768418 0.222780
0.385578 0.777993 0.227562
0.537207 0.791712 0.234510
0.655651 0.806993 0.243358
0.753568 0.825467 0.257527
0.883699 0.846757 0.272835
0.959415 0.870024 0.291008
0.181724 0.834558 0.225698
0.194901 0.835587 0.226419
0.282521 0.839258 0.228992
0.403611 0.845911 0.233652
0.546581 0.855633 0.240222
0.662034 0.868359 0.250590
0.758267 0.878865 0.263998
0.887874 0.890713 0.279074
0.961360 0.907806 0.297045
0.160296 0.123833 0.337111
0.161522 0.123833 0.337813
0.193455 0.128703 0.340328
0.334200 0.162679 0.344929
0.502573 0.237387 0.351755
0.633291 0.323025 0.360816
0.739495 0.418396 0.372022
0.871276 0.508558 0.385467
0.953633 0.593575 0.401152
0.160296 0.124873 0.337357
0.161774 0.126811 0.338058
0.193948 0.135534 0.340572
0.334918 0.180758 0.345172
0.503112 0.253033 0.351996
0.633606 0.337235 0.361048
0.739693 0.430073 0.372250
0.871450 0.517793 0.385691
0.953714 0.601389 0.401373
0.160296 0.162723 0.338237
0.162613 0.169642 0.338938
0.195698 0.198683 0.341448
0.337493 0.245940 0.346042
0.505047 0.310224 0.352864
0.634738 0.387106 0.361882
0.740404 0.469303 0.373070
0.872075 0.548983 0.386495
0.954005 0.627359 0.402163
0.160296 0.278846 0.339854
0.163936 0.285672 0.340552
0.202324 0.308011 0.343057
0.342199 0.346869 0.347640
0.508593 0.402251 0.354457
0.636815 0.465557 0.363414
0.741710 0.532868 0.374577
0.873222 0.602197 0.387973
0.954539 0.663920 0.403615
0.161086 0.418550 0.342265
0.165546 0.423446 0.342961
0.212133 0.440071 0.345456
0.349170 0.469402 0.350023
0.513866 0.509976 0.356819
0.639905 0.557547 0.365698
0.743655 0.612831 0.376824
0.874935 0.662798 0.390181
0.955335 0.713841 0.405783
0.163387 0.551279 0.345509
0.168193 0.554692 0.346201
0.225418 0.566798 0.348684
0.358511 0.588514 0.353240
0.520933 0.619853 0.359935
0.644053 0.651404 0.368773
0.746269 0.688020 0.379849
0.877239 0.728688 0.393162
0.956408 0.768907 0.408701
0.166136 0.666892 0.349612
0.172844 0.669055 0.350301
0.242526 0.676743 0.352776
0.370214 0.690569 0.357300
0.529151 0.710536 0.363877
0.649301 0.735453 0.372663
0.749570 0.763110 0.383678
0.880157 0.792490 0.396936
0.957766 0.820090 0.412397
0.171479 0.761958 0.354612
0.182519 0.763445 0.355300
0.262577 0.768741 0.357730
0.385578 0.778309 0.362132
0.537207 0.791970 0.368662
0.655651 0.807239 0.377387
0.753568 0.825700 0.388327
0.883699 0.846977 0.401520
0.959415 0.870159 0.416828
0.181724 0.834786 0.360410
0.194901 0.835814 0.361075
0.282521 0.839482 0.363459
0.403611 0.846131 0.367823
0.546581 0.855847 0.374298
0.662034 0.868566 0.382952
0.758267 0.878995 0.393826
0.887874 0.890835 0.406925
0.961360 0.908015 0.421641
0.160296 0.123833 0.498054
0.161522 0.123833 0.498510
0.193455 0.129169 0.500052
0.334200 0.164995 0.502877
0.502573 0.239544 0.507075
0.633291 0.324949 0.512697
0.739495 0.420137 0.519764
0.871276 0.509865 0.528276
0.953633 0.594637 0.537968
0.160296 0.125443 0.498219
0.161774 0.127403 0.498660
0.193948 0.136852 0.500202
0.334918 0.183635 0.503026
0.503112 0.255098 0.507223
0.633606 0.339172 0.512843
0.739693 0.431606 0.519908
0.871450 0.519018 0.528419
0.953714 0.602438 0.538104
0.160296 0.165039 0.498770
0.162613 0.171865 0.499199
0.195698 0.201278 0.500739
0.337493 0.248046 0.503561
0.505047 0.312218 0.507754
0.634738 0.388919 0.513368
0.740404 0.470734 0.520427
0.872075 0.550116 0.528922
0.954005 0.628136 0.538593
0.160296 0.281108 0.499761
0.163936 0.287807 0.500190
0.202324 0.310013 0.501727
0.342199 0.348778 0.504543
0.508593 0.404036 0.508728
0.636815 0.466996 0.514333
0.741710 0.534032 0.521379
0.873222 0.603246 0.529836
0.954539 0.664640 0.539490
0.161086 0.420275 0.501241
0.165546 0.425002 0.501668
0.212133 0.441569 0.503201
0.349170 0.470832 0.506009
0.513866 0.511248 0.510183
0.639905 0.558665 0.515773
0.743655 0.613863 0.522800
0.874935 0.663519 0.531200
0.955335 0.714490 0.540830
0.163387 0.552407 0.503233
0.168193 0.555814 0.503659
0.225418 0.567899 0.505186
0.358511 0.589584 0.507984
0.520933 0.620875 0.512143
0.644053 0.652144 0.517712
0.746269 0.688704 0.524716
0.877239 0.729292 0.533037
0.956408 0.769390 0.542635
0.166136 0.667607 0.505756
0.172844 0.669767 0.506180
0.242526 0.677443 0.507700
0.370214 0.691249 0.510485
0.529151 0.711189 0.514625
0.649301 0.736048 0.520169
0.749570 0.763600 0.527142
0.880157 0.792876 0.535365
0.957766 0.820444 0.544922
0.171479 0.762450 0.508823
0.182519 0.763935 0.509245
0.262577 0.769224 0.510756
0.385578 0.778781 0.513525
0.537207 0.792356 0.517642
0.655651 0.807608 0.523156
0.753568 0.826049 0.530055
0.883699 0.847305 0.538195
0.959415 0.870361 0.547703
0.181724 0.835125 0.512442
0.194901 0.836152 0.512860
0.282521 0.839817 0.514361
0.403611 0.846460 0.517113
0.546581 0.856167 0.521203
0.662034 0.868874 0.526682
0.758267 0.879188 0.533446
0.887874 0.891018 0.541536
0.961360 0.908328 0.550987
0.160296 0.123833 0.632408
0.161522 0.124292 0.632708
0.193455 0.130524 0.633784
0.334200 0.168074 0.635757
0.502573 0.242438 0.638696
0.633291 0.327539 0.642643
0.739495 0.422250 0.647223
0.871276 0.511578 0.652091
0.953633 0.596070 0.657791
0.160296 0.126381 0.632513
0.161774 0.128136 0.632813
0.193948 0.138566 0.633888
0.334918 0.187490 0.635862
0.503112 0.257870 0.638800
0.633606 0.341781 0.642746
0.739693 0.433657 0.647305
0.871450 0.520670 0.652172
0.953714 0.603855 0.657872
0.160296 0.168118 0.632889
0.162613 0.174955 0.633189
0.195698 0.204755 0.634264
0.337493 0.250872 0.636235
0.505047 0.314901 0.639172
0.634738 0.391372 0.643115
0.740404 0.472662 0.647601
0.872075 0.551644 0.652464
0.954005 0.629184 0.658160
0.160296 0.284151 0.633581
0.163936 0.290617 0.633880
0.202324 0.312707 0.634953
0.342199 0.351347 0.636923
0.508593 0.406441 0.639856
0.636815 0.468935 0.643794
0.741710 0.535601 0.648145
0.873222 0.604660 0.653001
0.954539 0.665611 0.658689
0.161086 0.422388 0.634614
0.165546 0.427099 0.634912
0.212133 0.443587 0.635984
0.349170 0.472760 0.637949
0.513866 0.512921 0.640877
0.639905 0.560171 0.644808
0.743655 0.615256 0.648957
0.874935 0.664492 0.653804
0.955335 0.715339 0.659480
0.163387 0.553929 0.636006
0.168193 0.557328 0.636304
0.225418 0.569383 0.637373
0.358511 0.591028 0.639333
0.520933 0.622253 0.642253
0.644053 0.653141 0.646051
0.746269 0.689626 0.650053
0.877239 0.730107 0.654885
0.956408 0.770042 0.660546
0.166136 0.668572 0.637772
0.172844 0.670727 0.638069
0.242526 0.678388 0.639134
0.370214 0.692167 0.641089
0.529151 0.712069 0.644000
0.649301 0.736852 0.647454
0.749570 0.764261 0.651441
0.880157 0.793396 0.656257
0.957766 0.820923 0.661898
0.171479 0.763113 0.639922
0.182519 0.764595 0.640218
0.262577 0.769876 0.641279
0.385578 0.779418 0.643226
0.537207 0.792877 0.646011
0.655651 0.808105 0.649161
0.753568 0.826520 0.653130
0.883699 0.847748 0.657925
0.959415 0.870634 0.663543
0.181724 0.835584 0.642464
0.194901 0.836610 0.642758
0.282521 0.840269 0.643814
0.403611 0.846904 0.645709
0.546581 0.856599 0.648044
0.662034 0.869257 0.651178
0.758267 0.879450 0.655126
0.887874 0.891266 0.659897
0.961360 0.908750 0.665487
0.160296 0.123833 0.736592
0.161522 0.124797 0.736774
0.193455 0.132259 0.737427
0.334200 0.171912 0.738626
0.502573 0.246084 0.740414
0.633291 0.330816 0.742817
0.739495 0.424928 0.745854
0.871276 0.513704 0.749534
0.953633 0.597888 0.753861
0.160296 0.127426 0.736656
0.161774 0.128978 0.736838
0.193948 0.141329 0.737491
0.334918 0.192198 0.738690
0.503112 0.261665 0.740477
0.633606 0.345083 0.742880
0.739693 0.436256 0.745916
0.871450 0.522764 0.749595
0.953714 0.605651 0.753922
0.160296 0.171955 0.736884
0.162613 0.179963 0.737066
0.195698 0.209130 0.737719
0.337493 0.254434 0.738917
0.505047 0.318280 0.740703
0.634738 0.394481 0.743105
0.740404 0.475106 0.746139
0.872075 0.553581 0.749817
0.954005 0.630514 0.754141
0.160296 0.287892 0.737304
0.163936 0.294168 0.737486
0.202324 0.316114 0.738138
0.342199 0.354622 0.739335
0.508593 0.409490 0.741119
0.636815 0.471393 0.743518
0.741710 0.537591 0.746550
0.873222 0.606455 0.750224
0.954539 0.666843 0.754544
0.161086 0.425065 0.737931
0.165546 0.429756 0.738113
0.212133 0.446145 0.738764
0.349170 0.475204 0.739959
0.513866 0.515042 0.741741
0.639905 0.562082 0.744136
0.743655 0.617023 0.747163
0.874935 0.665727 0.750832
0.955335 0.716407 0.755146
0.163387 0.555860 0.738778
0.168193 0.559247 0.738959
0.225418 0.571266 0.739609
0.358511 0.592859 0.740801
0.520933 0.623706 0.742580
0.644053 0.654407 0.744970
0.746269 0.690797 0.747991
0.877239 0.731142 0.751653
0.956408 0.770869 0.755959
0.166136 0.669795 0.739852
0.172844 0.671945 0.740032
0.242526 0.679586 0.740680
0.370214 0.693331 0.741870
0.529151 0.713187 0.743644
0.649301 0.737872 0.746028
0.749570 0.765100 0.749042
0.880157 0.794056 0.752694
0.957766 0.821531 0.756989
0.171479 0.763955 0.741160
0.182519 0.765434 0.741340
0.262577 0.770704 0.741986
0.385578 0.780227 0.743172
0.537207 0.793538 0.744940
0.655651 0.808736 0.747317
0.753568 0.827118 0.750322
0.883699 0.848310 0.753963
0.959415 0.870980 0.758245
0.181724 0.836166 0.742708
0.194901 0.837190 0.742887
0.282521 0.840844 0.743531
0.403611 0.847467 0.744712
0.546581 0.857147 0.746474
0.662034 0.869605 0.748842
0.758267 0.879782 0.751836
0.887874 0.891579 0.755464
0.961360 0.909286 0.759732
0.160296 0.124538 0.821776
0.161522 0.126016 0.821888
0.193455 0.134204 0.822289
0.334200 0.177207 0.823024
0.502573 0.250489 0.824122
0.633291 0.334856 0.825599
0.739495 0.428184 0.827467
0.871276 0.516291 0.829735
0.953633 0.600101 0.832407
0.160296 0.128534 0.821815
0.161774 0.130868 0.821927
0.193948 0.146851 0.822328
0.334918 0.197724 0.823063
0.503112 0.266545 0.824161
0.633606 0.349094 0.825637
0.739693 0.439416 0.827506
0.871450 0.525312 0.829774
0.953714 0.607840 0.832445
0.160296 0.177263 0.821956
0.162613 0.185992 0.822067
0.195698 0.214531 0.822467
0.337493 0.258717 0.823203
0.505047 0.322348 0.824300
0.634738 0.398263 0.825776
0.740404 0.478078 0.827643
0.872075 0.555940 0.829910
0.954005 0.632133 0.832580
0.160296 0.292250 0.822213
0.163936 0.298473 0.822325
0.202324 0.320210 0.822725
0.342199 0.358604 0.823459
0.508593 0.413199 0.824555
0.636815 0.474384 0.826030
0.741710 0.540013 0.827896
0.873222 0.608641 0.830161
0.954539 0.668343 0.832829
0.161086 0.428320 0.822598
0.165546 0.432963 0.822709
0.212133 0.449255 0.823109
0.349170 0.478172 0.823843
0.513866 0.517623 0.824937
0.639905 0.564408 0.826411
0.743655 0.619175 0.828274
0.874935 0.667231 0.830537
0.955335 0.717708 0.833202
0.163387 0.558210 0.823117
0.168193 0.561584 0.823228
0.225418 0.573559 0.823627
0.358511 0.595090 0.824360
0.520933 0.625350 0.825453
0.644053 0.655949 0.826924
0.746269 0.692223 0.828784
0.877239 0.732402 0.831043
0.956408 0.771878 0.833704
0.166136 0.671286 0.823777
0.172844 0.673429 0.823888
0.242526 0.681047 0.824286
0.370214 0.694750 0.825017
0.529151 0.714549 0.826107
0.649301 0.739115 0.827575
0.749570 0.766123 0.829432
0.880157 0.794860 0.831686
0.957766 0.822272 0.834342
0.171479 0.764981 0.824580
0.182519 0.766456 0.824691
0.262577 0.771713 0.825088
0.385578 0.781212 0.825817
0.537207 0.794344 0.826905
0.655651 0.809506 0.828369
0.753568 0.827847 0.830222
0.883699 0.848996 0.832470
0.959415 0.871402 0.835119
0.181724 0.836876 0.825532
0.194901 0.837898 0.825642
0.282521 0.841544 0.826038
0.403611 0.848155 0.826765
0.546581 0.857816 0.827849
0.662034 0.870030 0.829309
0.758267 0.880186 0.831156
0.887874 0.891962 0.833398
0.961360 0.909940 0.836039
0.160296 0.125639 0.897391
0.161522 0.127555 0.897495
0.193455 0.137199 0.897866
0.334200 0.184405 0.898547
0.502573 0.255651 0.899565
0.633291 0.339692 0.900935
0.739495 0.432014 0.902672
0.871276 0.519347 0.904785
0.953633 0.602720 0.907279
0.160296 0.130305 0.897428
0.161774 0.133303 0.897531
0.193948 0.153150 0.897902
0.334918 0.204175 0.898583
0.503112 0.272284 0.899601
0.633606 0.353839 0.900971
0.739693 0.443147 0.902708
0.871450 0.528324 0.904820
0.953714 0.610429 0.907314
0.160296 0.184460 0.897557
0.162613 0.192853 0.897660
0.195698 0.220616 0.898031
0.337493 0.264460 0.898712
0.505047 0.327139 0.899729
0.634738 0.402728 0.901100
0.740404 0.481487 0.902836
0.872075 0.558729 0.904948
0.954005 0.634047 0.907440
0.160296 0.297376 0.897796
0.163936 0.303539 0.897899
0.202324 0.325019 0.898269
0.342199 0.363300 0.898950
0.508593 0.417580 0.899967
0.636815 0.477917 0.901336
0.741710 0.542876 0.903072
0.873222 0.611227 0.905182
0.954539 0.670118 0.907673
0.161086 0.432148 0.898152
0.165546 0.436733 0.898255
0.212133 0.452927 0.898625
0.349170 0.481581 0.899306
0.513866 0.520673 0.900321
0.639905 0.567159 0.901690
0.743655 0.621722 0.903423
0.874935 0.669011 0.905532
0.955335 0.719248 0.908021
0.163387 0.560988 0.898633
0.168193 0.564347 0.898736
0.225418 0.576270 0.899106
0.358511 0.597728 0.899785
0.520933 0.627295 0.900800
0.644053 0.657772 0.902167
0.746269 0.693911 0.903899
0.877239 0.733895 0.906005
0.956408 0.773072 0.908491
0.166136 0.673050 0.899244
0.172844 0.675185 0.899347
0.242526 0.682774 0.899716
0.370214 0.696429 0.900395
0.529151 0.716106 0.901408
0.649301 0.740587 0.902773
0.749570 0.767334 0.904502
0.880157 0.795813 0.906605
0.957766 0.823150 0.909088
0.171479 0.766195 0.899990
0.182519 0.767666 0.900092
0.262577 0.772908 0.900461
0.385578 0.782380 0.901138
0.537207 0.795298 0.902149
0.655651 0.810418 0.903512
0.753568 0.828710 0.905238
0.883699 0.849808 0.907337
0.959415 0.871902 0.909816
0.181724 0.837717 0.900873
0.194901 0.838737 0.900975
0.282521 0.842374 0.901343
0.403611 0.848969 0.902019
0.546581 0.858608 0.903028
0.662034 0.870533 0.904387
0.758267 0.880666 0.906110
0.887874 0.892416 0.908205
0.961360 0.910716 0.910679
