velvia/Velvia50_Modern_Normal.cube
TITLE "Velvia 50 Modern Normal"
# Adobe RGB in/out. REPLACES AgX. Velvia 50 Modern Normal.
LUT_3D_SIZE 5
DOMAIN_MIN 0.0 0.0 0.0
DOMAIN_MAX 1.0 1.0 1.0
0.090873 0.083221 0.090772
0.271804 0.086516 0.090772
0.935669 0.357934 0.090847
0.984581 0.816875 0.091196
0.989973 0.935503 0.092897
0.090920 0.163853 0.090772
0.127596 0.107775 0.090772
0.877444 0.421585 0.090815
0.980556 0.832082 0.091104
0.989973 0.938309 0.092411
0.091940 0.855225 0.090777
0.186875 0.817231 0.090786
0.784735 0.785643 0.090813
0.963959 0.891825 0.090980
0.989973 0.947947 0.091728
0.095117 0.958865 0.090801
0.204668 0.954529 0.090810
0.806581 0.949281 0.090851
0.955645 0.953218 0.091011
0.985912 0.967647 0.091542
0.100661 0.982995 0.090822
0.203787 0.982283 0.090838
0.767427 0.981341 0.090910
0.951411 0.983127 0.091097
0.983878 0.988194 0.091707
0.090873 0.083221 0.241225
0.293116 0.087335 0.264679
0.929357 0.339893 0.191896
0.983287 0.792410 0.191086
0.989973 0.932479 0.221336
0.090873 0.103009 0.113492
0.099816 0.088606 0.091725
0.839275 0.358385 0.103879
0.977820 0.815344 0.137460
0.989973 0.935961 0.186370
0.091775 0.822323 0.120618
0.159161 0.749559 0.101983
0.728527 0.717450 0.094674
0.959351 0.874155 0.102318
0.989283 0.946537 0.131434
0.094483 0.954579 0.105399
0.188656 0.950312 0.102233
0.787713 0.947177 0.098308
0.953018 0.950228 0.099981
0.985481 0.966544 0.112809
0.100160 0.982031 0.097133
0.197276 0.981376 0.097094
0.763187 0.980587 0.097583
0.950695 0.982606 0.100917
0.983791 0.988049 0.111053
0.090873 0.083258 0.950927
0.293116 0.088560 0.951789
0.952713 0.482070 0.950505
0.984264 0.818117 0.899218
0.989973 0.931610 0.867215
0.090905 0.164139 0.944294
0.225177 0.219258 0.916176
0.898350 0.492198 0.879244
0.979018 0.825697 0.861521
0.989973 0.934743 0.849902
0.091501 0.705999 0.843538
0.128654 0.645961 0.785207
0.592542 0.587358 0.592444
0.955013 0.859533 0.738101
0.988405 0.944397 0.787411
0.093624 0.947260 0.818158
0.166829 0.945100 0.793372
0.748425 0.941507 0.723924
0.946903 0.946772 0.680602
0.984646 0.964492 0.718255
0.099395 0.979541 0.741185
0.186149 0.979083 0.729794
0.752852 0.978777 0.702424
0.948742 0.981393 0.686605
0.983585 0.987731 0.698033
0.090873 0.083661 0.987717
0.293116 0.092440 0.987752
0.955977 0.537560 0.987875
0.987311 0.854247 0.982748
0.989973 0.936394 0.977310
0.090920 0.213244 0.987730
0.310636 0.365881 0.987764
0.941217 0.699408 0.985078
0.982818 0.857921 0.979597
0.989973 0.938310 0.975248
0.091515 0.723977 0.975831
0.144720 0.730774 0.974402
0.790377 0.802930 0.966117
0.962738 0.891991 0.962608
0.988824 0.946144 0.961064
0.093084 0.940375 0.965039
0.146499 0.939068 0.959567
0.716848 0.937583 0.945339
0.939854 0.941926 0.929025
0.984223 0.963696 0.941484
0.098666 0.976540 0.949969
0.175412 0.976384 0.947917
0.738055 0.976821 0.942112
0.946651 0.980192 0.937162
0.983388 0.987507 0.936939
0.090873 0.084827 0.991016
0.293116 0.103121 0.991016
0.955977 0.584354 0.991016
0.989684 0.885284 0.990679
0.989973 0.941206 0.989138
0.090920 0.265129 0.991016
0.310636 0.417548 0.991016
0.954654 0.810300 0.991016
0.985716 0.898699 0.989984
0.989973 0.943182 0.988362
0.091736 0.829740 0.989621
0.191759 0.839381 0.989416
0.873463 0.871736 0.988543
0.971036 0.930192 0.987195
0.989973 0.949312 0.985010
0.092916 0.938861 0.984640
0.144495 0.939115 0.983920
0.741692 0.941797 0.982489
0.950503 0.949569 0.981492
0.984862 0.965909 0.981111
0.098008 0.973988 0.981808
0.166422 0.974169 0.981451
0.722996 0.975468 0.980475
0.945320 0.979628 0.979563
0.983303 0.987587 0.979455
