velvia/Velvia50_Classic_ExtraPunchy.cube
TITLE "Velvia 50 Classic ExtraPunchy"
# Adobe RGB in/out. REPLACES AgX. Velvia 50 Classic ExtraPunchy.
LUT_3D_SIZE 33
DOMAIN_MIN 0.0 0.0 0.0
DOMAIN_MAX 1.0 1.0 1.0
0.070631 0.072407 0.079283
0.070631 0.072407 0.079283
0.070631 0.072407 0.079283
0.070650 0.072407 0.079283
0.070721 0.072407 0.079283
0.070963 0.072407 0.079283
0.071269 0.072411 0.079283
0.071875 0.072421 0.079283
0.072991 0.072454 0.079283
0.075491 0.072542 0.079283
0.082536 0.072665 0.079283
0.102009 0.072825 0.079283
0.145720 0.073098 0.079283
0.207226 0.073502 0.079283
0.319417 0.074360 0.079278
0.467511 0.075510 0.079263
0.590378 0.078842 0.079249
0.683547 0.082475 0.079236
0.772097 0.088642 0.079223
0.833051 0.101468 0.079204
0.872918 0.121459 0.079186
0.908011 0.156161 0.079169
0.928396 0.200248 0.079153
0.945384 0.258543 0.079119
0.955011 0.323787 0.079075
0.962668 0.398089 0.079033
0.969717 0.469851 0.078953
0.975875 0.546464 0.078868
0.981637 0.609166 0.078821
0.983522 0.665351 0.078787
0.985347 0.721194 0.078724
0.987115 0.781171 0.078664
0.988830 0.834935 0.078605
0.070631 0.072407 0.079283
0.070631 0.072407 0.079283
0.070631 0.072407 0.079283
0.070650 0.072407 0.079283
0.070722 0.072407 0.079283
0.070964 0.072407 0.079283
0.071270 0.072412 0.079283
0.071877 0.072423 0.079283
0.072993 0.072459 0.079283
0.075495 0.072552 0.079283
0.082547 0.072673 0.079283
0.102039 0.072840 0.079283
0.145760 0.073121 0.079283
0.207308 0.073535 0.079283
0.319504 0.074403 0.079278
0.467593 0.075570 0.079263
0.590437 0.079017 0.079249
0.683597 0.082634 0.079236
0.772132 0.088960 0.079223
0.833080 0.101989 0.079204
0.872935 0.122258 0.079186
0.908024 0.157047 0.079169
0.928404 0.202056 0.079153
0.945391 0.260883 0.079119
0.955014 0.325246 0.079075
0.962671 0.399991 0.079033
0.969719 0.471537 0.078953
0.975877 0.547754 0.078868
0.981638 0.610493 0.078821
0.983523 0.666348 0.078787
0.985348 0.722503 0.078724
0.987116 0.782198 0.078664
0.988831 0.835695 0.078605
0.070631 0.072407 0.079283
0.070631 0.072407 0.079283
0.070631 0.072407 0.079283
0.070651 0.072407 0.079283
0.070725 0.072407 0.079283
0.070966 0.072410 0.079283
0.071273 0.072415 0.079283
0.071884 0.072428 0.079283
0.072998 0.072477 0.079283
0.075508 0.072587 0.079283
0.082585 0.072701 0.079283
0.102148 0.072893 0.079283
0.145905 0.073202 0.079283
0.207602 0.073649 0.079283
0.319813 0.074556 0.079278
0.467888 0.075956 0.079263
0.590650 0.079575 0.079249
0.683777 0.083201 0.079236
0.772259 0.090100 0.079222
0.833187 0.104195 0.079204
0.872999 0.125152 0.079186
0.908074 0.160249 0.079169
0.928434 0.208648 0.079153
0.945414 0.269413 0.079118
0.955024 0.330771 0.079074
0.962681 0.405990 0.079032
0.969727 0.477618 0.078952
0.975884 0.552391 0.078867
0.981640 0.615264 0.078821
0.983525 0.669926 0.078786
0.985350 0.727210 0.078724
0.987118 0.785889 0.078663
0.988832 0.838000 0.078604
0.070631 0.072407 0.079283
0.070631 0.072407 0.079283
0.070631 0.072407 0.079283
0.070653 0.072407 0.079283
0.070731 0.072411 0.079283
0.070969 0.072414 0.079283
0.071280 0.072425 0.079283
0.071897 0.072459 0.079283
0.073008 0.072537 0.079283
0.075532 0.072647 0.079283
0.082656 0.072765 0.079283
0.102348 0.072984 0.079283
0.146171 0.073345 0.079283
0.208144 0.073947 0.079283
0.320383 0.074827 0.079277
0.468432 0.076929 0.079262
0.591040 0.080489 0.079249
0.684108 0.084416 0.079236
0.772492 0.092222 0.079222
0.833384 0.107793 0.079203
0.873115 0.131047 0.079185
0.908164 0.166218 0.079169
0.928487 0.217851 0.079153
0.945457 0.283496 0.079117
0.955044 0.342452 0.079073
0.962699 0.416444 0.079031
0.969742 0.488904 0.078950
0.975898 0.560950 0.078865
0.981644 0.623845 0.078820
0.983529 0.676512 0.078785
0.985353 0.735891 0.078723
0.987121 0.792681 0.078662
0.988835 0.842161 0.078603
0.070631 0.072411 0.079283
0.070631 0.072412 0.079283
0.070631 0.072413 0.079283
0.070656 0.072415 0.079283
0.070740 0.072421 0.079283
0.070975 0.072429 0.079283
0.071289 0.072467 0.079283
0.071917 0.072534 0.079283
0.073023 0.072631 0.079283
0.075568 0.072724 0.079283
0.082762 0.072912 0.079283
0.102646 0.073194 0.079283
0.146569 0.073582 0.079283
0.208956 0.074388 0.079283
0.321237 0.075438 0.079276
0.469245 0.078338 0.079262
0.591624 0.081819 0.079248
0.684602 0.086588 0.079235
0.772841 0.096955 0.079221
0.833679 0.113222 0.079202
0.873289 0.141799 0.079185
0.908299 0.177504 0.079168
0.928568 0.231322 0.079152
0.945522 0.297195 0.079116
0.955074 0.359938 0.079072
0.962727 0.432318 0.079030
0.969763 0.506020 0.078947
0.975918 0.573817 0.078863
0.981650 0.636429 0.078819
0.983534 0.686364 0.078784
0.985358 0.747076 0.078721
0.987126 0.802844 0.078660
0.988840 0.848362 0.078602
0.070631 0.072428 0.079283
0.070631 0.072429 0.079283
0.070631 0.072435 0.079283
0.070660 0.072450 0.079283
0.070751 0.072471 0.079283
0.070982 0.072512 0.079283
0.071302 0.072583 0.079283
0.071943 0.072659 0.079283
0.073043 0.072736 0.079283
0.075616 0.072912 0.079283
0.082905 0.073155 0.079283
0.103051 0.073476 0.079283
0.147108 0.074157 0.079283
0.210057 0.074998 0.079283
0.322393 0.077072 0.079275
0.470256 0.080371 0.079260
0.592414 0.083878 0.079247
0.685270 0.090724 0.079234
0.773313 0.104225 0.079220
0.834076 0.123620 0.079201
0.873524 0.156810 0.079184
0.908482 0.198005 0.079167
0.928677 0.251047 0.079151
0.945609 0.316152 0.079113
0.955114 0.384356 0.079070
0.962764 0.454215 0.079028
0.969793 0.529590 0.078944
0.975945 0.591327 0.078860
0.981658 0.649808 0.078818
0.983542 0.699678 0.078781
0.985365 0.760789 0.078719
0.987132 0.816582 0.078658
0.988846 0.856701 0.078600
0.070631 0.072542 0.079283
0.070631 0.072547 0.079283
0.070631 0.072561 0.079283
0.070665 0.072588 0.079283
0.070765 0.072625 0.079283
0.070991 0.072671 0.079283
0.071318 0.072725 0.079283
0.071977 0.072842 0.079283
0.073069 0.072983 0.079283
0.075678 0.073235 0.079283
0.083087 0.073530 0.079283
0.103566 0.074163 0.079283
0.147794 0.074893 0.079283
0.211462 0.076571 0.079283
0.323867 0.079642 0.079273
0.471327 0.082688 0.079259
0.593418 0.087867 0.079246
0.686120 0.098224 0.079233
0.773912 0.113522 0.079218
0.834582 0.140212 0.079200
0.873823 0.173163 0.079182
0.908714 0.223982 0.079166
0.928816 0.287022 0.079150
0.945720 0.343366 0.079111
0.955165 0.414043 0.079067
0.962810 0.482804 0.079026
0.969830 0.553655 0.078939
0.975979 0.613795 0.078855
0.981669 0.666735 0.078816
0.983552 0.720245 0.078778
0.985374 0.778240 0.078716
0.987141 0.831139 0.078656
0.988854 0.867239 0.078598
0.070631 0.072722 0.079283
0.070631 0.072725 0.079283
0.070631 0.072736 0.079283
0.070671 0.072777 0.079283
0.070782 0.072839 0.079283
0.071001 0.072918 0.079283
0.071338 0.073014 0.079283
0.072017 0.073211 0.079283
0.073099 0.073426 0.079283
0.075753 0.073806 0.079283
0.083308 0.074410 0.079283
0.104196 0.075141 0.079283
0.148635 0.076883 0.079283
0.213188 0.079687 0.079283
0.325672 0.082450 0.079271
0.472636 0.086816 0.079257
0.594645 0.095536 0.079244
0.687158 0.109596 0.079232
0.774645 0.130453 0.079216
0.835199 0.162169 0.079198
0.874188 0.205317 0.079181
0.908997 0.255768 0.079165
0.928985 0.316230 0.079149
0.945855 0.380710 0.079107
0.955227 0.447607 0.079064
0.962868 0.518852 0.079020
0.969875 0.580670 0.078934
0.976021 0.639647 0.078850
0.981681 0.687419 0.078814
0.983563 0.745995 0.078774
0.985385 0.799573 0.078713
0.987151 0.845026 0.078653
0.988864 0.879282 0.078595
0.070631 0.073099 0.079283
0.070631 0.073108 0.079283
0.070631 0.073142 0.079283
0.070677 0.073204 0.079283
0.070801 0.073292 0.079283
0.071014 0.073407 0.079283
0.071360 0.073583 0.079283
0.072064 0.073938 0.079283
0.073135 0.074389 0.079283
0.075859 0.074894 0.079283
0.083570 0.075808 0.079283
0.104946 0.077998 0.079283
0.149635 0.080518 0.079283
0.215249 0.083117 0.079283
0.327823 0.087559 0.079269
0.474191 0.095809 0.079255
0.596103 0.108860 0.079242
0.688391 0.127430 0.079230
0.775513 0.157549 0.079214
0.835931 0.192560 0.079196
0.874620 0.240207 0.079179
0.909333 0.300502 0.079163
0.929185 0.356973 0.079147
0.946015 0.423116 0.079103
0.955300 0.489059 0.079061
0.962935 0.555727 0.079013
0.969929 0.613175 0.078927
0.976071 0.664194 0.078846
0.981696 0.714168 0.078812
0.983577 0.771294 0.078770
0.985398 0.824367 0.078709
0.987163 0.860406 0.078649
0.988875 0.888541 0.078591
0.070631 0.073894 0.079283
0.070631 0.073913 0.079283
0.070633 0.073981 0.079283
0.070684 0.074104 0.079283
0.070822 0.074284 0.079283
0.071028 0.074520 0.079283
0.071386 0.074807 0.079283
0.072118 0.075323 0.079283
0.073220 0.076321 0.079283
0.076040 0.078014 0.079283
0.083874 0.080059 0.079283
0.105819 0.082096 0.079283
0.150800 0.084997 0.079283
0.217659 0.090166 0.079280
0.330332 0.099092 0.079266
0.476000 0.111341 0.079253
0.597797 0.129826 0.079240
0.689823 0.158212 0.079228
0.776522 0.190504 0.079211
0.836782 0.235814 0.079194
0.875123 0.293407 0.079177
0.909723 0.344490 0.079161
0.929418 0.408703 0.079143
0.946201 0.470205 0.079099
0.955386 0.538818 0.079057
0.963014 0.593114 0.079005
0.969991 0.647025 0.078919
0.976129 0.692726 0.078843
0.981714 0.749306 0.078809
0.983594 0.800717 0.078765
0.985413 0.844390 0.078704
0.987177 0.877913 0.078645
0.988888 0.897880 0.078587
0.070631 0.075515 0.079283
0.070631 0.075540 0.079283
0.070645 0.075639 0.079283
0.070691 0.075969 0.079283
0.070846 0.076568 0.079283
0.071043 0.077363 0.079283
0.071415 0.078349 0.079283
0.072179 0.079710 0.079283
0.073320 0.081094 0.079283
0.076246 0.082698 0.079283
0.084219 0.085167 0.079283
0.106821 0.089288 0.079283
0.152137 0.095827 0.079283
0.220435 0.105893 0.079277
0.333213 0.118590 0.079263
0.478069 0.139037 0.079250
0.599734 0.164255 0.079238
0.691459 0.199046 0.079226
0.777675 0.239910 0.079208
0.837753 0.294749 0.079191
0.875696 0.342749 0.079175
0.910168 0.404019 0.079159
0.929684 0.461849 0.079137
0.946413 0.526885 0.079094
0.955483 0.581253 0.079052
0.963104 0.635770 0.078995
0.970063 0.679621 0.078910
0.976195 0.731717 0.078840
0.981734 0.782903 0.078806
0.983612 0.831365 0.078759
0.985431 0.864783 0.078699
0.987193 0.890158 0.078640
0.988903 0.908332 0.078582
0.070631 0.080717 0.079283
0.070631 0.080772 0.079283
0.070657 0.080972 0.079283
0.070698 0.081336 0.079283
0.070871 0.081875 0.079283
0.071060 0.082633 0.079283
0.071447 0.083779 0.079283
0.072247 0.085543 0.079283
0.073431 0.088219 0.079283
0.076476 0.091939 0.079283
0.084659 0.098357 0.079283
0.107953 0.106655 0.079283
0.153650 0.116884 0.079283
0.223593 0.132783 0.079273
0.336478 0.155774 0.079260
0.480405 0.178457 0.079247
0.601918 0.216558 0.079235
0.693303 0.255122 0.079223
0.778973 0.304682 0.079205
0.838847 0.351778 0.079188
0.876342 0.409014 0.079172
0.910670 0.463846 0.079157
0.929983 0.525451 0.079131
0.946653 0.577556 0.079088
0.955593 0.629579 0.079046
0.963205 0.672734 0.078984
0.970143 0.719946 0.078901
0.976269 0.771539 0.078836
0.981756 0.820829 0.078802
0.983633 0.855298 0.078753
0.985450 0.884411 0.078693
0.987211 0.902116 0.078634
0.988920 0.918929 0.078577
0.070631 0.088685 0.079283
0.070640 0.088815 0.079283
0.070668 0.089283 0.079283
0.070706 0.090142 0.079283
0.070897 0.091425 0.079283
0.071078 0.093455 0.079283
0.071482 0.097018 0.079283
0.072321 0.101418 0.079283
0.073553 0.107139 0.079283
0.076731 0.113589 0.079283
0.085201 0.124177 0.079283
0.109221 0.138877 0.079283
0.155344 0.157619 0.079282
0.227150 0.176446 0.079269
0.339952 0.209418 0.079256
0.483013 0.239972 0.079244
0.604356 0.286935 0.079233
0.695360 0.323718 0.079219
0.780420 0.372167 0.079202
0.840066 0.423955 0.079185
0.877062 0.476363 0.079169
0.911123 0.535167 0.079154
0.930317 0.582065 0.079124
0.946919 0.631396 0.079081
0.955716 0.672128 0.079041
0.963318 0.716468 0.078973
0.970232 0.766684 0.078890
0.976352 0.813823 0.078831
0.981781 0.849736 0.078798
0.983656 0.879775 0.078746
0.985472 0.897888 0.078686
0.987231 0.914779 0.078628
0.988939 0.926053 0.078572
0.070646 0.110304 0.079283
0.070655 0.110529 0.079283
0.070680 0.111338 0.079283
0.070742 0.112831 0.079283
0.070925 0.115683 0.079283
0.071100 0.119988 0.079283
0.071520 0.125576 0.079283
0.072402 0.133604 0.079283
0.073686 0.144808 0.079283
0.077010 0.157699 0.079283
0.085799 0.169871 0.079283
0.110628 0.190602 0.079283
0.157225 0.218137 0.079277
0.231123 0.243924 0.079265
0.343638 0.285699 0.079253
0.485900 0.317000 0.079241
0.607052 0.356975 0.079230
0.697633 0.404543 0.079215
0.781706 0.449437 0.079198
0.841290 0.499893 0.079182
0.877856 0.550916 0.079166
0.911522 0.594906 0.079151
0.930685 0.640308 0.079116
0.947213 0.677861 0.079074
0.955851 0.721331 0.079034
0.963443 0.768395 0.078960
0.970331 0.813410 0.078878
0.976444 0.848182 0.078827
0.981809 0.877787 0.078794
0.983682 0.895720 0.078738
0.985496 0.912352 0.078679
0.987254 0.923768 0.078621
0.988960 0.939597 0.078565
0.070662 0.156327 0.079283
0.070669 0.156690 0.079283
0.070691 0.157997 0.079283
0.070783 0.160414 0.079283
0.070954 0.164062 0.079283
0.071154 0.169053 0.079283
0.071559 0.177732 0.079283
0.072488 0.189757 0.079283
0.073829 0.207865 0.079283
0.077313 0.224197 0.079283
0.086451 0.242872 0.079283
0.112179 0.274574 0.079283
0.159299 0.300689 0.079272
0.235533 0.327437 0.079260
0.347704 0.363244 0.079249
0.489071 0.404172 0.079238
0.610010 0.442839 0.079227
0.700126 0.486386 0.079210
0.782889 0.535264 0.079194
0.842221 0.574436 0.079178
0.878725 0.616287 0.079163
0.911959 0.654418 0.079148
0.931088 0.689985 0.079108
0.947535 0.734645 0.079067
0.955999 0.776729 0.079027
0.963579 0.819646 0.078946
0.970439 0.850680 0.078865
0.976544 0.878616 0.078822
0.981840 0.895659 0.078789
0.983710 0.911630 0.078730
0.985522 0.923288 0.078671
0.987278 0.937663 0.078614
0.988983 0.949596 0.078558
0.070676 0.228184 0.079283
0.070682 0.228748 0.079283
0.070702 0.230780 0.079283
0.070824 0.234545 0.079283
0.070983 0.240242 0.079283
0.071211 0.248065 0.079283
0.071602 0.263698 0.079283
0.072580 0.282721 0.079283
0.073984 0.296789 0.079283
0.077640 0.313393 0.079283
0.087159 0.333830 0.079283
0.114004 0.360381 0.079279
0.161572 0.391363 0.079267
0.240399 0.422624 0.079256
0.353852 0.455964 0.079245
0.494530 0.493648 0.079234
0.613235 0.536067 0.079222
0.702841 0.570035 0.079206
0.784176 0.606679 0.079190
0.843233 0.643320 0.079174
0.879671 0.674951 0.079160
0.912433 0.709678 0.079141
0.931526 0.753023 0.079099
0.947886 0.791740 0.079059
0.956160 0.830044 0.079014
0.963728 0.857242 0.078931
0.970557 0.882276 0.078852
0.976653 0.897723 0.078816
0.981873 0.912906 0.078781
0.983741 0.923522 0.078721
0.985550 0.937672 0.078663
0.987305 0.949223 0.078606
0.989007 0.959013 0.078547
0.070689 0.324153 0.079283
0.070695 0.324751 0.079283
0.070733 0.326904 0.079283
0.070865 0.331245 0.079283
0.071013 0.338439 0.079283
0.071269 0.347994 0.079283
0.071677 0.360367 0.079283
0.072678 0.375818 0.079283
0.074148 0.394641 0.079283
0.078142 0.414395 0.079283
0.088281 0.435937 0.079283
0.116075 0.460845 0.079273
0.164048 0.489396 0.079262
0.245745 0.521894 0.079251
0.360890 0.552502 0.079241
0.506823 0.581465 0.079230
0.616731 0.613274 0.079216
0.705782 0.644464 0.079201
0.785567 0.672246 0.079185
0.844328 0.701953 0.079170
0.880693 0.742181 0.079156
0.912946 0.776795 0.079131
0.932000 0.813485 0.079090
0.948265 0.843102 0.079050
0.956334 0.867842 0.078997
0.963888 0.887658 0.078916
0.970684 0.901897 0.078843
0.976771 0.915881 0.078810
0.981908 0.924711 0.078770
0.983774 0.939640 0.078711
0.985581 0.950027 0.078654
0.987334 0.959423 0.078598
0.989034 0.968508 0.078536
0.070702 0.433684 0.079283
0.070707 0.434349 0.079283
0.070786 0.436741 0.079283
0.070906 0.441159 0.079283
0.071044 0.447808 0.079283
0.071330 0.456866 0.079283
0.071806 0.468512 0.079283
0.072780 0.482928 0.079283
0.074438 0.500310 0.079283
0.078685 0.520872 0.079283
0.089573 0.542700 0.079277
0.118325 0.562234 0.079267
0.166890 0.584232 0.079257
0.251594 0.608800 0.079246
0.367716 0.635238 0.079236
0.512634 0.657741 0.079226
0.620503 0.681764 0.079211
0.708952 0.708519 0.079195
0.787064 0.744096 0.079181
0.845505 0.774701 0.079166
0.881793 0.807333 0.079152
0.913498 0.836829 0.079120
0.932509 0.859179 0.079080
0.948672 0.880984 0.079041
0.956521 0.894759 0.078978
0.964061 0.908142 0.078899
0.970821 0.920629 0.078837
0.976898 0.929375 0.078804
0.981947 0.943103 0.078759
0.983810 0.952004 0.078701
0.985614 0.960972 0.078644
0.987365 0.968981 0.078589
0.989063 0.972717 0.078523
0.070743 0.546884 0.079283
0.070765 0.547412 0.079283
0.070836 0.549311 0.079283
0.070946 0.552808 0.079283
0.071074 0.558051 0.079283
0.071392 0.565156 0.079283
0.071942 0.574227 0.079283
0.072887 0.585360 0.079283
0.074764 0.598650 0.079283
0.079261 0.614189 0.079280
0.090961 0.631460 0.079270
0.120759 0.647672 0.079261
0.170170 0.664464 0.079251
0.257971 0.683026 0.079241
0.375131 0.703387 0.079232
0.515090 0.732028 0.079220
0.624554 0.758660 0.079205
0.712352 0.785352 0.079190
0.788666 0.814021 0.079176
0.846765 0.838468 0.079162
0.882971 0.858342 0.079148
0.914089 0.878676 0.079109
0.933055 0.891711 0.079070
0.948953 0.903888 0.079032
0.956721 0.915901 0.078959
0.964246 0.923811 0.078881
0.970968 0.935989 0.078829
0.977034 0.946716 0.078798
0.981988 0.955136 0.078748
0.983848 0.963647 0.078690
0.985650 0.969907 0.078634
0.987398 0.973469 0.078579
0.989094 0.977036 0.078510
0.070802 0.640527 0.079283
0.070821 0.640935 0.079283
0.070885 0.642400 0.079283
0.070985 0.645097 0.079283
0.071120 0.649132 0.079283
0.071456 0.654585 0.079283
0.072082 0.661520 0.079283
0.072999 0.669994 0.079283
0.075106 0.680054 0.079281
0.079871 0.691746 0.079272
0.093000 0.705176 0.079264
0.123958 0.724919 0.079255
0.173710 0.745653 0.079246
0.264904 0.764776 0.079236
0.383160 0.785761 0.079227
0.517711 0.808641 0.079213
0.628888 0.830680 0.079199
0.715987 0.847926 0.079184
0.790374 0.865285 0.079171
0.848109 0.881832 0.079157
0.884228 0.892804 0.079136
0.914719 0.903685 0.079097
0.933598 0.914633 0.079059
0.949185 0.922866 0.079018
0.956935 0.932187 0.078939
0.964443 0.943681 0.078863
0.971124 0.951470 0.078822
0.977179 0.959388 0.078791
0.982032 0.967420 0.078735
0.983889 0.971273 0.078678
0.985688 0.974651 0.078623
0.987433 0.977859 0.078569
0.989127 0.980260 0.078492
0.070857 0.721731 0.079283
0.070875 0.722267 0.079283
0.070933 0.724195 0.079283
0.071025 0.727745 0.079283
0.071202 0.733064 0.079283
0.071520 0.740265 0.079283
0.072227 0.747485 0.079283
0.073114 0.756215 0.079280
0.075410 0.766582 0.079273
0.080513 0.778632 0.079265
0.095644 0.792406 0.079257
0.128864 0.807945 0.079249
0.177519 0.824638 0.079240
0.271909 0.838321 0.079231
0.391830 0.851141 0.079220
0.520498 0.864982 0.079206
0.633509 0.879153 0.079192
0.719858 0.888886 0.079179
0.792189 0.897978 0.079165
0.849536 0.907508 0.079152
0.885563 0.916833 0.079123
0.915388 0.923312 0.079085
0.934133 0.932213 0.079048
0.949432 0.942964 0.078995
0.957162 0.950055 0.078918
0.964653 0.957309 0.078846
0.971291 0.964713 0.078814
0.977333 0.969912 0.078780
0.982079 0.973065 0.078722
0.983932 0.976249 0.078666
0.985728 0.978950 0.078612
0.987471 0.981076 0.078558
0.989163 0.983210 0.078469
0.070910 0.810368 0.079283
0.070926 0.810789 0.079283
0.070979 0.812302 0.079283
0.071063 0.815088 0.079283
0.071284 0.819254 0.079283
0.071585 0.824343 0.079283
0.072374 0.829648 0.079278
0.073339 0.836083 0.079272
0.075710 0.842443 0.079265
0.081332 0.849797 0.079258
0.097352 0.858157 0.079250
0.134221 0.867525 0.079242
0.182262 0.877790 0.079234
0.278418 0.885416 0.079226
0.401170 0.892143 0.079213
0.528408 0.899364 0.079199
0.638421 0.907064 0.079186
0.723967 0.914884 0.079173
0.794111 0.921895 0.079160
0.851048 0.926551 0.079147
0.886977 0.936038 0.079109
0.916096 0.944569 0.079072
0.934699 0.950913 0.079036
0.949694 0.957450 0.078972
0.957403 0.964168 0.078896
0.964875 0.969417 0.078837
0.971467 0.972316 0.078806
0.977497 0.975261 0.078765
0.982128 0.978018 0.078709
0.983978 0.980139 0.078654
0.985771 0.982144 0.078600
0.987511 0.984164 0.078542
0.989200 0.985624 0.078445
0.070961 0.871963 0.079283
0.070975 0.872215 0.079283
0.071023 0.873121 0.079283
0.071107 0.874788 0.079281
0.071366 0.877276 0.079278
0.071690 0.879720 0.079274
0.072525 0.882730 0.079269
0.073598 0.885843 0.079264
0.076178 0.889177 0.079257
0.082971 0.893020 0.079251
0.099952 0.897375 0.079244
0.138576 0.902237 0.079236
0.187701 0.907601 0.079229
0.285406 0.913336 0.079218
0.411211 0.918891 0.079205
0.538926 0.922893 0.079192
0.643627 0.927586 0.079180
0.728318 0.935349 0.079167
0.796141 0.943098 0.079154
0.852644 0.948436 0.079132
0.888470 0.954005 0.079095
0.916844 0.959792 0.079059
0.935297 0.965785 0.079023
0.949970 0.969797 0.078948
0.957657 0.972419 0.078874
0.965110 0.975099 0.078828
0.971653 0.977691 0.078798
0.977670 0.979712 0.078750
0.982180 0.981570 0.078695
0.984027 0.983452 0.078640
0.985816 0.985195 0.078587
0.987553 0.986083 0.078525
0.989240 0.986906 0.078420
0.071009 0.906085 0.079274
0.071022 0.906215 0.079274
0.071066 0.906682 0.079273
0.071205 0.907540 0.079271
0.071447 0.908820 0.079269
0.071877 0.910545 0.079265
0.072679 0.912696 0.079261
0.073864 0.915022 0.079256
0.076750 0.917765 0.079250
0.083949 0.920929 0.079244
0.102722 0.922754 0.079237
0.142218 0.924482 0.079230
0.193546 0.929562 0.079221
0.292893 0.935117 0.079210
0.421985 0.941139 0.079197
0.550167 0.945622 0.079185
0.649011 0.949906 0.079173
0.732911 0.954447 0.079161
0.798277 0.959236 0.079149
0.854324 0.964260 0.079116
0.890042 0.968781 0.079081
0.917631 0.971034 0.079046
0.935926 0.973364 0.078996
0.950260 0.975765 0.078923
0.957924 0.978006 0.078851
0.965357 0.979804 0.078819
0.971849 0.981501 0.078789
0.977852 0.983230 0.078735
0.982236 0.984966 0.078680
0.984078 0.985868 0.078627
0.985864 0.986636 0.078575
0.987598 0.987551 0.078507
0.989281 0.989041 0.078394
0.071055 0.929605 0.079265
0.071067 0.929728 0.079265
0.071125 0.930169 0.079264
0.071301 0.930979 0.079262
0.071527 0.932189 0.079260
0.072066 0.933819 0.079257
0.072834 0.935884 0.079253
0.074136 0.938396 0.079248
0.077342 0.941362 0.079243
0.085114 0.943866 0.079237
0.105668 0.946273 0.079231
0.146098 0.948960 0.079223
0.199816 0.951926 0.079212
0.300901 0.955164 0.079201
0.433526 0.958671 0.079190
0.562009 0.962440 0.079178
0.654859 0.966463 0.079167
0.737749 0.969285 0.079155
0.800521 0.971144 0.079135
0.856088 0.973091 0.079100
0.891694 0.975122 0.079066
0.918457 0.977214 0.079033
0.936587 0.978924 0.078968
0.950565 0.980409 0.078897
0.958206 0.981934 0.078839
0.965617 0.983499 0.078809
0.972055 0.985036 0.078773
0.978043 0.985852 0.078719
0.982294 0.986559 0.078665
0.984132 0.987295 0.078613
0.985914 0.988681 0.078561
0.987644 0.990083 0.078480
0.989325 0.991276 0.078366
0.071105 0.952818 0.079256
0.071133 0.952889 0.079256
0.071231 0.953146 0.079255
0.071395 0.953617 0.079254
0.071607 0.954320 0.079251
0.072256 0.955267 0.079249
0.072991 0.956467 0.079245
0.074603 0.957925 0.079241
0.078087 0.959646 0.079236
0.086450 0.961632 0.079230
0.108795 0.963883 0.079224
0.150222 0.966398 0.079214
0.207078 0.968643 0.079204
0.309454 0.969896 0.079193
0.445871 0.971253 0.079182
0.569663 0.972709 0.079171
0.659961 0.974261 0.079160
0.742834 0.975907 0.079149
0.802872 0.977539 0.079118
0.857936 0.978954 0.079084
0.893425 0.980205 0.079051
0.919322 0.981507 0.079011
0.937280 0.982857 0.078940
0.950885 0.984250 0.078870
0.958500 0.985401 0.078828
0.965889 0.986034 0.078799
0.972272 0.986676 0.078755
0.978244 0.987400 0.078702
0.982354 0.988672 0.078649
0.984188 0.989967 0.078598
0.985967 0.991123 0.078542
0.987694 0.992053 0.078450
0.989371 0.992992 0.078338
0.071218 0.969326 0.079248
0.071244 0.969353 0.079248
0.071335 0.969452 0.079247
0.071487 0.969634 0.079245
0.071789 0.969905 0.079243
0.072446 0.970270 0.079241
0.073163 0.970733 0.079237
0.075108 0.971295 0.079233
0.078999 0.971958 0.079229
0.088152 0.972722 0.079222
0.112109 0.973588 0.079214
0.154600 0.974556 0.079205
0.215942 0.975623 0.079195
0.318574 0.976789 0.079185
0.457172 0.977865 0.079174
0.575952 0.978918 0.079164
0.665313 0.979871 0.079153
0.748168 0.980883 0.079133
0.805330 0.981950 0.079100
0.859869 0.983071 0.079068
0.895236 0.984243 0.079036
0.920227 0.985263 0.078980
0.938004 0.985852 0.078911
0.951219 0.986409 0.078846
