velvia/Velvia50_Classic_Punchy.cube
TITLE "Velvia 50 Classic Punchy"
# Adobe RGB in/out. REPLACES AgX. Velvia 50 Classic Punchy.
LUT_3D_SIZE 5
DOMAIN_MIN 0.0 0.0 0.0
DOMAIN_MAX 1.0 1.0 1.0
0.093920 0.090395 0.084157
0.102047 0.090395 0.084157
0.518166 0.103408 0.084157
0.823063 0.376223 0.084157
0.926913 0.648238 0.084564
0.093920 0.090462 0.084157
0.103471 0.092706 0.084157
0.521003 0.171277 0.084157
0.823965 0.473988 0.084157
0.927074 0.689890 0.084589
0.093920 0.376470 0.084157
0.110117 0.413568 0.084157
0.531130 0.528651 0.084157
0.827189 0.671025 0.084157
0.927651 0.803041 0.084679
0.093920 0.749576 0.084157
0.126803 0.762082 0.084157
0.549507 0.800504 0.084157
0.833053 0.849043 0.084157
0.928704 0.891712 0.085063
0.096635 0.899025 0.084157
0.176766 0.901347 0.084157
0.576417 0.909384 0.084157
0.841666 0.923073 0.084372
0.930258 0.934792 0.086092
0.093920 0.090395 0.086024
0.102047 0.090395 0.086413
0.518166 0.103906 0.088414
0.823063 0.377523 0.094268
0.926913 0.648822 0.113065
0.093920 0.090467 0.086139
0.103471 0.092826 0.086589
0.521003 0.172842 0.088680
0.823965 0.475123 0.094741
0.927074 0.690446 0.113985
0.093920 0.377770 0.086717
0.110117 0.415349 0.087315
0.531130 0.529557 0.089619
0.827189 0.671593 0.096426
0.927651 0.803303 0.117727
0.093920 0.749998 0.087892
0.126803 0.762495 0.088659
0.549507 0.800706 0.091203
0.833053 0.849275 0.099920
0.928704 0.891794 0.124022
0.096635 0.899103 0.090466
0.176766 0.901424 0.091115
0.576417 0.909457 0.095294
0.841666 0.923138 0.106748
0.930258 0.934805 0.132698
0.093920 0.090395 0.546622
0.102047 0.090395 0.551673
0.518166 0.105905 0.567625
0.823063 0.382199 0.591092
0.926913 0.650914 0.617448
0.093920 0.090624 0.548422
0.103471 0.093405 0.553224
0.521003 0.178459 0.569178
0.823965 0.478332 0.592035
0.927074 0.692442 0.618368
0.093920 0.382446 0.554356
0.110117 0.421772 0.558796
0.531130 0.532808 0.574757
0.827189 0.673632 0.595413
0.927651 0.804241 0.621666
0.093920 0.751509 0.564612
0.126803 0.763978 0.569055
0.549507 0.801430 0.583327
0.833053 0.850106 0.601602
0.928704 0.892090 0.628103
0.096635 0.899383 0.579937
0.176766 0.901700 0.582918
0.576417 0.909717 0.593139
0.841666 0.923375 0.610795
0.930258 0.934854 0.639996
0.093920 0.090395 0.881139
0.102047 0.090395 0.881652
0.518166 0.109857 0.883483
0.823063 0.390822 0.886809
0.926913 0.654751 0.891683
0.093920 0.090997 0.881318
0.103471 0.094811 0.881830
0.521003 0.187660 0.883660
0.823965 0.483240 0.886983
0.927074 0.696104 0.891853
0.093920 0.391070 0.881961
0.110117 0.433683 0.882472
0.531130 0.538778 0.884295
0.827189 0.677371 0.887608
0.927651 0.805960 0.892463
0.093920 0.754282 0.883138
0.126803 0.766697 0.883646
0.549507 0.803112 0.885459
0.833053 0.851631 0.888753
0.928704 0.892632 0.893581
0.096635 0.899898 0.884887
0.176766 0.902206 0.885390
0.576417 0.910195 0.887187
0.841666 0.923809 0.890453
0.930258 0.934943 0.895241
0.093920 0.090395 0.945040
0.102047 0.090395 0.945135
0.518166 0.115338 0.945476
0.823063 0.402749 0.946097
0.926913 0.660458 0.947015
0.093920 0.091823 0.945073
0.103471 0.096803 0.945169
0.521003 0.204965 0.945509
0.823965 0.490353 0.946130
0.927074 0.701554 0.947047
0.093920 0.402963 0.945193
0.110117 0.449166 0.945288
0.531130 0.547680 0.945627
0.827189 0.682934 0.946247
0.927651 0.808518 0.947162
0.093920 0.758406 0.945412
0.126803 0.770745 0.945506
0.549507 0.805689 0.945844
0.833053 0.853901 0.946462
0.928704 0.893439 0.947374
0.096635 0.900664 0.945738
0.176766 0.902959 0.945832
0.576417 0.910907 0.946168
0.841666 0.924456 0.946782
0.930258 0.935076 0.947690
