velvia/Velvia50_Modern_ExtraSoft.cube
TITLE "Velvia 50 Modern ExtraSoft"
# Adobe RGB in/out. REPLACES AgX. Velvia 50 Modern ExtraSoft.
LUT_3D_SIZE 5
DOMAIN_MIN 0.0 0.0 0.0
DOMAIN_MAX 1.0 1.0 1.0
0.065698 0.081183 0.086406
0.298862 0.081405 0.086406
0.876760 0.367852 0.086406
0.971937 0.729604 0.086512
0.984661 0.886281 0.087870
0.065698 0.151440 0.086406
0.101159 0.099453 0.086406
0.776448 0.426231 0.086406
0.959827 0.753043 0.086477
0.983281 0.897255 0.087483
0.065698 0.787561 0.086406
0.184539 0.729901 0.086406
0.672795 0.703538 0.086406
0.930012 0.830829 0.086429
0.979979 0.923718 0.086873
0.066288 0.941457 0.086406
0.205324 0.936107 0.086406
0.688076 0.928471 0.086406
0.915646 0.934588 0.086441
0.975530 0.953098 0.086738
0.069719 0.969122 0.086406
0.204751 0.968375 0.086406
0.664966 0.967389 0.086406
0.908497 0.969259 0.086474
0.967621 0.973966 0.086809
0.065698 0.081183 0.263314
0.321116 0.081619 0.283336
0.864767 0.349310 0.210523
0.965450 0.709192 0.209615
0.984134 0.877199 0.243794
0.065698 0.095029 0.116674
0.069331 0.082372 0.086860
0.729147 0.368267 0.103723
0.956311 0.728328 0.144138
0.982749 0.887892 0.204550
0.065698 0.735169 0.124102
0.144638 0.676001 0.101447
0.635604 0.652904 0.090598
0.921924 0.813568 0.101884
0.979492 0.918711 0.137143
0.066073 0.936165 0.104522
0.191167 0.931098 0.101773
0.673565 0.920982 0.097141
0.911208 0.930914 0.098852
0.974366 0.952069 0.115710
0.069497 0.968111 0.095217
0.200278 0.967425 0.095150
0.661097 0.966598 0.096008
0.907327 0.968714 0.099988
0.966988 0.973888 0.113243
0.065698 0.081183 0.954652
0.321116 0.082345 0.955367
0.910692 0.477327 0.954302
0.970464 0.730639 0.904871
0.983898 0.874793 0.860782
0.065698 0.151789 0.947841
0.228251 0.226271 0.921810
0.805842 0.484552 0.877650
0.957821 0.741325 0.852829
0.982424 0.883617 0.836670
0.065698 0.644616 0.822616
0.102839 0.604723 0.767920
0.542048 0.553685 0.607761
0.914578 0.798569 0.717012
0.978919 0.913327 0.770347
0.065751 0.921277 0.802252
0.153358 0.915028 0.776914
0.647634 0.906359 0.704919
0.902008 0.919544 0.667059
0.972113 0.950154 0.700093
0.068916 0.965502 0.719872
0.182490 0.965022 0.709912
0.651669 0.964702 0.686232
0.904508 0.967443 0.672339
0.966065 0.973720 0.682379
0.065698 0.081183 0.987900
0.321116 0.084703 0.987916
0.916208 0.515020 0.988035
0.978203 0.786146 0.985070
0.984509 0.889413 0.978285
0.065698 0.216256 0.987906
0.340870 0.373979 0.987926
0.887578 0.639997 0.987062
0.964483 0.796383 0.981021
0.982993 0.897260 0.972527
0.065698 0.657616 0.974077
0.128808 0.662514 0.969371
0.675409 0.717974 0.962878
0.927677 0.830951 0.961301
0.979192 0.917555 0.960655
0.065729 0.903639 0.962343
0.131731 0.900504 0.960027
0.629409 0.894157 0.949272
0.884758 0.907368 0.930778
0.970162 0.949411 0.943996
0.068308 0.962358 0.953856
0.167044 0.962195 0.952151
0.641102 0.962653 0.944855
0.901752 0.966184 0.938089
0.965659 0.973601 0.937785
0.065698 0.081186 0.991092
0.321116 0.095174 0.991096
0.916208 0.551315 0.991111
0.979754 0.825002 0.990648
0.985320 0.905638 0.989373
0.065698 0.268347 0.991094
0.340870 0.421110 0.991098
0.913971 0.724123 0.991054
0.975001 0.835872 0.990291
0.983860 0.910395 0.988509
0.065698 0.748735 0.989937
0.195746 0.764748 0.989727
0.772115 0.811085 0.988685
0.946201 0.870875 0.987664
0.980037 0.928582 0.987032
0.065726 0.899622 0.986846
0.128441 0.900617 0.986170
0.643352 0.907058 0.984448
0.907050 0.929262 0.983148
0.972694 0.951476 0.982721
0.067771 0.959685 0.983437
0.152722 0.959875 0.983104
0.632903 0.961236 0.982007
0.899093 0.965593 0.980982
0.965483 0.973643 0.980861
