velvia/Velvia50_Classic_IlfochromeM.cube
TITLE "Velvia 50 Classic IlfochromeM"
# Adobe RGB in/out. REPLACES AgX. Velvia 50 Classic IlfochromeM.
LUT_3D_SIZE 33
DOMAIN_MIN 0.0 0.0 0.0
DOMAIN_MAX 1.0 1.0 1.0
0.220287 0.179957 0.174424
0.220287 0.179957 0.174424
0.220287 0.179957 0.174424
0.220404 0.179957 0.174424
0.220855 0.179957 0.174424
0.222386 0.179957 0.174424
0.224326 0.180518 0.174424
0.229113 0.181648 0.174424
0.237652 0.183240 0.174424
0.251254 0.185526 0.174424
0.274428 0.188747 0.174424
0.304269 0.193027 0.174424
0.338089 0.199330 0.174424
0.375760 0.205392 0.174424
0.419776 0.214850 0.174557
0.461542 0.224033 0.174978
0.502477 0.239819 0.175372
0.540304 0.256263 0.175744
0.572703 0.275917 0.176130
0.605136 0.297385 0.176663
0.637601 0.318534 0.177171
0.668729 0.341143 0.177655
0.695593 0.364214 0.178117
0.721919 0.388564 0.179104
0.747185 0.415237 0.180384
0.768123 0.439177 0.181655
0.786184 0.461998 0.182886
0.802199 0.485077 0.184078
0.815996 0.508407 0.185235
0.826637 0.530963 0.186357
0.837049 0.553345 0.188445
0.847245 0.575891 0.190489
0.857235 0.598596 0.192467
0.220287 0.179957 0.174424
0.220287 0.179957 0.174424
0.220287 0.179957 0.174424
0.220406 0.179957 0.174424
0.220861 0.179957 0.174424
0.222389 0.179970 0.174424
0.224332 0.180595 0.174424
0.229128 0.181828 0.174424
0.237664 0.183375 0.174424
0.251272 0.185792 0.174424
0.274454 0.188961 0.174424
0.304301 0.193431 0.174424
0.338120 0.199674 0.174424
0.375795 0.205883 0.174424
0.419809 0.215285 0.174560
0.461570 0.224425 0.174981
0.502503 0.240476 0.175375
0.540323 0.256860 0.175746
0.572721 0.276658 0.176133
0.605153 0.298083 0.176666
0.637617 0.319167 0.177173
0.668741 0.341846 0.177657
0.695604 0.364822 0.178119
0.721929 0.389245 0.179109
0.747194 0.415899 0.180389
0.768130 0.439707 0.181659
0.786190 0.462510 0.182890
0.802205 0.485572 0.184082
0.815999 0.508885 0.185238
0.826640 0.531399 0.186361
0.837052 0.553767 0.188451
0.847247 0.576300 0.190494
0.857237 0.598992 0.192472
0.220287 0.179957 0.174424
0.220287 0.179957 0.174424
0.220287 0.179957 0.174424
0.220414 0.179957 0.174424
0.220881 0.179957 0.174424
0.222402 0.180321 0.174424
0.224355 0.180885 0.174424
0.229182 0.182429 0.174424
0.237706 0.183836 0.174424
0.251335 0.186709 0.174424
0.274548 0.189709 0.174424
0.304414 0.194849 0.174424
0.338232 0.200884 0.174424
0.375920 0.207621 0.174424
0.419927 0.216829 0.174571
0.461668 0.226692 0.174990
0.502596 0.242821 0.175383
0.540391 0.258992 0.175753
0.572784 0.279307 0.176142
0.605212 0.300585 0.176674
0.637673 0.321433 0.177181
0.668785 0.344366 0.177664
0.695645 0.367001 0.178126
0.721966 0.391686 0.179126
0.747229 0.418275 0.180404
0.768156 0.441608 0.181674
0.786210 0.464345 0.182904
0.802224 0.487345 0.184095
0.816012 0.510601 0.185250
0.826652 0.532964 0.186382
0.837063 0.555281 0.188471
0.847258 0.577765 0.190513
0.857247 0.600413 0.192489
0.220287 0.179957 0.174424
0.220287 0.179957 0.174424
0.220287 0.179957 0.174424
0.220427 0.180042 0.174424
0.220918 0.180418 0.174424
0.222424 0.180821 0.174424
0.224396 0.182120 0.174424
0.229282 0.183389 0.174424
0.237783 0.185383 0.174424
0.251451 0.188262 0.174424
0.274722 0.191403 0.174424
0.304622 0.197329 0.174424
0.338439 0.203022 0.174424
0.376149 0.210721 0.174424
0.420145 0.219597 0.174590
0.461849 0.231217 0.175006
0.502767 0.247077 0.175397
0.540515 0.263572 0.175765
0.572900 0.284145 0.176160
0.605321 0.305156 0.176690
0.637776 0.325574 0.177195
0.668865 0.348979 0.177677
0.695721 0.370989 0.178137
0.722034 0.396161 0.179158
0.747293 0.422275 0.180434
0.768202 0.445091 0.181702
0.786248 0.467708 0.182929
0.802259 0.490596 0.184118
0.816035 0.513669 0.185272
0.826673 0.535833 0.186422
0.837083 0.558057 0.188507
0.847277 0.580454 0.190547
0.857265 0.603020 0.192519
0.220287 0.180519 0.174424
0.220287 0.180551 0.174424
0.220287 0.180660 0.174424
0.220446 0.180886 0.174424
0.220972 0.181675 0.174424
0.222458 0.182589 0.174424
0.224456 0.183570 0.174424
0.229430 0.185326 0.174424
0.237898 0.187844 0.174424
0.251624 0.190324 0.174424
0.274981 0.195382 0.174424
0.304932 0.200764 0.174424
0.338749 0.206593 0.174424
0.376492 0.215136 0.174424
0.420470 0.223573 0.174618
0.462120 0.237824 0.175031
0.503022 0.253310 0.175418
0.540701 0.270853 0.175784
0.573075 0.291247 0.176187
0.605485 0.311730 0.176714
0.637929 0.332208 0.177216
0.668985 0.355257 0.177696
0.695834 0.377186 0.178155
0.722135 0.402817 0.179205
0.747389 0.428081 0.180478
0.768271 0.450265 0.181743
0.786304 0.472707 0.182967
0.802311 0.495432 0.184154
0.816069 0.518124 0.185305
0.826705 0.540101 0.186480
0.837113 0.562189 0.188562
0.847305 0.584458 0.190599
0.857291 0.606904 0.192565
0.220287 0.182472 0.174424
0.220287 0.182536 0.174424
0.220287 0.182760 0.174424
0.220471 0.183151 0.174424
0.221044 0.183689 0.174424
0.222503 0.184742 0.174424
0.224538 0.186590 0.174424
0.229630 0.188576 0.174424
0.238053 0.190638 0.174424
0.251858 0.195364 0.174424
0.275331 0.200176 0.174424
0.305352 0.204987 0.174424
0.339166 0.212813 0.174424
0.376954 0.220749 0.174424
0.420909 0.231887 0.174656
0.462486 0.246524 0.175063
0.503368 0.261543 0.175447
0.540953 0.280752 0.175809
0.573310 0.300617 0.176223
0.605705 0.320238 0.176746
0.638137 0.341658 0.177245
0.669148 0.363454 0.177721
0.695986 0.386349 0.178178
0.722272 0.411740 0.179269
0.747518 0.435291 0.180539
0.768365 0.457192 0.181799
0.786379 0.479403 0.183019
0.802382 0.501914 0.184201
0.816115 0.524098 0.185349
0.826748 0.545827 0.186559
0.837154 0.567734 0.188636
0.847343 0.589834 0.190668
0.857327 0.612120 0.192627
0.220287 0.185534 0.174424
0.220287 0.185643 0.174424
0.220287 0.186029 0.174424
0.220501 0.186715 0.174424
0.221133 0.187686 0.174424
0.222560 0.188905 0.174424
0.224641 0.190327 0.174424
0.229882 0.193467 0.174424
0.238248 0.197324 0.174424
0.252154 0.201370 0.174424
0.275775 0.205804 0.174424
0.305885 0.212873 0.174424
0.339697 0.220081 0.174424
0.377543 0.229550 0.174424
0.421468 0.243131 0.174704
0.462950 0.257063 0.175105
0.503807 0.274109 0.175483
0.541272 0.292989 0.175841
0.573608 0.312079 0.176268
0.605986 0.331210 0.176786
0.638401 0.353175 0.177281
0.669355 0.373714 0.177754
0.696180 0.397876 0.178207
0.722447 0.422584 0.179350
0.747683 0.444296 0.180615
0.768484 0.465897 0.181869
0.786475 0.487827 0.183084
0.802472 0.510074 0.184262
0.816173 0.531569 0.185405
0.826803 0.553039 0.186658
0.837205 0.574724 0.188730
0.847392 0.596615 0.190756
0.857373 0.618703 0.192705
0.220287 0.190265 0.174424
0.220287 0.190345 0.174424
0.220287 0.190629 0.174424
0.220536 0.191729 0.174424
0.221238 0.193394 0.174424
0.222627 0.195538 0.174424
0.224793 0.198099 0.174424
0.230187 0.201017 0.174424
0.238486 0.204228 0.174424
0.252515 0.209326 0.174424
0.276316 0.215357 0.174424
0.306535 0.221664 0.174424
0.340344 0.231000 0.174424
0.378261 0.243344 0.174424
0.422150 0.256168 0.174761
0.463517 0.271609 0.175154
0.504343 0.289285 0.175526
0.541663 0.307423 0.175879
0.573973 0.325222 0.176322
0.606328 0.345862 0.176835
0.638723 0.365907 0.177325
0.669607 0.387750 0.177794
0.696417 0.411776 0.178243
0.722660 0.434242 0.179448
0.747883 0.455126 0.180708
0.768630 0.476379 0.181954
0.786592 0.497982 0.183163
0.802582 0.519541 0.184335
0.816244 0.540557 0.185473
0.826870 0.561750 0.186780
0.837268 0.583172 0.188844
0.847451 0.604815 0.190864
0.857429 0.626669 0.192801
0.220287 0.199349 0.174424
0.220287 0.199490 0.174424
0.220287 0.199993 0.174424
0.220575 0.200902 0.174424
0.221359 0.202224 0.174424
0.222706 0.203946 0.174424
0.224980 0.206614 0.174424
0.230546 0.210631 0.174424
0.238766 0.215143 0.174424
0.253025 0.220091 0.174424
0.276957 0.225972 0.174424
0.307307 0.236225 0.174424
0.341111 0.247212 0.174424
0.379112 0.258674 0.174424
0.422958 0.273389 0.174827
0.464190 0.289664 0.175212
0.504979 0.306500 0.175577
0.542125 0.323192 0.175924
0.574406 0.342243 0.176386
0.606734 0.361579 0.176892
0.639106 0.381547 0.177376
0.669906 0.404400 0.177840
0.696698 0.427111 0.178285
0.722912 0.447282 0.179564
0.748121 0.467753 0.180817
0.768802 0.488616 0.182055
0.786731 0.509851 0.183256
0.802712 0.530456 0.184422
0.816329 0.551074 0.185554
0.826949 0.571951 0.186924
0.837343 0.593075 0.188979
0.847521 0.614436 0.190991
0.857495 0.634834 0.192914
0.220287 0.210195 0.174424
0.220287 0.210384 0.174424
0.220299 0.211059 0.174424
0.220617 0.212288 0.174424
0.221494 0.214091 0.174424
0.222794 0.216466 0.174424
0.225194 0.219392 0.174424
0.230958 0.222832 0.174424
0.239378 0.228385 0.174424
0.253899 0.236300 0.174424
0.277698 0.245073 0.174424
0.308200 0.254585 0.174424
0.342001 0.265677 0.174424
0.380101 0.279460 0.174507
0.423897 0.294172 0.174902
0.464971 0.309534 0.175277
0.505717 0.324848 0.175634
0.542663 0.342766 0.175975
0.574908 0.360860 0.176459
0.607206 0.379405 0.176957
0.639550 0.400990 0.177435
0.670254 0.422963 0.177893
0.697025 0.442518 0.178424
0.723206 0.462106 0.179697
0.748398 0.482130 0.180943
0.769003 0.502569 0.182172
0.786892 0.522853 0.183364
0.802864 0.542843 0.184522
0.816427 0.563094 0.185647
0.827042 0.583622 0.187090
0.837429 0.604416 0.189135
0.847603 0.625463 0.191138
0.857573 0.643090 0.193045
0.220287 0.224068 0.174424
0.220287 0.224229 0.174424
0.220374 0.224871 0.174424
0.220662 0.226752 0.174424
0.221641 0.229536 0.174424
0.222893 0.233244 0.174424
0.225433 0.237876 0.174424
0.231422 0.243448 0.174424
0.240053 0.249905 0.174424
0.254887 0.257099 0.174424
0.278541 0.266226 0.174424
0.309219 0.277421 0.174424
0.343016 0.289688 0.174424
0.381228 0.302746 0.174602
0.424969 0.316240 0.174985
0.465863 0.330466 0.175350
0.506559 0.347474 0.175699
0.543276 0.363808 0.176032
0.575482 0.381403 0.176541
0.607744 0.401639 0.177031
0.640057 0.422375 0.177501
0.670651 0.440944 0.177954
0.697398 0.459553 0.178588
0.723541 0.478645 0.179848
0.748714 0.498198 0.181086
0.769231 0.517892 0.182304
0.787077 0.537183 0.183486
0.803037 0.556725 0.184635
0.816540 0.576580 0.185753
0.827147 0.596733 0.187279
0.837528 0.617169 0.189313
0.847696 0.636262 0.191306
0.857661 0.652353 0.193194
0.220287 0.248139 0.174424
0.220287 0.248399 0.174424
0.220448 0.249332 0.174424
0.220709 0.251039 0.174424
0.221799 0.253571 0.174424
0.223000 0.256857 0.174424
0.225697 0.261170 0.174424
0.231938 0.267438 0.174424
0.240805 0.274931 0.174424
0.255980 0.283563 0.174424
0.279612 0.293170 0.174424
0.310364 0.303716 0.174424
0.344157 0.314857 0.174424
0.382498 0.326599 0.174706
0.426175 0.340835 0.175076
0.466866 0.355709 0.175430
0.507508 0.370407 0.175770
0.543966 0.387559 0.176131
0.576128 0.406384 0.176631
0.608350 0.425398 0.177112
0.640628 0.442622 0.177575
0.671098 0.460166 0.178021
0.697818 0.478242 0.178771
0.723918 0.496825 0.180016
0.749070 0.515705 0.181245
0.769489 0.534188 0.182451
0.787284 0.552943 0.183623
0.803232 0.572049 0.184762
0.816666 0.591487 0.185871
0.827266 0.611242 0.187491
0.837640 0.631189 0.189512
0.847801 0.646841 0.191493
0.857760 0.662591 0.193361
0.220287 0.276016 0.174424
0.220339 0.276320 0.174424
0.220521 0.277408 0.174424
0.220757 0.279404 0.174424
0.221967 0.282374 0.174424
0.223116 0.286359 0.174424
0.225985 0.291334 0.174424
0.232505 0.297318 0.174424
0.241636 0.304330 0.174424
0.257191 0.312146 0.174424
0.280930 0.320674 0.174424
0.311636 0.330364 0.174424
0.345427 0.342298 0.174449
0.383912 0.354753 0.174818
0.427519 0.367252 0.175174
0.467984 0.381433 0.175517
0.508565 0.397833 0.175847
0.544735 0.415205 0.176241
0.576847 0.431754 0.176730
0.609025 0.447556 0.177202
0.641264 0.463967 0.177656
0.671595 0.480958 0.178094
0.698285 0.498499 0.178973
0.724339 0.516348 0.180201
0.749466 0.533924 0.181421
0.769777 0.551819 0.182614
0.787515 0.570103 0.183774
0.803449 0.588758 0.184903
0.816807 0.607764 0.186002
0.827398 0.627103 0.187725
0.837764 0.643097 0.189733
0.847918 0.658373 0.191701
0.857870 0.673765 0.193546
0.220381 0.308307 0.174424
0.220434 0.308578 0.174424
0.220593 0.309530 0.174424
0.220984 0.311276 0.174424
0.222142 0.313875 0.174424
0.223251 0.317363 0.174424
0.226294 0.321762 0.174424
0.233119 0.327081 0.174424
0.242542 0.334078 0.174424
0.258519 0.342362 0.174424
0.282380 0.351569 0.174424
0.313037 0.360894 0.174424
0.346862 0.371118 0.174583
0.385472 0.383339 0.174936
0.429002 0.397225 0.175279
0.469217 0.412131 0.175610
0.509731 0.427112 0.175930
0.545583 0.441121 0.176360
0.577640 0.455701 0.176838
0.609771 0.470931 0.177299
0.641966 0.486782 0.177744
0.672145 0.503225 0.178174
0.698802 0.519839 0.179192
0.724803 0.536419 0.180403
0.749904 0.553390 0.181613
0.770094 0.570790 0.182792
0.787771 0.588597 0.183939
0.803689 0.606791 0.185056
0.816963 0.625352 0.186145
0.827544 0.641179 0.187982
0.837902 0.655922 0.189975
0.848048 0.670811 0.191930
0.857992 0.685832 0.193750
0.220478 0.341275 0.174424
0.220524 0.341563 0.174424
0.220663 0.342597 0.174424
0.221243 0.344495 0.174424
0.222324 0.347326 0.174424
0.223595 0.351047 0.174424
0.226625 0.355366 0.174424
0.233780 0.360597 0.174424
0.243524 0.366745 0.174424
0.259965 0.373809 0.174424
0.283961 0.382834 0.174424
0.314566 0.393132 0.174424
0.348468 0.404489 0.174724
0.387179 0.416889 0.175061
0.430625 0.429110 0.175389
0.470566 0.440996 0.175708
0.511008 0.453623 0.176018
0.546511 0.466962 0.176487
0.578509 0.480985 0.176952
0.610587 0.495663 0.177403
0.642735 0.510968 0.177839
0.672747 0.526155 0.178260
0.699367 0.541663 0.179429
0.725312 0.557660 0.180627
0.750384 0.574122 0.181821
0.770441 0.591027 0.182985
0.788050 0.608354 0.184118
0.803952 0.626083 0.185223
0.817133 0.641125 0.186301
0.827704 0.655281 0.188262
0.838052 0.669613 0.190239
0.848189 0.684105 0.192175
0.858126 0.698747 0.193990
0.220569 0.375618 0.174424
0.220608 0.375901 0.174424
0.220731 0.376916 0.174424
0.221503 0.378781 0.174424
0.222511 0.381564 0.174424
0.223956 0.385312 0.174424
0.226974 0.390057 0.174424
0.234486 0.395822 0.174424
0.244578 0.402622 0.174424
0.261526 0.410464 0.174424
0.285673 0.419332 0.174424
0.316226 0.428226 0.174544
0.350212 0.437286 0.174869
0.389034 0.447121 0.175190
0.432390 0.457735 0.175505
0.472034 0.469105 0.175812
0.512397 0.481207 0.176156
0.547520 0.494017 0.176622
0.579454 0.507508 0.177074
0.611475 0.521192 0.177513
0.643571 0.535154 0.177939
0.673402 0.549615 0.178480
0.699983 0.564599 0.179683
0.725865 0.580083 0.180868
0.750906 0.596043 0.182045
0.770819 0.612458 0.183192
0.788355 0.629307 0.184311
0.804238 0.642950 0.185403
0.817319 0.656471 0.186569
0.827878 0.670197 0.188564
0.838216 0.684114 0.190523
0.848344 0.698207 0.192429
0.858272 0.712463 0.194340
0.220654 0.415403 0.174424
0.220688 0.415674 0.174424
0.220931 0.416649 0.174424
0.221762 0.418439 0.174424
0.222701 0.420912 0.174424
0.224330 0.424138 0.174424
0.227597 0.428222 0.174424
0.235234 0.432823 0.174424
0.245704 0.438211 0.174424
0.263201 0.444413 0.174424
0.287516 0.451427 0.174424
0.318014 0.459244 0.174711
0.352094 0.467853 0.175019
0.391040 0.477240 0.175324
0.434282 0.487387 0.175625
0.473620 0.498276 0.175920
0.513898 0.509886 0.176312
0.548611 0.521705 0.176763
0.580476 0.533976 0.177202
0.612435 0.546800 0.177630
0.644476 0.560198 0.178046
0.674110 0.574148 0.178773
0.700649 0.588626 0.179954
0.726463 0.603610 0.181126
0.751470 0.619079 0.182283
0.771228 0.634054 0.183414
0.788684 0.646647 0.184518
0.804548 0.659492 0.185596
0.817520 0.672571 0.186914
0.828067 0.685870 0.188889
0.838393 0.699372 0.190829
0.848511 0.713064 0.192701
0.858429 0.723648 0.194716
0.220733 0.450704 0.174424
0.220763 0.450918 0.174424
0.221262 0.451684 0.174424
0.222020 0.453091 0.174424
0.222895 0.455190 0.174424
0.224730 0.458015 0.174424
0.228587 0.461591 0.174424
0.236022 0.465934 0.174424
0.246898 0.471052 0.174424
0.264989 0.476951 0.174424
0.289592 0.483629 0.174592
0.319932 0.491082 0.174881
0.354116 0.499300 0.175172
0.393196 0.508274 0.175462
0.436089 0.517705 0.175749
0.475326 0.527621 0.176032
0.515513 0.538112 0.176475
0.549783 0.549237 0.176911
0.581575 0.560978 0.177337
0.613467 0.573312 0.177753
0.645450 0.586220 0.178158
0.674872 0.599679 0.179082
0.701365 0.613668 0.180240
0.727108 0.628168 0.181398
0.752078 0.640328 0.182536
0.771669 0.652185 0.183649
0.789039 0.664321 0.184737
0.804881 0.676720 0.185801
0.817736 0.689366 0.187281
0.828269 0.702242 0.189235
0.838584 0.715076 0.191156
0.848690 0.724898 0.192993
0.858599 0.734812 0.195119
0.220993 0.485238 0.174424
0.221131 0.485441 0.174424
0.221582 0.486168 0.174424
0.222275 0.487504 0.174424
0.223090 0.489498 0.174424
0.225242 0.492184 0.174424
0.229617 0.495585 0.174424
0.236847 0.499717 0.174424
0.248158 0.504592 0.174424
0.266888 0.510215 0.174518
0.291824 0.516371 0.174782
0.321978 0.523143 0.175053
0.356277 0.530574 0.175327
0.395503 0.538658 0.175602
0.438023 0.547413 0.175876
0.477151 0.556824 0.176215
0.517243 0.566876 0.176643
0.551039 0.577552 0.177064
0.582751 0.588835 0.177477
0.614573 0.600706 0.177881
0.646492 0.613146 0.178276
0.675688 0.626136 0.179407
0.702132 0.637634 0.180543
0.727798 0.648411 0.181685
0.752729 0.659512 0.182803
0.772140 0.670918 0.183898
0.789419 0.682613 0.184969
0.805238 0.694579 0.186018
0.817968 0.706800 0.187670
0.828487 0.717982 0.189602
0.838788 0.727344 0.191503
0.848883 0.736820 0.193302
0.858781 0.746399 0.195548
0.221363 0.519937 0.174424
0.221486 0.520120 0.174424
0.221893 0.520779 0.174424
0.222526 0.521989 0.174424
0.223377 0.523796 0.174424
0.225766 0.526229 0.174424
0.230683 0.529283 0.174424
0.237708 0.532993 0.174424
0.249481 0.537371 0.174490
0.268896 0.542422 0.174725
0.294193 0.548147 0.174971
0.324422 0.554545 0.175226
0.358578 0.561611 0.175484
0.397963 0.569337 0.175745
0.440084 0.577715 0.176006
0.479098 0.586732 0.176405
0.519087 0.596375 0.176816
0.552377 0.606631 0.177223
0.584005 0.617483 0.177622
0.615753 0.628915 0.178015
0.647605 0.638600 0.178618
0.676558 0.648231 0.179747
0.702951 0.658224 0.180867
0.728534 0.668561 0.181986
0.753424 0.679225 0.183084
0.772644 0.690199 0.184159
0.789824 0.701466 0.185213
0.805619 0.713012 0.186247
0.818215 0.722089 0.188082
0.828719 0.730969 0.189990
0.839007 0.739984 0.191870
0.849089 0.749120 0.193630
0.858975 0.757321 0.196002
0.221715 0.553519 0.174424
0.221825 0.553692 0.174424
0.222192 0.554312 0.174424
0.222774 0.555453 0.174424
0.223899 0.557155 0.174424
0.226299 0.559449 0.174424
0.231782 0.562355 0.174424
0.238601 0.565890 0.174511
0.250866 0.570063 0.174713
0.271008 0.574880 0.174930
0.296698 0.580346 0.175160
0.327025 0.586459 0.175399
0.361018 0.593217 0.175643
0.400575 0.600614 0.175890
0.442272 0.608643 0.176201
0.481165 0.617293 0.176599
0.521047 0.626556 0.176994
0.553798 0.635138 0.177386
0.585338 0.643176 0.177772
0.617007 0.651622 0.178152
0.648788 0.660459 0.178999
0.677483 0.669673 0.180100
0.703822 0.679247 0.181205
0.729317 0.689166 0.182301
0.754164 0.699413 0.183377
0.773179 0.709972 0.184433
0.790255 0.719142 0.185470
0.806025 0.727359 0.186602
0.818478 0.735742 0.188514
0.828966 0.744277 0.190399
0.839239 0.752840 0.192248
0.849308 0.760124 0.193994
0.859182 0.767492 0.196482
0.222050 0.587408 0.174424
0.222149 0.587572 0.174424
0.222483 0.588164 0.174424
0.223017 0.589251 0.174424
0.224421 0.590875 0.174424
0.226838 0.593063 0.174434
0.232910 0.595836 0.174578
0.240183 0.599211 0.174745
0.252308 0.603197 0.174931
0.273201 0.607802 0.175133
0.299337 0.613030 0.175348
0.329659 0.618881 0.175571
0.363596 0.625355 0.175802
0.403340 0.632076 0.176036
0.444588 0.638015 0.176416
0.483354 0.644403 0.176796
0.523122 0.651228 0.177176
0.555303 0.658479 0.177553
0.586749 0.666143 0.177926
0.618335 0.674207 0.178306
0.650041 0.682657 0.179393
0.678464 0.691478 0.180467
0.704744 0.700657 0.181556
0.730147 0.710178 0.182628
0.754818 0.718549 0.183682
0.773747 0.726050 0.184719
0.790712 0.733744 0.185737
0.806454 0.741619 0.187083
0.818757 0.749664 0.188968
0.829228 0.756906 0.190828
0.839485 0.763804 0.192631
0.849540 0.770802 0.194524
0.859401 0.777891 0.196986
0.222370 0.621650 0.174424
0.222460 0.621808 0.174424
0.222764 0.622373 0.174439
0.223297 0.623412 0.174496
0.225022 0.624963 0.174579
0.227708 0.627055 0.174687
0.234064 0.629707 0.174820
0.241946 0.632453 0.174973
0.254566 0.635395 0.175146
0.275493 0.638791 0.175333
0.302109 0.642642 0.175534
0.332431 0.646948 0.175744
0.366313 0.651704 0.175961
0.406257 0.656908 0.176272
0.447030 0.662552 0.176633
0.485664 0.668628 0.176997
0.525314 0.675129 0.177361
0.556891 0.682042 0.177724
0.588239 0.689359 0.178084
0.619737 0.697066 0.178743
0.651364 0.705152 0.179799
0.679499 0.713604 0.180857
0.705719 0.720309 0.181919
0.731024 0.727054 0.182967
0.755457 0.734017 0.183999
0.774346 0.741187 0.185015
0.791195 0.748552 0.186016
0.806908 0.755444 0.187583
0.819051 0.761826 0.189441
0.829504 0.768330 0.191275
0.839745 0.774948 0.193031
0.849785 0.781591 0.195078
0.859633 0.787863 0.197515
0.222676 0.650360 0.174669
0.222758 0.650475 0.174677
0.223035 0.650889 0.174706
0.223919 0.651650 0.174758
0.225693 0.652787 0.174833
0.229129 0.654318 0.174933
0.235241 0.656259 0.175054
0.243761 0.658619 0.175196
0.257284 0.661407 0.175356
0.277882 0.664627 0.175530
0.305011 0.668280 0.175717
0.335339 0.672367 0.175915
0.369167 0.676887 0.176170
0.409328 0.681836 0.176508
0.449600 0.687208 0.176851
0.488096 0.692997 0.177199
0.527501 0.699197 0.177548
0.558562 0.705797 0.177897
0.589808 0.712790 0.178245
0.621214 0.718650 0.179190
0.652759 0.724368 0.180217
0.680590 0.730335 0.181257
0.706746 0.736541 0.182293
0.731949 0.742974 0.183317
0.756129 0.749624 0.184327
0.774978 0.755759 0.185323
0.791704 0.761587 0.186304
0.807387 0.767559 0.188104
0.819362 0.773665 0.189934
0.829796 0.779898 0.191742
0.840020 0.785799 0.193448
0.850044 0.791737 0.195657
0.859877 0.797763 0.198067
0.222969 0.676925 0.174929
0.223044 0.677035 0.174936
0.223409 0.677427 0.174962
0.224529 0.678149 0.175009
0.226360 0.679226 0.175079
0.230563 0.680678 0.175170
0.236437 0.682520 0.175282
0.245626 0.684760 0.175413
0.260103 0.687407 0.175561
0.280717 0.690465 0.175724
0.308046 0.693938 0.175899
0.338382 0.697826 0.176114
0.372217 0.702128 0.176424
0.412551 0.706842 0.176744
0.452297 0.711963 0.177071
0.490649 0.716670 0.177403
0.529375 0.721047 0.177738
0.560316 0.725701 0.178073
0.591456 0.730625 0.178647
0.622766 0.735810 0.179648
0.654224 0.741249 0.180650
0.681736 0.746930 0.181668
0.707825 0.752751 0.182678
0.732920 0.757831 0.183677
0.756836 0.763081 0.184665
0.775642 0.768492 0.185640
0.792239 0.774057 0.186825
0.807891 0.779766 0.188644
0.819688 0.785214 0.190445
0.830103 0.790705 0.192220
0.840309 0.796303 0.193882
0.850316 0.802001 0.196261
0.860135 0.807792 0.198642
0.223283 0.703425 0.175178
0.223465 0.703529 0.175185
0.224087 0.703902 0.175208
0.225263 0.704587 0.175252
0.227021 0.705611 0.175316
0.232005 0.706991 0.175400
0.237651 0.708742 0.175503
0.247537 0.710872 0.175624
0.263017 0.713391 0.175762
0.283958 0.715792 0.175914
0.311209 0.718239 0.176104
0.341560 0.720976 0.176383
0.375698 0.724003 0.176676
0.415926 0.727317 0.176980
0.455121 0.730914 0.177291
0.493324 0.734790 0.177609
0.531337 0.738940 0.177929
0.562154 0.743357 0.178252
0.593182 0.748035 0.179145
0.624392 0.752851 0.180114
0.655760 0.757134 0.181099
0.682938 0.761609 0.182089
0.708957 0.766267 0.183072
0.733939 0.771102 0.184047
0.757578 0.776105 0.185013
0.776339 0.781219 0.185968
0.792801 0.786108 0.187414
0.808419 0.791127 0.189202
0.820031 0.796269 0.190974
0.830424 0.801528 0.192694
0.840612 0.806895 0.194515
0.850602 0.812365 0.196887
0.860405 0.817930 0.199240
0.224003 0.725807 0.175418
0.224170 0.725880 0.175424
0.224768 0.726141 0.175446
0.226023 0.726622 0.175486
0.228465 0.727340 0.175545
0.233454 0.728307 0.175622
0.238980 0.729534 0.175718
0.249489 0.731026 0.175830
0.266024 0.732789 0.175959
0.287318 0.734827 0.176140
0.314498 0.737140 0.176387
0.344870 0.739729 0.176650
0.379397 0.742594 0.176927
0.419453 0.745733 0.177215
0.458071 0.749143 0.177512
0.496119 0.752730 0.177815
0.533386 0.755990 0.178122
0.564074 0.759460 0.178716
0.594987 0.763135 0.179650
0.626093 0.767009 0.180592
0.657368 0.771076 0.181556
0.684195 0.775329 0.182518
0.710141 0.779762 0.183475
0.735005 0.784070 0.184426
