velvia/Velvia50_Classic_ExtraPunchy.cube
TITLE "Velvia 50 Classic ExtraPunchy"
# Adobe RGB in/out. REPLACES AgX. Velvia 50 Classic ExtraPunchy.
LUT_3D_SIZE 5
DOMAIN_MIN 0.0 0.0 0.0
DOMAIN_MAX 1.0 1.0 1.0
0.070631 0.072407 0.079283
0.072991 0.072454 0.079283
0.590378 0.078842 0.079249
0.955011 0.323787 0.079075
0.988830 0.834935 0.078605
0.070631 0.073099 0.079283
0.073135 0.074389 0.079283
0.596103 0.108860 0.079242
0.955300 0.489059 0.079061
0.988875 0.888541 0.078591
0.070689 0.324153 0.079283
0.074148 0.394641 0.079283
0.616731 0.613274 0.079216
0.956334 0.867842 0.078997
0.989034 0.968508 0.078536
0.071055 0.929605 0.079265
0.077342 0.941362 0.079243
0.654859 0.966463 0.079167
0.958206 0.981934 0.078839
0.989325 0.991276 0.078366
0.072174 0.993300 0.079189
0.088156 0.993940 0.079169
0.702763 0.996042 0.079044
0.960938 0.996853 0.078712
0.989754 0.997160 0.078057
0.070631 0.072407 0.078078
0.072991 0.072461 0.078066
0.590378 0.079074 0.078208
0.955011 0.325721 0.078658
0.988830 0.835939 0.080245
0.070631 0.073130 0.078043
0.073135 0.074446 0.078069
0.596103 0.109585 0.078225
0.955300 0.491336 0.078684
0.988875 0.888977 0.080321
0.070689 0.326089 0.078070
0.074148 0.397150 0.078108
0.616731 0.615034 0.078302
0.956334 0.868660 0.078781
0.989034 0.968598 0.080588
0.071055 0.930002 0.078174
0.077342 0.941750 0.078223
0.654859 0.966682 0.078452
0.958206 0.981985 0.079070
0.989325 0.991299 0.081243
0.072174 0.993322 0.078379
0.088156 0.993961 0.078442
0.702763 0.996059 0.078714
0.960938 0.996854 0.079696
0.989754 0.997161 0.082686
0.070631 0.072407 0.589807
0.072991 0.072484 0.595568
0.590378 0.079783 0.616083
0.955011 0.333595 0.652173
0.988830 0.838940 0.694274
0.070631 0.073237 0.591868
0.073135 0.074646 0.597558
0.596103 0.112201 0.618085
0.955300 0.499559 0.653097
0.988875 0.890541 0.695834
0.070689 0.334027 0.599011
0.074148 0.405474 0.604715
0.616731 0.621277 0.625291
0.956334 0.871595 0.656412
0.989034 0.968920 0.701438
0.071055 0.931425 0.612199
0.077342 0.942846 0.617927
0.654859 0.967468 0.638591
0.958206 0.982165 0.663166
0.989325 0.991381 0.711744
0.072174 0.993399 0.632033
0.088156 0.994037 0.637797
0.702763 0.996123 0.654181
0.960938 0.996858 0.683026
0.989754 0.997164 0.727152
0.070631 0.072407 0.951860
0.072991 0.072573 0.952292
0.590378 0.080984 0.953835
0.955011 0.348830 0.956635
0.988830 0.844446 0.960736
0.070631 0.073422 0.952011
0.073135 0.075092 0.952443
0.596103 0.118477 0.953984
0.955300 0.514857 0.956782
0.988875 0.893404 0.960879
0.070689 0.349273 0.952553
0.074148 0.419343 0.952983
0.616731 0.632409 0.954519
0.956334 0.876981 0.957308
0.989034 0.969509 0.961391
0.071055 0.934034 0.953545
0.077342 0.944426 0.953973
0.654859 0.968532 0.955499
0.958206 0.982495 0.958271
0.989325 0.991532 0.962330
0.072174 0.993541 0.955017
0.088156 0.994177 0.955441
0.702763 0.996239 0.956954
0.960938 0.996866 0.959701
0.989754 0.997169 0.963725
0.070631 0.072418 0.992388
0.072991 0.072687 0.992400
0.590378 0.082785 0.992443
0.955011 0.372344 0.992521
0.988830 0.852644 0.992637
0.070631 0.073862 0.992393
0.073135 0.076218 0.992405
0.596103 0.129100 0.992447
0.955300 0.537925 0.992526
0.988875 0.897656 0.992641
0.070689 0.372804 0.992408
0.074148 0.440503 0.992420
0.616731 0.646406 0.992462
0.956334 0.882808 0.992540
0.989034 0.970385 0.992655
0.071055 0.937912 0.992435
0.077342 0.946773 0.992447
0.654859 0.969416 0.992490
0.958206 0.982986 0.992567
0.989325 0.991755 0.992682
0.072174 0.993752 0.992476
0.088156 0.994384 0.992488
0.702763 0.996413 0.992530
0.960938 0.996877 0.992608
0.989754 0.997177 0.992722
