velvia/Velvia50_Modern_RadianceIII.cube
TITLE "Velvia 50 Modern RadianceIII"
# Adobe RGB in/out. REPLACES AgX. Velvia 50 Modern RadianceIII.
LUT_3D_SIZE 5
DOMAIN_MIN 0.0 0.0 0.0
DOMAIN_MAX 1.0 1.0 1.0
0.087650 0.087576 0.084044
0.387385 0.201278 0.091909
0.729272 0.423000 0.131634
0.889355 0.599696 0.193748
0.946032 0.699753 0.251887
0.109756 0.337414 0.087585
0.289295 0.291338 0.090185
0.637508 0.446160 0.117428
0.867143 0.609719 0.181711
0.939206 0.707571 0.242510
0.149970 0.627836 0.095502
0.337599 0.599824 0.100650
0.577841 0.587843 0.116247
0.809447 0.656246 0.164705
0.919171 0.738727 0.223168
0.193158 0.770447 0.109708
0.346466 0.759455 0.114256
0.588152 0.744644 0.133104
0.788823 0.756351 0.168801
0.896562 0.799417 0.215256
0.232075 0.851875 0.122539
0.346128 0.849377 0.128439
0.572077 0.846082 0.148557
0.774234 0.852336 0.180755
0.885562 0.870949 0.219876
0.087650 0.091056 0.400506
0.396879 0.210791 0.407971
0.715885 0.414734 0.381194
0.882389 0.590842 0.380845
0.943422 0.693275 0.393165
0.103352 0.280995 0.330681
0.228829 0.225928 0.222450
0.609222 0.423203 0.312921
0.855287 0.599146 0.352398
0.936585 0.700900 0.378791
0.144443 0.602090 0.338403
0.317000 0.570659 0.307724
0.550366 0.556250 0.276123
0.797967 0.644159 0.308643
0.915044 0.732513 0.348131
0.188816 0.759573 0.316176
0.338857 0.749247 0.308410
0.578408 0.735330 0.296632
0.780334 0.748873 0.301847
0.894224 0.796130 0.329658
0.230216 0.848492 0.291168
0.343577 0.846202 0.290977
0.569223 0.843448 0.293415
0.771610 0.850509 0.304650
0.885098 0.870549 0.327012
0.087650 0.101337 0.765253
0.396879 0.225369 0.767149
0.779170 0.467646 0.764325
0.887643 0.600142 0.690607
0.942252 0.691558 0.648480
0.108628 0.337585 0.751261
0.359259 0.366975 0.713966
0.661217 0.471547 0.664182
0.859341 0.604727 0.641123
0.934984 0.697853 0.626253
0.135661 0.551047 0.616167
0.290704 0.529463 0.575145
0.504634 0.505223 0.499644
0.787045 0.634188 0.552167
0.910203 0.725850 0.576517
0.179801 0.735695 0.595670
0.322905 0.727952 0.580224
0.559278 0.717261 0.546728
0.759415 0.733545 0.529835
0.889706 0.789938 0.544546
0.225399 0.839810 0.553448
0.337084 0.838218 0.548979
0.562262 0.837158 0.538408
0.765312 0.846264 0.532206
0.883989 0.869676 0.536694
0.087650 0.125971 0.935236
0.396879 0.250075 0.935518
0.789760 0.488138 0.936521
0.904193 0.627070 0.899905
0.945278 0.701985 0.854024
0.109756 0.363366 0.935335
0.404881 0.425989 0.935616
0.741401 0.548139 0.915842
0.879875 0.632732 0.873807
0.937784 0.707574 0.834800
0.136097 0.559200 0.839944
0.307412 0.562261 0.824399
0.579764 0.594667 0.798303
0.806127 0.656359 0.791123
0.912511 0.731080 0.787754
0.171392 0.713886 0.795859
0.308989 0.709886 0.784404
0.546125 0.705364 0.753335
0.738234 0.718502 0.726736
0.887423 0.787159 0.745702
0.219538 0.829430 0.763146
0.329321 0.828895 0.758650
0.554442 0.830400 0.746942
0.758611 0.842073 0.737200
0.882931 0.868996 0.736762
0.087650 0.167027 0.978022
0.396879 0.281361 0.978099
0.789760 0.504192 0.978373
0.917263 0.651771 0.969805
0.949306 0.716373 0.947762
0.109756 0.385013 0.978049
0.404881 0.444764 0.978125
0.786035 0.597331 0.977308
0.895500 0.660945 0.962985
0.942064 0.722232 0.940488
0.143161 0.607888 0.956073
0.341032 0.615429 0.952184
0.633235 0.642510 0.941971
0.832619 0.688761 0.930988
0.919670 0.744784 0.915367
0.168859 0.709256 0.912823
0.307212 0.710030 0.907889
0.556109 0.718120 0.895416
0.770990 0.745928 0.886098
0.890870 0.794241 0.883612
0.214348 0.820683 0.888162
0.322596 0.821302 0.885833
0.548362 0.825749 0.879482
0.754367 0.840110 0.873585
0.882474 0.869281 0.872891
