velvia/Velvia50_Classic_Normal.cube
TITLE "Velvia 50 Classic Normal"
# Adobe RGB in/out. REPLACES AgX. Velvia 50 Classic Normal.
LUT_3D_SIZE 5
DOMAIN_MIN 0.0 0.0 0.0
DOMAIN_MAX 1.0 1.0 1.0
0.090873 0.083221 0.090772
0.099253 0.083591 0.090772
0.567013 0.098135 0.090784
0.934550 0.354054 0.090846
0.982261 0.770478 0.091128
0.090873 0.085454 0.090772
0.099816 0.088497 0.090772
0.572558 0.152511 0.090786
0.935031 0.479521 0.090851
0.982312 0.826080 0.091139
0.091026 0.354329 0.090772
0.104324 0.405533 0.090772
0.592542 0.580129 0.090795
0.936745 0.803989 0.090874
0.982491 0.918072 0.091185
0.091995 0.863360 0.090778
0.113550 0.874873 0.090786
0.630009 0.914233 0.090813
0.939854 0.941154 0.090934
0.982819 0.959374 0.091326
0.096093 0.963895 0.090805
0.140428 0.965328 0.090812
0.680282 0.970039 0.090857
0.943327 0.977503 0.091039
0.983303 0.987056 0.091614
0.090873 0.083221 0.091581
0.099253 0.083611 0.091718
0.567013 0.098529 0.092211
0.934550 0.355504 0.093634
0.982261 0.771498 0.099693
0.090873 0.085543 0.091636
0.099816 0.088606 0.091725
0.572558 0.153803 0.092271
0.935031 0.481043 0.093705
0.982312 0.826454 0.100070
0.091026 0.355779 0.091731
0.104324 0.407299 0.091862
0.592542 0.581720 0.092543
0.936745 0.804824 0.094129
0.982491 0.918422 0.101417
0.091995 0.863749 0.092094
0.113550 0.875253 0.092266
0.630009 0.914585 0.093063
0.939854 0.941223 0.095297
0.982819 0.959425 0.104071
0.096093 0.963944 0.092810
0.140428 0.965375 0.093033
0.680282 0.970078 0.093816
0.943327 0.977539 0.097443
0.983303 0.987081 0.110011
0.090873 0.083221 0.559895
0.099253 0.083678 0.565184
0.567013 0.099736 0.584003
0.934550 0.361377 0.617062
0.982261 0.774549 0.658736
0.090873 0.085855 0.561788
0.099816 0.088988 0.567010
0.572558 0.158483 0.585840
0.935031 0.486522 0.617908
0.982312 0.827796 0.660594
0.091026 0.361698 0.568344
0.104324 0.413668 0.573577
0.592542 0.587358 0.592444
0.936745 0.807820 0.620941
0.982491 0.919677 0.667276
0.091995 0.865142 0.580442
0.113550 0.876615 0.585694
0.630009 0.915849 0.604628
0.939854 0.941471 0.627119
0.982819 0.959608 0.679133
0.096093 0.964117 0.598621
0.140428 0.965545 0.603901
0.680282 0.970221 0.618899
0.943327 0.977667 0.645371
0.983303 0.987172 0.692021
0.090873 0.083221 0.918090
0.099253 0.083934 0.918826
0.567013 0.101790 0.921453
0.934550 0.372619 0.926230
0.982261 0.780150 0.933243
0.090873 0.086395 0.918347
0.099816 0.089843 0.919082
0.572558 0.167255 0.921707
0.935031 0.496640 0.926480
0.982312 0.830253 0.933488
0.091026 0.372943 0.919269
0.104324 0.425483 0.920002
0.592542 0.597404 0.922619
0.936745 0.813320 0.927378
0.982491 0.921978 0.934367
0.091995 0.867696 0.920958
0.113550 0.879112 0.921687
0.630009 0.918167 0.924290
0.939854 0.941926 0.929025
0.982819 0.959944 0.935350
0.096093 0.964434 0.923468
0.140428 0.965857 0.924191
0.680282 0.970482 0.926774
0.943327 0.977903 0.931471
0.983303 0.987339 0.936568
0.090873 0.083378 0.978320
0.099253 0.084263 0.978361
0.567013 0.105419 0.978507
0.934550 0.389672 0.978773
0.982261 0.788496 0.979166
0.090873 0.087493 0.978335
0.099816 0.092722 0.978375
0.572558 0.180804 0.978521
0.935031 0.511863 0.978787
0.982312 0.833899 0.979180
0.091026 0.390002 0.978386
0.104324 0.443387 0.978426
0.592542 0.610815 0.978572
0.936745 0.821159 0.978837
0.982491 0.925306 0.979229
0.091995 0.871493 0.978479
0.113550 0.882826 0.978520
0.630009 0.921615 0.978665
0.939854 0.942601 0.978929
0.982819 0.960443 0.979320
0.096093 0.964906 0.978619
0.140428 0.966321 0.978659
0.680282 0.970872 0.978804
0.943327 0.978254 0.979067
0.983303 0.987587 0.979455
