velvia/Velvia50_Classic_IlfochromeP.cube
TITLE "Velvia 50 Classic IlfochromeP"
# Adobe RGB in/out. REPLACES AgX. Velvia 50 Classic IlfochromeP.
LUT_3D_SIZE 9
DOMAIN_MIN 0.0 0.0 0.0
DOMAIN_MAX 1.0 1.0 1.0
0.172658 0.130191 0.128175
0.173420 0.130191 0.128175
0.196398 0.134028 0.128175
0.328755 0.158230 0.128175
0.505261 0.222935 0.129269
0.660812 0.304636 0.131353
0.774006 0.409879 0.135347
0.892469 0.523700 0.141795
0.980121 0.637082 0.153331
0.172658 0.130845 0.128175
0.173577 0.132194 0.128175
0.196794 0.139898 0.128175
0.329492 0.171574 0.128175
0.505843 0.236075 0.129322
0.661197 0.319842 0.131406
0.774200 0.423463 0.135473
0.892658 0.536254 0.141889
0.980217 0.647055 0.153506
0.172658 0.158265 0.128175
0.174097 0.163677 0.128175
0.198198 0.186972 0.128175
0.332133 0.230098 0.128175
0.507929 0.291028 0.129505
0.662575 0.374396 0.131592
0.774894 0.470383 0.135919
0.893337 0.579571 0.142223
0.980418 0.680708 0.154133
0.172658 0.259592 0.128175
0.174915 0.266068 0.128175
0.203488 0.288766 0.128175
0.336963 0.330244 0.128204
0.511755 0.391523 0.129818
0.665105 0.465458 0.131918
0.776169 0.556885 0.136717
0.894584 0.648088 0.142826
0.980696 0.718755 0.155273
0.173149 0.410055 0.128175
0.175907 0.415877 0.128175
0.211221 0.435058 0.128175
0.344122 0.470513 0.128861
0.517448 0.525607 0.130357
0.668873 0.591222 0.132372
0.778069 0.661701 0.137857
0.896445 0.717593 0.144056
0.981112 0.770303 0.157393
0.174576 0.582820 0.128175
0.177529 0.587603 0.128175
0.222296 0.602966 0.128508
0.353675 0.630635 0.129582
0.525132 0.670714 0.131148
0.673935 0.705800 0.133484
0.780621 0.743664 0.139311
0.898950 0.786179 0.146686
0.981672 0.823581 0.160624
0.176269 0.721829 0.128757
0.180403 0.724066 0.128930
0.236364 0.732014 0.129487
0.365632 0.746297 0.130486
0.534744 0.766896 0.132013
0.680323 0.793428 0.135699
0.783844 0.818345 0.141031
0.902121 0.845120 0.149894
0.982380 0.873197 0.164627
0.179527 0.817305 0.129847
0.187860 0.818648 0.129972
0.255389 0.823431 0.130600
0.381415 0.832058 0.131646
0.544428 0.844568 0.133426
0.688054 0.860784 0.138135
0.787746 0.877668 0.142968
0.905973 0.894552 0.153623
0.983239 0.913220 0.169370
0.187252 0.884891 0.131259
0.197558 0.885707 0.131412
0.275580 0.888617 0.131927
0.400383 0.893883 0.132982
0.555729 0.901559 0.136571
0.695838 0.911573 0.140714
0.792329 0.923124 0.147260
0.910514 0.935048 0.158666
0.984251 0.954168 0.177854
0.172658 0.130191 0.130319
0.173420 0.130191 0.130499
0.196398 0.134075 0.131103
0.328755 0.158415 0.132065
0.505261 0.223119 0.134574
0.660812 0.304845 0.139075
0.774006 0.410081 0.144124
0.892469 0.523878 0.155121
0.980121 0.637219 0.172078
0.172658 0.130871 0.130382
0.173577 0.132255 0.130561
0.196794 0.139996 0.131159
0.329492 0.171793 0.132111
0.505843 0.236256 0.134705
0.661197 0.320054 0.139181
0.774200 0.423641 0.144324
0.892658 0.536421 0.155293
0.980217 0.647191 0.172441
0.172658 0.158450 0.130606
0.174097 0.163853 0.130777
0.198198 0.187241 0.131353
0.332133 0.230276 0.132275
0.507929 0.291241 0.135167
0.662575 0.374603 0.139558
0.774894 0.470574 0.145039
0.893337 0.579733 0.155904
0.980418 0.680809 0.173743
0.172658 0.259810 0.130994
0.174915 0.266283 0.131154
0.203488 0.288973 0.131693
0.336963 0.330453 0.132564
0.511755 0.391728 0.135992
0.665105 0.465649 0.140236
0.776169 0.557050 0.146336
0.894584 0.648224 0.157499
0.980696 0.718830 0.176130
0.173149 0.410257 0.131528
0.175907 0.416058 0.131673
0.211221 0.435234 0.132165
0.344122 0.470703 0.133610
0.517448 0.525785 0.137170
0.668873 0.591365 0.141212
0.778069 0.661835 0.148230
0.896445 0.717669 0.159895
0.981112 0.770371 0.179681
0.174576 0.582982 0.132175
0.177529 0.587747 0.132304
0.222296 0.603108 0.132925
0.353675 0.630773 0.135364
0.525132 0.670847 0.138668
0.673935 0.705877 0.142468
0.780621 0.743736 0.150710
0.898950 0.786244 0.163068
0.981672 0.823625 0.184445
0.176269 0.721903 0.133394
0.180403 0.724140 0.133767
0.236364 0.732087 0.135120
0.365632 0.746368 0.137408
0.534744 0.766964 0.140437
0.680323 0.793492 0.144685
0.783844 0.818390 0.153742
0.902121 0.845162 0.167004
0.982380 0.873225 0.190446
0.179527 0.817350 0.136071
0.187860 0.818693 0.136417
0.255389 0.823475 0.137618
0.381415 0.832101 0.139670
0.544428 0.844609 0.142424
0.688054 0.860824 0.148697
0.787746 0.877696 0.157886
0.905973 0.894578 0.172683
0.983239 0.913244 0.197696
0.187252 0.884918 0.138888
0.197558 0.885734 0.139193
0.275580 0.888643 0.140255
0.400383 0.893909 0.142087
0.555729 0.901584 0.146097
0.695838 0.911598 0.153176
0.792329 0.923144 0.163767
0.910514 0.935067 0.181549
0.984251 0.954207 0.204515
0.172658 0.130191 0.176876
0.173420 0.130191 0.177905
0.196398 0.134239 0.181586
0.328755 0.159078 0.188296
0.505261 0.223777 0.198192
0.660812 0.305595 0.207838
0.774006 0.410806 0.217823
0.892469 0.524517 0.231527
0.980121 0.637711 0.249293
0.172658 0.130962 0.177236
0.173577 0.132470 0.178264
0.196794 0.140346 0.181943
0.329492 0.172581 0.188649
0.505843 0.236907 0.198539
0.661197 0.320813 0.208058
0.774200 0.424283 0.218022
0.892658 0.537024 0.231775
0.980217 0.647678 0.249543
0.172658 0.159113 0.178526
0.174097 0.164483 0.179552
0.198198 0.188206 0.183222
0.332133 0.230916 0.189913
0.507929 0.292006 0.199783
0.662575 0.375350 0.208831
0.774894 0.471258 0.218737
0.893337 0.580316 0.232667
0.980418 0.681160 0.250439
0.172658 0.260590 0.180893
0.174915 0.267055 0.181914
0.203488 0.289716 0.185569
0.336963 0.331204 0.192233
0.511755 0.392463 0.201816
0.665105 0.466336 0.210208
0.776169 0.557643 0.220045
0.894584 0.648711 0.234302
0.980696 0.719101 0.252082
0.173149 0.410982 0.184414
0.175907 0.416704 0.185429
0.211221 0.435867 0.189062
0.344122 0.471388 0.195687
0.517448 0.526423 0.204040
0.668873 0.591880 0.212249
0.778069 0.662316 0.221986
0.896445 0.717940 0.236772
0.981112 0.770614 0.254531
0.174576 0.583563 0.189138
0.177529 0.588264 0.190145
0.222296 0.603616 0.193749
0.353675 0.631268 0.200323
0.525132 0.671324 0.207005
0.673935 0.706156 0.214972
0.780621 0.743992 0.225267
0.898950 0.786480 0.240190
0.981672 0.823783 0.258093
0.176269 0.722172 0.195092
0.180403 0.724408 0.196089
0.236364 0.732350 0.199657
0.365632 0.746623 0.204499
0.534744 0.767209 0.210623
0.680323 0.793724 0.218382
0.783844 0.818551 0.229539
0.902121 0.845310 0.244499
0.982380 0.873328 0.262629
0.179527 0.817511 0.201962
0.187860 0.818854 0.202608
0.255389 0.823634 0.204910
0.381415 0.832255 0.209056
0.544428 0.844758 0.214874
0.688054 0.860966 0.222506
0.787746 0.877797 0.234693
0.905973 0.894672 0.249710
0.983239 0.913332 0.268128
0.187252 0.885016 0.207455
0.197558 0.885832 0.208083
0.275580 0.888740 0.210248
0.400383 0.894004 0.214133
0.555729 0.901676 0.219803
0.695838 0.911686 0.228732
0.792329 0.923214 0.240949
0.910514 0.935134 0.255909
0.984251 0.954349 0.274597
0.172658 0.130191 0.318138
0.173420 0.130191 0.318913
0.196398 0.134530 0.321690
0.328755 0.160288 0.326778
0.505261 0.224984 0.334345
0.660812 0.306975 0.344357
0.774006 0.412139 0.356795
0.892469 0.525692 0.371797
0.980121 0.638616 0.389349
0.172658 0.131119 0.318409
0.173577 0.132847 0.319184
0.196794 0.140978 0.321960
0.329492 0.174021 0.327046
0.505843 0.238101 0.334612
0.661197 0.322208 0.344614
0.774200 0.425462 0.357049
0.892658 0.538132 0.372047
0.980217 0.648575 0.389596
0.172658 0.160322 0.319381
0.174097 0.165632 0.320156
0.198198 0.189974 0.322928
0.332133 0.232088 0.328010
0.507929 0.293411 0.335568
0.662575 0.376721 0.345538
0.774894 0.472517 0.357962
0.893337 0.581387 0.372948
0.980418 0.681702 0.390482
0.172658 0.262023 0.321167
0.174915 0.268472 0.321939
0.203488 0.291086 0.324706
0.336963 0.332583 0.329780
0.511755 0.393816 0.337326
0.665105 0.467599 0.347235
0.776169 0.558733 0.359639
0.894584 0.649607 0.374602
0.980696 0.719598 0.392112
0.173149 0.412315 0.323831
0.175907 0.417893 0.324600
0.211221 0.437032 0.327361
0.344122 0.472647 0.332422
0.517448 0.527597 0.339936
0.668873 0.592826 0.349769
0.778069 0.663201 0.362143
0.896445 0.718439 0.377073
0.981112 0.771060 0.394546
0.174576 0.584632 0.327419
0.177529 0.589214 0.328187
0.222296 0.604552 0.330938
0.353675 0.632179 0.335984
0.525132 0.672201 0.343382
0.673935 0.706667 0.353182
0.780621 0.744464 0.365518
0.898950 0.786912 0.380403
0.981672 0.824074 0.397826
0.176269 0.722667 0.331967
0.180403 0.724900 0.332731
0.236364 0.732834 0.335472
0.365632 0.747092 0.340467
0.534744 0.767658 0.347749
0.680323 0.794113 0.357509
0.783844 0.818847 0.369795
0.902121 0.845584 0.384624
0.982380 0.873517 0.402213
0.179527 0.817808 0.337498
0.187860 0.819149 0.338258
0.255389 0.823925 0.340943
0.381415 0.832539 0.345814
0.544428 0.845032 0.353059
0.688054 0.861228 0.362771
0.787746 0.877982 0.374999
0.905973 0.894846 0.389761
0.983239 0.913493 0.407534
0.187252 0.885196 0.343908
0.197558 0.886011 0.344644
0.275580 0.888918 0.347285
0.400383 0.894177 0.352127
0.555729 0.901845 0.359328
0.695838 0.911848 0.368984
0.792329 0.923345 0.381145
0.910514 0.935257 0.395830
0.984251 0.954609 0.413329
0.172658 0.130191 0.500634
0.173420 0.130191 0.501128
0.196398 0.134944 0.502800
0.328755 0.162071 0.505864
0.505261 0.226779 0.510421
0.660812 0.309033 0.516526
0.774006 0.414122 0.524380
0.892469 0.527448 0.534645
0.980121 0.639969 0.546673
0.172658 0.131628 0.500813
0.173577 0.133374 0.501291
0.196794 0.141894 0.502962
0.329492 0.176156 0.506026
0.505843 0.239877 0.510581
0.661197 0.324292 0.516685
0.774200 0.427223 0.524554
0.892658 0.539787 0.534817
0.980217 0.649915 0.546842
0.172658 0.162105 0.501410
0.174097 0.167328 0.501876
0.198198 0.192606 0.503545
0.332133 0.233832 0.506606
0.507929 0.295508 0.511157
0.662575 0.378770 0.517255
0.774894 0.474399 0.525178
0.893337 0.582988 0.535433
0.980418 0.682511 0.547450
0.172658 0.264160 0.502485
0.174915 0.270585 0.502950
0.203488 0.293189 0.504616
0.336963 0.334642 0.507672
0.511755 0.395836 0.512215
0.665105 0.469487 0.518304
0.776169 0.560361 0.526325
0.894584 0.650945 0.536567
0.980696 0.720341 0.548568
0.173149 0.414279 0.504089
0.175907 0.419669 0.504553
0.211221 0.438771 0.506215
0.344122 0.474528 0.509263
0.517448 0.529308 0.513795
0.668873 0.594241 0.519869
0.778069 0.664523 0.528038
0.896445 0.719184 0.538259
0.981112 0.771728 0.550237
0.174576 0.586230 0.506250
0.177529 0.590633 0.506713
0.222296 0.605950 0.508369
0.353675 0.633539 0.511407
0.525132 0.673513 0.515924
0.673935 0.707432 0.521978
0.780621 0.745169 0.530347
0.898950 0.787559 0.540541
0.981672 0.824510 0.552487
0.176269 0.723405 0.508989
0.180403 0.725634 0.509449
0.236364 0.733556 0.511099
0.365632 0.747793 0.514123
0.534744 0.768330 0.518621
0.680323 0.794640 0.524868
0.783844 0.819289 0.533275
0.902121 0.845993 0.543434
0.982380 0.873800 0.555341
0.179527 0.818251 0.512318
0.187860 0.819591 0.512776
0.255389 0.824361 0.514417
0.381415 0.832964 0.517426
0.544428 0.845441 0.521901
0.688054 0.861619 0.528467
0.787746 0.878260 0.536838
0.905973 0.895105 0.546955
0.983239 0.913733 0.558815
0.187252 0.885466 0.516249
0.197558 0.886280 0.516703
0.275580 0.889183 0.518335
0.400383 0.894437 0.521325
0.555729 0.902097 0.526113
0.695838 0.912090 0.532720
0.792329 0.923540 0.541049
0.910514 0.935441 0.551117
0.984251 0.954997 0.562922
0.172658 0.130191 0.670833
0.173420 0.130601 0.671179
0.196398 0.136146 0.672421
0.328755 0.164433 0.674700
0.505261 0.229183 0.678095
0.660812 0.311805 0.682656
0.774006 0.416531 0.687940
0.892469 0.529752 0.693545
0.980121 0.641793 0.700113
0.172658 0.132464 0.670954
0.173577 0.134026 0.671300
0.196794 0.143081 0.672542
0.329492 0.179004 0.674820
0.505843 0.242260 0.678215
0.661197 0.327099 0.682775
0.774200 0.429597 0.688035
0.892658 0.542020 0.693639
0.980217 0.651723 0.700205
0.172658 0.164466 0.671388
0.174097 0.169692 0.671734
0.198198 0.196135 0.672975
0.332133 0.236241 0.675252
0.507929 0.298332 0.678644
0.662575 0.381533 0.683202
0.774894 0.476938 0.688376
0.893337 0.585149 0.693975
0.980418 0.683601 0.700537
0.172658 0.267035 0.672187
0.174915 0.273429 0.672532
0.203488 0.296022 0.673772
0.336963 0.337417 0.676046
0.511755 0.398561 0.679434
0.665105 0.472034 0.683986
0.776169 0.562559 0.689002
0.894584 0.652752 0.694594
0.980696 0.721344 0.701148
0.173149 0.416688 0.673379
0.175907 0.422063 0.673724
0.211221 0.441115 0.674961
0.344122 0.477067 0.677232
0.517448 0.531560 0.680614
0.668873 0.596148 0.685158
0.778069 0.666307 0.689937
0.896445 0.720189 0.695518
0.981112 0.772628 0.702059
0.174576 0.588250 0.674987
0.177529 0.592548 0.675331
0.222296 0.607835 0.676566
0.353675 0.635375 0.678831
0.525132 0.675282 0.682205
0.673935 0.708463 0.686593
0.780621 0.746120 0.691198
0.898950 0.788431 0.696764
0.981672 0.825097 0.703288
0.176269 0.724401 0.677027
0.180403 0.726625 0.677370
0.236364 0.734531 0.678601
0.365632 0.748739 0.680859
0.534744 0.769237 0.684224
0.680323 0.795351 0.688207
0.783844 0.819885 0.692797
0.902121 0.846544 0.698344
0.982380 0.874181 0.704846
0.179527 0.818850 0.679511
0.187860 0.820187 0.679853
0.255389 0.824948 0.681079
0.381415 0.833537 0.683329
0.544428 0.845994 0.686547
0.688054 0.862146 0.690172
0.787746 0.878634 0.694743
0.905973 0.895455 0.700267
0.983239 0.914058 0.706744
0.187252 0.885829 0.682448
0.197558 0.886642 0.682788
0.275580 0.889541 0.684009
0.400383 0.894788 0.686199
0.555729 0.902437 0.688886
0.695838 0.912417 0.692494
0.792329 0.923803 0.697042
0.910514 0.935690 0.702540
0.984251 0.955522 0.708986
0.172658 0.130191 0.781542
0.173420 0.131052 0.781724
0.196398 0.137682 0.782375
0.328755 0.167364 0.783570
0.505261 0.232208 0.785352
0.660812 0.315317 0.787747
0.774006 0.419585 0.790772
0.892469 0.532614 0.794438
0.980121 0.644110 0.798175
0.172658 0.133395 0.781606
0.173577 0.134774 0.781787
0.196794 0.144984 0.782438
0.329492 0.183407 0.783633
0.505843 0.245792 0.785415
0.661197 0.330656 0.787809
0.774200 0.432607 0.790834
0.892658 0.544855 0.794499
0.980217 0.654018 0.798218
0.172658 0.167397 0.781833
0.174097 0.173430 0.782015
0.198198 0.200581 0.782666
0.332133 0.239307 0.783860
0.507929 0.301907 0.785640
0.662575 0.385039 0.788033
0.774894 0.480160 0.791057
0.893337 0.587810 0.794720
0.980418 0.684984 0.798374
0.172658 0.270671 0.782252
0.174915 0.277026 0.782433
0.203488 0.299609 0.783083
0.336963 0.340934 0.784277
0.511755 0.402018 0.786055
0.665105 0.475267 0.788446
0.776169 0.565349 0.791466
0.894584 0.655044 0.795125
0.980696 0.722616 0.798659
0.173149 0.419741 0.782878
0.175907 0.425098 0.783058
0.211221 0.444089 0.783707
0.344122 0.480289 0.784899
0.517448 0.534418 0.786675
0.668873 0.598570 0.789061
0.778069 0.668571 0.792077
0.896445 0.721464 0.795731
0.981112 0.773770 0.799086
0.174576 0.590691 0.783721
0.177529 0.594978 0.783902
0.222296 0.610228 0.784549
0.353675 0.637705 0.785738
0.525132 0.677148 0.787510
0.673935 0.709771 0.789892
0.780621 0.747326 0.792902
0.898950 0.789538 0.796548
0.981672 0.825843 0.799661
0.176269 0.725664 0.784792
0.180403 0.727883 0.784972
0.236364 0.735767 0.785618
0.365632 0.749939 0.786803
0.534744 0.770387 0.788570
0.680323 0.796253 0.790946
0.783844 0.820642 0.793948
0.902121 0.847244 0.797348
0.982380 0.874665 0.800390
0.179527 0.819609 0.786095
0.187860 0.820943 0.786275
0.255389 0.825694 0.786919
0.381415 0.834264 0.788101
0.544428 0.846695 0.789862
0.688054 0.862816 0.792230
0.787746 0.879109 0.795222
0.905973 0.895899 0.798247
0.983239 0.914471 0.801279
0.187252 0.886291 0.787638
0.197558 0.887102 0.787816
0.275580 0.889996 0.788458
0.400383 0.895233 0.789635
0.555729 0.902869 0.791390
0.695838 0.912832 0.793749
0.792329 0.924137 0.796730
0.910514 0.936005 0.799311
0.984251 0.956189 0.802329
0.172658 0.130821 0.849442
0.173420 0.132139 0.849523
0.196398 0.139809 0.849814
0.328755 0.171376 0.850347
0.505261 0.235912 0.851144
0.660812 0.319652 0.852214
0.774006 0.423302 0.853568
0.892469 0.536103 0.855210
0.980121 0.646933 0.857143
0.172658 0.134380 0.849470
0.173577 0.136451 0.849551
0.196794 0.148750 0.849842
0.329492 0.189003 0.850376
0.505843 0.250401 0.851172
0.661197 0.334984 0.852242
0.774200 0.436272 0.853596
0.892658 0.548309 0.855238
0.980217 0.656815 0.857170
0.172658 0.171418 0.849572
0.174097 0.177899 0.849653
0.198198 0.206000 0.849943
0.332133 0.243008 0.850477
0.507929 0.306252 0.851272
0.662575 0.389307 0.852343
0.774894 0.484088 0.853696
0.893337 0.590793 0.855337
0.980418 0.686668 0.857268
0.172658 0.275083 0.849759
0.174915 0.281393 0.849840
0.203488 0.303967 0.850130
0.336963 0.345213 0.850663
0.511755 0.406229 0.851458
0.665105 0.479208 0.852527
0.776169 0.568749 0.853879
0.894584 0.657839 0.855519
0.980696 0.724165 0.857448
0.173149 0.423458 0.850038
0.175907 0.428793 0.850119
0.211221 0.447709 0.850409
0.344122 0.484217 0.850941
0.517448 0.537901 0.851735
0.668873 0.601520 0.852803
0.778069 0.671332 0.854153
0.896445 0.723017 0.855790
0.981112 0.775163 0.857717
0.174576 0.593664 0.850415
0.177529 0.597939 0.850495
0.222296 0.613144 0.850785
0.353675 0.640545 0.851316
0.525132 0.679261 0.852109
0.673935 0.711364 0.853174
0.780621 0.748796 0.854522
0.898950 0.790887 0.856157
0.981672 0.826751 0.858081
0.176269 0.727203 0.850893
0.180403 0.729415 0.850974
0.236364 0.737273 0.851262
0.365632 0.751401 0.851792
0.534744 0.771789 0.852583
0.680323 0.797353 0.853646
0.783844 0.821565 0.854991
0.902121 0.848098 0.856622
0.982380 0.875255 0.858541
0.179527 0.820535 0.851476
0.187860 0.821865 0.851556
0.255389 0.826603 0.851844
0.381415 0.835150 0.852373
0.544428 0.847550 0.853161
0.688054 0.863632 0.854221
0.787746 0.879689 0.855562
0.905973 0.896440 0.857189
0.983239 0.914974 0.859103
0.187252 0.886854 0.852166
0.197558 0.887663 0.852246
0.275580 0.890550 0.852532
0.400383 0.895776 0.853059
0.555729 0.903395 0.853845
0.695838 0.913339 0.854902
0.792329 0.924544 0.856238
0.910514 0.936390 0.857860
0.984251 0.957002 0.859768
0.172658 0.131803 0.910427
0.173420 0.133509 0.910514
0.196398 0.142135 0.910826
0.328755 0.176726 0.911400
0.505261 0.240353 0.912256
0.660812 0.324850 0.913409
0.774006 0.427695 0.914870
0.892469 0.540231 0.916645
0.980121 0.650274 0.918741
0.172658 0.135952 0.910458
0.173577 0.138813 0.910545
0.196794 0.152990 0.910857
0.329492 0.195546 0.911430
0.505843 0.255823 0.912286
0.661197 0.340094 0.913439
0.774200 0.440604 0.914900
0.892658 0.552398 0.916675
0.980217 0.660126 0.918770
0.172658 0.176766 0.910567
0.174097 0.184070 0.910654
0.198198 0.211349 0.910966
0.332133 0.248432 0.911539
0.507929 0.311377 0.912395
0.662575 0.394355 0.913547
0.774894 0.488738 0.915007
0.893337 0.594321 0.916782
0.980418 0.688658 0.918877
0.172658 0.280280 0.910767
0.174915 0.286536 0.910854
0.203488 0.309108 0.911166
0.336963 0.350268 0.911739
0.511755 0.411210 0.912594
0.665105 0.483873 0.913746
0.776169 0.572775 0.915205
0.894584 0.661147 0.916979
0.980696 0.725997 0.919072
0.173149 0.427850 0.911067
0.175907 0.433160 0.911154
0.211221 0.451989 0.911466
0.344122 0.488867 0.912038
0.517448 0.542024 0.912892
0.668873 0.605010 0.914043
0.778069 0.674600 0.915501
0.896445 0.724854 0.917273
0.981112 0.776811 0.919365
0.174576 0.597183 0.911472
0.177529 0.601442 0.911559
0.222296 0.616595 0.911870
0.353675 0.643907 0.912442
0.525132 0.681635 0.913295
0.673935 0.713248 0.914444
0.780621 0.750535 0.915901
0.898950 0.792484 0.917671
0.981672 0.827826 0.919759
0.176269 0.729024 0.911986
0.180403 0.731226 0.912073
0.236364 0.739055 0.912384
0.365632 0.753130 0.912954
0.534744 0.773448 0.913806
0.680323 0.798654 0.914954
0.783844 0.822657 0.916408
0.902121 0.849108 0.918175
0.982380 0.875953 0.920261
0.179527 0.821630 0.912614
0.187860 0.822956 0.912700
0.255389 0.827679 0.913010
0.381415 0.836199 0.913580
0.544428 0.848562 0.914430
0.688054 0.864599 0.915575
0.787746 0.880375 0.917026
0.905973 0.897081 0.918790
0.983239 0.915570 0.920872
0.187252 0.887520 0.913356
0.197558 0.888327 0.913443
0.275580 0.891207 0.913752
0.400383 0.896419 0.914320
0.555729 0.904019 0.915169
0.695838 0.913939 0.916311
0.792329 0.925026 0.917759
0.910514 0.936846 0.919519
0.984251 0.957967 0.921596
