velvia/Velvia50_Modern_IlfochromeM.cube
TITLE "Velvia 50 Modern IlfochromeM"
# Adobe RGB in/out. REPLACES AgX. Velvia 50 Modern IlfochromeM.
LUT_3D_SIZE 33
DOMAIN_MIN 0.0 0.0 0.0
DOMAIN_MAX 1.0 1.0 1.0
0.118305 0.082367 0.079686
0.123359 0.084448 0.081019
0.138151 0.091337 0.081736
0.161786 0.101530 0.083518
0.190764 0.115987 0.086181
0.239308 0.135967 0.089926
0.293549 0.158829 0.094799
0.343583 0.184922 0.100341
0.392509 0.211418 0.105444
0.441965 0.237616 0.110744
0.490828 0.264749 0.115649
0.537151 0.291797 0.120946
0.577164 0.317771 0.126260
0.615979 0.344114 0.131594
0.653630 0.369096 0.137286
0.690152 0.395791 0.143622
0.725078 0.423063 0.149957
0.757046 0.448265 0.156722
0.781367 0.472559 0.163895
0.804714 0.496361 0.171325
0.822332 0.519669 0.179120
0.837118 0.542373 0.186940
0.851289 0.564601 0.194512
0.864885 0.586417 0.201646
0.877939 0.607819 0.208652
0.890484 0.628807 0.215526
0.900383 0.649382 0.222345
0.907641 0.669544 0.229088
0.914596 0.689295 0.235977
0.921266 0.708634 0.243120
0.927665 0.724113 0.250070
0.933808 0.737274 0.256569
0.939709 0.746398 0.262927
0.118828 0.086047 0.080522
0.120813 0.085671 0.080855
0.132257 0.091692 0.081547
0.155745 0.101817 0.083041
0.185043 0.116246 0.085781
0.230868 0.136088 0.089309
0.286839 0.158765 0.094308
0.338512 0.184902 0.099842
0.387993 0.211498 0.105008
0.438142 0.237750 0.110402
0.487531 0.264914 0.115373
0.534694 0.291979 0.120674
0.575014 0.317947 0.126005
0.614078 0.344311 0.131374
0.651933 0.369270 0.137040
0.688626 0.395988 0.143393
0.723760 0.423254 0.149727
0.756123 0.448435 0.156512
0.780533 0.472723 0.163678
0.803956 0.496519 0.171105
0.821856 0.519822 0.178916
0.836687 0.542521 0.186745
0.850898 0.564747 0.194341
0.864528 0.586560 0.201487
0.877613 0.607960 0.208504
0.890184 0.628946 0.215387
0.900210 0.649519 0.222212
0.907483 0.669679 0.228964
0.914450 0.689427 0.235849
0.921131 0.708765 0.243000
0.927541 0.724208 0.249963
0.933693 0.737338 0.256467
0.939602 0.746460 0.262832
0.119146 0.098363 0.081125
0.122366 0.097869 0.081289
0.129681 0.097230 0.081521
0.144848 0.103335 0.082316
0.171596 0.117201 0.084717
0.210590 0.136559 0.087929
0.267332 0.158714 0.092830
0.322288 0.185130 0.098264
0.373386 0.211964 0.103728
0.425486 0.238342 0.109267
0.476432 0.265585 0.114442
0.526240 0.292686 0.119750
0.567611 0.318617 0.125127
0.607486 0.345049 0.130612
0.646018 0.369913 0.136186
0.683284 0.396710 0.142594
0.719130 0.423954 0.148933
0.752423 0.449058 0.155777
0.777586 0.473321 0.162915
0.801273 0.497094 0.170327
0.820170 0.520376 0.178193
0.835158 0.543059 0.186055
0.849507 0.565275 0.193736
0.863258 0.587078 0.200924
0.876450 0.608469 0.207977
0.889116 0.629446 0.214895
0.899594 0.650011 0.221741
0.906917 0.670163 0.228523
0.913929 0.689904 0.235393
0.920651 0.709235 0.242570
0.927096 0.724549 0.249579
0.933282 0.737570 0.256106
0.939221 0.746686 0.262492
0.119971 0.116691 0.081505
0.123618 0.116189 0.081581
0.132218 0.114776 0.081833
0.143513 0.114117 0.082461
0.160803 0.121124 0.083906
0.191991 0.138637 0.086828
0.242513 0.160151 0.090960
0.298133 0.186737 0.096094
0.352453 0.213525 0.101924
0.405959 0.239946 0.107513
0.458692 0.267121 0.112951
0.510107 0.294197 0.118233
0.555189 0.319988 0.123685
0.596260 0.346521 0.129320
0.635829 0.371171 0.134852
0.673996 0.398105 0.141210
0.710849 0.425293 0.147678
0.744988 0.450239 0.154487
0.772355 0.474451 0.161568
0.796491 0.498175 0.168973
0.817153 0.521417 0.176909
0.832416 0.544067 0.184825
0.847005 0.566261 0.192654
0.860970 0.588045 0.199916
0.874351 0.609417 0.207030
0.887186 0.630377 0.214010
0.898478 0.650926 0.220893
0.905891 0.671063 0.227727
0.912984 0.690789 0.234568
0.919778 0.710106 0.241792
0.926289 0.725181 0.248874
0.932534 0.737998 0.255452
0.938526 0.747103 0.261874
0.121601 0.144399 0.082056
0.125407 0.143830 0.082224
0.135216 0.142056 0.082709
0.149229 0.140010 0.083613
0.163122 0.139555 0.084665
0.183139 0.146693 0.086372
0.221575 0.166599 0.089622
0.276153 0.191659 0.094303
0.331152 0.217396 0.100051
0.383725 0.243429 0.105535
0.437372 0.270124 0.111170
0.489931 0.296940 0.116347
0.539108 0.322363 0.121990
0.581395 0.348986 0.127622
0.622092 0.373229 0.133202
0.661294 0.400348 0.139378
0.699089 0.427417 0.145953
0.734594 0.452093 0.152697
0.764969 0.476209 0.159687
0.789695 0.499848 0.167216
0.812839 0.523027 0.175094
0.828478 0.545619 0.183078
0.843400 0.567775 0.191049
0.857661 0.589523 0.198469
0.871308 0.610863 0.205668
0.884381 0.631794 0.212733
0.896851 0.652315 0.219666
0.904392 0.672427 0.226573
0.911601 0.692129 0.233369
0.918499 0.711423 0.240660
0.925104 0.726136 0.247805
0.931434 0.738643 0.254495
0.937504 0.747731 0.260971
0.124742 0.194856 0.083754
0.128930 0.193810 0.083935
0.141221 0.190122 0.084630
0.157226 0.183756 0.085526
0.172208 0.176046 0.086335
0.188136 0.173567 0.087399
0.212378 0.180384 0.089270
0.260715 0.201708 0.093479
0.312041 0.224946 0.098601
0.363114 0.249823 0.103877
0.415903 0.275459 0.109423
0.468511 0.301472 0.114669
0.520316 0.326135 0.120140
0.564374 0.352531 0.125706
0.605983 0.376513 0.131330
0.646110 0.403661 0.137264
0.684810 0.430357 0.143881
0.721802 0.454758 0.150521
0.755749 0.478713 0.157521
0.781140 0.502212 0.165034
0.805447 0.525302 0.172828
0.823450 0.547800 0.180880
0.838775 0.569891 0.188976
0.853398 0.591582 0.196628
0.867372 0.612870 0.203929
0.880740 0.633754 0.211092
0.893545 0.654232 0.218091
0.902434 0.674304 0.225080
0.909790 0.693970 0.231917
0.916820 0.713229 0.239189
0.923547 0.727443 0.246411
0.929987 0.739525 0.253246
0.936157 0.748588 0.259788
0.128274 0.245202 0.085824
0.132361 0.246197 0.086079
0.146104 0.241569 0.086666
0.163118 0.231732 0.087354
0.179998 0.220555 0.088029
0.197164 0.213760 0.089218
0.220573 0.212734 0.091113
0.251779 0.217179 0.093326
0.298113 0.237038 0.097837
0.346772 0.259822 0.102795
0.396930 0.283795 0.107988
0.448309 0.308380 0.113167
0.499574 0.332179 0.118364
0.546778 0.357487 0.123793
0.588834 0.381619 0.129475
0.629559 0.408307 0.135090
0.668943 0.434297 0.141619
0.707004 0.458397 0.148206
0.742431 0.482098 0.155215
0.771219 0.505404 0.162550
0.796187 0.528338 0.170224
0.817506 0.550707 0.178392
0.833272 0.572696 0.186554
0.848298 0.594298 0.194460
0.862639 0.615507 0.201875
0.876344 0.636320 0.209138
0.889456 0.656734 0.216240
0.900049 0.676748 0.223285
0.907577 0.696360 0.230217
0.914765 0.715251 0.237408
0.921635 0.729133 0.244719
0.928206 0.740662 0.251725
0.934496 0.749693 0.258345
0.131637 0.291008 0.087660
0.135844 0.291840 0.087880
0.150082 0.290458 0.088589
0.167515 0.278562 0.089365
0.186093 0.266343 0.090481
0.206533 0.257016 0.091790
0.233079 0.251977 0.093318
0.262112 0.251820 0.095219
0.291548 0.256084 0.097987
0.335510 0.273803 0.102262
0.381788 0.295492 0.107028
0.430932 0.317603 0.111997
0.480698 0.340962 0.116846
0.529961 0.364326 0.122213
0.571876 0.388589 0.127705
0.612737 0.414569 0.133213
0.652448 0.439542 0.139371
0.690966 0.463189 0.145972
0.727667 0.486527 0.152785
0.760390 0.509578 0.159904
0.785972 0.532263 0.167585
0.810510 0.554454 0.175692
0.827077 0.576290 0.183888
0.842518 0.597759 0.192046
0.857244 0.618852 0.199576
0.871306 0.639562 0.206935
0.884749 0.659885 0.214142
0.897287 0.679816 0.221241
0.905006 0.699354 0.228271
0.912368 0.717416 0.235363
0.919399 0.731237 0.242768
0.926118 0.742075 0.249964
0.932545 0.751063 0.256670
0.135573 0.336794 0.090183
0.140138 0.337555 0.090509
0.153211 0.333997 0.091220
0.171158 0.323393 0.091992
0.191267 0.312292 0.092978
0.215220 0.301989 0.094127
0.244502 0.294448 0.095714
0.272468 0.290828 0.097801
0.301303 0.291303 0.100137
0.331763 0.295467 0.102679
0.370585 0.310439 0.106576
0.417020 0.329872 0.111239
0.464635 0.352321 0.115788
0.512871 0.373309 0.120909
0.556068 0.397723 0.126151
0.596566 0.422714 0.131513
0.636188 0.446302 0.137292
0.674834 0.469328 0.143792
0.712505 0.492212 0.150376
0.747574 0.514896 0.157400
0.775217 0.537228 0.164981
0.800270 0.559163 0.172894
0.820400 0.580781 0.181093
0.836238 0.602062 0.189340
0.851342 0.622992 0.197117
0.865761 0.643559 0.204560
0.879539 0.663754 0.211865
0.892718 0.683572 0.219009
0.902129 0.703008 0.226134
0.909677 0.720049 0.233108
0.916880 0.733791 0.240608
0.923758 0.743785 0.247946
0.930333 0.752718 0.254799
0.140572 0.384110 0.093121
0.144528 0.382937 0.093280
0.156619 0.376457 0.093681
0.174341 0.367436 0.094348
0.195383 0.356987 0.095416
0.221940 0.346357 0.096865
0.253397 0.336935 0.098503
0.281679 0.330622 0.100328
0.310856 0.327963 0.102347
0.339524 0.328942 0.104553
0.368590 0.333248 0.107282
0.406438 0.346488 0.110895
0.451650 0.365276 0.115177
0.497881 0.386068 0.119949
0.542025 0.409232 0.124900
0.581718 0.432618 0.130136
0.620867 0.454780 0.135455
0.659357 0.477062 0.141796
0.697073 0.499342 0.148216
0.733046 0.521526 0.155137
0.764323 0.543380 0.162437
0.789772 0.564965 0.170120
0.813457 0.586284 0.178344
0.829650 0.607310 0.186588
0.845102 0.628018 0.194587
0.859857 0.648391 0.202107
0.873958 0.668416 0.209481
0.887445 0.688083 0.216696
0.899008 0.707383 0.223867
0.906745 0.723189 0.230910
0.914124 0.736654 0.238293
0.921169 0.745814 0.245719
0.927898 0.754678 0.252775
0.144974 0.429245 0.095756
0.148657 0.427648 0.095896
0.160099 0.422041 0.096379
0.177630 0.412940 0.097200
0.199031 0.401738 0.098300
0.228089 0.390129 0.099612
0.260502 0.379656 0.101096
0.289607 0.371971 0.102733
0.319527 0.367501 0.104524
0.347078 0.365901 0.106769
0.375860 0.367137 0.109196
0.406114 0.370951 0.111768
0.441521 0.381464 0.114907
0.485621 0.401784 0.119352
0.530023 0.423207 0.123995
0.568643 0.444168 0.129055
0.607059 0.465218 0.134167
0.645072 0.486574 0.140086
0.682528 0.508082 0.146419
0.719093 0.529590 0.153065
0.753432 0.550858 0.160057
0.779352 0.571985 0.167641
0.804140 0.592915 0.175702
0.822943 0.613605 0.183888
0.838692 0.634024 0.192070
0.853746 0.654145 0.199644
0.868141 0.673948 0.207065
0.881915 0.693418 0.214346
0.895103 0.712544 0.221533
0.903632 0.726877 0.228651
0.911186 0.739116 0.235882
0.918395 0.748183 0.243387
0.925281 0.756962 0.250644
0.149476 0.469263 0.098706
0.152674 0.467955 0.098827
0.163489 0.463474 0.099247
0.180748 0.456029 0.099971
0.202622 0.446539 0.100956
0.233786 0.436230 0.102149
0.266198 0.426133 0.103505
0.296445 0.416940 0.105063
0.326847 0.410079 0.106942
0.354235 0.406009 0.108973
0.382900 0.404895 0.111154
0.412469 0.406665 0.113472
0.442701 0.411081 0.115906
0.475896 0.420052 0.119102
0.519078 0.438867 0.123503
0.557602 0.457951 0.128310
0.595045 0.477726 0.133193
0.632317 0.497988 0.138766
0.669247 0.518563 0.144905
0.705692 0.539187 0.151259
0.740296 0.559785 0.158010
0.769294 0.580340 0.165449
0.794250 0.600780 0.173239
0.816290 0.621048 0.181330
0.832273 0.641101 0.189508
0.847573 0.660902 0.197245
0.862221 0.680426 0.204687
0.876250 0.699649 0.212011
0.889690 0.717459 0.219196
0.900397 0.731154 0.226370
0.908118 0.741960 0.233434
0.915488 0.750914 0.241006
0.922526 0.759592 0.248420
0.153690 0.508088 0.101414
0.156907 0.506957 0.101519
0.167220 0.503050 0.101888
0.183760 0.496452 0.102530
0.206075 0.487825 0.103416
0.238577 0.478124 0.104502
0.270792 0.468367 0.105931
0.301978 0.459466 0.107526
0.332434 0.452141 0.109256
0.360440 0.446892 0.111115
0.389324 0.444017 0.113104
0.418610 0.443614 0.115219
0.448321 0.445617 0.117670
0.478642 0.449842 0.120435
0.509967 0.456349 0.123339
0.548543 0.473912 0.127899
0.584889 0.492310 0.132546
0.621247 0.511352 0.137795
0.657450 0.530820 0.143715
0.693349 0.550451 0.149771
0.728165 0.570255 0.156403
0.759826 0.590125 0.163523
0.784812 0.609972 0.171025
0.809029 0.629727 0.179027
0.825988 0.649332 0.187122
0.841473 0.668743 0.194977
0.856322 0.687922 0.202421
0.870562 0.706841 0.209752
0.884219 0.722573 0.216947
0.897103 0.736058 0.224124
0.904977 0.745208 0.231184
0.912496 0.754029 0.238628
0.919679 0.762586 0.246098
0.158279 0.545516 0.103910
0.161148 0.544540 0.104003
0.170907 0.541148 0.104329
0.186830 0.535344 0.104952
0.209736 0.527602 0.105879
0.242262 0.518588 0.107030
0.274504 0.509197 0.108364
0.306446 0.500244 0.109847
0.337021 0.492411 0.111458
0.365738 0.486219 0.113186
0.395077 0.482021 0.115028
0.424388 0.480008 0.117115
0.453857 0.480226 0.119558
0.483724 0.482603 0.122124
0.514134 0.486983 0.124895
0.542405 0.493157 0.127965
0.576499 0.508885 0.132215
0.611861 0.526638 0.137176
0.647214 0.544814 0.142864
0.682417 0.563422 0.148674
0.717214 0.582325 0.155103
0.750139 0.601405 0.161908
0.775998 0.620562 0.169123
0.800197 0.639713 0.177013
0.819956 0.658789 0.184970
0.835561 0.677734 0.192895
0.850555 0.696502 0.200312
0.864957 0.714871 0.207622
0.878790 0.728389 0.214821
0.892074 0.739969 0.221963
0.901814 0.748882 0.229047
0.909468 0.757546 0.236304
0.916784 0.765962 0.243812
0.162629 0.581644 0.106486
0.165339 0.580790 0.106581
0.174519 0.577810 0.106920
0.190083 0.572658 0.107519
0.213161 0.565678 0.108363
0.245549 0.557447 0.109423
0.277662 0.548651 0.110662
0.310136 0.539978 0.112049
0.340798 0.532044 0.113560
0.370189 0.525342 0.115180
0.400064 0.520219 0.117023
0.429584 0.516976 0.119184
0.459035 0.515737 0.121464
0.488671 0.516520 0.123860
0.518679 0.519251 0.126635
0.545828 0.523796 0.129522
0.572045 0.529943 0.132545
0.604050 0.543585 0.136890
0.638503 0.560566 0.142347
0.672922 0.578085 0.147968
0.707187 0.596008 0.154128
0.739961 0.614213 0.160629
0.767922 0.632593 0.167697
0.791998 0.651056 0.175302
0.814272 0.669524 0.183096
0.829931 0.687930 0.190980
0.845011 0.706221 0.198404
0.859525 0.721742 0.205666
0.873488 0.734938 0.212843
0.886916 0.744285 0.219931
0.898679 0.752999 0.227019
0.906449 0.761482 0.234081
0.913883 0.769736 0.241607
0.167129 0.616715 0.108994
0.169708 0.615965 0.109081
0.178458 0.613338 0.109386
0.193311 0.608761 0.109930
0.216476 0.602481 0.110704
0.248618 0.594949 0.111682
0.280412 0.586728 0.112837
0.313195 0.578403 0.114137
0.343871 0.570526 0.115561
0.373947 0.563569 0.117244
0.404247 0.557908 0.119170
0.434075 0.553816 0.121209
0.463667 0.551465 0.123356
0.493257 0.550936 0.125798
0.523046 0.552225 0.128415
0.549229 0.555263 0.131139
0.575040 0.559932 0.134110
0.601045 0.566084 0.137539
0.631198 0.577968 0.142142
0.664804 0.594372 0.147563
0.698351 0.611268 0.153474
0.730950 0.628538 0.159693
0.760644 0.646073 0.166589
0.784510 0.663778 0.173916
0.807814 0.681567 0.181528
0.824655 0.699367 0.189295
0.839765 0.716395 0.196729
0.854338 0.729413 0.203921
0.868385 0.740396 0.211050
0.881917 0.749084 0.218073
0.894949 0.757570 0.225135
0.903481 0.765850 0.232081
0.911015 0.773919 0.239523
0.171549 0.650728 0.111346
0.173857 0.650068 0.111425
0.182285 0.647747 0.111703
0.196507 0.643676 0.112200
0.219755 0.638034 0.112911
0.251537 0.631174 0.113818
0.282856 0.623554 0.114896
0.315747 0.615672 0.116119
0.346359 0.608011 0.117686
0.376963 0.601007 0.119405
0.407648 0.595021 0.121237
0.437818 0.590336 0.123173
0.467644 0.587152 0.125354
0.497323 0.585590 0.127727
0.526997 0.585699 0.130206
0.552445 0.587464 0.132855
0.577963 0.590819 0.135761
0.603614 0.595661 0.139289
0.629426 0.601863 0.143048
0.657945 0.612174 0.147439
0.690759 0.628030 0.153129
0.723082 0.644333 0.159093
0.754117 0.660979 0.165801
0.777768 0.677873 0.172864
0.800864 0.694926 0.180286
0.819780 0.712062 0.187907
0.834869 0.725327 0.195311
0.849453 0.737391 0.202416
0.863540 0.745961 0.209469
0.877134 0.754370 0.216440
0.890247 0.762605 0.223425
0.900598 0.770658 0.230347
0.908214 0.778522 0.237591
0.175899 0.683683 0.113555
0.178246 0.683101 0.113627
0.186039 0.681047 0.113882
0.200065 0.677425 0.114338
0.223006 0.672363 0.114995
0.254352 0.666137 0.115838
0.285069 0.659121 0.116957
0.317897 0.651735 0.118322
0.348436 0.644400 0.119833
0.379327 0.637509 0.121471
0.410328 0.631403 0.123219
0.440823 0.626360 0.125196
0.470920 0.622593 0.127357
0.500774 0.620249 0.129620
0.529986 0.619411 0.131992
0.555345 0.620107 0.134630
0.580679 0.622316 0.137714
0.606073 0.625976 0.141125
0.631576 0.630994 0.144776
0.657210 0.637263 0.148532
0.684296 0.646184 0.153069
0.716283 0.661517 0.158810
0.746763 0.677254 0.165323
0.771771 0.693304 0.172141
0.794606 0.709581 0.179388
0.815331 0.722964 0.186825
0.830355 0.735104 0.194162
0.844909 0.743803 0.201161
0.858993 0.752037 0.208119
0.872612 0.760143 0.215019
0.885771 0.768105 0.221913
0.897830 0.775910 0.228791
0.905510 0.783317 0.235840
0.180350 0.715261 0.115634
0.182480 0.714879 0.115700
0.190057 0.713249 0.115934
0.203819 0.710026 0.116374
0.226695 0.705490 0.117095
0.257045 0.699856 0.118027
0.287111 0.693432 0.119150
0.319732 0.686568 0.120441
0.350085 0.679631 0.121879
0.381131 0.672970 0.123442
0.412359 0.666900 0.125249
0.443132 0.661687 0.127219
0.473498 0.657547 0.129292
0.503566 0.654640 0.131462
0.532474 0.653073 0.133862
0.557833 0.652904 0.136549
0.583079 0.654146 0.139672
0.608305 0.656772 0.143035
0.633581 0.660725 0.146545
0.658945 0.665923 0.150296
0.684415 0.672273 0.154468
0.710257 0.679984 0.158820
0.740375 0.694815 0.165136
0.766487 0.710010 0.171733
0.789030 0.722582 0.178797
0.811156 0.734124 0.186047
0.826239 0.742781 0.193286
0.840726 0.750734 0.200163
0.854774 0.758614 0.207010
0.868382 0.766397 0.213823
0.881553 0.774065 0.220614
0.894292 0.781527 0.227433
0.902924 0.788326 0.234288
0.184570 0.737452 0.117838
0.186619 0.737221 0.117910
0.193940 0.736403 0.118167
0.208060 0.734362 0.118630
0.230851 0.731381 0.119303
0.259679 0.727643 0.120177
0.289097 0.723328 0.121235
0.321318 0.718651 0.122459
0.351385 0.713670 0.123828
0.382463 0.707321 0.125480
0.413822 0.701403 0.127265
0.444805 0.696170 0.129160
0.475409 0.691829 0.131156
0.505696 0.688547 0.133346
0.534429 0.686445 0.135711
0.559848 0.685600 0.138605
0.585080 0.686052 0.141675
0.610220 0.687802 0.144946
0.635345 0.690822 0.148329
0.660508 0.695059 0.152159
0.685741 0.700440 0.156194
0.711059 0.706882 0.160560
0.735453 0.714297 0.165368
0.761863 0.724367 0.171621
0.784098 0.735159 0.178498
0.805958 0.743043 0.185563
0.822518 0.750607 0.192678
0.836911 0.758159 0.199421
0.850893 0.765670 0.206148
0.864461 0.773115 0.212858
0.877616 0.780474 0.219538
0.890360 0.787160 0.226282
0.900476 0.793717 0.232952
0.188928 0.752405 0.120028
0.190923 0.752204 0.120095
0.197686 0.751493 0.120334
0.212372 0.750223 0.120767
0.234980 0.748412 0.121397
0.262268 0.746125 0.122219
0.291020 0.743458 0.123219
0.322709 0.740534 0.124433
0.352400 0.737485 0.125883
0.383397 0.733643 0.127475
0.414792 0.729471 0.129191
0.445909 0.725687 0.131018
0.476700 0.722441 0.133023
0.507185 0.719857 0.135189
0.535847 0.718031 0.137810
0.561360 0.717034 0.140624
0.586630 0.716907 0.143674
0.611747 0.717670 0.146837
0.636789 0.719316 0.150238
0.661817 0.721823 0.154033
0.686873 0.725151 0.157943
0.711983 0.729248 0.162404
0.736119 0.734057 0.167080
0.758836 0.738511 0.172146
0.779761 0.744686 0.178471
0.801344 0.751767 0.185356
0.819180 0.758897 0.192328
0.833459 0.766044 0.198930
0.847352 0.773179 0.205527
0.860857 0.780277 0.212126
0.873971 0.786780 0.218689
0.886695 0.793174 0.225346
0.898177 0.799477 0.231938
0.193191 0.766573 0.122100
0.195028 0.766399 0.122163
0.202040 0.765780 0.122386
0.216465 0.764672 0.122792
0.239070 0.763086 0.123383
0.264815 0.761071 0.124186
0.292861 0.758706 0.125237
0.323945 0.756091 0.126465
0.353186 0.753338 0.127851
0.384001 0.750562 0.129379
0.415339 0.747880 0.131031
0.446511 0.745397 0.132863
0.477428 0.743211 0.134862
0.508073 0.741405 0.137227
0.536740 0.740046 0.139836
0.562363 0.739186 0.142662
0.587703 0.738862 0.145623
0.612842 0.739094 0.148692
0.637855 0.739888 0.152213
0.662804 0.741238 0.155897
0.687739 0.743127 0.159835
0.712693 0.745526 0.164265
0.736623 0.748404 0.168818
0.759079 0.751721 0.173936
0.777380 0.755439 0.179222
0.797266 0.760902 0.185408
0.816200 0.767605 0.192220
0.830353 0.774350 0.198679
0.844143 0.781072 0.205142
0.857566 0.787275 0.211621
0.870620 0.793441 0.218072
0.883304 0.799552 0.224624
0.895617 0.805591 0.231133
0.197246 0.780001 0.124078
0.199199 0.779850 0.124144
0.206528 0.779311 0.124377
0.220465 0.778344 0.124800
0.242594 0.776956 0.125419
0.267322 0.775185 0.126232
0.294634 0.773094 0.127231
0.325058 0.770765 0.128401
0.353784 0.768291 0.129728
0.384328 0.765773 0.131195
0.415526 0.763310 0.132855
0.446674 0.760997 0.134684
0.477651 0.758920 0.136824
0.508407 0.757157 0.139248
0.537138 0.755773 0.141857
0.562867 0.754819 0.144630
0.588291 0.754335 0.147513
0.613481 0.754346 0.150676
0.638504 0.754866 0.154148
0.663420 0.755897 0.157735
0.688282 0.757430 0.161805
0.713127 0.759448 0.166123
0.736905 0.761927 0.170707
0.759180 0.764836 0.175746
0.777356 0.768144 0.180928
0.795403 0.771815 0.186372
0.813549 0.776680 0.192338
0.827570 0.782842 0.198652
0.841246 0.788713 0.204980
0.854576 0.794588 0.211336
0.867556 0.800447 0.217674
0.880184 0.806270 0.224114
0.892460 0.812041 0.230532
0.201806 0.791756 0.126141
0.203712 0.791635 0.126203
0.211404 0.791204 0.126422
0.224361 0.790430 0.126821
0.246057 0.789315 0.127407
0.269785 0.787887 0.128178
0.296348 0.786192 0.129128
0.326013 0.784293 0.130245
0.354229 0.782261 0.131516
0.384427 0.780132 0.133005
0.415408 0.777891 0.134653
0.446457 0.775760 0.136589
0.477426 0.773818 0.138825
0.508239 0.772136 0.141226
0.537076 0.770773 0.143819
0.562895 0.769782 0.146524
0.588404 0.769200 0.149369
0.613658 0.769058 0.152642
0.638716 0.769374 0.156031
0.663633 0.770155 0.159650
0.688460 0.771400 0.163742
0.713237 0.773100 0.167961
0.736918 0.775237 0.172625
0.759101 0.777790 0.177556
0.777177 0.780727 0.182679
0.795118 0.783765 0.188013
0.812538 0.787106 0.193388
0.825082 0.791126 0.198833
0.838641 0.796659 0.205027
0.851871 0.802212 0.211257
0.864767 0.807766 0.217481
0.877328 0.813302 0.223809
0.889553 0.818803 0.230129
0.206533 0.802832 0.128096
0.208683 0.802727 0.128155
0.215907 0.802354 0.128362
0.229180 0.801681 0.128740
0.249451 0.800710 0.129295
0.272185 0.799463 0.130028
0.298009 0.797976 0.130933
0.326847 0.796301 0.132011
0.354548 0.794498 0.133319
0.384334 0.792634 0.134776
0.415030 0.790777 0.136523
0.445911 0.788994 0.138563
0.476808 0.787349 0.140759
0.507621 0.785900 0.143168
0.536590 0.784701 0.145698
0.562478 0.783794 0.148339
0.588060 0.783217 0.151336
0.613379 0.782997 0.154538
0.638484 0.783154 0.157852
0.663425 0.783699 0.161627
0.688246 0.784635 0.165633
0.712988 0.785959 0.169821
0.736621 0.787662 0.174517
0.758809 0.789728 0.179348
0.776811 0.792139 0.184421
0.794668 0.794873 0.189653
0.812165 0.797907 0.194840
0.824274 0.801215 0.199984
0.836302 0.804869 0.205268
0.849428 0.810110 0.211373
0.862235 0.815365 0.217480
0.874722 0.820618 0.223698
0.886886 0.825851 0.229918
0.211624 0.813314 0.129950
0.213545 0.813223 0.130005
0.220240 0.812900 0.130201
0.233959 0.812317 0.130559
0.252766 0.811475 0.131087
0.274521 0.810389 0.131785
0.299617 0.809090 0.132706
0.327615 0.807620 0.133803
0.354762 0.806031 0.135060
0.384083 0.804378 0.136637
0.414434 0.802720 0.138469
0.445084 0.801116 0.140455
0.475846 0.799622 0.142673
0.506600 0.798291 0.145023
0.535721 0.797171 0.147493
0.561647 0.796303 0.150200
0.587284 0.795722 0.153221
0.612660 0.795456 0.156357
0.637815 0.795526 0.159733
0.662789 0.795946 0.163537
0.687624 0.796722 0.167466
0.712356 0.797855 0.171757
0.735986 0.799341 0.176366
0.758279 0.801169 0.181127
0.776230 0.803327 0.186138
0.794026 0.805796 0.191276
0.811673 0.808557 0.196281
0.823734 0.811589 0.201335
0.835625 0.814871 0.206488
0.847348 0.818381 0.211739
0.859940 0.823212 0.217659
0.872348 0.828188 0.223771
0.884447 0.833158 0.229888
0.216292 0.823231 0.131705
0.218097 0.823152 0.131757
0.224404 0.822874 0.131951
0.238600 0.822371 0.132316
0.255967 0.821642 0.132855
0.276800 0.820701 0.133569
0.301174 0.819572 0.134456
0.328325 0.818290 0.135508
0.354887 0.816899 0.136938
0.383696 0.815445 0.138550
0.413652 0.813979 0.140325
0.444014 0.812551 0.142340
0.474584 0.811213 0.144500
0.505225 0.810011 0.146792
0.534507 0.808988 0.149223
0.560438 0.808182 0.152061
0.586105 0.807627 0.155022
0.611523 0.807350 0.158098
0.636722 0.807372 0.161636
0.661732 0.807708 0.165373
0.686589 0.808368 0.169235
0.711328 0.809355 0.173629
0.734993 0.810669 0.178159
0.757492 0.812303 0.182888
