velvia/Velvia50_Modern_IlfochromeM.cube
TITLE "Velvia 50 Modern IlfochromeM"
# Adobe RGB in/out. REPLACES AgX. Velvia 50 Modern IlfochromeM.
LUT_3D_SIZE 9
DOMAIN_MIN 0.0 0.0 0.0
DOMAIN_MAX 1.0 1.0 1.0
0.118305 0.082367 0.079686
0.190764 0.115987 0.086181
0.392509 0.211418 0.105444
0.577164 0.317771 0.126260
0.725078 0.423063 0.149957
0.822332 0.519669 0.179120
0.877939 0.607819 0.208652
0.914596 0.689295 0.235977
0.939709 0.746398 0.262927
0.121601 0.144399 0.082056
0.163122 0.139555 0.084665
0.331152 0.217396 0.100051
0.539108 0.322363 0.121990
0.699089 0.427417 0.145953
0.812839 0.523027 0.175094
0.871308 0.610863 0.205668
0.911601 0.692129 0.233369
0.937504 0.747731 0.260971
0.135573 0.336794 0.090183
0.191267 0.312292 0.092978
0.301303 0.291303 0.100137
0.464635 0.352321 0.115788
0.636188 0.446302 0.137292
0.775217 0.537228 0.164981
0.851342 0.622992 0.197117
0.902129 0.703008 0.226134
0.930333 0.752718 0.254799
0.153690 0.508088 0.101414
0.206075 0.487825 0.103416
0.332434 0.452141 0.109256
0.448321 0.445617 0.117670
0.584889 0.492310 0.132546
0.728165 0.570255 0.156403
0.825988 0.649332 0.187122
0.884219 0.722573 0.216947
0.919679 0.762586 0.246098
0.171549 0.650728 0.111346
0.219755 0.638034 0.112911
0.346359 0.608011 0.117686
0.467644 0.587152 0.125354
0.577963 0.590819 0.135761
0.690759 0.628030 0.153129
0.800864 0.694926 0.180286
0.863540 0.745961 0.209469
0.908214 0.778522 0.237591
0.188928 0.752405 0.120028
0.234980 0.748412 0.121397
0.352400 0.737485 0.125883
0.476700 0.722441 0.133023
0.586630 0.716907 0.143674
0.686873 0.725151 0.157943
0.779761 0.744686 0.178471
0.847352 0.773179 0.205527
0.898177 0.799477 0.231938
0.206533 0.802832 0.128096
0.249451 0.800710 0.129295
0.354548 0.794498 0.133319
0.476808 0.787349 0.140759
0.588060 0.783217 0.151336
0.688246 0.784635 0.165633
0.776811 0.792139 0.184421
0.836302 0.804869 0.205268
0.886886 0.825851 0.229918
0.225091 0.841469 0.135168
0.262013 0.840304 0.136354
0.354912 0.836783 0.140612
0.471313 0.832468 0.147894
0.582665 0.829673 0.158369
0.683309 0.830271 0.172884
0.773004 0.835151 0.191001
0.833124 0.844222 0.210173
0.878703 0.853070 0.231007
0.243964 0.863543 0.142191
0.272755 0.863172 0.143317
0.354236 0.862054 0.147182
0.462598 0.860731 0.154268
0.572300 0.860087 0.164778
0.672346 0.860946 0.179085
0.764976 0.863817 0.196212
0.827660 0.868820 0.214405
0.873238 0.875749 0.234541
0.118305 0.084244 0.187667
0.195840 0.119683 0.191032
0.392488 0.212142 0.197665
0.567498 0.312125 0.204761
0.714047 0.414499 0.219372
0.817359 0.512366 0.237749
0.874307 0.602017 0.258454
0.912956 0.684759 0.278712
0.938541 0.744654 0.298176
0.121003 0.137202 0.154473
0.150670 0.123692 0.125874
0.320218 0.210627 0.160543
0.526479 0.314115 0.188018
0.686733 0.417720 0.210163
0.806056 0.515446 0.231354
0.867671 0.604970 0.254168
0.909967 0.687571 0.275626
0.936345 0.745992 0.295898
0.133740 0.319254 0.182570
0.183349 0.291512 0.162939
0.279648 0.269787 0.144758
0.445292 0.336789 0.160732
0.622758 0.434983 0.189179
0.767868 0.529031 0.215646
0.847742 0.616873 0.241352
0.900527 0.698408 0.266195
0.929211 0.751006 0.288684
0.151811 0.490838 0.183701
0.200680 0.471397 0.176092
0.321363 0.435962 0.162593
0.433288 0.430145 0.159061
0.573828 0.481065 0.174170
0.719593 0.561865 0.200709
0.822627 0.643166 0.226804
0.881842 0.719224 0.253850
0.918636 0.760952 0.278526
0.170069 0.639447 0.182764
0.216486 0.627075 0.179992
0.340909 0.597475 0.174024
0.459536 0.576733 0.171548
0.570120 0.581210 0.176772
0.684174 0.620873 0.192920
0.796875 0.689326 0.216944
0.861512 0.743865 0.242894
0.907311 0.777057 0.268613
0.187789 0.748688 0.182369
0.232471 0.744749 0.181664
0.349244 0.732886 0.180352
0.472308 0.717405 0.181155
0.582149 0.711255 0.186511
0.682246 0.720821 0.196991
0.776999 0.742497 0.212799
0.845832 0.771521 0.236186
0.897475 0.798391 0.261448
0.205490 0.800736 0.182699
0.248109 0.798640 0.182934
0.352736 0.792494 0.184157
0.474362 0.785412 0.187502
0.585574 0.781357 0.193963
0.685570 0.782922 0.203760
0.774932 0.790680 0.217151
0.835328 0.803843 0.234089
0.886147 0.825104 0.257895
0.224370 0.840209 0.183440
0.261215 0.839059 0.184111
0.353874 0.835582 0.186615
0.469957 0.831328 0.191499
0.581317 0.828604 0.198788
0.681868 0.829297 0.208907
0.771979 0.834316 0.221957
0.832530 0.843571 0.238348
0.878275 0.852766 0.257811
0.243543 0.863061 0.184217
0.272304 0.862696 0.185083
0.353672 0.861599 0.188190
0.461890 0.860308 0.193779
0.571622 0.859706 0.201699
0.671655 0.860616 0.212191
0.764510 0.863553 0.225276
0.827415 0.868637 0.241589
0.873100 0.875657 0.260280
0.118305 0.089180 0.403774
0.195840 0.123547 0.405174
0.401340 0.219513 0.410157
0.582641 0.323320 0.401980
0.712127 0.414315 0.387146
0.813022 0.506723 0.384505
0.869309 0.594517 0.386844
0.910063 0.677103 0.391535
0.936121 0.741148 0.397479
0.122609 0.164361 0.404264
0.195877 0.188674 0.398961
0.361062 0.240456 0.368804
0.535155 0.321367 0.363992
0.681862 0.414948 0.367327
0.798842 0.508613 0.373004
0.862413 0.596908 0.379936
0.907012 0.679660 0.387317
0.933910 0.742441 0.394514
0.130819 0.281103 0.337491
0.172879 0.262678 0.303567
0.240881 0.231869 0.236947
0.427918 0.323851 0.287489
0.608617 0.423278 0.320112
0.757817 0.518243 0.342249
0.841697 0.606989 0.358990
0.897391 0.689692 0.372801
0.926739 0.747327 0.385064
0.147588 0.453809 0.348574
0.191149 0.437882 0.331677
0.298463 0.403126 0.293301
0.402091 0.395928 0.268528
0.552869 0.460150 0.285562
0.702699 0.546166 0.311874
0.815779 0.630917 0.334321
0.876624 0.711210 0.353361
0.916170 0.757157 0.369795
0.166309 0.611431 0.345094
0.208317 0.600412 0.336846
0.328123 0.572971 0.315102
0.440497 0.552458 0.294097
0.550963 0.557995 0.285039
0.668601 0.604142 0.295149
0.787278 0.676054 0.315989
0.856497 0.738743 0.336155
0.904994 0.773349 0.354758
0.184744 0.738451 0.335174
0.225662 0.734093 0.331135
0.341110 0.719267 0.319543
0.460827 0.700787 0.306438
0.570259 0.694014 0.298079
0.669704 0.707319 0.297605
0.769617 0.736682 0.306758
0.841700 0.767053 0.324967
0.894824 0.795418 0.343270
0.202846 0.794588 0.323267
0.244195 0.792598 0.321372
0.347522 0.786730 0.315764
0.467420 0.779856 0.308989
0.578519 0.775695 0.304392
0.677889 0.777783 0.304302
0.769453 0.786445 0.309431
0.832516 0.800907 0.319584
0.883982 0.822935 0.336487
0.222447 0.836337 0.311071
0.258766 0.835244 0.310342
0.350712 0.831937 0.308196
0.465869 0.827903 0.305799
0.577274 0.825410 0.304856
0.677537 0.826381 0.306784
0.768867 0.831797 0.312314
0.830713 0.841590 0.321445
0.876953 0.851836 0.333711
0.242199 0.861526 0.299094
0.270866 0.861184 0.299011
0.351882 0.860159 0.298907
0.459658 0.858980 0.299380
0.569496 0.858513 0.301282
0.669491 0.859588 0.305370
0.763046 0.862729 0.312137
0.826641 0.868065 0.321694
0.872663 0.875370 0.333892
0.118305 0.097835 0.602412
0.195840 0.130317 0.603261
0.401340 0.224350 0.606299
0.605591 0.342653 0.611838
0.736178 0.435750 0.577067
0.817815 0.515644 0.547842
0.869600 0.596283 0.532389
0.908929 0.674936 0.523479
0.934510 0.739096 0.517940
0.122609 0.170780 0.602709
0.198230 0.197668 0.603557
0.402968 0.273646 0.606594
0.580473 0.357933 0.584086
0.705007 0.435458 0.549909
0.804777 0.516504 0.532531
0.862305 0.597964 0.523075
0.905747 0.677069 0.517447
0.932240 0.740278 0.513839
0.131194 0.289352 0.519249
0.180936 0.288556 0.499883
0.309889 0.303219 0.469008
0.465744 0.355962 0.468345
0.621957 0.436634 0.480103
0.759636 0.521604 0.489507
0.840122 0.605350 0.495305
0.895043 0.685592 0.498701
0.924873 0.744785 0.500716
0.143852 0.420592 0.488251
0.183644 0.409251 0.470611
0.283639 0.382077 0.424131
0.369515 0.362702 0.374308
0.543788 0.451928 0.414228
0.694800 0.539675 0.441892
0.811708 0.624293 0.460658
0.872777 0.704555 0.473257
0.914017 0.754035 0.481814
0.162042 0.578815 0.489766
0.199601 0.570084 0.479716
0.313074 0.546994 0.451125
0.420131 0.526874 0.418835
0.528729 0.531526 0.400500
0.653148 0.587953 0.413099
0.778233 0.663980 0.433383
0.851663 0.732953 0.449961
0.902621 0.769692 0.462690
0.181017 0.720039 0.481492
0.218642 0.715448 0.475934
0.331147 0.698255 0.459204
0.447015 0.679769 0.438000
0.555713 0.673243 0.420828
0.653949 0.687765 0.413377
0.760899 0.727101 0.419768
0.836864 0.761929 0.434423
0.891183 0.791997 0.447790
0.199289 0.786000 0.466807
0.238730 0.784220 0.463785
0.340717 0.778771 0.454350
0.458268 0.772006 0.441497
0.569301 0.768258 0.429688
0.667728 0.770764 0.422468
0.762079 0.780793 0.421344
0.828869 0.797161 0.426778
0.881155 0.820161 0.438576
0.219624 0.830673 0.449115
0.255190 0.829687 0.447561
0.346156 0.826703 0.442613
0.460092 0.823085 0.435633
0.571634 0.820990 0.428941
0.671508 0.822357 0.424654
0.764490 0.828293 0.424042
0.828133 0.838819 0.427325
0.875113 0.850567 0.433898
0.240141 0.859187 0.430202
0.268644 0.858885 0.429522
0.349170 0.857991 0.427361
0.456319 0.857006 0.424369
0.566352 0.856768 0.421733
0.666312 0.858096 0.420647
0.760894 0.861538 0.421955
0.825499 0.867240 0.425991
0.872019 0.874965 0.432593
0.118305 0.108673 0.776164
0.195840 0.139799 0.776567
0.401340 0.231416 0.778009
0.605591 0.347840 0.780647
0.768600 0.467539 0.775261
0.830080 0.537009 0.731340
0.875817 0.608491 0.693560
0.910358 0.680550 0.668878
0.934514 0.739754 0.651332
0.122609 0.180091 0.776305
0.198230 0.205713 0.776707
0.402968 0.279817 0.778149
0.606453 0.381527 0.780786
0.742689 0.468553 0.751342
0.819064 0.537828 0.711305
0.868283 0.609805 0.681261
0.907061 0.682336 0.660963
0.932173 0.740812 0.646027
0.134517 0.336970 0.762544
0.199595 0.343247 0.752149
0.366277 0.365385 0.723223
0.527524 0.410116 0.689197
0.659198 0.471394 0.667073
0.775309 0.541522 0.653452
0.844997 0.615419 0.643936
0.896406 0.689468 0.636113
0.924546 0.744860 0.628956
0.143270 0.417221 0.637877
0.184052 0.413680 0.624437
0.300062 0.409366 0.589610
0.427038 0.427298 0.564806
0.569835 0.480324 0.569708
0.707176 0.552881 0.584231
0.813906 0.629672 0.595367
0.872650 0.705489 0.601633
0.913214 0.753261 0.604048
0.158681 0.552591 0.618796
0.193838 0.546652 0.608367
0.302683 0.530192 0.576707
0.408619 0.513114 0.536136
0.503195 0.505495 0.499571
0.647488 0.582886 0.530304
0.775037 0.660546 0.552968
0.849431 0.730281 0.568403
0.901213 0.767791 0.578125
0.177127 0.695354 0.612129
0.211705 0.690516 0.605656
0.320935 0.676443 0.585521
0.434197 0.660678 0.558184
0.541716 0.653695 0.533063
0.637526 0.667739 0.519919
0.752850 0.718756 0.529823
0.832949 0.757973 0.545406
0.888232 0.789382 0.557618
0.195695 0.775999 0.597858
0.231827 0.774387 0.594065
0.333363 0.769546 0.581958
0.448614 0.763775 0.564660
0.559723 0.760611 0.547353
0.656946 0.763381 0.534794
0.753963 0.774208 0.529925
0.825191 0.793486 0.534738
0.878374 0.817529 0.545101
0.216292 0.824017 0.577721
0.250925 0.823186 0.575598
0.341125 0.820672 0.568699
0.453548 0.817670 0.558491
0.565371 0.816139 0.547740
0.664857 0.817977 0.539175
0.759604 0.824448 0.534669
0.825235 0.835772 0.534767
0.873361 0.849419 0.539088
0.237410 0.856336 0.554290
0.265927 0.856091 0.553211
0.345892 0.855382 0.549676
0.452331 0.854673 0.544382
0.562656 0.854746 0.538768
0.662626 0.856399 0.534375
0.758410 0.860196 0.532371
0.824183 0.866323 0.533295
0.871290 0.874542 0.536999
0.118305 0.123449 0.873840
0.195840 0.151904 0.873978
0.401340 0.240727 0.874474
0.605591 0.354284 0.875382
0.777745 0.481835 0.876731
0.844919 0.563861 0.853273
0.885698 0.627753 0.825457
0.913862 0.692722 0.796306
0.936079 0.743056 0.774441
0.122609 0.191987 0.873888
0.198230 0.216053 0.874026
0.402968 0.287954 0.874522
0.606453 0.388063 0.875430
0.774001 0.503682 0.874412
0.834324 0.565489 0.842809
0.878201 0.629195 0.815748
0.910526 0.694392 0.789527
0.933691 0.744029 0.769847
0.135573 0.354371 0.874062
0.208277 0.367844 0.874200
0.408763 0.418515 0.874695
0.574099 0.461077 0.852718
0.701318 0.512177 0.829445
0.798169 0.570941 0.804451
0.854717 0.634749 0.783783
0.899768 0.700882 0.767877
0.925864 0.747731 0.754894
0.146083 0.448808 0.802619
0.192431 0.450590 0.796258
0.332005 0.459734 0.778716
0.477711 0.483538 0.760428
0.610997 0.525728 0.748967
0.734830 0.582341 0.743491
0.822328 0.647211 0.740244
0.876709 0.714809 0.736905
0.914086 0.755365 0.732348
0.157482 0.545116 0.747575
0.192433 0.542501 0.741295
0.304913 0.536273 0.717719
0.424065 0.535315 0.685185
0.545554 0.555155 0.666764
0.666952 0.605857 0.672308
0.782097 0.671987 0.684919
0.851331 0.734167 0.694363
0.901337 0.768596 0.699169
0.173967 0.674361 0.734273
0.205932 0.671055 0.728088
0.313060 0.661326 0.707401
0.426581 0.650166 0.677779
0.534351 0.644266 0.647185
0.621535 0.648636 0.621723
0.749469 0.716587 0.644492
0.831740 0.757183 0.661096
0.886983 0.788592 0.671944
0.192436 0.765882 0.720321
0.225186 0.764651 0.716229
0.326414 0.760936 0.702942
0.439912 0.756483 0.683238
0.551369 0.754100 0.662205
0.647027 0.756714 0.645033
0.743566 0.767714 0.637099
0.822074 0.790528 0.644456
0.876232 0.815669 0.654943
0.212789 0.817070 0.700113
0.246451 0.816425 0.697694
0.335922 0.814491 0.689733
0.446938 0.812267 0.677623
0.559196 0.811447 0.664260
0.658356 0.813786 0.652722
0.754710 0.820686 0.645471
0.822292 0.832765 0.643724
0.871712 0.848407 0.647615
0.234242 0.853225 0.674845
0.262946 0.853051 0.673533
0.342481 0.852569 0.669180
0.448051 0.852202 0.662473
0.558760 0.852657 0.654972
0.658808 0.854686 0.648438
0.755857 0.858867 0.644308
0.822841 0.865438 0.643348
0.870581 0.874183 0.645435
0.118305 0.140165 0.918658
0.195840 0.167989 0.918733
0.401340 0.252587 0.919000
0.605591 0.361997 0.919491
0.777745 0.488091 0.920221
0.858443 0.590415 0.911759
0.896380 0.649547 0.892009
0.918379 0.708617 0.874786
0.938672 0.748204 0.856931
0.122609 0.206033 0.918684
0.198230 0.228486 0.918759
0.402968 0.297858 0.919026
0.606453 0.396251 0.919516
0.778178 0.514177 0.920246
0.848546 0.593267 0.905802
0.889134 0.651482 0.887936
0.915086 0.710412 0.871118
0.936277 0.749156 0.853544
0.135573 0.362082 0.918778
0.208277 0.375276 0.918852
0.408763 0.426229 0.919119
0.608977 0.501808 0.919373
0.736706 0.549572 0.902355
0.818197 0.602024 0.887303
0.866199 0.658292 0.872163
0.904385 0.716385 0.856388
0.928383 0.752721 0.842405
0.150099 0.489925 0.893835
0.203107 0.493561 0.891864
0.359776 0.506947 0.885764
0.519783 0.532106 0.875432
0.649056 0.569134 0.863635
0.763152 0.616585 0.851463
0.833855 0.671535 0.841502
0.883692 0.726466 0.833075
0.916348 0.759911 0.825495
0.159047 0.561061 0.846300
0.195868 0.561370 0.843385
0.319046 0.564241 0.834512
0.452435 0.575156 0.822781
0.579851 0.600251 0.809666
0.697177 0.641549 0.803365
0.796931 0.695105 0.801412
0.857047 0.741742 0.800270
0.903016 0.772154 0.798047
0.172579 0.665581 0.821857
0.203643 0.663978 0.817888
0.311306 0.659682 0.805116
0.429502 0.656746 0.786690
0.545206 0.662016 0.768744
0.649475 0.685942 0.759565
0.760431 0.729245 0.762860
0.834888 0.761412 0.769339
0.888119 0.790320 0.773711
0.189750 0.757811 0.806856
0.220928 0.756999 0.804049
0.320588 0.754587 0.794791
0.434022 0.751872 0.780593
0.546794 0.750936 0.764563
0.642025 0.753746 0.749825
0.733670 0.761650 0.738645
0.821039 0.789944 0.749651
0.875544 0.815441 0.757130
0.209392 0.810569 0.792301
0.242226 0.810128 0.790539
0.331073 0.808840 0.784669
0.440976 0.807518 0.775514
0.553867 0.807550 0.764994
0.652894 0.810422 0.755296
0.749159 0.817472 0.748414
0.819480 0.830003 0.746199
0.870366 0.847681 0.749822
0.231027 0.850101 0.774114
0.259922 0.850005 0.773107
0.339042 0.849779 0.769738
0.443800 0.849798 0.764445
0.554970 0.850685 0.758337
0.655184 0.853127 0.752744
0.753193 0.857691 0.748845
0.821595 0.864685 0.747399
0.869981 0.873960 0.748419
0.118305 0.159159 0.946274
0.195840 0.187275 0.946306
0.401340 0.266014 0.946425
0.605591 0.371183 0.946641
0.777745 0.495632 0.946964
0.868726 0.613356 0.945306
0.902393 0.670314 0.932255
0.922856 0.722433 0.915182
0.941594 0.754131 0.901131
0.122609 0.221842 0.946285
0.198230 0.243045 0.946318
0.402968 0.309476 0.946436
0.606453 0.406073 0.946653
0.778178 0.521358 0.946976
0.859646 0.617554 0.941925
0.898089 0.672932 0.928704
0.919667 0.723975 0.912342
0.939231 0.755119 0.899103
0.135573 0.371266 0.946326
0.208277 0.385526 0.946359
0.408763 0.434966 0.946477
0.609532 0.509709 0.946694
0.760887 0.580445 0.941675
0.831397 0.630152 0.931000
0.876947 0.681700 0.915798
0.909234 0.729496 0.903031
0.931402 0.758748 0.892376
0.153375 0.527441 0.938754
0.214160 0.531714 0.937644
0.382467 0.546514 0.934018
0.548671 0.571910 0.926497
0.680046 0.606587 0.916126
0.784468 0.648882 0.906022
0.845408 0.697036 0.896923
0.891655 0.738850 0.888963
0.919328 0.765838 0.881336
0.162000 0.589877 0.903062
0.202286 0.591725 0.901812
0.335343 0.599003 0.897826
0.479537 0.614329 0.892117
0.608790 0.639915 0.886223
0.725089 0.676211 0.880252
0.812927 0.719683 0.874863
0.864577 0.750821 0.870267
0.905691 0.777558 0.865305
0.173066 0.672190 0.879560
0.204897 0.672205 0.878075
0.316407 0.673219 0.873283
0.441612 0.678444 0.865887
0.564265 0.692556 0.856888
0.673999 0.718299 0.850791
0.775310 0.744487 0.848196
0.841148 0.769296 0.847441
0.891293 0.794228 0.846672
0.188158 0.753558 0.865683
0.218586 0.753200 0.864068
0.317861 0.752276 0.858700
0.432954 0.751861 0.850377
0.548990 0.753730 0.840975
0.649506 0.760060 0.832875
0.750596 0.773868 0.829100
0.824840 0.794732 0.830553
0.877009 0.817584 0.832914
0.206469 0.805313 0.854369
0.238671 0.805085 0.853272
0.327161 0.804488 0.849583
0.436493 0.804187 0.843724
0.550369 0.805288 0.836792
0.649981 0.808975 0.830091
0.746353 0.816218 0.824771
0.816934 0.827640 0.820273
0.869870 0.847658 0.825583
0.228002 0.847219 0.842331
0.257076 0.847204 0.841675
0.335830 0.847245 0.839466
0.439906 0.847675 0.835947
0.551608 0.849028 0.831796
0.652106 0.851904 0.827869
0.750647 0.856832 0.824979
0.820573 0.864170 0.823446
0.869568 0.873936 0.824386
0.118305 0.182520 0.966198
0.195840 0.207818 0.966223
0.401340 0.281453 0.966313
0.605591 0.382834 0.966478
0.777745 0.504445 0.966725
0.874486 0.630150 0.967056
0.906726 0.687924 0.953891
0.926540 0.733618 0.942500
0.943937 0.759868 0.932982
0.122609 0.239261 0.966207
0.198230 0.259745 0.966232
0.402968 0.322070 0.966322
0.606453 0.417491 0.966487
0.778178 0.529730 0.966733
0.866947 0.636838 0.964191
0.902713 0.691295 0.951599
0.923494 0.735437 0.940821
0.941916 0.760932 0.931752
0.135573 0.382927 0.966238
0.208277 0.397417 0.966263
0.408763 0.444922 0.966353
0.609532 0.518294 0.966518
0.774030 0.604255 0.965126
0.840989 0.653289 0.954193
0.885567 0.702306 0.944120
0.913464 0.740069 0.935268
0.934255 0.764769 0.925050
0.155922 0.557212 0.964008
0.221875 0.561818 0.962942
0.398649 0.577457 0.959374
0.568555 0.603293 0.953703
0.703216 0.637002 0.946848
0.801357 0.676497 0.939713
0.855255 0.718747 0.932910
0.898177 0.747916 0.923523
0.922318 0.772008 0.914382
0.165089 0.620210 0.939068
0.209731 0.622692 0.938410
0.349531 0.631691 0.936222
0.502045 0.648441 0.932794
0.632025 0.673482 0.926856
0.747708 0.706535 0.919984
0.823192 0.737483 0.913505
0.872018 0.760041 0.907556
0.908603 0.783324 0.902048
0.174913 0.689782 0.915953
0.209076 0.690866 0.915097
0.325175 0.695254 0.912286
0.456359 0.704997 0.908032
0.582353 0.720344 0.903348
0.694677 0.738863 0.899128
0.789072 0.756844 0.895729
0.847941 0.777971 0.892967
0.895284 0.799098 0.890427
0.187939 0.754078 0.900400
0.218448 0.754159 0.899661
0.318850 0.754703 0.897199
0.436861 0.756628 0.893378
0.556609 0.761330 0.889083
0.662194 0.770304 0.885364
0.762591 0.784197 0.882679
0.830378 0.801542 0.881290
0.879818 0.821259 0.880553
0.204537 0.802058 0.891635
0.235976 0.802047 0.891082
0.324642 0.802171 0.889217
0.434263 0.803001 0.886225
0.549619 0.805449 0.882227
0.651140 0.810550 0.877708
0.750036 0.819337 0.874291
0.820980 0.832920 0.872941
0.871043 0.848955 0.873426
0.225382 0.844677 0.884345
0.254615 0.844772 0.883989
0.333089 0.845197 0.882452
0.436689 0.846045 0.879981
0.548993 0.847883 0.877021
0.649959 0.851220 0.874158
0.749129 0.856516 0.871973
0.820033 0.864104 0.870938
0.869415 0.874168 0.871378
