velvia/Velvia50_Modern_Normal.cube
TITLE "Velvia 50 Modern Normal"
# Adobe RGB in/out. REPLACES AgX. Velvia 50 Modern Normal.
LUT_3D_SIZE 9
DOMAIN_MIN 0.0 0.0 0.0
DOMAIN_MAX 1.0 1.0 1.0
0.090873 0.083221 0.090772
0.093177 0.083308 0.090772
0.271804 0.086516 0.090772
0.780390 0.133724 0.090798
0.935669 0.357934 0.090847
0.970718 0.622477 0.090973
0.984581 0.816875 0.091196
0.989973 0.886566 0.091721
0.989973 0.935503 0.092897
0.090873 0.083756 0.090772
0.091669 0.083653 0.090772
0.163564 0.087111 0.090772
0.695582 0.140473 0.090791
0.923168 0.368814 0.090834
0.967195 0.629902 0.090957
0.983588 0.821744 0.091165
0.989973 0.889214 0.091666
0.989973 0.936160 0.092781
0.090920 0.163853 0.090772
0.093223 0.125977 0.090772
0.127596 0.107775 0.090772
0.473154 0.191827 0.090783
0.877444 0.421585 0.090815
0.955077 0.661985 0.090911
0.980556 0.832082 0.091104
0.988618 0.899352 0.091463
0.989973 0.938309 0.092411
0.091304 0.594646 0.090772
0.095046 0.536818 0.090772
0.165452 0.438964 0.090773
0.424248 0.419579 0.090786
0.800476 0.549405 0.090808
0.937176 0.743695 0.090866
0.972068 0.854069 0.091031
0.985516 0.920155 0.091316
0.989973 0.942303 0.092017
0.091940 0.855225 0.090777
0.097170 0.844680 0.090779
0.186875 0.817231 0.090786
0.480460 0.778951 0.090797
0.784735 0.785643 0.090813
0.919175 0.836314 0.090856
0.963959 0.891825 0.090980
0.982416 0.935287 0.091204
0.989973 0.947947 0.091728
0.093008 0.938181 0.090789
0.099119 0.936496 0.090790
0.198692 0.930193 0.090798
0.508181 0.919990 0.090809
0.803976 0.913076 0.090827
0.917301 0.923376 0.090875
0.956693 0.934657 0.090971
0.979872 0.946491 0.091164
0.987699 0.957289 0.091611
0.095117 0.958865 0.090801
0.102350 0.957971 0.090803
0.204668 0.954529 0.090810
0.508332 0.950550 0.090819
0.806581 0.949281 0.090851
0.917964 0.949697 0.090914
0.955645 0.953218 0.091011
0.975852 0.959649 0.091163
0.985912 0.967647 0.091542
0.097974 0.972924 0.090812
0.106226 0.972536 0.090814
0.205701 0.971363 0.090819
0.500690 0.969921 0.090841
0.796014 0.968983 0.090878
0.915577 0.969184 0.090947
0.954288 0.970818 0.091059
0.974690 0.973837 0.091211
0.984696 0.977970 0.091575
0.100661 0.982995 0.090822
0.109296 0.982818 0.090826
0.203787 0.982283 0.090838
0.468246 0.981650 0.090859
0.767427 0.981341 0.090910
0.910038 0.981753 0.090973
0.951411 0.983127 0.091097
0.972683 0.985514 0.091277
0.983878 0.988194 0.091707
0.090873 0.083221 0.091035
0.093637 0.083352 0.091059
0.271760 0.086563 0.091108
0.760166 0.125746 0.091159
0.930263 0.340266 0.091353
0.968877 0.606466 0.091729
0.984038 0.806179 0.092631
0.989973 0.882322 0.093854
0.989973 0.934641 0.096944
0.090873 0.083622 0.090859
0.091160 0.083421 0.090798
0.146071 0.086464 0.090889
0.661460 0.128519 0.091037
0.917234 0.346849 0.091211
0.965308 0.613194 0.091588
0.983040 0.811619 0.092373
0.989973 0.884954 0.093636
0.989973 0.935302 0.096475
0.090893 0.135878 0.090997
0.092528 0.107898 0.090901
0.112981 0.099364 0.090831
0.413972 0.163844 0.090890
0.861865 0.389238 0.091046
0.952450 0.643335 0.091296
0.980003 0.826925 0.091818
0.988246 0.895071 0.093089
0.989973 0.937612 0.095221
0.091214 0.545254 0.091005
0.094076 0.492206 0.090961
0.147398 0.391966 0.090899
0.373559 0.375940 0.090881
0.769741 0.518178 0.090953
0.932981 0.725693 0.091130
0.970827 0.848952 0.091477
0.985163 0.915971 0.092353
0.989973 0.941644 0.093837
0.091894 0.845857 0.090998
0.096662 0.835512 0.090977
0.178296 0.797832 0.090952
0.460923 0.757713 0.090942
0.764130 0.767461 0.090964
0.915996 0.830298 0.091073
0.962718 0.886595 0.091316
0.982108 0.934170 0.091883
0.989819 0.947549 0.093230
0.092902 0.936632 0.090995
0.098832 0.934688 0.090990
0.191313 0.927966 0.090980
0.502072 0.913698 0.090986
0.794978 0.907009 0.091026
0.915062 0.917966 0.091103
0.955712 0.933319 0.091252
0.979321 0.945890 0.091722
0.987535 0.956688 0.092809
0.094956 0.957985 0.090998
0.101938 0.956826 0.091000
0.199613 0.953416 0.091009
0.504927 0.949925 0.091033
0.801853 0.948733 0.091080
0.916672 0.949194 0.091152
0.954976 0.952407 0.091319
0.975496 0.959255 0.091691
0.985802 0.967365 0.092597
0.097879 0.972504 0.091003
0.105979 0.972122 0.091008
0.202765 0.970962 0.091027
0.490263 0.969539 0.091062
0.793312 0.968624 0.091116
0.914879 0.968857 0.091198
0.953922 0.970539 0.091391
0.974472 0.973621 0.091732
0.984632 0.977824 0.092592
0.100531 0.982765 0.091009
0.109097 0.982590 0.091016
0.202200 0.982065 0.091038
0.466547 0.981447 0.091079
0.766402 0.981158 0.091137
0.909564 0.981595 0.091242
0.951244 0.983000 0.091445
0.972593 0.985427 0.091828
0.983857 0.988159 0.092740
0.090873 0.083221 0.241225
0.093637 0.083419 0.246216
0.293116 0.087335 0.264679
0.795965 0.141909 0.235262
0.929357 0.339893 0.191896
0.967264 0.590803 0.184997
0.983287 0.792410 0.191086
0.989973 0.875140 0.203982
0.989973 0.932479 0.221336
0.090873 0.084255 0.242962
0.093641 0.085067 0.225845
0.216962 0.089497 0.152797
0.684775 0.138989 0.144840
0.914876 0.341180 0.150223
0.963405 0.596129 0.160294
0.982245 0.796791 0.174738
0.989750 0.877541 0.192356
0.989973 0.933285 0.212535
0.090873 0.103009 0.113492
0.091981 0.096559 0.098113
0.099816 0.088606 0.091725
0.359100 0.142767 0.095042
0.839275 0.358385 0.103879
0.948492 0.619336 0.117673
0.977820 0.815344 0.137460
0.987515 0.886937 0.159930
0.989973 0.935961 0.186370
0.091061 0.444017 0.124280
0.093212 0.397355 0.110264
0.123935 0.315096 0.095939
0.294868 0.292201 0.093225
0.733401 0.463005 0.094752
0.924889 0.688933 0.100826
0.968290 0.838733 0.111342
0.984385 0.906967 0.129488
0.989973 0.940110 0.154544
0.091775 0.822323 0.120618
0.095389 0.803228 0.113053
0.159161 0.749559 0.101983
0.398082 0.705719 0.096103
0.728527 0.717450 0.094674
0.906821 0.810093 0.096321
0.959351 0.874155 0.102318
0.981345 0.930979 0.112584
0.989283 0.946537 0.131434
0.092624 0.930797 0.111919
0.098041 0.928489 0.110077
0.178609 0.916025 0.103663
0.464002 0.897286 0.098946
0.764340 0.890974 0.096924
0.907813 0.903357 0.096827
0.953077 0.929691 0.099057
0.977821 0.944100 0.106525
0.987082 0.955040 0.118729
0.094483 0.954579 0.105399
0.100732 0.953474 0.104355
0.188656 0.950312 0.102233
0.479915 0.948309 0.099828
0.787713 0.947177 0.098308
0.912944 0.947746 0.098286
0.953018 0.950228 0.099981
0.974467 0.958080 0.103679
0.985481 0.966544 0.112809
0.097584 0.971214 0.100548
0.105221 0.970849 0.100296
0.194110 0.969743 0.099554
0.476144 0.968389 0.098726
0.780988 0.967480 0.098417
0.912773 0.967847 0.099066
0.952808 0.969696 0.100979
0.973806 0.972964 0.104383
0.984434 0.977376 0.110967
0.100160 0.982031 0.097133
0.108589 0.981867 0.097116
0.197276 0.981376 0.097094
0.461214 0.980810 0.097192
0.763187 0.980587 0.097583
0.907621 0.981102 0.098577
0.950695 0.982606 0.100917
0.972308 0.985154 0.104476
0.983791 0.988049 0.111053
0.090873 0.083221 0.825274
0.093637 0.083525 0.826578
0.293116 0.087840 0.829869
0.834452 0.173549 0.835863
0.941042 0.391374 0.785767
0.969045 0.613630 0.725158
0.983331 0.795646 0.686650
0.989973 0.873103 0.659333
0.989973 0.931199 0.640487
0.090873 0.084380 0.825738
0.093843 0.085591 0.826899
0.296909 0.100609 0.830188
0.791621 0.204888 0.796683
0.925986 0.390559 0.730383
0.964977 0.615514 0.686999
0.982228 0.798729 0.657949
0.989457 0.875108 0.638826
0.989973 0.931936 0.626755
0.090873 0.106689 0.644909
0.092362 0.106320 0.593445
0.135003 0.115991 0.489621
0.475840 0.200225 0.487537
0.860585 0.393846 0.529602
0.949260 0.626750 0.560790
0.977246 0.812320 0.578849
0.987114 0.883102 0.589654
0.989973 0.934705 0.596123
0.091022 0.352782 0.556567
0.092549 0.329702 0.496049
0.115132 0.263418 0.320843
0.230373 0.214366 0.162657
0.708490 0.438323 0.280602
0.921116 0.669230 0.394059
0.966774 0.833176 0.464722
0.983809 0.900791 0.506799
0.989973 0.938844 0.535194
0.091629 0.762240 0.561586
0.093944 0.743326 0.528343
0.138163 0.691472 0.433940
0.338817 0.638468 0.299553
0.667400 0.648984 0.230608
0.892877 0.780411 0.276106
0.956150 0.862779 0.357774
0.980605 0.927995 0.429126
0.988733 0.945158 0.470682
0.092367 0.916988 0.534139
0.096997 0.911253 0.516148
0.163557 0.894929 0.460487
0.419796 0.877644 0.377115
0.739703 0.871511 0.307426
0.893602 0.885136 0.277208
0.949791 0.925449 0.303215
0.976058 0.942039 0.362060
0.986546 0.953139 0.420260
0.093921 0.950098 0.482914
0.099544 0.949575 0.473917
0.177999 0.948015 0.446529
0.457909 0.946084 0.392313
0.762891 0.944584 0.342873
0.906037 0.945587 0.314030
0.950288 0.948567 0.309489
0.973128 0.956006 0.331492
0.985061 0.965492 0.379586
0.097149 0.969319 0.425656
0.104110 0.968988 0.419335
0.186567 0.967969 0.397268
0.462247 0.966601 0.367101
0.766420 0.965807 0.339926
0.909432 0.966325 0.323010
0.951236 0.968520 0.320477
0.972858 0.972042 0.333610
0.984159 0.976764 0.359895
0.099721 0.980910 0.344918
0.108041 0.980765 0.342217
0.191198 0.980336 0.333747
0.452259 0.979863 0.321831
0.758433 0.979749 0.311056
0.904763 0.980386 0.306704
0.949790 0.982036 0.311953
0.971888 0.984761 0.328467
0.983695 0.987893 0.354546
0.090873 0.083258 0.950927
0.093637 0.083656 0.951115
0.293116 0.088560 0.951789
0.834452 0.182654 0.953018
0.952713 0.482070 0.950505
0.973573 0.661484 0.922133
0.984264 0.818117 0.899218
0.989973 0.878377 0.880616
0.989973 0.931610 0.867215
0.090873 0.084730 0.950993
0.093843 0.086138 0.951181
0.296909 0.102595 0.951854
0.835825 0.262026 0.953083
0.943200 0.484721 0.938468
0.969509 0.663684 0.908011
0.983133 0.820546 0.889984
0.989762 0.880051 0.874590
0.989973 0.932269 0.863134
0.090905 0.164139 0.944294
0.093943 0.174555 0.938889
0.225177 0.219258 0.916176
0.664168 0.331429 0.895950
0.898350 0.492198 0.879244
0.955110 0.674802 0.868843
0.979018 0.825697 0.861521
0.987315 0.886728 0.855467
0.989973 0.934743 0.849902
0.091016 0.345825 0.856835
0.092577 0.338604 0.847352
0.126649 0.329932 0.805289
0.356767 0.368520 0.765902
0.763699 0.516159 0.774341
0.927015 0.706613 0.796909
0.967593 0.837690 0.814268
0.983790 0.901658 0.824056
0.989973 0.938529 0.827431
0.091501 0.705999 0.843538
0.093457 0.690422 0.832108
0.128654 0.645961 0.785207
0.310291 0.608098 0.695896
0.592542 0.587358 0.592444
0.887742 0.771122 0.681532
0.955013 0.859533 0.738101
0.980263 0.926834 0.772317
0.988405 0.944397 0.787411
0.092101 0.892224 0.836185
0.095910 0.887708 0.829173
0.146902 0.874520 0.798918
0.376047 0.859658 0.750295
0.702760 0.856369 0.688309
0.878666 0.866326 0.647181
0.946539 0.915386 0.680352
0.974626 0.940440 0.719020
0.986111 0.951683 0.748968
0.093624 0.947260 0.818158
0.098758 0.946821 0.812236
0.166829 0.945100 0.793372
0.425251 0.942782 0.765555
0.748425 0.941507 0.723924
0.896314 0.942624 0.692578
0.946903 0.946772 0.680602
0.971774 0.953967 0.692438
0.984646 0.964492 0.718255
0.096631 0.966954 0.786784
0.102802 0.966639 0.783485
0.178632 0.965686 0.772777
0.442408 0.964545 0.751015
0.756951 0.963963 0.724900
0.903452 0.964662 0.703438
0.949246 0.967117 0.692269
0.971790 0.971026 0.692509
0.983896 0.976210 0.703219
0.099395 0.979541 0.741185
0.107368 0.979424 0.738668
0.186149 0.979083 0.729794
0.438131 0.978742 0.716447
0.752852 0.978777 0.702424
0.901443 0.979571 0.691542
0.948742 0.981393 0.686605
0.971402 0.984323 0.688880
0.983585 0.987731 0.698033
0.090873 0.083417 0.979901
0.093637 0.083968 0.979926
0.293116 0.089537 0.980015
0.834452 0.196322 0.980179
0.955977 0.520280 0.980423
0.978990 0.729962 0.976803
0.985736 0.836081 0.972343
0.989973 0.889768 0.960264
0.989973 0.933667 0.950122
0.090873 0.085194 0.979909
0.093843 0.086968 0.979934
0.296909 0.106041 0.980024
0.835825 0.275618 0.980188
0.954644 0.582120 0.980004
0.975129 0.733447 0.975313
0.984621 0.837291 0.968441
0.989973 0.891327 0.957138
0.989973 0.934273 0.947968
0.090920 0.196523 0.979941
0.095383 0.223805 0.979966
0.310636 0.348485 0.980055
0.770150 0.465372 0.976726
0.924231 0.606055 0.973781
0.963170 0.745175 0.963998
0.981073 0.841937 0.954477
0.988070 0.897374 0.947042
0.989973 0.936160 0.940320
0.091046 0.428986 0.963160
0.093329 0.434303 0.960242
0.164819 0.461947 0.952118
0.510598 0.524951 0.943197
0.843072 0.635905 0.937226
0.940416 0.769931 0.934024
0.970717 0.852311 0.930675
0.984398 0.910454 0.927228
0.989973 0.939384 0.922871
0.091455 0.685723 0.936497
0.093329 0.677766 0.931759
0.130371 0.659800 0.912121
0.348964 0.657610 0.892938
0.713393 0.711424 0.879009
0.905338 0.813255 0.883218
0.957521 0.870329 0.892738
0.980555 0.928521 0.899819
0.988434 0.944719 0.903406
0.092015 0.872563 0.924510
0.095024 0.869451 0.919751
0.138149 0.860271 0.906667
0.355560 0.854760 0.887358
0.682587 0.849866 0.864026
0.859908 0.853492 0.845864
0.945432 0.912675 0.861950
0.974183 0.940120 0.874691
0.985926 0.951243 0.882942
0.093330 0.943630 0.914040
0.097985 0.943135 0.911021
0.156712 0.941638 0.905125
0.396017 0.939837 0.891474
0.729670 0.938870 0.875537
0.887323 0.939930 0.862367
0.943489 0.944365 0.856232
0.970623 0.952322 0.861922
0.984326 0.963783 0.869985
0.096081 0.964317 0.904109
0.101428 0.964071 0.902306
0.170661 0.963334 0.896352
0.419533 0.962485 0.887239
0.747449 0.962172 0.877104
0.897588 0.963065 0.868282
0.947179 0.965691 0.862705
0.970704 0.970020 0.861357
0.983649 0.975721 0.864356
0.099035 0.978045 0.885140
0.106514 0.977961 0.884146
0.180750 0.977729 0.880845
0.423324 0.977552 0.875741
0.746478 0.977771 0.870007
0.897997 0.978748 0.864990
0.947664 0.980756 0.861808
0.970907 0.983901 0.861067
0.983479 0.987593 0.862677
0.090873 0.083661 0.987717
0.093637 0.084326 0.987725
0.293116 0.092440 0.987752
0.834452 0.213091 0.987802
0.955977 0.537560 0.987875
0.981641 0.784905 0.986983
0.987311 0.854247 0.982748
0.989973 0.904562 0.980072
0.989973 0.936394 0.977310
0.090873 0.086160 0.987720
0.093843 0.088263 0.987728
0.296909 0.112027 0.987755
0.835825 0.292895 0.987804
0.956131 0.610418 0.987878
0.980127 0.790120 0.985799
0.986244 0.855619 0.982486
0.989973 0.906227 0.979408
0.989973 0.936858 0.976841
0.090920 0.213244 0.987730
0.095383 0.244708 0.987737
0.310636 0.365881 0.987764
0.839850 0.576650 0.987790
0.941217 0.699408 0.985078
0.969187 0.806192 0.982484
0.982818 0.857921 0.979597
0.989142 0.912423 0.977235
0.989973 0.938310 0.975248
0.091132 0.542690 0.983161
0.094532 0.552948 0.982715
0.214964 0.591433 0.982140
0.642112 0.650302 0.980188
0.889165 0.741280 0.978235
0.950739 0.826682 0.976551
0.974958 0.869904 0.975101
0.985438 0.925018 0.974373
0.989973 0.941224 0.972365
0.091515 0.723977 0.975831
0.093640 0.724637 0.975407
0.144720 0.730774 0.974402
0.438495 0.754290 0.971114
0.790377 0.802930 0.966117
0.922254 0.847607 0.963502
0.962738 0.891991 0.962608
0.981429 0.932849 0.962084
0.988824 0.946144 0.961064
0.091972 0.864290 0.970764
0.094632 0.862777 0.969256
0.136404 0.858716 0.964302
0.363325 0.857400 0.955825
0.712428 0.860923 0.947450
0.889546 0.883429 0.942749
0.949594 0.926383 0.944457
0.975336 0.941830 0.947729
0.986094 0.952206 0.949780
0.093084 0.940375 0.965039
0.097351 0.940046 0.963815
0.146499 0.939068 0.959567
0.375568 0.937964 0.952993
0.716848 0.937583 0.945339
0.882770 0.938726 0.937675
0.939854 0.941926 0.929025
0.970240 0.951997 0.937584
0.984223 0.963696 0.941484
0.095553 0.961836 0.958419
0.100168 0.961667 0.957606
0.163448 0.961173 0.954888
0.399648 0.960667 0.950623
0.735608 0.960679 0.945561
0.892647 0.961780 0.940530
0.945330 0.964470 0.936937
0.969663 0.969094 0.935776
0.983446 0.975371 0.937674
0.098666 0.976540 0.949969
0.105579 0.976493 0.949497
0.175412 0.976384 0.947917
0.408980 0.976393 0.945277
0.738055 0.976821 0.942112
0.894720 0.977998 0.939200
0.946651 0.980192 0.937162
0.970446 0.983541 0.936405
0.983388 0.987507 0.936939
0.090873 0.084142 0.990138
0.093637 0.085013 0.990140
0.293116 0.097928 0.990148
0.834452 0.232447 0.990164
0.955977 0.558844 0.990187
0.983199 0.823952 0.990068
0.988680 0.868753 0.989066
0.989973 0.919981 0.987365
0.989973 0.938883 0.984804
0.090873 0.087579 0.990138
0.093843 0.089880 0.990141
0.296909 0.122449 0.990149
0.835825 0.323401 0.990165
0.956131 0.626205 0.990188
0.981825 0.827500 0.989826
0.987678 0.871218 0.988728
0.989973 0.921907 0.987077
0.989973 0.939284 0.984348
0.090920 0.232665 0.990141
0.095383 0.270403 0.990144
0.310636 0.389189 0.990152
0.840734 0.599232 0.990168
0.949787 0.765792 0.989808
0.974057 0.838092 0.988958
0.984433 0.879455 0.987428
0.989973 0.926492 0.985230
0.989973 0.940754 0.982831
0.091289 0.639746 0.989599
0.096297 0.649411 0.989519
0.251272 0.690000 0.989241
0.722094 0.747266 0.988507
0.913994 0.814602 0.987461
0.958360 0.853696 0.985843
0.979167 0.893793 0.983858
0.986616 0.931046 0.982489
0.989973 0.943612 0.981251
0.091627 0.783923 0.985237
0.094378 0.787300 0.984957
0.169789 0.800638 0.984061
0.519107 0.824775 0.982773
0.839551 0.846247 0.982247
0.935674 0.874303 0.981056
0.967228 0.916544 0.980086
0.982573 0.937537 0.979254
0.989444 0.947685 0.978465
0.091987 0.870520 0.980932
0.094865 0.870534 0.980665
0.141705 0.871488 0.979800
0.401736 0.876400 0.978545
0.755281 0.889613 0.977304
0.910972 0.914814 0.976458
0.955111 0.934558 0.976096
0.977620 0.945000 0.975990
0.986563 0.954379 0.975883
0.092937 0.938650 0.978517
0.096989 0.938504 0.978295
0.143362 0.938129 0.977555
0.372648 0.937960 0.976400
0.722987 0.938720 0.975015
0.889574 0.941284 0.974369
0.945802 0.946679 0.973714
0.971645 0.954659 0.973995
0.984442 0.964513 0.974370
0.095107 0.959820 0.976955
0.099538 0.959732 0.976803
0.157779 0.959503 0.976289
0.382744 0.959387 0.975462
0.726857 0.959810 0.974449
0.890006 0.961225 0.973906
0.944408 0.963993 0.971951
0.968719 0.968301 0.970163
0.983372 0.975360 0.972415
0.098315 0.975147 0.975236
0.104697 0.975140 0.975129
0.170522 0.975160 0.974770
0.395995 0.975368 0.974431
0.730341 0.976021 0.974235
0.891933 0.977409 0.973475
0.945818 0.979780 0.972070
0.970068 0.983295 0.971367
0.983326 0.987498 0.971731
0.090873 0.084827 0.991016
0.093637 0.086278 0.991016
0.293116 0.103121 0.991016
0.834452 0.264941 0.991016
0.955977 0.584354 0.991016
0.984065 0.838090 0.991016
0.989684 0.885284 0.990679
0.989973 0.928284 0.989868
0.989973 0.941206 0.989138
0.090873 0.089337 0.991016
0.093843 0.095356 0.991016
0.296909 0.140036 0.991016
0.835825 0.346379 0.991016
0.956131 0.644917 0.991016
0.982931 0.843682 0.991016
0.988754 0.888435 0.990517
0.989973 0.929072 0.989747
0.989973 0.941636 0.989016
0.090920 0.265129 0.991016
0.095383 0.295413 0.991016
0.310636 0.417548 0.991016
0.840734 0.619447 0.991016
0.954654 0.810300 0.991016
0.977562 0.856232 0.990701
0.985716 0.898699 0.989984
0.989973 0.931806 0.989348
0.989973 0.943182 0.988362
0.091394 0.715786 0.991016
0.097497 0.725594 0.991016
0.286460 0.759286 0.991016
0.761764 0.808528 0.990666
0.925135 0.843819 0.990179
0.964088 0.874571 0.989668
0.981155 0.915375 0.989131
0.987699 0.936252 0.988208
0.989973 0.946085 0.987284
0.091736 0.829740 0.989621
0.095604 0.831829 0.989574
0.191759 0.839381 0.989416
0.589294 0.853331 0.989120
0.873463 0.871736 0.988543
0.944854 0.902629 0.987851
0.971036 0.930192 0.987195
0.983695 0.941276 0.986149
0.989973 0.949312 0.985010
0.092041 0.887021 0.987444
0.095505 0.888035 0.987357
0.155008 0.892131 0.987071
0.452402 0.901201 0.986243
0.795386 0.917370 0.985301
0.921057 0.931054 0.984354
0.959983 0.939983 0.983588
0.980034 0.947797 0.982965
0.987150 0.957080 0.982493
0.092916 0.938861 0.984640
0.096967 0.938894 0.984474
0.144495 0.939115 0.983920
0.384224 0.939895 0.983058
0.741692 0.941797 0.982489
0.901053 0.945403 0.982046
0.950503 0.949569 0.981492
0.973683 0.958368 0.981243
0.984862 0.965909 0.981111
0.094799 0.958567 0.982663
0.099233 0.958563 0.982538
0.154392 0.958610 0.982490
0.376228 0.958930 0.982247
0.724751 0.959872 0.981411
0.891057 0.961828 0.980599
0.945618 0.965179 0.979982
0.970218 0.970072 0.979738
0.983548 0.975986 0.979826
0.098008 0.973988 0.981808
0.103932 0.974020 0.981727
0.166422 0.974169 0.981451
0.383532 0.974580 0.981008
0.722996 0.975468 0.980475
0.889986 0.977079 0.979958
0.945320 0.979628 0.979563
0.969868 0.983263 0.979375
0.983303 0.987587 0.979455
