velvia/Velvia50_Classic_ExtraSoft.cube
TITLE "Velvia 50 Classic ExtraSoft"
# Adobe RGB in/out. REPLACES AgX. Velvia 50 Classic ExtraSoft.
LUT_3D_SIZE 9
DOMAIN_MIN 0.0 0.0 0.0
DOMAIN_MAX 1.0 1.0 1.0
0.067508 0.080111 0.085805
0.067645 0.080111 0.085805
0.071601 0.080195 0.085805
0.169128 0.080613 0.085805
0.596590 0.084014 0.085813
0.906497 0.125653 0.085828
0.977605 0.322422 0.085854
0.990537 0.615678 0.085922
0.995319 0.844179 0.086042
0.067508 0.080126 0.085805
0.067673 0.080155 0.085805
0.071677 0.080311 0.085805
0.170048 0.080923 0.085805
0.598064 0.086692 0.085813
0.906800 0.141744 0.085828
0.977693 0.359822 0.085855
0.990546 0.641123 0.085924
0.995324 0.857242 0.086043
0.067508 0.080614 0.085805
0.067767 0.080738 0.085805
0.071947 0.081276 0.085805
0.173366 0.085500 0.085805
0.603368 0.113368 0.085814
0.907884 0.241778 0.085829
0.977846 0.487831 0.085857
0.990580 0.721342 0.085928
0.995341 0.900634 0.086049
0.067508 0.093745 0.085805
0.067914 0.096462 0.085805
0.072957 0.111332 0.085805
0.179532 0.159645 0.085805
0.613157 0.284603 0.085817
0.909871 0.475957 0.085832
0.978073 0.678189 0.085862
0.990642 0.858578 0.085935
0.995373 0.930840 0.086060
0.067596 0.322797 0.085805
0.068091 0.337526 0.085805
0.074411 0.391223 0.085805
0.188821 0.488140 0.085810
0.627879 0.620089 0.085821
0.912824 0.750331 0.085835
0.978411 0.876179 0.085873
0.990735 0.929670 0.085950
0.995422 0.967648 0.086080
0.067853 0.729044 0.085805
0.068380 0.740588 0.085805
0.076188 0.776938 0.085807
0.201528 0.834156 0.085815
0.643329 0.887828 0.085826
0.916780 0.922800 0.085843
0.978863 0.952945 0.085891
0.990859 0.976275 0.085977
0.995487 0.984727 0.086117
0.068156 0.933934 0.085809
0.068880 0.936183 0.085810
0.080249 0.944165 0.085814
0.220506 0.954411 0.085822
0.663014 0.965784 0.085832
0.921754 0.978700 0.085856
0.979433 0.983777 0.085913
0.991016 0.987953 0.086009
0.995569 0.991323 0.086174
0.068734 0.983588 0.085817
0.069889 0.983832 0.085818
0.086365 0.984700 0.085822
0.250753 0.986255 0.085830
0.688974 0.987886 0.085842
0.927748 0.989955 0.085876
0.980120 0.991774 0.085937
0.991206 0.993460 0.086045
0.995668 0.994955 0.086240
0.069808 0.992499 0.085827
0.071824 0.992581 0.085828
0.098674 0.992871 0.085832
0.290794 0.993394 0.085839
0.719324 0.994091 0.085861
0.933754 0.994878 0.085909
0.980923 0.995442 0.085983
0.991429 0.996088 0.086092
0.995785 0.996755 0.086346
0.067508 0.080111 0.085820
0.067645 0.080111 0.085822
0.071601 0.080196 0.085826
0.169128 0.080617 0.085833
0.596590 0.084039 0.085849
0.906497 0.125847 0.085888
0.977605 0.322852 0.085951
0.990537 0.616088 0.086059
0.995319 0.844392 0.086277
0.067508 0.080126 0.085821
0.067673 0.080157 0.085822
0.071677 0.080313 0.085826
0.170048 0.080929 0.085833
0.598064 0.086726 0.085850
0.906800 0.142098 0.085889
0.977693 0.360324 0.085953
0.990546 0.641421 0.086060
0.995324 0.857417 0.086281
0.067508 0.080618 0.085822
0.067767 0.080742 0.085824
0.071947 0.081281 0.085828
0.173366 0.085536 0.085834
0.603368 0.113555 0.085853
0.907884 0.242149 0.085894
0.977846 0.488285 0.085960
0.990580 0.721726 0.086066
0.995341 0.900708 0.086297
0.067508 0.093837 0.085825
0.067914 0.096552 0.085826
0.072957 0.111518 0.085830
0.179532 0.160011 0.085836
0.613157 0.285011 0.085858
0.909871 0.476435 0.085903
0.978073 0.678489 0.085973
0.990642 0.858754 0.086081
0.995373 0.930916 0.086326
0.067596 0.323228 0.085829
0.068091 0.338044 0.085830
0.074411 0.391714 0.085833
0.188821 0.488595 0.085843
0.627879 0.620501 0.085865
0.912824 0.750718 0.085915
0.978411 0.876353 0.085992
0.990735 0.929746 0.086106
0.995422 0.967685 0.086367
0.067853 0.729429 0.085834
0.068380 0.740974 0.085834
0.076188 0.777238 0.085839
0.201528 0.834370 0.085854
0.643329 0.887999 0.085883
0.916780 0.922868 0.085931
0.978863 0.952985 0.086017
0.990859 0.976310 0.086152
0.995487 0.984735 0.086387
0.068156 0.934009 0.085842
0.068880 0.936258 0.085844
0.080249 0.944238 0.085853
0.220506 0.954450 0.085867
0.663014 0.965821 0.085905
0.921754 0.978713 0.085957
0.979433 0.983785 0.086046
0.991016 0.987958 0.086207
0.995569 0.991325 0.086447
0.068734 0.983596 0.085858
0.069889 0.983840 0.085860
0.086365 0.984708 0.085869
0.250753 0.986262 0.085896
0.688974 0.987891 0.085930
0.927748 0.989960 0.085997
0.980120 0.991777 0.086085
0.991206 0.993463 0.086284
0.995668 0.994956 0.086523
0.069808 0.992502 0.085886
0.071824 0.992583 0.085890
0.098674 0.992873 0.085903
0.290794 0.993396 0.085926
0.719324 0.994093 0.085971
0.933754 0.994879 0.086040
0.980923 0.995443 0.086162
0.991429 0.996089 0.086382
0.995785 0.996755 0.086630
0.067508 0.080111 0.086334
0.067645 0.080111 0.086346
0.071601 0.080200 0.086382
0.169128 0.080633 0.086422
0.596590 0.084175 0.086529
0.906497 0.126546 0.086701
0.977605 0.324402 0.086918
0.990537 0.617565 0.087531
0.995319 0.845155 0.089056
0.067508 0.080128 0.086339
0.067673 0.080161 0.086351
0.071677 0.080318 0.086383
0.170048 0.080950 0.086427
0.598064 0.086852 0.086532
0.906800 0.143374 0.086706
0.977693 0.362014 0.086923
0.990546 0.642494 0.087543
0.995324 0.858048 0.089089
0.067508 0.080633 0.086354
0.067767 0.080756 0.086366
0.071947 0.081299 0.086385
0.173366 0.085666 0.086441
0.603368 0.114228 0.086545
0.907884 0.243482 0.086723
0.977846 0.489919 0.086938
0.990580 0.723104 0.087585
0.995341 0.900970 0.089206
0.067508 0.094163 0.086381
0.067914 0.096877 0.086383
0.072957 0.112186 0.086388
0.179532 0.161328 0.086466
0.613157 0.286481 0.086571
0.909871 0.478154 0.086753
0.978073 0.679564 0.086982
0.990642 0.859384 0.087662
0.995373 0.931188 0.089421
0.067596 0.324778 0.086387
0.068091 0.339907 0.086388
0.074411 0.393481 0.086432
0.188821 0.490229 0.086503
0.627879 0.621980 0.086620
0.912824 0.752110 0.086798
0.978411 0.876974 0.087070
0.990735 0.930020 0.087775
0.995422 0.967818 0.089740
0.067853 0.730811 0.086433
0.068380 0.742361 0.086444
0.076188 0.778316 0.086482
0.201528 0.835139 0.086550
0.643329 0.888616 0.086684
0.916780 0.923114 0.086857
0.978863 0.953128 0.087231
0.990859 0.976437 0.087926
0.995487 0.984764 0.090200
0.068156 0.934279 0.086496
0.068880 0.936527 0.086507
0.080249 0.944502 0.086544
0.220506 0.954592 0.086630
0.663014 0.965955 0.086762
0.921754 0.978762 0.086930
0.979433 0.983815 0.087436
0.991016 0.987976 0.088422
0.995569 0.991336 0.090863
0.068734 0.983625 0.086574
0.069889 0.983870 0.086589
0.086365 0.984737 0.086639
0.250753 0.986290 0.086728
0.688974 0.987909 0.086855
0.927748 0.989975 0.087096
0.980120 0.991787 0.087680
0.991206 0.993472 0.089111
0.995668 0.994960 0.092445
0.069808 0.992511 0.086693
0.071824 0.992593 0.086707
0.098674 0.992883 0.086754
0.290794 0.993406 0.086839
0.719324 0.994101 0.086972
0.933754 0.994883 0.087398
0.980923 0.995447 0.087966
0.991429 0.996093 0.089918
0.995785 0.996758 0.094043
0.067508 0.080111 0.112450
0.067645 0.080111 0.113071
0.071601 0.080206 0.115313
0.169128 0.080660 0.119487
0.596590 0.084459 0.125850
0.906497 0.127836 0.138813
0.977605 0.327263 0.162234
0.990537 0.620284 0.195748
0.995319 0.846326 0.239204
0.067508 0.080132 0.112667
0.067673 0.080170 0.113288
0.071677 0.080329 0.115532
0.170048 0.080988 0.119710
0.598064 0.087080 0.126077
0.906800 0.145741 0.139179
0.977693 0.365136 0.162876
0.990546 0.644468 0.196302
0.995324 0.859208 0.239882
0.067508 0.080661 0.113447
0.067767 0.080781 0.114070
0.071947 0.081332 0.116320
0.173366 0.085903 0.120510
0.603368 0.115469 0.126895
0.907884 0.245945 0.140498
0.977846 0.492930 0.165201
0.990580 0.725643 0.198301
0.995341 0.901453 0.242329
0.067508 0.094764 0.114888
0.067914 0.097562 0.115515
0.072957 0.113419 0.117777
0.179532 0.163770 0.121989
0.613157 0.289196 0.129080
0.909871 0.481224 0.143291
0.978073 0.681542 0.169545
0.990642 0.860542 0.202016
0.995373 0.931689 0.246876
0.067596 0.327641 0.117059
0.068091 0.343352 0.117690
0.074411 0.396772 0.119971
0.188821 0.493241 0.124216
0.627879 0.624705 0.132634
0.912824 0.754673 0.147793
0.978411 0.878118 0.175332
0.990735 0.930522 0.207661
0.995422 0.968062 0.253920
0.067853 0.733356 0.120019
0.068380 0.744916 0.120657
0.076188 0.780299 0.122962
0.201528 0.836554 0.127278
0.643329 0.889750 0.137433
0.916780 0.923564 0.154030
0.978863 0.953391 0.182273
0.990859 0.976671 0.215793
0.995487 0.984817 0.263768
0.068156 0.934776 0.123830
0.068880 0.937022 0.124477
0.080249 0.944987 0.126813
0.220506 0.954853 0.133365
0.663014 0.966202 0.144195
0.921754 0.978852 0.164044
0.979433 0.983868 0.191369
0.991016 0.988009 0.226540
0.995569 0.991355 0.276710
0.068734 0.983679 0.129311
0.069889 0.983923 0.130340
0.086365 0.984790 0.134024
0.250753 0.986341 0.140894
0.688974 0.987942 0.153801
0.927748 0.990004 0.176607
0.980120 0.991806 0.202914
0.991206 0.993489 0.240336
0.995668 0.994967 0.292997
0.069808 0.992530 0.138176
0.071824 0.992611 0.139221
0.098674 0.992901 0.143379
0.290794 0.993423 0.152081
0.719324 0.994116 0.168733
0.933754 0.994891 0.189616
0.980923 0.995454 0.217653
0.991429 0.996100 0.257739
0.995785 0.996763 0.311872
0.067508 0.080111 0.595838
0.067645 0.080111 0.597402
0.071601 0.080215 0.602708
0.169128 0.080701 0.612509
0.596590 0.084826 0.627265
0.906497 0.129774 0.645360
0.977605 0.332510 0.663321
0.990537 0.624359 0.676722
0.995319 0.848076 0.705243
0.067508 0.080143 0.596405
0.067673 0.080181 0.597918
0.071677 0.080344 0.603225
0.170048 0.081044 0.613029
0.598064 0.087420 0.627789
0.906800 0.149329 0.645767
0.977693 0.369832 0.663507
0.990546 0.647422 0.677127
0.995324 0.860940 0.705640
0.067508 0.080702 0.598294
0.067767 0.080819 0.599770
0.071947 0.081381 0.605083
0.173366 0.086254 0.614896
0.603368 0.117335 0.629670
0.907884 0.249669 0.647229
0.977846 0.497451 0.664177
0.990580 0.729444 0.678584
0.995341 0.902173 0.707065
0.067508 0.095660 0.601705
0.067914 0.098759 0.603184
0.072957 0.115273 0.608506
0.179532 0.167466 0.618337
0.613157 0.293281 0.633138
0.909871 0.485698 0.649919
0.978073 0.684502 0.665407
0.990642 0.862273 0.681266
0.995373 0.932437 0.709688
0.067596 0.332958 0.606819
0.068091 0.348543 0.608302
0.074411 0.401856 0.613638
0.188821 0.497763 0.623496
0.627879 0.628690 0.638336
0.912824 0.758511 0.653947
0.978411 0.879827 0.667244
0.990735 0.931272 0.685279
0.995422 0.968426 0.713613
0.067853 0.737167 0.613751
0.068380 0.748742 0.615239
0.076188 0.783266 0.620595
0.201528 0.838669 0.630488
0.643329 0.891444 0.643819
0.916780 0.924238 0.659395
0.978863 0.953783 0.669719
0.990859 0.977020 0.690708
0.995487 0.984895 0.718920
0.068156 0.935519 0.622605
0.068880 0.937760 0.624100
0.080249 0.945711 0.629480
0.220506 0.955243 0.639223
0.663014 0.966569 0.650735
0.921754 0.978986 0.663845
0.979433 0.983949 0.673490
0.991016 0.988059 0.697620
0.995569 0.991384 0.725677
0.068734 0.983760 0.633476
0.069889 0.984004 0.634979
0.086365 0.984868 0.639972
0.250753 0.986417 0.647667
0.688974 0.987992 0.659197
0.927748 0.990047 0.667704
0.980120 0.991834 0.681909
0.991206 0.993515 0.705905
0.995668 0.994978 0.733939
0.069808 0.992556 0.644650
0.071824 0.992638 0.645814
0.098674 0.992927 0.649999
0.290794 0.993449 0.657707
0.719324 0.994138 0.665180
0.933754 0.994902 0.672259
0.980923 0.995465 0.691921
0.991429 0.996110 0.715688
0.995785 0.996770 0.743761
0.067508 0.080111 0.906676
0.067645 0.080120 0.906876
0.071601 0.080241 0.907596
0.169128 0.080755 0.908915
0.596590 0.085315 0.910876
0.906497 0.132412 0.913501
0.977605 0.339406 0.916529
0.990537 0.629584 0.919727
0.995319 0.850436 0.925039
0.067508 0.080161 0.906746
0.067673 0.080195 0.906946
0.071677 0.080363 0.907666
0.170048 0.081117 0.908985
0.598064 0.087874 0.910945
0.906800 0.154265 0.913569
0.977693 0.376227 0.916584
0.990546 0.651414 0.919781
0.995324 0.863278 0.925114
0.067508 0.080755 0.906998
0.067767 0.080872 0.907198
0.071947 0.081445 0.907917
0.173366 0.086723 0.909235
0.603368 0.119875 0.911192
0.907884 0.257741 0.913814
0.977846 0.503587 0.916779
0.990580 0.734588 0.920055
0.995341 0.903144 0.925383
0.067508 0.096868 0.907460
0.067914 0.100389 0.907661
0.072957 0.117795 0.908378
0.179532 0.172541 0.909693
0.613157 0.298849 0.911648
0.909871 0.491772 0.914264
0.978073 0.688503 0.917136
0.990642 0.864609 0.920558
0.995373 0.933446 0.925878
0.067596 0.339858 0.908151
0.068091 0.355630 0.908351
0.074411 0.408781 0.909066
0.188821 0.503901 0.910378
0.627879 0.632786 0.912327
0.912824 0.762552 0.914937
0.978411 0.882132 0.917671
0.990735 0.932284 0.921310
0.995422 0.968918 0.926616
0.067853 0.742325 0.909082
0.068380 0.753919 0.909280
0.076188 0.787276 0.909993
0.201528 0.841523 0.911300
0.643329 0.893731 0.913242
0.916780 0.925145 0.915758
0.978863 0.954312 0.918390
0.990859 0.977490 0.922322
0.995487 0.985001 0.927611
0.068156 0.936520 0.910260
0.068880 0.938756 0.910458
0.080249 0.946688 0.911167
0.220506 0.955768 0.912468
0.663014 0.967065 0.914401
0.921754 0.979167 0.916682
0.979433 0.984057 0.919301
0.991016 0.988125 0.923605
0.995569 0.991422 0.928872
0.068734 0.983869 0.911692
0.069889 0.984112 0.911889
0.086365 0.984974 0.912594
0.250753 0.986520 0.913887
0.688974 0.988059 0.915732
0.927748 0.990106 0.917804
0.980120 0.991871 0.920679
0.991206 0.993549 0.925164
0.995668 0.994994 0.930405
0.069808 0.992593 0.913381
0.071824 0.992674 0.913577
0.098674 0.992963 0.914278
0.290794 0.993484 0.915533
0.719324 0.994168 0.917070
0.933754 0.994917 0.919128
0.980923 0.995479 0.922548
0.991429 0.996123 0.927006
0.995785 0.996780 0.932215
0.067508 0.080111 0.973929
0.067645 0.080130 0.974021
0.071601 0.080273 0.974354
0.169128 0.080820 0.974963
0.596590 0.085927 0.975870
0.906497 0.136382 0.977087
0.977605 0.348296 0.978584
0.990537 0.634656 0.979315
0.995319 0.853433 0.980171
0.067508 0.080182 0.973961
0.067673 0.080211 0.974054
0.071677 0.080394 0.974386
0.170048 0.081208 0.974995
0.598064 0.088542 0.975902
0.906800 0.160367 0.977119
0.977693 0.384445 0.978597
0.990546 0.656492 0.979328
0.995324 0.866246 0.980183
0.067508 0.080820 0.974077
0.067767 0.080972 0.974170
0.071947 0.081563 0.974502
0.173366 0.087311 0.975110
0.603368 0.123134 0.976016
0.907884 0.268268 0.977233
0.977846 0.511437 0.978641
0.990580 0.741144 0.979372
0.995341 0.904375 0.980226
0.067508 0.098808 0.974291
0.067914 0.102464 0.974383
0.072957 0.121033 0.974715
0.179532 0.178082 0.975322
0.613157 0.305936 0.976227
0.909871 0.499544 0.977442
0.978073 0.693592 0.978723
0.990642 0.867574 0.979452
0.995373 0.934725 0.980306
0.067596 0.348755 0.974610
0.068091 0.364172 0.974702
0.074411 0.417681 0.975033
0.188821 0.511753 0.975639
0.627879 0.637858 0.976542
0.912824 0.767649 0.977754
0.978411 0.885059 0.978845
0.990735 0.933567 0.979573
0.995422 0.969541 0.980424
0.067853 0.748898 0.975040
0.068380 0.760094 0.975132
0.076188 0.792377 0.975461
0.201528 0.845148 0.976066
0.643329 0.896141 0.976967
0.916780 0.926295 0.978176
0.978863 0.954984 0.979009
0.990859 0.977877 0.979735
0.995487 0.985136 0.980584
0.068156 0.937790 0.975585
0.068880 0.940019 0.975676
0.080249 0.947927 0.976005
0.220506 0.956434 0.976608
0.663014 0.967694 0.977505
0.921754 0.979397 0.978619
0.979433 0.984195 0.979218
0.991016 0.988210 0.979941
0.995569 0.991471 0.980787
0.068734 0.984007 0.976248
0.069889 0.984249 0.976339
0.086365 0.985109 0.976666
0.250753 0.986631 0.977267
0.688974 0.988144 0.978160
0.927748 0.990180 0.978876
0.980120 0.991919 0.979471
0.991206 0.993593 0.980191
0.995668 0.995013 0.981034
0.069808 0.992639 0.977032
0.071824 0.992720 0.977122
0.098674 0.993008 0.977448
0.290794 0.993528 0.978045
0.719324 0.994205 0.978708
0.933754 0.994937 0.979178
0.980923 0.995497 0.979771
0.991429 0.996140 0.980487
0.995785 0.996793 0.981325
0.067508 0.080125 0.991637
0.067645 0.080154 0.991647
0.071601 0.080309 0.991680
0.169128 0.080917 0.991742
0.596590 0.086660 0.991833
0.906497 0.141426 0.991956
0.977605 0.359339 0.992111
0.990537 0.640854 0.992299
0.995319 0.857084 0.992520
0.067508 0.080203 0.991641
0.067673 0.080247 0.991650
0.071677 0.080454 0.991683
0.170048 0.081314 0.991745
0.598064 0.089909 0.991836
0.906800 0.168085 0.991959
0.977693 0.394611 0.992114
0.990546 0.662699 0.992302
0.995324 0.869862 0.992523
0.067508 0.080919 0.991652
0.067767 0.081089 0.991662
0.071947 0.081865 0.991695
0.173366 0.088016 0.991756
0.603368 0.127159 0.991848
0.907884 0.280209 0.991971
0.977846 0.521099 0.992126
0.990580 0.749172 0.992314
0.995341 0.905872 0.992535
0.067508 0.101341 0.991674
0.067914 0.105003 0.991683
0.072957 0.125033 0.991717
0.179532 0.186589 0.991778
0.613157 0.314699 0.991869
0.909871 0.509110 0.991992
0.978073 0.699669 0.992147
0.990642 0.871187 0.992335
0.995373 0.936283 0.992555
0.067596 0.359807 0.991706
0.068091 0.374054 0.991715
0.074411 0.428696 0.991749
0.188821 0.521418 0.991810
0.627879 0.644058 0.991901
0.912824 0.773877 0.992024
0.978411 0.888626 0.992178
0.990735 0.935129 0.992366
0.995422 0.970300 0.992586
0.067853 0.756947 0.991749
0.068380 0.766320 0.991759
0.076188 0.798610 0.991792
0.201528 0.848822 0.991853
0.643329 0.898871 0.991944
0.916780 0.927225 0.992066
0.978863 0.955800 0.992221
0.990859 0.978163 0.992408
0.995487 0.985300 0.992627
0.068156 0.939336 0.991804
0.068880 0.941556 0.991814
0.080249 0.949373 0.991847
0.220506 0.957245 0.991908
0.663014 0.968460 0.991998
0.921754 0.979676 0.992120
0.979433 0.984362 0.992274
0.991016 0.988313 0.992461
0.995569 0.991531 0.992680
0.068734 0.984175 0.991871
0.069889 0.984417 0.991880
0.086365 0.985273 0.991913
0.250753 0.986739 0.991974
0.688974 0.988247 0.992065
0.927748 0.990270 0.992186
0.980120 0.991977 0.992340
0.991206 0.993641 0.992525
0.995668 0.995036 0.992744
0.069808 0.992695 0.991950
0.071824 0.992776 0.991960
0.098674 0.993063 0.991993
0.290794 0.993581 0.992053
0.719324 0.994251 0.992143
0.933754 0.994960 0.992264
0.980923 0.995520 0.992417
0.991429 0.996161 0.992602
0.995785 0.996809 0.992820
0.067508 0.080147 0.995480
0.067645 0.080184 0.995483
0.071601 0.080348 0.995494
0.169128 0.081058 0.995514
0.596590 0.087511 0.995544
0.906497 0.150302 0.995584
0.977605 0.371099 0.995635
0.990537 0.648216 0.995697
0.995319 0.861406 0.995769
0.067508 0.080237 0.995481
0.067673 0.080293 0.995484
0.071677 0.080519 0.995495
0.170048 0.081435 0.995515
0.598064 0.092169 0.995545
0.906800 0.176446 0.995585
0.977693 0.407263 0.995636
0.990546 0.670070 0.995698
0.995324 0.874144 0.995770
0.067508 0.081059 0.995485
0.067767 0.081221 0.995488
0.071947 0.082432 0.995499
0.173366 0.089090 0.995519
0.603368 0.132000 0.995549
0.907884 0.290283 0.995589
0.977846 0.532621 0.995640
0.990580 0.758715 0.995701
0.995341 0.907640 0.995774
0.067508 0.104354 0.995492
0.067914 0.109344 0.995495
0.072957 0.129844 0.995506
0.179532 0.197059 0.995526
0.613157 0.325267 0.995556
0.909871 0.520566 0.995596
0.978073 0.706883 0.995647
0.990642 0.875464 0.995708
0.995373 0.938125 0.995781
0.067596 0.371515 0.995502
0.068091 0.385967 0.995505
0.074411 0.440898 0.995516
0.188821 0.532940 0.995536
0.627879 0.651421 0.995566
0.912824 0.781272 0.995606
0.978411 0.892850 0.995657
0.990735 0.936976 0.995718
0.995422 0.971196 0.995791
0.067853 0.764728 0.995516
0.068380 0.773713 0.995519
0.076188 0.806010 0.995530
0.201528 0.853170 0.995550
0.643329 0.901393 0.995580
0.916780 0.927903 0.995620
0.978863 0.956766 0.995671
0.990859 0.978500 0.995732
0.995487 0.985494 0.995805
0.068156 0.941164 0.995534
0.068880 0.943374 0.995537
0.080249 0.950371 0.995548
0.220506 0.958203 0.995568
0.663014 0.969365 0.995598
0.921754 0.980007 0.995638
0.979433 0.984560 0.995688
0.991016 0.988435 0.995750
0.995569 0.991601 0.995822
0.068734 0.984374 0.995556
0.069889 0.984614 0.995559
0.086365 0.985467 0.995570
0.250753 0.986868 0.995590
0.688974 0.988369 0.995620
0.927748 0.990376 0.995659
0.980120 0.992046 0.995710
0.991206 0.993698 0.995771
0.995668 0.995064 0.995843
0.069808 0.992761 0.995582
0.071824 0.992842 0.995585
0.098674 0.993128 0.995596
0.290794 0.993639 0.995616
0.719324 0.994306 0.995645
0.933754 0.994988 0.995685
0.980923 0.995546 0.995735
0.991429 0.996185 0.995796
0.995785 0.996827 0.995868
