velvia/Velvia50_Classic_Punchy.cube
TITLE "Velvia 50 Classic Punchy"
# Adobe RGB in/out. REPLACES AgX. Velvia 50 Classic Punchy.
LUT_3D_SIZE 33
DOMAIN_MIN 0.0 0.0 0.0
DOMAIN_MAX 1.0 1.0 1.0
0.093920 0.090395 0.084157
0.093920 0.090395 0.084157
0.093920 0.090395 0.084157
0.093920 0.090395 0.084157
0.093920 0.090395 0.084157
0.093920 0.090395 0.084157
0.094022 0.090395 0.084157
0.095463 0.090395 0.084157
0.102047 0.090395 0.084157
0.116671 0.090395 0.084157
0.151709 0.090395 0.084157
0.206511 0.090395 0.084157
0.270359 0.090461 0.084157
0.337623 0.091148 0.084157
0.411621 0.092644 0.084157
0.462092 0.095852 0.084157
0.518166 0.103408 0.084157
0.565696 0.114465 0.084157
0.612831 0.129395 0.084157
0.654123 0.156110 0.084157
0.698496 0.192544 0.084157
0.739530 0.239224 0.084157
0.769169 0.285169 0.084157
0.798673 0.326673 0.084157
0.823063 0.376223 0.084157
0.847156 0.416016 0.084157
0.862845 0.464319 0.084157
0.877093 0.493935 0.084157
0.891046 0.526534 0.084157
0.902945 0.560546 0.084246
0.912543 0.595489 0.084351
0.920724 0.623004 0.084456
0.926913 0.648238 0.084564
0.093920 0.090395 0.084157
0.093920 0.090395 0.084157
0.093920 0.090395 0.084157
0.093920 0.090395 0.084157
0.093920 0.090395 0.084157
0.093920 0.090395 0.084157
0.094022 0.090395 0.084157
0.095470 0.090395 0.084157
0.102060 0.090395 0.084157
0.116706 0.090395 0.084157
0.151757 0.090395 0.084157
0.206568 0.090395 0.084157
0.270410 0.090466 0.084157
0.337674 0.091188 0.084157
0.411662 0.092736 0.084157
0.462124 0.096003 0.084157
0.518195 0.103784 0.084157
0.565724 0.114913 0.084157
0.612854 0.130175 0.084157
0.654138 0.157239 0.084157
0.698518 0.193855 0.084157
0.739543 0.240687 0.084157
0.769174 0.286065 0.084157
0.798683 0.328004 0.084157
0.823072 0.377204 0.084157
0.847165 0.417363 0.084157
0.862850 0.465175 0.084157
0.877098 0.494474 0.084157
0.891050 0.527218 0.084157
0.902948 0.561220 0.084247
0.912546 0.596155 0.084351
0.920725 0.623458 0.084457
0.926915 0.648679 0.084564
0.093920 0.090395 0.084157
0.093920 0.090395 0.084157
0.093920 0.090395 0.084157
0.093920 0.090395 0.084157
0.093920 0.090395 0.084157
0.093920 0.090395 0.084157
0.094024 0.090395 0.084157
0.095493 0.090395 0.084157
0.102105 0.090395 0.084157
0.116829 0.090395 0.084157
0.151930 0.090395 0.084157
0.206772 0.090406 0.084157
0.270594 0.090554 0.084157
0.337860 0.091456 0.084157
0.411807 0.093059 0.084157
0.462241 0.096542 0.084157
0.518300 0.105174 0.084157
0.565825 0.116519 0.084157
0.612936 0.132930 0.084157
0.654195 0.161327 0.084157
0.698597 0.198601 0.084157
0.739593 0.245981 0.084157
0.769191 0.289288 0.084157
0.798719 0.332802 0.084157
0.823105 0.380732 0.084157
0.847196 0.422216 0.084157
0.862869 0.468252 0.084157
0.877115 0.496650 0.084157
0.891066 0.529675 0.084157
0.902959 0.563642 0.084248
0.912556 0.598542 0.084352
0.920732 0.625086 0.084458
0.926921 0.650259 0.084565
0.093920 0.090395 0.084157
0.093920 0.090395 0.084157
0.093920 0.090395 0.084157
0.093920 0.090395 0.084157
0.093920 0.090395 0.084157
0.093920 0.090395 0.084157
0.094028 0.090395 0.084157
0.095536 0.090395 0.084157
0.102188 0.090395 0.084157
0.117057 0.090395 0.084157
0.152247 0.090395 0.084157
0.207149 0.090437 0.084157
0.270932 0.090843 0.084157
0.338202 0.091961 0.084157
0.412074 0.094126 0.084157
0.462455 0.098431 0.084157
0.518494 0.108408 0.084157
0.566010 0.119461 0.084157
0.613088 0.137895 0.084157
0.654300 0.168981 0.084157
0.698742 0.207485 0.084157
0.739683 0.255919 0.084157
0.769223 0.295430 0.084157
0.798784 0.341701 0.084157
0.823167 0.387235 0.084157
0.847254 0.431199 0.084157
0.862902 0.473911 0.084157
0.877146 0.501232 0.084157
0.891095 0.534189 0.084157
0.902978 0.568091 0.084250
0.912574 0.602930 0.084354
0.920744 0.628074 0.084460
0.926932 0.653159 0.084567
0.093920 0.090395 0.084157
0.093920 0.090395 0.084157
0.093920 0.090395 0.084157
0.093920 0.090395 0.084157
0.093920 0.090395 0.084157
0.093920 0.090395 0.084157
0.094033 0.090395 0.084157
0.095600 0.090395 0.084157
0.102337 0.090395 0.084157
0.117397 0.090395 0.084157
0.152723 0.090413 0.084157
0.207712 0.090538 0.084157
0.271438 0.091291 0.084157
0.338713 0.092705 0.084157
0.412474 0.095674 0.084157
0.462775 0.102266 0.084157
0.518784 0.112305 0.084157
0.566287 0.124128 0.084157
0.613315 0.146426 0.084157
0.654457 0.180286 0.084157
0.698959 0.221142 0.084157
0.739819 0.269666 0.084157
0.769271 0.304883 0.084157
0.798883 0.355185 0.084157
0.823259 0.396894 0.084157
0.847341 0.444764 0.084157
0.862952 0.480484 0.084157
0.877193 0.508067 0.084157
0.891139 0.540925 0.084157
0.903008 0.574731 0.084253
0.912602 0.607789 0.084357
0.920761 0.632523 0.084462
0.926948 0.657478 0.084569
0.093920 0.090395 0.084157
0.093920 0.090395 0.084157
0.093920 0.090395 0.084157
0.093920 0.090395 0.084157
0.093920 0.090395 0.084157
0.093920 0.090395 0.084157
0.094040 0.090395 0.084157
0.095686 0.090395 0.084157
0.102538 0.090395 0.084157
0.117857 0.090412 0.084157
0.153366 0.090472 0.084157
0.208473 0.091107 0.084157
0.272122 0.092300 0.084157
0.339404 0.094575 0.084157
0.413014 0.098856 0.084157
0.463208 0.107986 0.084157
0.519176 0.118242 0.084157
0.566661 0.134403 0.084157
0.613621 0.161380 0.084157
0.654669 0.196088 0.084157
0.699252 0.240296 0.084157
0.740001 0.284050 0.084157
0.769335 0.322364 0.084157
0.799015 0.371060 0.084157
0.823384 0.408312 0.084157
0.847458 0.456305 0.084157
0.863019 0.487763 0.084157
0.877256 0.517270 0.084157
0.891198 0.549995 0.084157
0.903048 0.583676 0.084256
0.912639 0.613945 0.084360
0.920785 0.638497 0.084466
0.926971 0.663281 0.084573
0.093920 0.090395 0.084157
0.093920 0.090395 0.084157
0.093920 0.090395 0.084157
0.093920 0.090395 0.084157
0.093920 0.090395 0.084157
0.093920 0.090395 0.084157
0.094049 0.090395 0.084157
0.095822 0.090395 0.084157
0.102794 0.090437 0.084157
0.118441 0.090620 0.084157
0.154185 0.091181 0.084157
0.209443 0.092310 0.084157
0.272993 0.094315 0.084157
0.340284 0.097375 0.084157
0.413700 0.105408 0.084157
0.463758 0.115065 0.084157
0.519674 0.127500 0.084157
0.567137 0.149131 0.084157
0.614011 0.180822 0.084157
0.654939 0.219180 0.084157
0.699624 0.265637 0.084157
0.740234 0.299683 0.084157
0.769416 0.345148 0.084157
0.799184 0.387751 0.084157
0.823542 0.429138 0.084157
0.847607 0.470860 0.084157
0.863104 0.497329 0.084157
0.877336 0.528920 0.084157
0.891273 0.561482 0.084157
0.903098 0.595007 0.084261
0.912687 0.621708 0.084365
0.920815 0.646035 0.084471
0.926999 0.670607 0.084577
0.093920 0.090395 0.084157
0.093920 0.090395 0.084157
0.093920 0.090395 0.084157
0.093920 0.090395 0.084157
0.093920 0.090395 0.084157
0.093920 0.090415 0.084157
0.094059 0.090446 0.084157
0.095988 0.090572 0.084157
0.103104 0.091005 0.084157
0.119155 0.091734 0.084157
0.155186 0.092751 0.084157
0.210629 0.094931 0.084157
0.274057 0.098293 0.084157
0.341358 0.105569 0.084157
0.414539 0.114394 0.084157
0.464430 0.124907 0.084157
0.520282 0.143893 0.084157
0.567718 0.172865 0.084157
0.614487 0.206718 0.084157
0.655268 0.249175 0.084157
0.700079 0.287668 0.084157
0.740518 0.325086 0.084157
0.769516 0.371113 0.084157
0.799390 0.406634 0.084157
0.823736 0.452878 0.084157
0.847789 0.484475 0.084157
0.863209 0.511682 0.084157
0.877433 0.543072 0.084157
0.891365 0.575442 0.084161
0.903160 0.607301 0.084268
0.912745 0.631094 0.084371
0.920852 0.655155 0.084477
0.927033 0.679475 0.084582
0.093920 0.090462 0.084157
0.093920 0.090463 0.084157
0.093920 0.090470 0.084157
0.093920 0.090557 0.084157
0.093920 0.090736 0.084157
0.093920 0.090967 0.084157
0.094072 0.091295 0.084157
0.096183 0.091947 0.084157
0.103471 0.092706 0.084157
0.120003 0.094319 0.084157
0.156377 0.096387 0.084157
0.212041 0.101347 0.084157
0.275321 0.108505 0.084157
0.342635 0.116279 0.084157
0.415534 0.126751 0.084157
0.465226 0.144361 0.084157
0.521003 0.171277 0.084157
0.568407 0.202340 0.084157
0.615051 0.241516 0.084157
0.655658 0.281300 0.084157
0.700619 0.313135 0.084157
0.740855 0.358436 0.084157
0.769634 0.395354 0.084157
0.799634 0.436911 0.084157
0.823965 0.473988 0.084157
0.848005 0.498440 0.084157
0.863332 0.528601 0.084157
0.877549 0.559762 0.084157
0.891473 0.591912 0.084169
0.903233 0.618628 0.084275
0.912813 0.642100 0.084377
0.920895 0.665858 0.084483
0.927074 0.689890 0.084589
0.093920 0.091876 0.084157
0.093920 0.091906 0.084157
0.093920 0.092016 0.084157
0.093920 0.092215 0.084157
0.093920 0.092506 0.084157
0.093920 0.092983 0.084157
0.094086 0.094047 0.084157
0.096406 0.095386 0.084157
0.103895 0.096905 0.084157
0.120987 0.101390 0.084157
0.157955 0.106880 0.084157
0.213683 0.113210 0.084157
0.276791 0.120728 0.084157
0.344118 0.133085 0.084157
0.416690 0.150988 0.084157
0.466151 0.176647 0.084157
0.521840 0.205906 0.084157
0.569208 0.242611 0.084157
0.615706 0.280248 0.084157
0.656112 0.309066 0.084157
0.701246 0.351455 0.084157
0.741246 0.388385 0.084157
0.769771 0.424551 0.084157
0.799918 0.464499 0.084157
0.824231 0.490729 0.084157
0.848256 0.518203 0.084157
0.863476 0.548102 0.084157
0.877684 0.579010 0.084157
0.891600 0.608793 0.084178
0.903318 0.631594 0.084283
0.912893 0.654712 0.084385
0.920946 0.678132 0.084491
0.927122 0.701843 0.084596
0.093920 0.095865 0.084157
0.093920 0.095928 0.084157
0.093920 0.096150 0.084157
0.093920 0.096555 0.084157
0.093920 0.097365 0.084157
0.093920 0.099641 0.084157
0.094102 0.102295 0.084157
0.096658 0.105648 0.084157
0.104375 0.110179 0.084157
0.122112 0.115092 0.084157
0.159884 0.121059 0.084157
0.215565 0.130982 0.084157
0.278471 0.144392 0.084157
0.345814 0.164915 0.084157
0.418009 0.187845 0.084157
0.467207 0.217726 0.084157
0.522796 0.252648 0.084157
0.570121 0.284571 0.084157
0.616455 0.312860 0.084157
0.656653 0.352778 0.084157
0.701962 0.387403 0.084157
0.741692 0.420518 0.084157
0.769928 0.460234 0.084157
0.800242 0.486939 0.084157
0.824535 0.511989 0.084157
0.848542 0.540573 0.084157
0.863640 0.570189 0.084157
0.877837 0.600823 0.084157
0.891744 0.623770 0.084188
0.903415 0.646167 0.084293
0.912984 0.668900 0.084394
0.921004 0.691954 0.084500
0.927176 0.715315 0.084605
0.093920 0.109080 0.084157
0.093920 0.109242 0.084157
0.093920 0.109822 0.084157
0.093920 0.110886 0.084157
0.093920 0.112469 0.084157
0.093920 0.114910 0.084157
0.094133 0.118018 0.084157
0.096939 0.121791 0.084157
0.104912 0.128360 0.084157
0.123280 0.137292 0.084157
0.162069 0.149414 0.084157
0.217692 0.166544 0.084157
0.280368 0.185141 0.084157
0.347727 0.209727 0.084157
0.419496 0.238584 0.084157
0.468397 0.270546 0.084157
0.523873 0.294525 0.084157
0.571151 0.324715 0.084157
0.617297 0.362534 0.084157
0.657496 0.392469 0.084157
0.702769 0.424818 0.084157
0.742195 0.461257 0.084157
0.770104 0.486501 0.084157
0.800607 0.510042 0.084157
0.824878 0.537264 0.084157
0.848864 0.565540 0.084157
0.863825 0.594855 0.084157
0.878011 0.618736 0.084157
0.891906 0.640335 0.084199
0.903525 0.662305 0.084303
0.913087 0.684629 0.084404
0.921069 0.707291 0.084510
0.927238 0.730278 0.084614
0.093920 0.129499 0.084157
0.093920 0.129819 0.084157
0.093920 0.130969 0.084157
0.093920 0.133028 0.084157
0.093920 0.136066 0.084157
0.093920 0.140329 0.084157
0.094167 0.146559 0.084157
0.097247 0.156003 0.084157
0.105506 0.167580 0.084157
0.123795 0.180925 0.084157
0.164519 0.197003 0.084157
0.220072 0.217527 0.084157
0.282486 0.241631 0.084157
0.349863 0.268688 0.084157
0.421154 0.289660 0.084157
0.469722 0.312917 0.084157
0.525073 0.345061 0.084157
0.572298 0.376177 0.084157
0.618236 0.402666 0.084157
0.658437 0.437628 0.084157
0.703668 0.467618 0.084157
0.742756 0.489454 0.084157
0.770300 0.512416 0.084157
0.801014 0.538236 0.084157
0.825260 0.565130 0.084157
0.849224 0.593085 0.084157
0.864031 0.616576 0.084157
0.878203 0.637301 0.084157
0.892087 0.658435 0.084212
0.903647 0.679958 0.084315
0.913202 0.701853 0.084416
0.921142 0.724104 0.084522
0.927306 0.745808 0.084624
0.093920 0.174397 0.084157
0.093920 0.174884 0.084157
0.093920 0.176640 0.084157
0.093920 0.179586 0.084157
0.093920 0.183606 0.084157
0.093929 0.190135 0.084157
0.094203 0.199297 0.084157
0.097581 0.210786 0.084157
0.106299 0.224848 0.084157
0.124526 0.241764 0.084157
0.167242 0.261937 0.084157
0.222710 0.280299 0.084157
0.284829 0.295630 0.084157
0.352224 0.316560 0.084157
0.422984 0.343837 0.084157
0.471185 0.371636 0.084157
0.526397 0.395355 0.084157
0.573564 0.420969 0.084157
0.619272 0.453829 0.084157
0.659475 0.478460 0.084157
0.704660 0.495858 0.084157
0.743374 0.519137 0.084157
0.770517 0.543523 0.084157
0.801463 0.569001 0.084157
0.825681 0.595559 0.084157
0.849621 0.617338 0.084157
0.864259 0.637122 0.084157
0.878416 0.657352 0.084157
0.892287 0.678009 0.084226
0.903782 0.699071 0.084328
0.913328 0.720523 0.084429
0.921222 0.742288 0.084534
0.927381 0.760201 0.084636
0.093920 0.239498 0.084157
0.093920 0.240097 0.084157
0.093920 0.242256 0.084157
0.093920 0.246256 0.084157
0.093920 0.252327 0.084157
0.093959 0.260650 0.084157
0.094242 0.269877 0.084157
0.097941 0.279864 0.084157
0.107205 0.288908 0.084157
0.126595 0.299832 0.084157
0.170248 0.315592 0.084157
0.225614 0.335664 0.084157
0.287401 0.358619 0.084157
0.354816 0.378673 0.084157
0.424990 0.398465 0.084157
0.472787 0.420650 0.084157
0.527847 0.450390 0.084157
0.574951 0.472654 0.084157
0.620407 0.489483 0.084157
0.660612 0.508394 0.084157
0.705748 0.530201 0.084157
0.744052 0.553130 0.084157
0.770754 0.577168 0.084157
0.801954 0.602302 0.084157
0.826143 0.621039 0.084157
0.850055 0.639824 0.084157
0.864508 0.659092 0.084157
0.878650 0.678822 0.084157
0.892506 0.698993 0.084241
0.903929 0.719587 0.084342
0.913467 0.740585 0.084443
0.921310 0.758141 0.084547
0.927464 0.775627 0.084649
0.093920 0.302566 0.084157
0.093920 0.302951 0.084157
0.093920 0.304377 0.084157
0.093920 0.307887 0.084157
0.093920 0.313167 0.084157
0.093990 0.320358 0.084157
0.094400 0.329597 0.084157
0.098661 0.341023 0.084157
0.108590 0.354786 0.084157
0.128963 0.369182 0.084157
0.173545 0.382333 0.084157
0.228790 0.397105 0.084157
0.291314 0.411512 0.084157
0.357643 0.436490 0.084157
0.427174 0.457208 0.084157
0.474530 0.476066 0.084157
0.529424 0.489725 0.084157
0.576460 0.506065 0.084157
0.621642 0.525249 0.084157
0.661849 0.545577 0.084157
0.706931 0.567037 0.084157
0.744788 0.589619 0.084157
0.771012 0.610464 0.084157
0.802489 0.627661 0.084157
0.826646 0.645400 0.084157
0.850529 0.663657 0.084157
0.864780 0.682411 0.084157
0.878904 0.701640 0.084157
0.892744 0.721325 0.084257
0.904090 0.741445 0.084357
0.913617 0.758151 0.084458
0.921406 0.774982 0.084561
0.927554 0.792035 0.084664
0.093920 0.376470 0.084157
0.093920 0.376872 0.084157
0.093920 0.378317 0.084157
0.093920 0.380977 0.084157
0.093920 0.384961 0.084157
0.094022 0.390354 0.084157
0.094809 0.397099 0.084157
0.099455 0.404368 0.084157
0.110117 0.413568 0.084157
0.131537 0.429441 0.084157
0.177142 0.446765 0.084157
0.232245 0.459719 0.084157
0.299339 0.474157 0.084157
0.360707 0.485411 0.084157
0.429537 0.496710 0.084157
0.476415 0.512100 0.084157
0.531130 0.528651 0.084157
0.578093 0.546357 0.084157
0.622977 0.565210 0.084157
0.663188 0.585201 0.084157
0.708211 0.605579 0.084157
0.745585 0.621068 0.084157
0.771291 0.637155 0.084157
0.803068 0.653815 0.084157
0.827189 0.671025 0.084157
0.850889 0.688764 0.084157
0.865073 0.707009 0.084157
0.879178 0.725740 0.084173
0.893002 0.744386 0.084274
0.904264 0.760247 0.084373
0.913781 0.776375 0.084475
0.921510 0.792755 0.084577
0.927651 0.803041 0.084679
0.093920 0.445576 0.084157
0.093920 0.445927 0.084157
0.093920 0.447189 0.084157
0.093920 0.449510 0.084157
0.093920 0.452982 0.084157
0.094055 0.457673 0.084157
0.095236 0.463638 0.084157
0.100295 0.470922 0.084157
0.111753 0.478619 0.084157
0.134323 0.485097 0.084157
0.181051 0.492360 0.084157
0.238561 0.501917 0.084157
0.302826 0.513555 0.084157
0.364013 0.526345 0.084157
0.432081 0.540289 0.084157
0.478443 0.555386 0.084157
0.532966 0.571633 0.084157
0.579849 0.589026 0.084157
0.624414 0.606444 0.084157
0.664629 0.620140 0.084157
0.709590 0.634480 0.084157
0.746443 0.649442 0.084157
0.771591 0.665004 0.084157
0.803691 0.681144 0.084157
0.827774 0.697839 0.084157
0.851193 0.715069 0.084157
0.865389 0.732814 0.084157
0.879474 0.749332 0.084193
0.893279 0.764421 0.084293
0.904451 0.779806 0.084390
0.913956 0.795451 0.084492
0.921621 0.804420 0.084593
0.927756 0.815360 0.084696
0.093920 0.494111 0.084157
0.093920 0.494331 0.084157
0.093920 0.495123 0.084157
0.093920 0.496874 0.084157
0.093920 0.499683 0.084157
0.094089 0.503473 0.084157
0.095681 0.508284 0.084157
0.101180 0.514146 0.084157
0.113497 0.521086 0.084157
0.137325 0.529123 0.084157
0.185280 0.538271 0.084157
0.244991 0.548542 0.084157
0.306282 0.559945 0.084157
0.367565 0.572484 0.084157
0.434397 0.586162 0.084157
0.480971 0.600980 0.084157
0.534932 0.612992 0.084157
0.581732 0.624850 0.084157
0.625952 0.637387 0.084157
0.666172 0.650585 0.084157
0.711067 0.664423 0.084157
0.747361 0.678881 0.084157
0.771912 0.693938 0.084157
0.804358 0.709574 0.084157
0.828401 0.725770 0.084157
0.851448 0.742416 0.084157
0.865727 0.756360 0.084157
0.879791 0.770647 0.084214
0.893577 0.785258 0.084312
0.904652 0.797912 0.084409
0.914144 0.807120 0.084511
0.921741 0.817576 0.084611
0.927869 0.828145 0.084733
0.093920 0.543672 0.084157
0.093920 0.543951 0.084157
0.093920 0.544950 0.084157
0.093920 0.546789 0.084157
0.093940 0.549536 0.084157
0.094141 0.553243 0.084157
0.096257 0.557950 0.084157
0.102107 0.563687 0.084157
0.115314 0.570481 0.084157
0.141055 0.578351 0.084157
0.189840 0.587314 0.084157
0.248665 0.597381 0.084157
0.309981 0.607147 0.084157
0.371366 0.615725 0.084157
0.436813 0.625030 0.084157
0.483837 0.635050 0.084157
0.537029 0.645769 0.084157
0.583740 0.657175 0.084157
0.627594 0.669249 0.084157
0.667820 0.681976 0.084157
0.712643 0.695336 0.084157
0.748341 0.709312 0.084157
0.772928 0.723886 0.084157
0.805070 0.739038 0.084157
0.829070 0.752318 0.084157
0.851756 0.765415 0.084157
0.866088 0.778879 0.084157
0.880129 0.792692 0.084236
0.893894 0.801386 0.084333
0.904866 0.811120 0.084430
0.914345 0.821066 0.084531
0.921869 0.831147 0.084629
0.927989 0.841352 0.084782
0.093920 0.595763 0.084157
0.093920 0.596035 0.084157
0.093920 0.597014 0.084157
0.093920 0.598813 0.084157
0.093985 0.601503 0.084157
0.094204 0.604747 0.084157
0.096854 0.607973 0.084157
0.103255 0.611897 0.084157
0.115965 0.616531 0.084157
0.145210 0.621882 0.084157
0.194013 0.627953 0.084157
0.252588 0.634747 0.084157
0.313926 0.642258 0.084157
0.376343 0.650483 0.084157
0.439381 0.659413 0.084157
0.486887 0.669038 0.084157
0.539259 0.679348 0.084157
0.585875 0.690329 0.084157
0.629339 0.701968 0.084157
0.669572 0.714249 0.084157
0.714320 0.727156 0.084157
0.749382 0.740674 0.084157
0.774135 0.752346 0.084157
0.805826 0.764182 0.084157
0.829781 0.776424 0.084157
0.852167 0.789054 0.084157
0.866472 0.798893 0.084161
0.880489 0.807137 0.084259
0.894232 0.816386 0.084354
0.905093 0.825804 0.084452
0.914559 0.835376 0.084551
0.922004 0.845093 0.084649
0.928116 0.854941 0.084833
0.093920 0.635801 0.084157
0.093920 0.635984 0.084157
0.093920 0.636641 0.084157
0.093920 0.637850 0.084157
0.094030 0.639654 0.084157
0.094267 0.642087 0.084157
0.097467 0.645170 0.084157
0.104468 0.648922 0.084157
0.118745 0.653355 0.084157
0.149480 0.658477 0.084157
0.198224 0.664294 0.084157
0.256762 0.670805 0.084157
0.318121 0.678012 0.084157
0.382529 0.685908 0.084157
0.442100 0.694490 0.084157
0.490122 0.703749 0.084157
0.541621 0.713676 0.084157
0.588138 0.724259 0.084157
0.631188 0.735488 0.084157
0.671428 0.746336 0.084157
0.716098 0.756413 0.084157
0.750486 0.766943 0.084157
0.775415 0.777911 0.084157
0.806628 0.789300 0.084157
0.830535 0.798392 0.084157
0.852603 0.805692 0.084157
0.866879 0.814182 0.084187
0.880870 0.822871 0.084283
0.894590 0.831747 0.084377
0.905335 0.840797 0.084475
0.914786 0.850009 0.084573
0.922149 0.859372 0.084671
0.928252 0.868875 0.084887
0.093920 0.673887 0.084157
0.093920 0.674063 0.084157
0.093920 0.674692 0.084157
0.093933 0.675848 0.084157
0.094075 0.677576 0.084157
0.094857 0.679904 0.084157
0.098215 0.682857 0.084157
0.105750 0.686452 0.084157
0.121741 0.690701 0.084157
0.153664 0.695613 0.084157
0.202703 0.701194 0.084157
0.261193 0.707446 0.084157
0.322569 0.714370 0.084157
0.389120 0.721963 0.084157
0.444972 0.730221 0.084157
0.493544 0.739138 0.084157
0.544116 0.747434 0.084157
0.590529 0.755679 0.084157
0.633141 0.764412 0.084157
0.673390 0.773619 0.084157
0.717976 0.783286 0.084157
0.751651 0.793401 0.084157
0.776767 0.799881 0.084157
0.807475 0.806800 0.084157
0.831331 0.814483 0.084157
0.853063 0.822394 0.084157
0.867309 0.830520 0.084213
0.881273 0.838848 0.084308
0.894968 0.847366 0.084400
0.905590 0.856064 0.084499
0.915026 0.864928 0.084595
0.922301 0.873265 0.084695
0.928395 0.879269 0.084943
0.093920 0.712411 0.084157
0.093920 0.712579 0.084157
0.093920 0.713182 0.084157
0.093987 0.714291 0.084157
0.094133 0.715947 0.084157
0.095470 0.718181 0.084157
0.099462 0.721014 0.084157
0.107490 0.724464 0.084157
0.123835 0.728544 0.084157
0.158376 0.733262 0.084157
0.207854 0.738626 0.084157
0.265884 0.744143 0.084157
0.327273 0.749531 0.084157
0.396126 0.755433 0.084157
0.447997 0.761844 0.084157
0.497155 0.768757 0.084157
0.546744 0.776165 0.084157
0.593049 0.784058 0.084157
0.635198 0.792426 0.084157
0.675458 0.798477 0.084157
0.719957 0.803835 0.084157
0.752603 0.810420 0.084157
0.778192 0.817267 0.084157
0.808368 0.824366 0.084157
0.832171 0.831703 0.084157
0.853547 0.839267 0.084157
0.867762 0.847047 0.084241
0.881698 0.855031 0.084334
0.895367 0.863208 0.084426
0.905859 0.871568 0.084524
0.915278 0.877500 0.084619
0.922461 0.881824 0.084745
0.928546 0.885546 0.085002
0.093920 0.749576 0.084157
0.093920 0.749706 0.084157
0.093943 0.750175 0.084157
0.094039 0.751035 0.084157
0.094211 0.752320 0.084157
0.096192 0.754052 0.084157
0.100740 0.756249 0.084157
0.110011 0.758922 0.084157
0.126803 0.762082 0.084157
0.164121 0.765733 0.084157
0.213399 0.769881 0.084157
0.270839 0.774527 0.084157
0.332265 0.779670 0.084157
0.402766 0.785308 0.084157
0.451174 0.791437 0.084157
0.500954 0.796801 0.084157
0.549507 0.800504 0.084157
0.595697 0.805306 0.084157
0.637360 0.810740 0.084157
0.677632 0.816462 0.084157
0.722039 0.822462 0.084157
0.753478 0.828731 0.084157
0.779691 0.835258 0.084157
0.809306 0.842032 0.084157
0.833053 0.849043 0.084157
0.854057 0.856280 0.084177
0.868239 0.863733 0.084270
0.882144 0.871390 0.084361
0.895787 0.876911 0.084454
0.906142 0.881186 0.084550
0.915544 0.884646 0.084643
0.922630 0.888156 0.084809
0.928704 0.891712 0.085063
0.093932 0.781221 0.084157
0.093948 0.781345 0.084157
0.094001 0.781791 0.084157
0.094091 0.782611 0.084157
0.094453 0.783836 0.084157
0.096975 0.785487 0.084157
0.102046 0.787581 0.084157
0.112635 0.790131 0.084157
0.131253 0.793145 0.084157
0.170242 0.796058 0.084157
0.219273 0.798130 0.084157
0.276062 0.800445 0.084157
0.337529 0.803433 0.084157
0.406898 0.807090 0.084157
0.454504 0.811059 0.084157
0.504943 0.815336 0.084157
0.552402 0.819915 0.084157
0.598474 0.824788 0.084157
0.639627 0.829950 0.084157
0.679912 0.835391 0.084157
0.724224 0.841103 0.084157
0.754396 0.847077 0.084157
0.781263 0.853304 0.084157
0.810289 0.859774 0.084157
0.833979 0.866478 0.084157
0.854591 0.872891 0.084209
0.868738 0.877811 0.084299
0.882613 0.881447 0.084389
0.896227 0.884625 0.084483
0.906438 0.887864 0.084576
0.915823 0.891162 0.084671
0.922807 0.894512 0.084876
0.928871 0.897910 0.085126
0.093994 0.805424 0.084157
0.094008 0.805504 0.084157
0.094058 0.805793 0.084157
0.094171 0.806323 0.084157
0.095183 0.807115 0.084157
0.097763 0.808183 0.084157
0.103619 0.809536 0.084157
0.115318 0.811183 0.084157
0.135953 0.813128 0.084157
0.176752 0.815376 0.084157
0.225484 0.817929 0.084157
0.281557 0.820786 0.084157
0.343062 0.823947 0.084157
0.411225 0.827410 0.084157
0.457987 0.831172 0.084157
0.509124 0.835229 0.084157
0.555432 0.839576 0.084157
0.601381 0.844207 0.084157
0.641998 0.849116 0.084157
0.682299 0.854296 0.084157
0.726511 0.859740 0.084157
0.755355 0.865439 0.084157
0.782909 0.871385 0.084157
0.811319 0.875760 0.084157
0.834947 0.879713 0.084157
