velvia/Velvia50_Classic_IlfochromeP.cube
TITLE "Velvia 50 Classic IlfochromeP"
# Adobe RGB in/out. REPLACES AgX. Velvia 50 Classic IlfochromeP.
LUT_3D_SIZE 5
DOMAIN_MIN 0.0 0.0 0.0
DOMAIN_MAX 1.0 1.0 1.0
0.172658 0.130191 0.128175
0.196398 0.134028 0.128175
0.505261 0.222935 0.129269
0.774006 0.409879 0.135347
0.980121 0.637082 0.153331
0.172658 0.158265 0.128175
0.198198 0.186972 0.128175
0.507929 0.291028 0.129505
0.774894 0.470383 0.135919
0.980418 0.680708 0.154133
0.173149 0.410055 0.128175
0.211221 0.435058 0.128175
0.517448 0.525607 0.130357
0.778069 0.661701 0.137857
0.981112 0.770303 0.157393
0.176269 0.721829 0.128757
0.236364 0.732014 0.129487
0.534744 0.766896 0.132013
0.783844 0.818345 0.141031
0.982380 0.873197 0.164627
0.187252 0.884891 0.131259
0.275580 0.888617 0.131927
0.555729 0.901559 0.136571
0.792329 0.923124 0.147260
0.984251 0.954168 0.177854
0.172658 0.130191 0.176876
0.196398 0.134239 0.181586
0.505261 0.223777 0.198192
0.774006 0.410806 0.217823
0.980121 0.637711 0.249293
0.172658 0.159113 0.178526
0.198198 0.188206 0.183222
0.507929 0.292006 0.199783
0.774894 0.471258 0.218737
0.980418 0.681160 0.250439
0.173149 0.410982 0.184414
0.211221 0.435867 0.189062
0.517448 0.526423 0.204040
0.778069 0.662316 0.221986
0.981112 0.770614 0.254531
0.176269 0.722172 0.195092
0.236364 0.732350 0.199657
0.534744 0.767209 0.210623
0.783844 0.818551 0.229539
0.982380 0.873328 0.262629
0.187252 0.885016 0.207455
0.275580 0.888740 0.210248
0.555729 0.901676 0.219803
0.792329 0.923214 0.240949
0.984251 0.954349 0.274597
0.172658 0.130191 0.500634
0.196398 0.134944 0.502800
0.505261 0.226779 0.510421
0.774006 0.414122 0.524380
0.980121 0.639969 0.546673
0.172658 0.162105 0.501410
0.198198 0.192606 0.503545
0.507929 0.295508 0.511157
0.774894 0.474399 0.525178
0.980418 0.682511 0.547450
0.173149 0.414279 0.504089
0.211221 0.438771 0.506215
0.517448 0.529308 0.513795
0.778069 0.664523 0.528038
0.981112 0.771728 0.550237
0.176269 0.723405 0.508989
0.236364 0.733556 0.511099
0.534744 0.768330 0.518621
0.783844 0.819289 0.533275
0.982380 0.873800 0.555341
0.187252 0.885466 0.516249
0.275580 0.889183 0.518335
0.555729 0.902097 0.526113
0.792329 0.923540 0.541049
0.984251 0.954997 0.562922
0.172658 0.130191 0.781542
0.196398 0.137682 0.782375
0.505261 0.232208 0.785352
0.774006 0.419585 0.790772
0.980121 0.644110 0.798175
0.172658 0.167397 0.781833
0.198198 0.200581 0.782666
0.507929 0.301907 0.785640
0.774894 0.480160 0.791057
0.980418 0.684984 0.798374
0.173149 0.419741 0.782878
0.211221 0.444089 0.783707
0.517448 0.534418 0.786675
0.778069 0.668571 0.792077
0.981112 0.773770 0.799086
0.176269 0.725664 0.784792
0.236364 0.735767 0.785618
0.534744 0.770387 0.788570
0.783844 0.820642 0.793948
0.982380 0.874665 0.800390
0.187252 0.886291 0.787638
0.275580 0.889996 0.788458
0.555729 0.902869 0.791390
0.792329 0.924137 0.796730
0.984251 0.956189 0.802329
0.172658 0.131803 0.910427
0.196398 0.142135 0.910826
0.505261 0.240353 0.912256
0.774006 0.427695 0.914870
0.980121 0.650274 0.918741
0.172658 0.176766 0.910567
0.198198 0.211349 0.910966
0.507929 0.311377 0.912395
0.774894 0.488738 0.915007
0.980418 0.688658 0.918877
0.173149 0.427850 0.911067
0.211221 0.451989 0.911466
0.517448 0.542024 0.912892
0.778069 0.674600 0.915501
0.981112 0.776811 0.919365
0.176269 0.729024 0.911986
0.236364 0.739055 0.912384
0.534744 0.773448 0.913806
0.783844 0.822657 0.916408
0.982380 0.875953 0.920261
0.187252 0.887520 0.913356
0.275580 0.891207 0.913752
0.555729 0.904019 0.915169
0.792329 0.925026 0.917759
0.984251 0.957967 0.921596
