velvia/Velvia50_Modern_IlfochromeM.cube
TITLE "Velvia 50 Modern IlfochromeM"
# Adobe RGB in/out. REPLACES AgX. Velvia 50 Modern IlfochromeM.
LUT_3D_SIZE 5
DOMAIN_MIN 0.0 0.0 0.0
DOMAIN_MAX 1.0 1.0 1.0
0.118305 0.082367 0.079686
0.392509 0.211418 0.105444
0.725078 0.423063 0.149957
0.877939 0.607819 0.208652
0.939709 0.746398 0.262927
0.135573 0.336794 0.090183
0.301303 0.291303 0.100137
0.636188 0.446302 0.137292
0.851342 0.622992 0.197117
0.930333 0.752718 0.254799
0.171549 0.650728 0.111346
0.346359 0.608011 0.117686
0.577963 0.590819 0.135761
0.800864 0.694926 0.180286
0.908214 0.778522 0.237591
0.206533 0.802832 0.128096
0.354548 0.794498 0.133319
0.588060 0.783217 0.151336
0.776811 0.792139 0.184421
0.886886 0.825851 0.229918
0.243964 0.863543 0.142191
0.354236 0.862054 0.147182
0.572300 0.860087 0.164778
0.764976 0.863817 0.196212
0.873238 0.875749 0.234541
0.118305 0.089180 0.403774
0.401340 0.219513 0.410157
0.712127 0.414315 0.387146
0.869309 0.594517 0.386844
0.936121 0.741148 0.397479
0.130819 0.281103 0.337491
0.240881 0.231869 0.236947
0.608617 0.423278 0.320112
0.841697 0.606989 0.358990
0.926739 0.747327 0.385064
0.166309 0.611431 0.345094
0.328123 0.572971 0.315102
0.550963 0.557995 0.285039
0.787278 0.676054 0.315989
0.904994 0.773349 0.354758
0.202846 0.794588 0.323267
0.347522 0.786730 0.315764
0.578519 0.775695 0.304392
0.769453 0.786445 0.309431
0.883982 0.822935 0.336487
0.242199 0.861526 0.299094
0.351882 0.860159 0.298907
0.569496 0.858513 0.301282
0.763046 0.862729 0.312137
0.872663 0.875370 0.333892
0.118305 0.108673 0.776164
0.401340 0.231416 0.778009
0.768600 0.467539 0.775261
0.875817 0.608491 0.693560
0.934514 0.739754 0.651332
0.134517 0.336970 0.762544
0.366277 0.365385 0.723223
0.659198 0.471394 0.667073
0.844997 0.615419 0.643936
0.924546 0.744860 0.628956
0.158681 0.552591 0.618796
0.302683 0.530192 0.576707
0.503195 0.505495 0.499571
0.775037 0.660546 0.552968
0.901213 0.767791 0.578125
0.195695 0.775999 0.597858
0.333363 0.769546 0.581958
0.559723 0.760611 0.547353
0.753963 0.774208 0.529925
0.878374 0.817529 0.545101
0.237410 0.856336 0.554290
0.345892 0.855382 0.549676
0.562656 0.854746 0.538768
0.758410 0.860196 0.532371
0.871290 0.874542 0.536999
0.118305 0.140165 0.918658
0.401340 0.252587 0.919000
0.777745 0.488091 0.920221
0.896380 0.649547 0.892009
0.938672 0.748204 0.856931
0.135573 0.362082 0.918778
0.408763 0.426229 0.919119
0.736706 0.549572 0.902355
0.866199 0.658292 0.872163
0.928383 0.752721 0.842405
0.159047 0.561061 0.846300
0.319046 0.564241 0.834512
0.579851 0.600251 0.809666
0.796931 0.695105 0.801412
0.903016 0.772154 0.798047
0.189750 0.757811 0.806856
0.320588 0.754587 0.794791
0.546794 0.750936 0.764563
0.733670 0.761650 0.738645
0.875544 0.815441 0.757130
0.231027 0.850101 0.774114
0.339042 0.849779 0.769738
0.554970 0.850685 0.758337
0.753193 0.857691 0.748845
0.869981 0.873960 0.748419
0.118305 0.182520 0.966198
0.401340 0.281453 0.966313
0.777745 0.504445 0.966725
0.906726 0.687924 0.953891
0.943937 0.759868 0.932982
0.135573 0.382927 0.966238
0.408763 0.444922 0.966353
0.774030 0.604255 0.965126
0.885567 0.702306 0.944120
0.934255 0.764769 0.925050
0.165089 0.620210 0.939068
0.349531 0.631691 0.936222
0.632025 0.673482 0.926856
0.823192 0.737483 0.913505
0.908603 0.783324 0.902048
0.187939 0.754078 0.900400
0.318850 0.754703 0.897199
0.556609 0.761330 0.889083
0.762591 0.784197 0.882679
0.879818 0.821259 0.880553
0.225382 0.844677 0.884345
0.333089 0.845197 0.882452
0.548993 0.847883 0.877021
0.749129 0.856516 0.871973
0.869415 0.874168 0.871378
