velvia/Velvia50_Classic_Punchy.cube
TITLE "Velvia 50 Classic Punchy"
# Adobe RGB in/out. REPLACES AgX. Velvia 50 Classic Punchy.
LUT_3D_SIZE 9
DOMAIN_MIN 0.0 0.0 0.0
DOMAIN_MAX 1.0 1.0 1.0
0.093920 0.090395 0.084157
0.093920 0.090395 0.084157
0.102047 0.090395 0.084157
0.270359 0.090461 0.084157
0.518166 0.103408 0.084157
0.698496 0.192544 0.084157
0.823063 0.376223 0.084157
0.891046 0.526534 0.084157
0.926913 0.648238 0.084564
0.093920 0.090395 0.084157
0.093920 0.090395 0.084157
0.102337 0.090395 0.084157
0.271438 0.091291 0.084157
0.518784 0.112305 0.084157
0.698959 0.221142 0.084157
0.823259 0.396894 0.084157
0.891139 0.540925 0.084157
0.926948 0.657478 0.084569
0.093920 0.090462 0.084157
0.093920 0.090736 0.084157
0.103471 0.092706 0.084157
0.275321 0.108505 0.084157
0.521003 0.171277 0.084157
0.700619 0.313135 0.084157
0.823965 0.473988 0.084157
0.891473 0.591912 0.084169
0.927074 0.689890 0.084589
0.093920 0.129499 0.084157
0.093920 0.136066 0.084157
0.105506 0.167580 0.084157
0.282486 0.241631 0.084157
0.525073 0.345061 0.084157
0.703668 0.467618 0.084157
0.825260 0.565130 0.084157
0.892087 0.658435 0.084212
0.927306 0.745808 0.084624
0.093920 0.376470 0.084157
0.093920 0.384961 0.084157
0.110117 0.413568 0.084157
0.299339 0.474157 0.084157
0.531130 0.528651 0.084157
0.708211 0.605579 0.084157
0.827189 0.671025 0.084157
0.893002 0.744386 0.084274
0.927651 0.803041 0.084679
0.093920 0.595763 0.084157
0.093985 0.601503 0.084157
0.115965 0.616531 0.084157
0.313926 0.642258 0.084157
0.539259 0.679348 0.084157
0.714320 0.727156 0.084157
0.829781 0.776424 0.084157
0.894232 0.816386 0.084354
0.928116 0.854941 0.084833
0.093920 0.749576 0.084157
0.094211 0.752320 0.084157
0.126803 0.762082 0.084157
0.332265 0.779670 0.084157
0.549507 0.800504 0.084157
0.722039 0.822462 0.084157
0.833053 0.849043 0.084157
0.895787 0.876911 0.084454
0.928704 0.891712 0.085063
0.094119 0.847871 0.084157
0.096875 0.849384 0.084157
0.147784 0.854773 0.084157
0.354948 0.864499 0.084157
0.561893 0.876482 0.084157
0.730840 0.885258 0.084157
0.837014 0.894512 0.084222
0.897671 0.905038 0.084573
0.929418 0.916588 0.085446
0.096635 0.899025 0.084157
0.102954 0.899534 0.084157
0.176766 0.901347 0.084157
0.385931 0.904623 0.084157
0.576417 0.909384 0.084157
0.738039 0.915573 0.084157
0.841666 0.923073 0.084372
0.899477 0.929667 0.084719
0.930258 0.934792 0.086092
0.093920 0.090395 0.084157
0.093920 0.090395 0.084157
0.102047 0.090395 0.084157
0.270359 0.090463 0.084157
0.518166 0.103516 0.084157
0.698496 0.192922 0.084157
0.823063 0.376506 0.084276
0.891046 0.526732 0.084620
0.926913 0.648365 0.085679
0.093920 0.090395 0.084157
0.093920 0.090395 0.084157
0.102337 0.090395 0.084157
0.271438 0.091314 0.084157
0.518784 0.112418 0.084157
0.698959 0.221547 0.084157
0.823259 0.397141 0.084283
0.891139 0.541121 0.084625
0.926948 0.657604 0.085705
0.093920 0.090463 0.084157
0.093920 0.090748 0.084157
0.103471 0.092732 0.084157
0.275321 0.108619 0.084157
0.521003 0.171617 0.084157
0.700619 0.313512 0.084157
0.823965 0.474235 0.084304
0.891473 0.592105 0.084644
0.927074 0.690011 0.085800
0.093920 0.129724 0.084157
0.093920 0.136283 0.084157
0.105506 0.167917 0.084157
0.282486 0.242055 0.084157
0.525073 0.345453 0.084157
0.703668 0.467865 0.084157
0.825260 0.565325 0.084344
0.892087 0.658560 0.084682
0.927306 0.745901 0.085972
0.093920 0.376753 0.084157
0.093920 0.385245 0.084157
0.110117 0.413955 0.084157
0.299339 0.474404 0.084157
0.531130 0.528849 0.084157
0.708211 0.605713 0.084157
0.827189 0.671149 0.084401
0.893002 0.744478 0.084791
0.927651 0.803098 0.086219
0.093920 0.595954 0.084157
0.093985 0.601695 0.084157
0.115965 0.616663 0.084157
0.313926 0.642386 0.084157
0.539259 0.679471 0.084157
0.714320 0.727273 0.084186
0.829781 0.776512 0.084480
0.894232 0.816441 0.084974
0.928116 0.854991 0.086720
0.093920 0.749668 0.084157
0.094211 0.752411 0.084157
0.126803 0.762172 0.084157
0.332265 0.779758 0.084157
0.549507 0.800548 0.084157
0.722039 0.822516 0.084294
0.833053 0.849093 0.084577
0.895787 0.876943 0.085197
0.928704 0.891730 0.087509
0.094119 0.847922 0.084157
0.096875 0.849435 0.084157
0.147784 0.854823 0.084157
0.354948 0.864547 0.084157
0.561893 0.876514 0.084183
0.730840 0.885277 0.084415
0.837014 0.894530 0.084691
0.897671 0.905055 0.085723
0.929418 0.916603 0.088331
0.096635 0.899042 0.084157
0.102954 0.899551 0.084157
0.176766 0.901364 0.084157
0.385931 0.904639 0.084159
0.576417 0.909400 0.084337
0.738039 0.915588 0.084559
0.841666 0.923087 0.085014
0.899477 0.929675 0.086409
0.930258 0.934795 0.089738
0.093920 0.090395 0.086024
0.093920 0.090395 0.086096
0.102047 0.090395 0.086413
0.270359 0.090467 0.087207
0.518166 0.103906 0.088414
0.698496 0.194282 0.090553
0.823063 0.377523 0.094268
0.891046 0.527441 0.100927
0.926913 0.648822 0.113065
0.093920 0.090395 0.086049
0.093920 0.090395 0.086121
0.102337 0.090395 0.086451
0.271438 0.091393 0.087257
0.518784 0.112860 0.088472
0.698959 0.223005 0.090603
0.823259 0.398026 0.094372
0.891139 0.541826 0.101064
0.926948 0.658055 0.113245
0.093920 0.090467 0.086139
0.093920 0.090793 0.086210
0.103471 0.092826 0.086589
0.275321 0.109029 0.087435
0.521003 0.172842 0.088680
0.700619 0.314869 0.090781
0.823965 0.475123 0.094741
0.891473 0.592795 0.101583
0.927074 0.690446 0.113985
0.093920 0.130533 0.086338
0.093920 0.137063 0.086448
0.105506 0.169128 0.086840
0.282486 0.243580 0.087694
0.525073 0.346863 0.089059
0.703668 0.468753 0.091105
0.825260 0.566022 0.095419
0.892087 0.659011 0.102536
0.927306 0.746232 0.115481
0.093920 0.377770 0.086717
0.093920 0.386265 0.086825
0.110117 0.415349 0.087315
0.299339 0.475291 0.087992
0.531130 0.529557 0.089619
0.708211 0.606193 0.091633
0.827189 0.671593 0.096426
0.893002 0.744811 0.103957
0.927651 0.803303 0.117727
0.093920 0.596644 0.087326
0.093985 0.602382 0.087467
0.115965 0.617137 0.087722
0.313926 0.642846 0.088770
0.539259 0.679911 0.090361
0.714320 0.727691 0.092796
0.829781 0.776828 0.097774
0.894232 0.816638 0.106161
0.928116 0.855170 0.120778
0.093920 0.749998 0.087892
0.094211 0.752740 0.088060
0.126803 0.762495 0.088659
0.332265 0.780072 0.089734
0.549507 0.800706 0.091203
0.722039 0.822710 0.094558
0.833053 0.849275 0.099920
0.895787 0.877059 0.109511
0.928704 0.891794 0.124022
0.094119 0.848104 0.089096
0.096875 0.849616 0.089258
0.147784 0.855001 0.089837
0.354948 0.864721 0.090834
0.561893 0.876630 0.092747
0.730840 0.885345 0.096677
0.837014 0.894593 0.102764
0.897671 0.905113 0.113365
0.929418 0.916656 0.127042
0.096635 0.899103 0.090466
0.102954 0.899612 0.090609
0.176766 0.901424 0.091115
0.385931 0.904698 0.092433
0.576417 0.909457 0.095294
0.738039 0.915642 0.099511
0.841666 0.923138 0.106748
0.899477 0.929703 0.118918
0.930258 0.934805 0.132698
0.093920 0.090395 0.192929
0.093920 0.090395 0.194152
0.102047 0.090395 0.198578
0.270359 0.090493 0.206851
0.518166 0.104621 0.219648
0.698496 0.196797 0.237679
0.823063 0.379396 0.261657
0.891046 0.528745 0.291205
0.926913 0.649661 0.325442
0.093920 0.090395 0.193356
0.093920 0.090395 0.194580
0.102337 0.090395 0.199011
0.271438 0.091542 0.207293
0.518784 0.113717 0.220110
0.698959 0.225701 0.238160
0.823259 0.399656 0.262162
0.891139 0.543122 0.291679
0.926948 0.658885 0.325940
0.093920 0.090495 0.194893
0.093920 0.090874 0.196123
0.103471 0.092997 0.200571
0.275321 0.109781 0.208885
0.521003 0.175106 0.221775
0.700619 0.317372 0.239893
0.823965 0.476441 0.263981
0.891473 0.594064 0.293382
0.927074 0.691246 0.327730
0.093920 0.132013 0.197738
0.093920 0.138502 0.198977
0.105506 0.171369 0.203457
0.282486 0.246402 0.211830
0.525073 0.349463 0.224855
0.703668 0.470386 0.243098
0.825260 0.567305 0.267345
0.892087 0.659841 0.296529
0.927306 0.746842 0.331036
0.093920 0.379642 0.202033
0.093920 0.388144 0.203284
0.110117 0.417918 0.207812
0.299339 0.476571 0.216330
0.531130 0.530860 0.229503
0.708211 0.607076 0.247933
0.827189 0.672411 0.272418
0.893002 0.745422 0.301264
0.927651 0.803679 0.336008
0.093920 0.597911 0.207909
0.093985 0.603647 0.209178
0.115965 0.618008 0.213790
0.313926 0.643690 0.222500
0.539259 0.680721 0.235860
0.714320 0.728460 0.254543
0.829781 0.777410 0.279496
0.894232 0.817001 0.307715
0.928116 0.855498 0.342780
0.093920 0.750604 0.215548
0.094211 0.753343 0.216860
0.126803 0.763089 0.221606
0.332265 0.780651 0.230476
0.549507 0.800996 0.244074
0.722039 0.823068 0.263078
0.833053 0.849608 0.287443
0.895787 0.877271 0.316008
0.928704 0.891913 0.351013
0.094119 0.848438 0.225157
0.096875 0.849949 0.226498
0.147784 0.855330 0.231350
0.354948 0.865042 0.240413
0.561893 0.876843 0.254302
0.730840 0.885469 0.273699
0.837014 0.894709 0.297286
0.897671 0.905221 0.326273
0.929418 0.916756 0.359952
0.096635 0.899216 0.236840
0.102954 0.899724 0.238216
0.176766 0.901534 0.243193
0.385931 0.904806 0.252487
0.576417 0.909561 0.266721
0.738039 0.915742 0.285926
0.841666 0.923233 0.309164
0.899477 0.929754 0.338649
0.930258 0.934825 0.370662
0.093920 0.090395 0.546622
0.093920 0.090395 0.547743
0.102047 0.090395 0.551673
0.270359 0.090621 0.558062
0.518166 0.105905 0.567625
0.698496 0.200589 0.580333
0.823063 0.382199 0.591092
0.891046 0.530695 0.603222
0.926913 0.650914 0.617448
0.093920 0.090395 0.547014
0.093920 0.090395 0.548135
0.102337 0.090395 0.552011
0.271438 0.091761 0.558400
0.518784 0.114995 0.567963
0.698959 0.229764 0.580560
0.823259 0.402094 0.591297
0.891139 0.545060 0.603425
0.926948 0.660125 0.617648
0.093920 0.090624 0.548422
0.093920 0.090992 0.549544
0.103471 0.093405 0.553224
0.275321 0.110901 0.559613
0.521003 0.178459 0.569178
0.700619 0.321130 0.581375
0.823965 0.478332 0.592035
0.891473 0.595962 0.604153
0.927074 0.692442 0.618368
0.093920 0.134146 0.551015
0.093920 0.140861 0.551984
0.105506 0.174747 0.555456
0.282486 0.250670 0.561847
0.525073 0.353366 0.571413
0.703668 0.472828 0.582874
0.825260 0.569224 0.593389
0.892087 0.661079 0.605493
0.927306 0.747753 0.619691
0.093920 0.382446 0.554356
0.093920 0.390956 0.555323
0.110117 0.421772 0.558796
0.299339 0.478462 0.565188
0.531130 0.532808 0.574757
0.708211 0.608396 0.585112
0.827189 0.673632 0.595413
0.893002 0.746335 0.607495
0.927651 0.804241 0.621666
0.093920 0.599806 0.558869
0.093985 0.605030 0.559836
0.115965 0.619310 0.563310
0.313926 0.644953 0.569705
0.539259 0.681931 0.579278
0.714320 0.729609 0.588131
0.829781 0.778279 0.598142
0.894232 0.817543 0.610193
0.928116 0.855989 0.624331
0.093920 0.751509 0.564612
0.094211 0.754245 0.565579
0.126803 0.763978 0.569055
0.332265 0.781516 0.575453
0.549507 0.801430 0.583327
0.722039 0.823601 0.591669
0.833053 0.850106 0.601602
0.895787 0.877589 0.613615
0.928704 0.892090 0.628103
0.094119 0.848937 0.571631
0.096875 0.850446 0.572599
0.147784 0.855820 0.576077
0.354948 0.865521 0.581619
0.561893 0.877161 0.588022
0.730840 0.885654 0.595920
0.837014 0.894883 0.605815
0.897671 0.905382 0.617782
0.929418 0.916904 0.633546
0.096635 0.899383 0.579937
0.102954 0.899891 0.580587
0.176766 0.901700 0.582918
0.385931 0.904967 0.587197
0.576417 0.909717 0.593139
0.738039 0.915891 0.600946
0.841666 0.923375 0.610795
0.899477 0.929830 0.622709
0.930258 0.934854 0.639996
0.093920 0.090395 0.761692
0.093920 0.090395 0.761880
0.102047 0.090395 0.762554
0.270359 0.090789 0.764390
0.518166 0.107791 0.768435
0.698496 0.205772 0.773870
0.823063 0.385991 0.780734
0.891046 0.533327 0.789047
0.926913 0.652605 0.797952
0.093920 0.090395 0.761758
0.093920 0.090395 0.761946
0.102337 0.090395 0.762619
0.271438 0.092050 0.764533
0.518784 0.116718 0.768577
0.698959 0.235313 0.774011
0.823259 0.405388 0.780874
0.891139 0.547675 0.789186
0.926948 0.661798 0.798041
0.093920 0.090792 0.761994
0.093920 0.091148 0.762181
0.103471 0.094032 0.762854
0.275321 0.112408 0.765048
0.521003 0.182275 0.769089
0.700619 0.326237 0.774520
0.823965 0.480562 0.781379
0.891473 0.598524 0.789686
0.927074 0.694056 0.798363
0.093920 0.137042 0.762427
0.093920 0.144236 0.762614
0.105506 0.179151 0.763286
0.282486 0.256497 0.765994
0.525073 0.358667 0.770030
0.703668 0.475955 0.775456
0.825260 0.571813 0.782307
0.892087 0.662750 0.790605
0.927306 0.748982 0.798954
0.093920 0.386239 0.763073
0.093920 0.394760 0.763260
0.110117 0.427000 0.764701
0.299339 0.480669 0.767406
0.531130 0.535438 0.771437
0.708211 0.610175 0.776853
0.827189 0.675280 0.783693
0.893002 0.747566 0.791979
0.927651 0.804999 0.799836
0.093920 0.602364 0.764733
0.093985 0.606817 0.765142
0.115965 0.621066 0.766613
0.313926 0.646655 0.769312
0.539259 0.683563 0.773333
0.714320 0.731160 0.778737
0.829781 0.779452 0.785563
0.894232 0.818275 0.793831
0.928116 0.856650 0.801025
0.093920 0.752731 0.767163
0.094211 0.755462 0.767571
0.126803 0.765176 0.769037
0.332265 0.782683 0.771729
0.549507 0.802143 0.775739
0.722039 0.824321 0.781129
0.833053 0.850778 0.787936
0.895787 0.878018 0.796182
0.928704 0.892329 0.802533
0.094119 0.849611 0.770122
0.096875 0.851118 0.770529
0.147784 0.856483 0.771991
0.354948 0.866167 0.774673
0.561893 0.877590 0.778669
0.730840 0.885905 0.784041
0.837014 0.895117 0.790826
0.897671 0.905599 0.798101
0.929418 0.917104 0.804368
0.096635 0.899610 0.773622
0.102954 0.900117 0.774028
0.176766 0.901923 0.775483
0.385931 0.905185 0.778154
0.576417 0.909928 0.782135
0.738039 0.916093 0.787486
0.841666 0.923566 0.794244
0.899477 0.929933 0.800302
0.930258 0.934893 0.806536
0.093920 0.090395 0.881139
0.093920 0.090395 0.881251
0.102047 0.090395 0.881652
0.270359 0.090995 0.882387
0.518166 0.109857 0.883483
0.698496 0.212460 0.884954
0.823063 0.390822 0.886809
0.891046 0.536670 0.889052
0.926913 0.654751 0.891683
0.093920 0.090395 0.881178
0.093920 0.090395 0.881290
0.102337 0.090395 0.881691
0.271438 0.092407 0.882426
0.518784 0.118901 0.883521
0.698959 0.242467 0.884992
0.823259 0.409577 0.886847
0.891139 0.550998 0.889090
0.926948 0.663922 0.891720
0.093920 0.090997 0.881318
0.093920 0.091480 0.881430
0.103471 0.094811 0.881830
0.275321 0.114584 0.882565
0.521003 0.187660 0.883660
0.700619 0.332778 0.885129
0.823965 0.483240 0.886983
0.891473 0.601779 0.889224
0.927074 0.696104 0.891853
0.093920 0.140962 0.881576
0.093920 0.149200 0.881687
0.105506 0.184015 0.882088
0.282486 0.264006 0.882822
0.525073 0.365260 0.883915
0.703668 0.479172 0.885382
0.825260 0.575103 0.887234
0.892087 0.664871 0.889472
0.927306 0.750541 0.892098
0.093920 0.391070 0.881961
0.093920 0.399153 0.882072
0.110117 0.433683 0.882472
0.299339 0.483347 0.883204
0.531130 0.538778 0.884295
0.708211 0.612433 0.885760
0.827189 0.677371 0.887608
0.893002 0.749129 0.889842
0.927651 0.805960 0.892463
0.093920 0.605084 0.882480
0.093985 0.609084 0.882591
0.115965 0.623293 0.882989
0.313926 0.648816 0.883720
0.539259 0.685635 0.884808
0.714320 0.733129 0.886269
0.829781 0.780940 0.888113
0.894232 0.819203 0.890341
0.928116 0.857491 0.892956
0.093920 0.754282 0.883138
0.094211 0.757005 0.883249
0.126803 0.766697 0.883646
0.332265 0.784165 0.884374
0.549507 0.803112 0.885459
0.722039 0.825234 0.886915
0.833053 0.851631 0.888753
0.895787 0.878518 0.890974
0.928704 0.892632 0.893581
0.094119 0.850467 0.883940
0.096875 0.851970 0.884050
0.147784 0.857323 0.884445
0.354948 0.866987 0.885171
0.561893 0.878135 0.886251
0.730840 0.886223 0.887702
0.837014 0.895414 0.889532
0.897671 0.905875 0.891745
0.929418 0.917358 0.894342
0.096635 0.899898 0.884887
0.102954 0.900404 0.884996
0.176766 0.902206 0.885390
0.385931 0.905461 0.886112
0.576417 0.910195 0.887187
0.738039 0.916349 0.888631
0.841666 0.923809 0.890453
0.899477 0.930064 0.892656
0.930258 0.934943 0.895241
0.093920 0.090395 0.929888
0.093920 0.090395 0.929907
0.102047 0.090395 0.929976
0.270359 0.091271 0.930102
0.518166 0.112204 0.930290
0.698496 0.220778 0.930542
0.823063 0.396672 0.930861
0.891046 0.540748 0.931247
0.926913 0.657365 0.931700
0.093920 0.090395 0.929895
0.093920 0.090395 0.929914
0.102337 0.090395 0.929982
0.271438 0.092904 0.930108
0.518784 0.121555 0.930296
0.698959 0.251383 0.930548
0.823259 0.416240 0.930867
0.891139 0.555051 0.931253
0.926948 0.666509 0.931707
0.093920 0.091276 0.929919
0.093920 0.091938 0.929938
0.103471 0.095737 0.930006
0.275321 0.117260 0.930132
0.521003 0.195476 0.930320
0.700619 0.340837 0.930572
0.823965 0.486500 0.930891
0.891473 0.605179 0.931276
0.927074 0.698600 0.931730
0.093920 0.146289 0.929963
0.093920 0.155876 0.929982
0.105506 0.191340 0.930050
0.282486 0.271331 0.930176
0.525073 0.371119 0.930364
0.703668 0.482448 0.930616
0.825260 0.579116 0.930934
0.892087 0.667456 0.931319
0.927306 0.752442 0.931772
0.093920 0.396887 0.930029
0.093920 0.404272 0.930048
0.110117 0.441898 0.930116
0.299339 0.486606 0.930242
0.531130 0.542853 0.930429
0.708211 0.615183 0.930680
0.827189 0.679919 0.930998
0.893002 0.751034 0.931383
0.927651 0.807132 0.931835
0.093920 0.607858 0.930118
0.093985 0.611845 0.930137
0.115965 0.626007 0.930205
0.313926 0.651448 0.930330
0.539259 0.688160 0.930517
0.714320 0.735529 0.930768
0.829781 0.782754 0.931085
0.894232 0.820334 0.931469
0.928116 0.858515 0.931920
0.093920 0.756171 0.930230
0.094211 0.758887 0.930249
0.126803 0.768551 0.930318
0.332265 0.785970 0.930442
0.549507 0.804292 0.930629
0.722039 0.826347 0.930879
0.833053 0.852670 0.931195
0.895787 0.879009 0.931578
0.928704 0.893002 0.932028
0.094119 0.851509 0.930368
0.096875 0.853009 0.930387
0.147784 0.858348 0.930455
0.354948 0.867987 0.930579
0.561893 0.878694 0.930765
0.730840 0.886610 0.931014
0.837014 0.895776 0.931329
0.897671 0.906211 0.931711
0.929418 0.917668 0.932160
0.096635 0.900249 0.930530
0.102954 0.900753 0.930549
0.176766 0.902551 0.930617
0.385931 0.905799 0.930741
0.576417 0.910521 0.930926
0.738039 0.916661 0.931174
0.841666 0.924105 0.931488
0.899477 0.930224 0.931868
0.930258 0.935004 0.932315
0.093920 0.090395 0.945040
0.093920 0.090395 0.945061
0.102047 0.090395 0.945135
0.270359 0.091819 0.945272
0.518166 0.115338 0.945476
0.698496 0.230862 0.945750
0.823063 0.402749 0.946097
0.891046 0.545580 0.946518
0.926913 0.660458 0.947015
0.093920 0.090395 0.945047
0.093920 0.090395 0.945068
0.102337 0.090426 0.945143
0.271438 0.093928 0.945279
0.518784 0.125631 0.945483
0.698959 0.262200 0.945757
0.823259 0.425856 0.946104
0.891139 0.559854 0.946525
0.926948 0.669570 0.947022
0.093920 0.091823 0.945073
0.093920 0.092457 0.945094
0.103471 0.096803 0.945169
0.275321 0.120420 0.945305
0.521003 0.204965 0.945509
0.700619 0.350503 0.945783
0.823965 0.490353 0.946130
0.891473 0.608471 0.946551
0.927074 0.701554 0.947047
0.093920 0.154156 0.945121
0.093920 0.163983 0.945142
0.105506 0.200728 0.945216
0.282486 0.279697 0.945353
0.525073 0.378090 0.945556
0.703668 0.486321 0.945830
0.825260 0.583872 0.946177
0.892087 0.670513 0.946597
0.927306 0.754690 0.947093
0.093920 0.402963 0.945193
0.093920 0.410348 0.945213
0.110117 0.449166 0.945288
0.299339 0.490459 0.945424
0.531130 0.547680 0.945627
0.708211 0.618435 0.945901
0.827189 0.682934 0.946247
0.893002 0.753287 0.946667
0.927651 0.808518 0.947162
0.093920 0.611140 0.945289
0.093985 0.615111 0.945310
0.115965 0.629216 0.945384
0.313926 0.654563 0.945520
0.539259 0.691148 0.945723
0.714320 0.738371 0.945996
0.829781 0.784902 0.946342
0.894232 0.821672 0.946761
0.928116 0.859727 0.947256
0.093920 0.758406 0.945412
0.094211 0.761113 0.945432
0.126803 0.770745 0.945506
0.332265 0.788107 0.945642
0.549507 0.805689 0.945844
0.722039 0.827664 0.946117
0.833053 0.853901 0.946462
0.895787 0.879591 0.946881
0.928704 0.893439 0.947374
0.094119 0.852743 0.945561
0.096875 0.854238 0.945581
0.147784 0.859561 0.945655
0.354948 0.869171 0.945791
0.561893 0.879277 0.945993
0.730840 0.887068 0.946265
0.837014 0.896205 0.946609
0.897671 0.906609 0.947026
0.929418 0.918035 0.947519
0.096635 0.900664 0.945738
0.102954 0.901167 0.945758
0.176766 0.902959 0.945832
0.385931 0.906198 0.945967
0.576417 0.910907 0.946168
0.738039 0.917031 0.946439
0.841666 0.924456 0.946782
0.899477 0.930413 0.947199
0.930258 0.935076 0.947690
