velvia/Velvia50_Classic_ExtraPunchy.cube
TITLE "Velvia 50 Classic ExtraPunchy"
# Adobe RGB in/out. REPLACES AgX. Velvia 50 Classic ExtraPunchy.
LUT_3D_SIZE 9
DOMAIN_MIN 0.0 0.0 0.0
DOMAIN_MAX 1.0 1.0 1.0
0.070631 0.072407 0.079283
0.070721 0.072407 0.079283
0.072991 0.072454 0.079283
0.145720 0.073098 0.079283
0.590378 0.078842 0.079249
0.872918 0.121459 0.079186
0.955011 0.323787 0.079075
0.981637 0.609166 0.078821
0.988830 0.834935 0.078605
0.070631 0.072411 0.079283
0.070740 0.072421 0.079283
0.073023 0.072631 0.079283
0.146569 0.073582 0.079283
0.591624 0.081819 0.079248
0.873289 0.141799 0.079185
0.955074 0.359938 0.079072
0.981650 0.636429 0.078819
0.988840 0.848362 0.078602
0.070631 0.073099 0.079283
0.070801 0.073292 0.079283
0.073135 0.074389 0.079283
0.149635 0.080518 0.079283
0.596103 0.108860 0.079242
0.874620 0.240207 0.079179
0.955300 0.489059 0.079061
0.981696 0.714168 0.078812
0.988875 0.888541 0.078591
0.070631 0.088685 0.079283
0.070897 0.091425 0.079283
0.073553 0.107139 0.079283
0.155344 0.157619 0.079282
0.604356 0.286935 0.079233
0.877062 0.476363 0.079169
0.955716 0.672128 0.079041
0.981781 0.849736 0.078798
0.988939 0.926053 0.078572
0.070689 0.324153 0.079283
0.071013 0.338439 0.079283
0.074148 0.394641 0.079283
0.164048 0.489396 0.079262
0.616731 0.613274 0.079216
0.880693 0.742181 0.079156
0.956334 0.867842 0.078997
0.981908 0.924711 0.078770
0.989034 0.968508 0.078536
0.070857 0.721731 0.079283
0.071202 0.733064 0.079283
0.075410 0.766582 0.079273
0.177519 0.824638 0.079240
0.633509 0.879153 0.079192
0.885563 0.916833 0.079123
0.957162 0.950055 0.078918
0.982079 0.973065 0.078722
0.989163 0.983210 0.078469
0.071055 0.929605 0.079265
0.071527 0.932189 0.079260
0.077342 0.941362 0.079243
0.199816 0.951926 0.079212
0.654859 0.966463 0.079167
0.891694 0.975122 0.079066
0.958206 0.981934 0.078839
0.982294 0.986559 0.078665
0.989325 0.991276 0.078366
0.071433 0.981680 0.079232
0.072232 0.982008 0.079228
0.080904 0.983174 0.079209
0.235758 0.985138 0.079178
0.676773 0.986503 0.079125
0.899094 0.988926 0.078982
0.959465 0.992053 0.078795
0.982554 0.994955 0.078600
0.989522 0.996738 0.078248
0.072174 0.993300 0.079189
0.073084 0.993441 0.079185
0.088156 0.993940 0.079169
0.282019 0.994841 0.079138
0.702763 0.996042 0.079044
0.906523 0.996720 0.078846
0.960938 0.996853 0.078712
0.982859 0.997004 0.078514
0.989754 0.997160 0.078057
0.070631 0.072407 0.079218
0.070721 0.072407 0.079212
0.072991 0.072455 0.079194
0.145720 0.073104 0.079165
0.590378 0.078893 0.079095
0.872918 0.121689 0.078931
0.955011 0.324207 0.078769
0.981637 0.609549 0.078574
0.988830 0.835155 0.078181
0.070631 0.072412 0.079216
0.070740 0.072422 0.079210
0.073023 0.072633 0.079192
0.146569 0.073591 0.079164
0.591624 0.081857 0.079091
0.873289 0.142127 0.078925
0.955074 0.360456 0.078765
0.981650 0.636789 0.078571
0.988840 0.848543 0.078173
0.070631 0.073106 0.079209
0.070801 0.073298 0.079204
0.073135 0.074401 0.079186
0.149635 0.080558 0.079159
0.596103 0.109018 0.079080
0.874620 0.240616 0.078905
0.955300 0.489554 0.078752
0.981696 0.714545 0.078561
0.988875 0.888636 0.078145
0.070631 0.088777 0.079197
0.070897 0.091516 0.079192
0.073553 0.107296 0.079176
0.155344 0.157875 0.079150
0.604356 0.287331 0.079059
0.877062 0.476852 0.078869
0.955716 0.672416 0.078729
0.981781 0.849917 0.078534
0.988939 0.926140 0.078094
0.070689 0.324574 0.079181
0.071013 0.338938 0.079177
0.074148 0.395187 0.079162
0.164048 0.489892 0.079119
0.616731 0.613657 0.079029
0.880693 0.742477 0.078835
0.956334 0.868020 0.078695
0.981908 0.924799 0.078488
0.989034 0.968528 0.078054
0.070857 0.722109 0.079162
0.071202 0.733443 0.079158
0.075410 0.766878 0.079139
0.177519 0.824858 0.079075
0.633509 0.879278 0.078953
0.885563 0.916911 0.078806
0.957162 0.950106 0.078651
0.982079 0.973084 0.078406
0.989163 0.983221 0.078070
0.071055 0.929691 0.079125
0.071527 0.932275 0.079115
0.077342 0.941447 0.079081
0.199816 0.951976 0.079021
0.654859 0.966511 0.078858
0.891694 0.975141 0.078759
0.958206 0.981945 0.078598
0.982294 0.986563 0.078307
0.989325 0.991281 0.078123
0.071433 0.981691 0.079057
0.072232 0.982019 0.079048
0.080904 0.983185 0.079010
0.235758 0.985145 0.078899
0.676773 0.986507 0.078807
0.899094 0.988933 0.078686
0.959465 0.992058 0.078527
0.982554 0.994960 0.078168
0.989522 0.996739 0.078202
0.072174 0.993305 0.078941
0.073084 0.993445 0.078925
0.088156 0.993945 0.078868
0.282019 0.994846 0.078815
0.702763 0.996046 0.078733
0.906523 0.996721 0.078608
0.960938 0.996853 0.078388
0.982859 0.997004 0.078066
0.989754 0.997160 0.078313
0.070631 0.072407 0.078078
0.070721 0.072407 0.078056
0.072991 0.072461 0.078066
0.145720 0.073128 0.078099
0.590378 0.079074 0.078208
0.872918 0.122518 0.078387
0.955011 0.325721 0.078658
0.981637 0.610924 0.079182
0.988830 0.835939 0.080245
0.070631 0.072412 0.078070
0.070740 0.072423 0.078049
0.073023 0.072642 0.078067
0.146569 0.073623 0.078103
0.591624 0.081994 0.078211
0.873289 0.143310 0.078392
0.955074 0.362319 0.078664
0.981650 0.637821 0.079196
0.988840 0.849191 0.080262
0.070631 0.073130 0.078043
0.070801 0.073320 0.078053
0.073135 0.074446 0.078069
0.149635 0.080699 0.078117
0.596103 0.109585 0.078225
0.874620 0.242087 0.078409
0.955300 0.491336 0.078684
0.981696 0.715899 0.079246
0.988875 0.888977 0.080321
0.070631 0.089106 0.078065
0.070897 0.091843 0.078067
0.073553 0.107861 0.078071
0.155344 0.158798 0.078143
0.604356 0.288756 0.078252
0.877062 0.478612 0.078441
0.955716 0.673448 0.078721
0.981781 0.850565 0.079337
0.988939 0.926453 0.080429
0.070689 0.326089 0.078070
0.071013 0.340737 0.078071
0.074148 0.397150 0.078108
0.164048 0.491675 0.078181
0.616731 0.615034 0.078302
0.880693 0.743541 0.078499
0.956334 0.868660 0.078781
0.981908 0.925112 0.079472
0.989034 0.968598 0.080588
0.070857 0.723466 0.078109
0.071202 0.734805 0.078120
0.075410 0.767942 0.078160
0.177519 0.825648 0.078230
0.633509 0.879727 0.078369
0.885563 0.917192 0.078577
0.957162 0.950288 0.078891
0.982079 0.973151 0.079651
0.989163 0.983260 0.080876
0.071055 0.930002 0.078174
0.071527 0.932584 0.078185
0.077342 0.941750 0.078223
0.199816 0.952157 0.078313
0.654859 0.966682 0.078452
0.891694 0.975206 0.078674
0.958206 0.981985 0.079070
0.982294 0.986578 0.079926
0.989325 0.991299 0.081243
0.071433 0.981731 0.078255
0.072232 0.982059 0.078270
0.080904 0.983223 0.078322
0.235758 0.985168 0.078414
0.676773 0.986522 0.078575
0.899094 0.988960 0.078799
0.959465 0.992075 0.079359
0.982554 0.994976 0.080273
0.989522 0.996740 0.081682
0.072174 0.993322 0.078379
0.073084 0.993462 0.078393
0.088156 0.993961 0.078442
0.282019 0.994862 0.078553
0.702763 0.996059 0.078714
0.906523 0.996722 0.079024
0.960938 0.996854 0.079696
0.982859 0.997005 0.080698
0.989754 0.997161 0.082686
0.070631 0.072407 0.096937
0.070721 0.072407 0.097377
0.072991 0.072470 0.098963
0.145720 0.073172 0.103047
0.590378 0.079384 0.110292
0.872918 0.124052 0.121582
0.955011 0.328516 0.139168
0.981637 0.613456 0.168755
0.988830 0.837142 0.218855
0.070631 0.072413 0.097091
0.070740 0.072426 0.097531
0.073023 0.072658 0.099117
0.146569 0.073687 0.103299
0.591624 0.082244 0.110553
0.873289 0.145502 0.121909
0.955074 0.365761 0.139633
0.981650 0.639720 0.169289
0.988840 0.850383 0.219646
0.070631 0.073173 0.097643
0.070801 0.073360 0.098084
0.073135 0.074527 0.099673
0.149635 0.080957 0.104204
0.596103 0.110631 0.111494
0.874620 0.244808 0.123089
0.955300 0.494623 0.141311
0.981696 0.718391 0.171276
0.988875 0.889604 0.222509
0.070631 0.089711 0.098663
0.070897 0.092536 0.099105
0.073553 0.108902 0.101120
0.155344 0.160502 0.105882
0.604356 0.291387 0.113236
0.877062 0.481858 0.125279
0.955716 0.675348 0.144437
0.981781 0.851756 0.175650
0.988939 0.927028 0.227896
0.070689 0.328885 0.100313
0.071013 0.344062 0.101022
0.074148 0.400776 0.103594
0.164048 0.494962 0.108420
0.616731 0.617571 0.116056
0.880693 0.745497 0.128600
0.956334 0.869836 0.149205
0.981908 0.925689 0.182351
0.989034 0.968727 0.236367
0.070857 0.725964 0.103649
0.071202 0.737313 0.104371
0.075410 0.769901 0.106990
0.177519 0.827102 0.111904
0.633509 0.880553 0.120347
0.885563 0.917709 0.133176
0.957162 0.950624 0.155826
0.982079 0.973274 0.191716
0.989163 0.983330 0.248199
0.071055 0.930573 0.107980
0.071527 0.933152 0.108719
0.077342 0.942308 0.111398
0.199816 0.952490 0.116710
0.654859 0.966997 0.125947
0.891694 0.975327 0.140477
0.958206 0.982057 0.164546
0.982294 0.986606 0.204154
0.989325 0.991332 0.263904
0.071433 0.981803 0.113407
0.072232 0.982131 0.114167
0.080904 0.983294 0.117299
0.235758 0.985210 0.123444
0.676773 0.986550 0.133008
0.899094 0.989010 0.150419
0.959465 0.992107 0.176712
0.982554 0.995005 0.220177
0.989522 0.996741 0.283840
0.072174 0.993353 0.121012
0.073084 0.993493 0.121947
0.088156 0.993992 0.125344
0.282019 0.994891 0.131748
0.702763 0.996085 0.143855
0.906523 0.996723 0.162864
0.960938 0.996856 0.193856
0.982859 0.997007 0.240941
0.989754 0.997162 0.306170
0.070631 0.072407 0.589807
0.070721 0.072407 0.591120
0.072991 0.072484 0.595568
0.145720 0.073235 0.603771
0.590378 0.079783 0.616083
0.872918 0.126363 0.632798
0.955011 0.333595 0.652173
0.981637 0.617248 0.666663
0.988830 0.838940 0.694274
0.070631 0.072417 0.590283
0.070740 0.072432 0.591552
0.073023 0.072681 0.596001
0.146569 0.073823 0.604205
0.591624 0.082663 0.616519
0.873289 0.148819 0.633236
0.955074 0.370944 0.652374
0.981650 0.642561 0.667101
0.988840 0.852165 0.694614
0.070631 0.073237 0.591868
0.070801 0.073419 0.593106
0.073135 0.074646 0.597558
0.149635 0.081341 0.605766
0.596103 0.112201 0.618085
0.874620 0.248923 0.634811
0.955300 0.499559 0.653097
0.981696 0.722123 0.668678
0.988875 0.890541 0.695834
0.070631 0.090615 0.594728
0.070897 0.093766 0.595967
0.073553 0.110465 0.600423
0.155344 0.163068 0.608639
0.604356 0.295346 0.620970
0.877062 0.486734 0.637711
0.955716 0.678190 0.654427
0.981781 0.853536 0.671582
0.988939 0.927887 0.698080
0.070689 0.334027 0.599011
0.071013 0.349068 0.600252
0.074148 0.405474 0.604715
0.164048 0.499900 0.612942
0.616731 0.621277 0.625291
0.880693 0.748424 0.642055
0.956334 0.871595 0.656412
0.981908 0.926550 0.675930
0.989034 0.968920 0.701438
0.070857 0.729706 0.604809
0.071202 0.740967 0.606052
0.075410 0.772830 0.610523
0.177519 0.829274 0.618766
0.633509 0.881786 0.631138
0.885563 0.918481 0.647933
0.957162 0.951125 0.659087
0.982079 0.973458 0.681816
0.989163 0.983436 0.705975
0.071055 0.931425 0.612199
0.071527 0.934000 0.613445
0.077342 0.942846 0.617927
0.199816 0.952988 0.626190
0.654859 0.967468 0.638591
0.891694 0.975507 0.652739
0.958206 0.982165 0.663166
0.982294 0.986647 0.687788
0.989325 0.991381 0.711744
0.071433 0.981911 0.621252
0.072232 0.982239 0.622502
0.080904 0.983400 0.626996
0.235758 0.985274 0.635283
0.676773 0.986592 0.647719
0.899094 0.989084 0.656909
0.959465 0.992155 0.672279
0.982554 0.995050 0.694841
0.989522 0.996744 0.718790
0.072174 0.993399 0.632033
0.073084 0.993539 0.633287
0.088156 0.994037 0.637797
0.282019 0.994936 0.646112
0.702763 0.996123 0.654181
0.906523 0.996726 0.661835
0.960938 0.996858 0.683026
0.982859 0.997009 0.703212
0.989754 0.997164 0.727152
0.070631 0.072407 0.875021
0.070721 0.072410 0.875302
0.072991 0.072523 0.876312
0.145720 0.073319 0.878163
0.590378 0.080316 0.880916
0.872918 0.129723 0.884606
0.955011 0.340253 0.888628
0.981637 0.622241 0.891809
0.988830 0.841366 0.897092
0.070631 0.072423 0.875119
0.070740 0.072454 0.875401
0.073023 0.072711 0.876410
0.146569 0.074002 0.878260
0.591624 0.083271 0.881013
0.873289 0.153374 0.884702
0.955074 0.378015 0.888682
0.981650 0.646399 0.891862
0.988840 0.854569 0.897167
0.070631 0.073320 0.875472
0.070801 0.073503 0.875754
0.073135 0.074803 0.876762
0.149635 0.081854 0.878611
0.596103 0.114642 0.881361
0.874620 0.257779 0.885047
0.955300 0.506266 0.888876
0.981696 0.727174 0.892135
0.988875 0.891803 0.897435
0.070631 0.091835 0.876121
0.070897 0.095735 0.876402
0.073553 0.112588 0.877409
0.155344 0.166564 0.879255
0.604356 0.300738 0.882000
0.877062 0.493359 0.885681
0.955716 0.682031 0.889232
0.981781 0.855938 0.892635
0.988939 0.929045 0.897927
0.070689 0.340690 0.877090
0.071013 0.355900 0.877370
0.074148 0.411552 0.878375
0.164048 0.506609 0.880216
0.616731 0.626172 0.882955
0.880693 0.752380 0.886627
0.956334 0.873968 0.889763
0.981908 0.927711 0.893383
0.989034 0.969180 0.898661
0.070857 0.734769 0.878396
0.071202 0.744922 0.878675
0.075410 0.776789 0.879676
0.177519 0.832207 0.881512
0.633509 0.883449 0.884242
0.885563 0.919521 0.887784
0.957162 0.951800 0.890479
0.982079 0.973706 0.894389
0.989163 0.983579 0.899651
0.071055 0.932575 0.880051
0.071527 0.935144 0.880329
0.077342 0.943543 0.881326
0.199816 0.953658 0.883154
0.654859 0.968104 0.885873
0.891694 0.975749 0.888780
0.958206 0.982310 0.891385
0.982294 0.986703 0.895665
0.989325 0.991447 0.900905
0.071433 0.982058 0.882063
0.072232 0.982384 0.882339
0.080904 0.983542 0.883331
0.235758 0.985360 0.885150
0.676773 0.986648 0.887747
0.899094 0.989184 0.889896
0.959465 0.992220 0.892755
0.982554 0.995109 0.897217
0.989522 0.996747 0.902430
0.072174 0.993462 0.884438
0.073084 0.993601 0.884713
0.088156 0.994099 0.885699
0.282019 0.994996 0.887466
0.702763 0.996174 0.889166
0.906523 0.996730 0.891213
0.960938 0.996861 0.894614
0.982859 0.997012 0.899048
0.989754 0.997166 0.904231
0.070631 0.072407 0.951860
0.070721 0.072413 0.951954
0.072991 0.072573 0.952292
0.145720 0.073420 0.952912
0.590378 0.080984 0.953835
0.872918 0.134905 0.955074
0.955011 0.348830 0.956635
0.981637 0.628470 0.958523
0.988830 0.844446 0.960736
0.070631 0.072433 0.951893
0.070740 0.072478 0.951987
0.073023 0.072758 0.952325
0.146569 0.074223 0.952945
0.591624 0.084169 0.953868
0.873289 0.158125 0.955106
0.955074 0.387118 0.956667
0.981650 0.651282 0.958555
0.988840 0.857622 0.960767
0.070631 0.073422 0.952011
0.070801 0.073659 0.952105
0.073135 0.075092 0.952443
0.149635 0.082518 0.953062
0.596103 0.118477 0.953984
0.874620 0.269370 0.955222
0.955300 0.514857 0.956782
0.981696 0.733610 0.958668
0.988875 0.893404 0.960879
0.070631 0.093825 0.952229
0.070897 0.098256 0.952323
0.073553 0.116003 0.952660
0.155344 0.171578 0.953278
0.604356 0.307667 0.954199
0.877062 0.501846 0.955435
0.955716 0.686916 0.956993
0.981781 0.858987 0.958876
0.988939 0.930514 0.961084
0.070689 0.349273 0.952553
0.071013 0.364697 0.952647
0.074148 0.419343 0.952983
0.164048 0.515203 0.953600
0.616731 0.632409 0.954519
0.880693 0.757412 0.955753
0.956334 0.876981 0.957308
0.981908 0.929184 0.959188
0.989034 0.969509 0.961391
0.070857 0.741086 0.952990
0.071202 0.749953 0.953084
0.075410 0.781825 0.953419
0.177519 0.835931 0.954035
0.633509 0.885201 0.954951
0.885563 0.920840 0.956182
0.957162 0.952656 0.957733
0.982079 0.974020 0.959607
0.989163 0.983759 0.961805
0.071055 0.934034 0.953545
0.071527 0.936595 0.953638
0.077342 0.944426 0.953973
0.199816 0.954509 0.954586
0.654859 0.968532 0.955499
0.891694 0.976057 0.956725
0.958206 0.982495 0.958271
0.982294 0.986774 0.960140
0.989325 0.991532 0.962330
0.071433 0.982243 0.954220
0.072232 0.982568 0.954313
0.080904 0.983723 0.954646
0.235758 0.985453 0.955257
0.676773 0.986719 0.956166
0.899094 0.989311 0.957387
0.959465 0.992302 0.958926
0.982554 0.995185 0.960788
0.989522 0.996752 0.962969
0.072174 0.993541 0.955017
0.073084 0.993680 0.955110
0.088156 0.994177 0.955441
0.282019 0.995071 0.956049
0.702763 0.996239 0.956954
0.906523 0.996734 0.958169
0.960938 0.996866 0.959701
0.982859 0.997016 0.961553
0.989754 0.997169 0.963725
0.070631 0.072411 0.983015
0.070721 0.072421 0.983043
0.072991 0.072629 0.983147
0.145720 0.073573 0.983336
0.590378 0.081785 0.983619
0.872918 0.141504 0.983999
0.955011 0.359473 0.984479
0.981637 0.636098 0.985061
0.988830 0.848200 0.985744
0.070631 0.072465 0.983025
0.070740 0.072533 0.983053
0.073023 0.072850 0.983157
0.146569 0.074482 0.983346
0.591624 0.085422 0.983629
0.873289 0.163496 0.984009
0.955074 0.398406 0.984489
0.981650 0.657247 0.985071
0.988840 0.861342 0.985754
0.070631 0.073575 0.983061
0.070801 0.073933 0.983090
0.073135 0.075464 0.983193
0.149635 0.083461 0.983382
0.596103 0.123247 0.983665
0.874620 0.282509 0.984045
0.955300 0.525446 0.984524
0.981696 0.741296 0.985106
0.988875 0.895353 0.985788
0.070631 0.096891 0.983127
0.070897 0.101360 0.983156
0.073553 0.120724 0.983259
0.155344 0.179310 0.983449
0.604356 0.316238 0.983731
0.877062 0.512309 0.984110
0.955716 0.692884 0.984589
0.981781 0.862704 0.985170
0.988939 0.932303 0.985852
0.070689 0.359923 0.983227
0.071013 0.375611 0.983255
0.074148 0.428957 0.983358
0.164048 0.525796 0.983547
0.616731 0.639325 0.983829
0.880693 0.763560 0.984208
0.956334 0.879735 0.984686
0.981908 0.930978 0.985266
0.989034 0.969911 0.985947
0.070857 0.747231 0.983360
0.071202 0.756099 0.983389
0.075410 0.787978 0.983492
0.177519 0.839707 0.983681
0.633509 0.887184 0.983962
0.885563 0.921906 0.984340
0.957162 0.953699 0.984817
0.982079 0.974403 0.985395
0.989163 0.983980 0.986075
0.071055 0.935811 0.983530
0.071527 0.938363 0.983559
0.077342 0.945502 0.983661
0.199816 0.955544 0.983850
0.654859 0.968938 0.984130
0.891694 0.976432 0.984507
0.958206 0.982720 0.984983
0.982294 0.986860 0.985560
0.989325 0.991634 0.986238
0.071433 0.982469 0.983737
0.072232 0.982793 0.983766
0.080904 0.983944 0.983868
0.235758 0.985544 0.984055
0.676773 0.986805 0.984335
0.899094 0.989466 0.984711
0.959465 0.992403 0.985185
0.982554 0.995267 0.985760
0.989522 0.996757 0.986436
0.072174 0.993638 0.983982
0.073084 0.993777 0.984010
0.088156 0.994272 0.984112
0.282019 0.995164 0.984299
0.702763 0.996319 0.984577
0.906523 0.996740 0.984952
0.960938 0.996871 0.985424
0.982859 0.997021 0.985997
0.989754 0.997173 0.986671
0.070631 0.072418 0.992388
0.070721 0.072436 0.992391
0.072991 0.072687 0.992400
0.145720 0.073859 0.992418
0.590378 0.082785 0.992443
0.872918 0.149718 0.992478
0.955011 0.372344 0.992521
0.981637 0.643324 0.992574
0.988830 0.852644 0.992637
0.070631 0.072517 0.992389
0.070740 0.072603 0.992392
0.073023 0.072951 0.992401
0.146569 0.074777 0.992418
0.591624 0.087098 0.992444
0.873289 0.170088 0.992479
0.955074 0.410221 0.992522
0.981650 0.664330 0.992575
0.988840 0.865747 0.992638
0.070631 0.073862 0.992393
0.070801 0.074254 0.992395
0.073135 0.076218 0.992405
0.149635 0.084838 0.992422
0.596103 0.129100 0.992447
0.874620 0.292442 0.992482
0.955300 0.537925 0.992526
0.981696 0.748592 0.992578
0.988875 0.897656 0.992641
0.070631 0.100564 0.992399
0.070897 0.105455 0.992401
0.073553 0.126448 0.992411
0.155344 0.189432 0.992428
0.604356 0.326567 0.992453
0.877062 0.524861 0.992488
0.955716 0.699970 0.992531
0.981781 0.867105 0.992584
0.988939 0.934419 0.992647
0.070689 0.372804 0.992408
0.071013 0.388806 0.992410
0.074148 0.440503 0.992420
0.164048 0.538177 0.992437
0.616731 0.646406 0.992462
0.880693 0.770861 0.992497
0.956334 0.882808 0.992540
0.981908 0.933099 0.992593
0.989034 0.970385 0.992655
0.070857 0.754528 0.992420
0.071202 0.763398 0.992422
0.075410 0.795285 0.992432
0.177519 0.844176 0.992449
0.633509 0.889527 0.992474
0.885563 0.922684 0.992509
0.957162 0.954931 0.992552
0.982079 0.974855 0.992605
0.989163 0.984240 0.992667
0.071055 0.937912 0.992435
0.071527 0.940453 0.992438
0.077342 0.946773 0.992447
0.199816 0.956768 0.992464
0.654859 0.969416 0.992490
0.891694 0.976875 0.992524
0.958206 0.982986 0.992567
0.982294 0.986962 0.992620
0.989325 0.991755 0.992682
0.071433 0.982736 0.992454
0.072232 0.983058 0.992457
0.080904 0.984204 0.992466
0.235758 0.985651 0.992483
0.676773 0.986907 0.992508
0.899094 0.989649 0.992542
0.959465 0.992521 0.992586
0.982554 0.995364 0.992638
0.989522 0.996764 0.992700
0.072174 0.993752 0.992476
0.073084 0.993891 0.992479
0.088156 0.994384 0.992488
0.282019 0.995264 0.992505
0.702763 0.996413 0.992530
0.906523 0.996746 0.992564
0.960938 0.996877 0.992608
0.982859 0.997027 0.992660
0.989754 0.997177 0.992722
