velvia/Velvia50_Classic_ExtraSoft.cube
TITLE "Velvia 50 Classic ExtraSoft"
# Adobe RGB in/out. REPLACES AgX. Velvia 50 Classic ExtraSoft.
LUT_3D_SIZE 33
DOMAIN_MIN 0.0 0.0 0.0
DOMAIN_MAX 1.0 1.0 1.0
0.067508 0.080111 0.085805
0.067508 0.080111 0.085805
0.067508 0.080111 0.085805
0.067536 0.080111 0.085805
0.067645 0.080111 0.085805
0.068015 0.080111 0.085805
0.068483 0.080126 0.085805
0.069390 0.080155 0.085805
0.071601 0.080195 0.085805
0.076301 0.080253 0.085805
0.089128 0.080333 0.085805
0.117954 0.080438 0.085805
0.169128 0.080613 0.085805
0.227087 0.080872 0.085805
0.326472 0.081264 0.085806
0.465868 0.081906 0.085809
0.596590 0.084014 0.085813
0.696947 0.087280 0.085816
0.791224 0.093703 0.085819
0.857613 0.105091 0.085823
0.906497 0.125653 0.085828
0.934956 0.157572 0.085832
0.954793 0.206378 0.085835
0.966610 0.258437 0.085844
0.977605 0.322422 0.085854
0.981866 0.394326 0.085864
0.985699 0.469594 0.085883
0.989037 0.543444 0.085903
0.990537 0.615678 0.085922
0.991914 0.671134 0.085941
0.993246 0.728497 0.085976
0.994451 0.791714 0.086009
0.995319 0.844179 0.086042
0.067508 0.080111 0.085805
0.067508 0.080111 0.085805
0.067508 0.080111 0.085805
0.067536 0.080111 0.085805
0.067646 0.080111 0.085805
0.068016 0.080111 0.085805
0.068485 0.080127 0.085805
0.069393 0.080159 0.085805
0.071604 0.080199 0.085805
0.076306 0.080260 0.085805
0.089144 0.080339 0.085805
0.117992 0.080448 0.085805
0.169172 0.080628 0.085805
0.227156 0.080893 0.085805
0.326554 0.081282 0.085806
0.465935 0.081959 0.085810
0.596660 0.084122 0.085813
0.697005 0.087398 0.085816
0.791269 0.094019 0.085819
0.857640 0.105516 0.085824
0.906512 0.126327 0.085828
0.934967 0.158831 0.085832
0.954799 0.207928 0.085835
0.966614 0.260564 0.085844
0.977609 0.323916 0.085854
0.981868 0.396042 0.085864
0.985701 0.471242 0.085883
0.989038 0.545082 0.085903
0.990537 0.617102 0.085922
0.991914 0.672171 0.085941
0.993246 0.729830 0.085976
0.994451 0.792755 0.086009
0.995319 0.844918 0.086042
0.067508 0.080111 0.085805
0.067508 0.080111 0.085805
0.067508 0.080111 0.085805
0.067538 0.080111 0.085805
0.067651 0.080111 0.085805
0.068019 0.080120 0.085805
0.068490 0.080135 0.085805
0.069403 0.080175 0.085805
0.071617 0.080210 0.085805
0.076324 0.080283 0.085805
0.089203 0.080357 0.085805
0.118130 0.080481 0.085805
0.169328 0.080680 0.085805
0.227403 0.080966 0.085805
0.326849 0.081344 0.085806
0.466176 0.082268 0.085810
0.596911 0.084634 0.085813
0.697214 0.087822 0.085816
0.791430 0.095150 0.085819
0.857737 0.107859 0.085824
0.906563 0.128759 0.085828
0.935007 0.163406 0.085832
0.954819 0.213690 0.085836
0.966631 0.268308 0.085844
0.977624 0.329586 0.085854
0.981873 0.402443 0.085864
0.985705 0.477183 0.085883
0.989042 0.550983 0.085903
0.990539 0.622227 0.085923
0.991916 0.675897 0.085942
0.993248 0.734625 0.085976
0.994452 0.796493 0.086010
0.995320 0.847161 0.086042
0.067508 0.080111 0.085805
0.067508 0.080111 0.085805
0.067508 0.080111 0.085805
0.067541 0.080113 0.085805
0.067660 0.080123 0.085805
0.068024 0.080133 0.085805
0.068500 0.080167 0.085805
0.069421 0.080199 0.085805
0.071641 0.080249 0.085805
0.076364 0.080321 0.085805
0.089312 0.080398 0.085805
0.118385 0.080540 0.085805
0.169617 0.080772 0.085805
0.227859 0.081095 0.085805
0.327392 0.081455 0.085806
0.466619 0.082877 0.085810
0.597373 0.085474 0.085813
0.697598 0.088726 0.085816
0.791727 0.097251 0.085819
0.857917 0.112105 0.085824
0.906658 0.133430 0.085828
0.935079 0.172036 0.085832
0.954857 0.221730 0.085836
0.966660 0.281107 0.085844
0.977652 0.341684 0.085854
0.981883 0.414367 0.085864
0.985713 0.487689 0.085884
0.989050 0.561911 0.085904
0.990542 0.630891 0.085923
0.991918 0.682754 0.085942
0.993250 0.743467 0.085977
0.994454 0.803373 0.086010
0.995321 0.851209 0.086043
0.067508 0.080126 0.085805
0.067508 0.080126 0.085805
0.067508 0.080129 0.085805
0.067546 0.080135 0.085805
0.067673 0.080155 0.085805
0.068032 0.080179 0.085805
0.068514 0.080204 0.085805
0.069449 0.080248 0.085805
0.071677 0.080311 0.085805
0.076440 0.080372 0.085805
0.089475 0.080494 0.085805
0.118767 0.080675 0.085805
0.170048 0.080923 0.085805
0.228541 0.081276 0.085805
0.328206 0.081843 0.085806
0.467283 0.083754 0.085810
0.598064 0.086692 0.085813
0.698173 0.091551 0.085816
0.792172 0.101395 0.085820
0.858186 0.118551 0.085824
0.906800 0.141744 0.085828
0.935189 0.184600 0.085832
0.954913 0.233707 0.085836
0.966705 0.295189 0.085844
0.977693 0.359822 0.085855
0.981898 0.432556 0.085865
0.985724 0.503362 0.085884
0.989060 0.577792 0.085904
0.990546 0.641123 0.085924
0.991922 0.693018 0.085943
0.993254 0.756743 0.085978
0.994456 0.813666 0.086011
0.995324 0.857242 0.086043
0.067508 0.080176 0.085805
0.067508 0.080177 0.085805
0.067508 0.080183 0.085805
0.067552 0.080193 0.085805
0.067691 0.080207 0.085805
0.068043 0.080233 0.085805
0.068534 0.080280 0.085805
0.069486 0.080329 0.085805
0.071725 0.080380 0.085805
0.076543 0.080494 0.085805
0.089695 0.080649 0.085805
0.119283 0.080855 0.085805
0.170631 0.081181 0.085805
0.229465 0.081525 0.085805
0.329307 0.082967 0.085807
0.468179 0.085365 0.085810
0.598999 0.088326 0.085813
0.698950 0.095768 0.085816
0.792772 0.107894 0.085820
0.858549 0.127472 0.085824
0.906991 0.158494 0.085828
0.935336 0.204453 0.085832
0.954989 0.251608 0.085836
0.966766 0.314611 0.085845
0.977744 0.381954 0.085855
0.981918 0.454311 0.085865
0.985740 0.524876 0.085885
0.989075 0.596540 0.085905
0.990552 0.654959 0.085924
0.991928 0.706587 0.085945
0.993259 0.771070 0.085979
0.994460 0.827581 0.086012
0.995327 0.865351 0.086044
0.067508 0.080253 0.085805
0.067508 0.080256 0.085805
0.067508 0.080266 0.085805
0.067559 0.080283 0.085805
0.067712 0.080307 0.085805
0.068057 0.080337 0.085805
0.068559 0.080372 0.085805
0.069532 0.080448 0.085805
0.071786 0.080540 0.085805
0.076674 0.080701 0.085805
0.089974 0.080890 0.085805
0.119942 0.081183 0.085805
0.171374 0.081482 0.085805
0.230643 0.082654 0.085805
0.330710 0.084696 0.085807
0.469321 0.087439 0.085811
0.600188 0.092933 0.085814
0.699938 0.102438 0.085817
0.793535 0.118908 0.085820
0.859010 0.140409 0.085825
0.907234 0.179824 0.085829
0.935523 0.227059 0.085832
0.955086 0.284693 0.085836
0.966842 0.342631 0.085846
0.977772 0.411623 0.085856
0.981944 0.482093 0.085866
0.985760 0.552595 0.085886
0.989094 0.620649 0.085906
0.990560 0.672573 0.085925
0.991935 0.727531 0.085946
0.993266 0.788746 0.085980
0.994464 0.840484 0.086014
0.995331 0.875594 0.086046
0.067508 0.080371 0.085805
0.067508 0.080373 0.085805
0.067508 0.080380 0.085805
0.067568 0.080406 0.085805
0.067738 0.080447 0.085805
0.068073 0.080498 0.085805
0.068589 0.080559 0.085805
0.069588 0.080686 0.085805
0.071860 0.080823 0.085805
0.076833 0.081037 0.085805
0.090315 0.081285 0.085805
0.120748 0.081583 0.085805
0.172284 0.082848 0.085805
0.232087 0.084738 0.085805
0.332429 0.087261 0.085808
0.470716 0.091872 0.085811
0.601641 0.100224 0.085814
0.701146 0.114241 0.085817
0.794467 0.132974 0.085821
0.859574 0.166169 0.085825
0.907531 0.210767 0.085829
0.935752 0.255910 0.085833
0.955204 0.314690 0.085837
0.966936 0.378662 0.085846
0.977806 0.447848 0.085857
0.981975 0.515084 0.085867
0.985785 0.585125 0.085888
0.989116 0.644392 0.085907
0.990569 0.694105 0.085926
0.991944 0.755325 0.085948
0.993274 0.810353 0.085982
0.994469 0.853997 0.086015
0.995335 0.888005 0.086047
0.067508 0.080614 0.085805
0.067508 0.080620 0.085805
0.067508 0.080642 0.085805
0.067577 0.080681 0.085805
0.067767 0.080738 0.085805
0.068092 0.080811 0.085805
0.068624 0.080924 0.085805
0.069655 0.081091 0.085805
0.071947 0.081276 0.085805
0.077058 0.081483 0.085805
0.090719 0.082170 0.085805
0.121708 0.083543 0.085805
0.173366 0.085500 0.085805
0.233807 0.087759 0.085805
0.334475 0.092628 0.085808
0.472374 0.100449 0.085811
0.603368 0.113368 0.085814
0.702579 0.130666 0.085817
0.795573 0.159545 0.085821
0.860243 0.199763 0.085825
0.907884 0.241778 0.085829
0.936023 0.298605 0.085833
0.955344 0.356744 0.085837
0.967047 0.421999 0.085847
0.977846 0.487831 0.085857
0.982012 0.555237 0.085869
0.985814 0.619983 0.085889
0.989143 0.669929 0.085909
0.990580 0.721342 0.085928
0.991954 0.781711 0.085951
0.993283 0.833891 0.085985
0.994475 0.868953 0.086017
0.995341 0.900634 0.086049
0.067508 0.081073 0.085805
0.067508 0.081081 0.085805
0.067510 0.081109 0.085805
0.067587 0.081159 0.085805
0.067799 0.081233 0.085805
0.068114 0.081329 0.085805
0.068663 0.081447 0.085805
0.069731 0.081741 0.085805
0.072152 0.082497 0.085805
0.077444 0.083553 0.085805
0.091203 0.085079 0.085805
0.122827 0.086945 0.085805
0.174626 0.089312 0.085805
0.235815 0.095215 0.085806
0.336862 0.103149 0.085809
0.474303 0.116312 0.085812
0.605375 0.132492 0.085815
0.704246 0.160491 0.085818
0.796859 0.197986 0.085822
0.861019 0.237792 0.085826
0.908293 0.291279 0.085830
0.936338 0.343796 0.085834
0.955506 0.405533 0.085838
0.967176 0.469941 0.085848
0.977893 0.533751 0.085858
0.982055 0.598456 0.085871
0.985848 0.652065 0.085891
0.989172 0.699508 0.085910
0.990593 0.759438 0.085929
0.991966 0.811512 0.085953
0.993294 0.853378 0.085987
0.994482 0.886125 0.086020
0.995348 0.907813 0.086052
0.067508 0.081911 0.085805
0.067508 0.081933 0.085805
0.067529 0.082020 0.085805
0.067598 0.082276 0.085805
0.067835 0.082652 0.085805
0.068137 0.083148 0.085805
0.068708 0.083761 0.085805
0.069816 0.084759 0.085805
0.072392 0.086028 0.085805
0.077884 0.087446 0.085805
0.091844 0.089551 0.085805
0.124110 0.094344 0.085805
0.176070 0.100464 0.085805
0.238120 0.109860 0.085806
0.339600 0.123229 0.085810
0.476510 0.139521 0.085813
0.607671 0.169184 0.085815
0.706150 0.205347 0.085818
0.798327 0.241508 0.085822
0.861905 0.292665 0.085827
0.908759 0.341992 0.085830
0.936698 0.400200 0.085834
0.955691 0.461775 0.085839
0.967323 0.522410 0.085850
0.977946 0.585749 0.085859
0.982104 0.640588 0.085873
0.985887 0.685993 0.085893
0.989188 0.739216 0.085912
0.990607 0.793469 0.085931
0.991979 0.840705 0.085956
0.993307 0.873207 0.085990
0.994490 0.901879 0.086023
0.995355 0.915825 0.086054
0.067508 0.085682 0.085805
0.067508 0.085733 0.085805
0.067546 0.085916 0.085805
0.067610 0.086249 0.085805
0.067873 0.086742 0.085805
0.068163 0.087398 0.085805
0.068757 0.088252 0.085805
0.069911 0.090079 0.085805
0.072661 0.093283 0.085805
0.078378 0.096972 0.085805
0.092662 0.102546 0.085805
0.125564 0.110760 0.085805
0.177704 0.121782 0.085805
0.240735 0.134761 0.085807
0.342702 0.157022 0.085810
0.479003 0.185650 0.085813
0.610263 0.220603 0.085816
0.708298 0.255322 0.085819
0.799982 0.302886 0.085823
0.862904 0.351354 0.085827
0.909285 0.405887 0.085831
0.937102 0.463726 0.085835
0.955900 0.521103 0.085841
0.967489 0.581792 0.085851
0.978006 0.635558 0.085861
0.982159 0.678820 0.085875
0.985930 0.727227 0.085895
0.989206 0.781959 0.085914
0.990624 0.830939 0.085933
0.991995 0.863986 0.085960
0.993321 0.895053 0.085993
0.994500 0.911063 0.086026
0.995364 0.924629 0.086057
0.067508 0.093745 0.085805
0.067520 0.093875 0.085805
0.067564 0.094339 0.085805
0.067621 0.095191 0.085805
0.067914 0.096462 0.085805
0.068191 0.098502 0.085805
0.068810 0.101446 0.085805
0.070015 0.105051 0.085805
0.072957 0.111332 0.085805
0.078926 0.118977 0.085805
0.093674 0.127941 0.085805
0.127193 0.139400 0.085805
0.179532 0.159645 0.085805
0.243669 0.183436 0.085808
0.346179 0.214365 0.085811
0.481660 0.241565 0.085814
0.613157 0.284603 0.085817
0.710694 0.322351 0.085820
0.801826 0.370938 0.085824
0.864016 0.422961 0.085828
0.909871 0.475957 0.085832
0.937553 0.529926 0.085835
0.956133 0.586619 0.085842
0.967674 0.637035 0.085852
0.978073 0.678189 0.085862
0.982220 0.723685 0.085878
0.985979 0.777041 0.085898
0.989226 0.824787 0.085917
0.990642 0.858578 0.085935
0.992012 0.888682 0.085964
0.993337 0.907819 0.085997
0.994510 0.921008 0.086029
0.995373 0.930840 0.086060
0.067530 0.115081 0.085805
0.067543 0.115348 0.085805
0.067582 0.116309 0.085805
0.067676 0.118085 0.085805
0.067956 0.120761 0.085805
0.068224 0.124412 0.085805
0.068868 0.129114 0.085805
0.070192 0.135390 0.085805
0.073281 0.144991 0.085805
0.079529 0.159760 0.085805
0.094795 0.176208 0.085805
0.129003 0.198071 0.085805
0.181561 0.221979 0.085806
0.246943 0.245145 0.085809
0.350044 0.283328 0.085812
0.484558 0.315478 0.085815
0.616360 0.356747 0.085817
0.713343 0.400796 0.085821
0.803468 0.449638 0.085825
0.865244 0.497757 0.085829
0.910516 0.549106 0.085832
0.938051 0.600377 0.085836
0.956389 0.645080 0.085844
0.967878 0.684159 0.085854
0.978147 0.728637 0.085864
0.982288 0.778774 0.085881
0.986033 0.824369 0.085901
0.989248 0.857066 0.085919
0.990662 0.885952 0.085938
0.992030 0.906154 0.085968
0.993354 0.918900 0.086001
0.994521 0.928848 0.086033
0.995384 0.942630 0.086064
0.067554 0.157807 0.085805
0.067565 0.158323 0.085805
0.067598 0.160184 0.085805
0.067739 0.163644 0.085805
0.068000 0.168905 0.085805
0.068307 0.175309 0.085805
0.068929 0.184852 0.085805
0.070398 0.197340 0.085805
0.073631 0.213003 0.085805
0.080186 0.227246 0.085805
0.096026 0.244193 0.085805
0.131000 0.272981 0.085805
0.183796 0.298798 0.085807
0.250568 0.326158 0.085810
0.354309 0.362854 0.085813
0.487741 0.400375 0.085816
0.619877 0.443184 0.085818
0.716249 0.485379 0.085822
0.804978 0.530014 0.085826
0.866589 0.578454 0.085830
0.911224 0.623327 0.085833
0.938595 0.659755 0.085837
0.956670 0.696717 0.085846
0.968101 0.742199 0.085856
0.978228 0.787215 0.085865
0.982363 0.830083 0.085884
0.986091 0.859496 0.085904
0.989271 0.887091 0.085922
0.990685 0.906107 0.085940
0.992051 0.918348 0.085973
0.993373 0.928430 0.086005
0.994533 0.940947 0.086037
0.995396 0.952585 0.086068
0.067576 0.230850 0.085805
0.067585 0.231363 0.085805
0.067615 0.233214 0.085805
0.067802 0.236638 0.085805
0.068045 0.241810 0.085805
0.068394 0.248891 0.085805
0.068994 0.263122 0.085805
0.070617 0.280402 0.085805
0.074008 0.294770 0.085805
0.080899 0.311790 0.085805
0.097369 0.332753 0.085805
0.133189 0.360256 0.085806
0.186205 0.388271 0.085809
0.254551 0.421436 0.085811
0.360574 0.456021 0.085814
0.493220 0.492038 0.085816
0.623715 0.530740 0.085819
0.719416 0.573562 0.085823
0.806621 0.613008 0.085827
0.868052 0.648211 0.085831
0.911993 0.681129 0.085834
0.939187 0.716769 0.085838
0.956975 0.763204 0.085848
0.968344 0.802420 0.085858
0.978315 0.839418 0.085869
0.982443 0.865876 0.085888
0.986155 0.892117 0.085907
0.989298 0.907692 0.085925
0.990709 0.919372 0.085945
0.992073 0.928634 0.085978
0.993394 0.940956 0.086010
0.994547 0.952293 0.086041
0.995408 0.959960 0.086074
0.067596 0.322797 0.085805
0.067604 0.323409 0.085805
0.067663 0.325613 0.085805
0.067864 0.330077 0.085805
0.068091 0.337526 0.085805
0.068484 0.347430 0.085805
0.069110 0.360244 0.085805
0.070849 0.374242 0.085805
0.074411 0.391223 0.085805
0.081665 0.412026 0.085805
0.098826 0.436430 0.085805
0.135578 0.460793 0.085807
0.188821 0.488140 0.085810
0.258904 0.517860 0.085812
0.367366 0.551125 0.085815
0.505561 0.585976 0.085817
0.627879 0.620089 0.085821
0.722849 0.649401 0.085824
0.808398 0.678312 0.085828
0.869635 0.708903 0.085831
0.912824 0.750331 0.085835
0.939828 0.787282 0.085841
0.957305 0.824445 0.085850
0.968606 0.852125 0.085860
0.978411 0.876179 0.085873
0.982531 0.899524 0.085892
0.986224 0.910895 0.085910
0.989326 0.921969 0.085928
0.990735 0.929670 0.085950
0.992097 0.942667 0.085983
0.993417 0.952923 0.086015
0.994561 0.960281 0.086046
0.995422 0.967648 0.086080
0.067615 0.434126 0.085805
0.067623 0.434875 0.085805
0.067743 0.437217 0.085805
0.067926 0.441541 0.085805
0.068138 0.448045 0.085805
0.068577 0.456904 0.085805
0.069293 0.468286 0.085805
0.071094 0.482206 0.085805
0.074838 0.498138 0.085805
0.082486 0.516927 0.085805
0.100447 0.538667 0.085806
0.138171 0.563554 0.085809
0.191656 0.588940 0.085811
0.263642 0.615284 0.085814
0.373947 0.640156 0.085816
0.511395 0.663213 0.085818
0.631592 0.688225 0.085822
0.726550 0.715589 0.085826
0.810310 0.752838 0.085829
0.871338 0.785161 0.085832
0.913718 0.818213 0.085836
0.940517 0.846022 0.085843
0.957661 0.867759 0.085853
0.968889 0.890342 0.085862
0.978513 0.905416 0.085877
0.982625 0.915679 0.085896
0.986298 0.926112 0.085914
0.989356 0.933733 0.085932
0.990763 0.946072 0.085957
0.992123 0.954472 0.085989
0.993441 0.961493 0.086020
0.994577 0.968543 0.086051
0.995436 0.975614 0.086087
0.067678 0.543978 0.085805
0.067712 0.544649 0.085805
0.067821 0.547062 0.085805
0.067988 0.551515 0.085805
0.068185 0.558205 0.085805
0.068672 0.567298 0.085805
0.069483 0.578230 0.085805
0.071351 0.590148 0.085805
0.075290 0.604392 0.085805
0.083361 0.621072 0.085806
0.102431 0.637087 0.085808
0.140966 0.652738 0.085810
0.194714 0.670210 0.085812
0.268785 0.689540 0.085815
0.381089 0.710363 0.085817
0.513861 0.739532 0.085820
0.635251 0.768913 0.085823
0.730525 0.795949 0.085827
0.812358 0.824987 0.085830
0.873162 0.847616 0.085834
0.914675 0.866946 0.085837
0.941254 0.887173 0.085846
0.958041 0.903073 0.085855
0.969191 0.912421 0.085864
0.978622 0.921987 0.085881
0.982725 0.928886 0.085900
0.986378 0.939491 0.085918
0.989389 0.950326 0.085936
0.990793 0.956925 0.085963
0.992151 0.963584 0.085995
0.993467 0.970292 0.086026
0.994594 0.977041 0.086056
0.995452 0.980127 0.086094
0.067768 0.645307 0.085805
0.067798 0.645731 0.085805
0.067896 0.647255 0.085805
0.068049 0.650060 0.085805
0.068254 0.654256 0.085805
0.068770 0.659928 0.085805
0.069680 0.667145 0.085805
0.071618 0.675966 0.085805
0.075765 0.686444 0.085805
0.084461 0.698510 0.085807
0.105361 0.712184 0.085809
0.144153 0.732291 0.085812
0.198003 0.754877 0.085814
0.274460 0.775108 0.085816
0.388814 0.796364 0.085818
0.516493 0.819538 0.085821
0.639162 0.840038 0.085825
0.734775 0.856818 0.085828
0.814543 0.873695 0.085831
0.875109 0.891507 0.085835
0.915695 0.903913 0.085840
0.942040 0.912265 0.085849
0.958419 0.920880 0.085858
0.969513 0.928062 0.085868
0.978739 0.936182 0.085886
0.982833 0.946882 0.085904
0.986463 0.954054 0.085922
0.989423 0.960253 0.085939
0.990825 0.966532 0.085970
0.992181 0.972879 0.086001
0.993495 0.978348 0.086032
0.994612 0.980740 0.086062
0.995469 0.982530 0.086104
0.067853 0.729044 0.085805
0.067879 0.729591 0.085805
0.067968 0.731554 0.085805
0.068109 0.735170 0.085805
0.068380 0.740588 0.085805
0.068869 0.747924 0.085805
0.069882 0.757280 0.085805
0.071896 0.766437 0.085806
0.076188 0.776938 0.085807
0.085642 0.789143 0.085809
0.109186 0.803095 0.085811
0.149017 0.818833 0.085813
0.201528 0.834156 0.085815
0.280577 0.847474 0.085817
0.397213 0.859944 0.085820
0.519291 0.873400 0.085823
0.643329 0.887828 0.085826
0.739305 0.900900 0.085829
0.816866 0.907888 0.085833
0.877178 0.915194 0.085836
0.916780 0.922800 0.085843
0.942875 0.928451 0.085852
0.958791 0.936204 0.085860
0.969856 0.945877 0.085873
0.978863 0.952945 0.085891
0.982947 0.958627 0.085909
0.986553 0.964417 0.085926
0.989460 0.970303 0.085945
0.990859 0.976275 0.085977
0.992213 0.979540 0.086008
0.993524 0.981554 0.086038
0.994631 0.983138 0.086068
0.995487 0.984727 0.086117
0.067934 0.821287 0.085805
0.067958 0.821714 0.085805
0.068038 0.823247 0.085805
0.068167 0.826067 0.085805
0.068506 0.829800 0.085805
0.068969 0.833869 0.085805
0.070127 0.839033 0.085806
0.072439 0.845296 0.085808
0.076742 0.851484 0.085809
0.087160 0.858638 0.085811
0.112023 0.866766 0.085813
0.154954 0.875872 0.085814
0.205688 0.885956 0.085816
0.287156 0.896437 0.085818
0.406489 0.903405 0.085821
0.527227 0.908951 0.085825
0.647754 0.914854 0.085828
0.744118 0.921099 0.085831
0.819327 0.927215 0.085834
0.879370 0.931273 0.085837
0.917927 0.939534 0.085846
0.943760 0.948127 0.085855
0.959185 0.953617 0.085863
0.970219 0.958737 0.085878
0.978995 0.963991 0.085896
0.983068 0.969367 0.085914
0.986649 0.974855 0.085931
0.989499 0.978803 0.085953
0.990895 0.980859 0.085984
0.992246 0.982440 0.086015
0.993555 0.983933 0.086045
0.994651 0.985437 0.086077
0.995506 0.986836 0.086130
0.068011 0.880184 0.085805
0.068033 0.880429 0.085805
0.068106 0.881310 0.085805
0.068235 0.882928 0.085805
0.068631 0.885346 0.085806
0.069130 0.888606 0.085807
0.070486 0.892742 0.085808
0.073067 0.897025 0.085809
0.077739 0.901124 0.085811
0.089796 0.904080 0.085812
0.115330 0.907425 0.085814
0.160379 0.911155 0.085816
0.210315 0.915265 0.085818
0.294215 0.919748 0.085820
0.416455 0.924595 0.085823
0.537712 0.928086 0.085826
0.652441 0.932175 0.085829
0.749218 0.938934 0.085832
0.821927 0.946065 0.085835
0.881687 0.951675 0.085841
0.919139 0.956040 0.085849
0.944694 0.960570 0.085858
0.959601 0.965255 0.085866
0.970602 0.970085 0.085884
0.979133 0.975049 0.085902
0.983195 0.978682 0.085919
0.986750 0.980615 0.085935
0.989541 0.982122 0.085962
0.990934 0.983506 0.085992
0.992282 0.984907 0.086022
0.993588 0.986323 0.086051
0.994672 0.987384 0.086086
0.995526 0.988368 0.086144
0.068085 0.914104 0.085807
0.068105 0.914204 0.085807
0.068172 0.914562 0.085807
0.068385 0.915218 0.085808
0.068756 0.916199 0.085808
0.069393 0.917519 0.085809
0.070851 0.919190 0.085810
0.073716 0.921220 0.085811
0.078968 0.923613 0.085813
0.091343 0.926373 0.085814
0.118864 0.927964 0.085816
0.164926 0.929470 0.085817
0.215251 0.933896 0.085819
0.301380 0.938732 0.085822
0.427143 0.943971 0.085825
0.548919 0.949467 0.085828
0.657283 0.952828 0.085831
0.754606 0.956387 0.085834
0.824666 0.960135 0.085837
0.884127 0.964063 0.085844
0.920415 0.968164 0.085853
0.945677 0.972426 0.085861
0.960040 0.976842 0.085873
0.971005 0.979179 0.085890
0.979279 0.980850 0.085907
0.983330 0.982190 0.085924
0.986856 0.983454 0.085940
0.989584 0.984742 0.085970
0.990974 0.986049 0.086000
0.992319 0.987127 0.086030
0.993623 0.988045 0.086058
0.994695 0.989139 0.086096
0.995547 0.990022 0.086159
0.068156 0.933934 0.085809
0.068174 0.934041 0.085809
0.068262 0.934425 0.085809
0.068532 0.935130 0.085810
0.068880 0.936183 0.085810
0.069658 0.937602 0.085811
0.071223 0.939400 0.085812
0.074383 0.941585 0.085813
0.080249 0.944165 0.085814
0.093510 0.947142 0.085816
0.122633 0.949978 0.085817
0.169537 0.952086 0.085819
0.220506 0.954411 0.085822
0.308968 0.956948 0.085824
0.437959 0.959693 0.085827
0.560876 0.962640 0.085830
0.663014 0.965784 0.085832
0.759917 0.969117 0.085835
0.827545 0.972633 0.085840
0.886692 0.976324 0.085848
0.921754 0.978700 0.085856
0.946709 0.980259 0.085864
0.960499 0.981535 0.085879
0.971429 0.982641 0.085896
0.979433 0.983777 0.085913
0.983471 0.984942 0.085929
0.986968 0.986133 0.085949
0.989630 0.987108 0.085979
0.991016 0.987953 0.086009
0.992359 0.988833 0.086038
0.993660 0.989813 0.086066
0.994719 0.990629 0.086111
0.995569 0.991323 0.086174
0.068231 0.955110 0.085811
0.068275 0.955166 0.085811
0.068425 0.955367 0.085811
0.068676 0.955736 0.085812
0.069003 0.956287 0.085812
0.069923 0.957028 0.085813
0.071600 0.957968 0.085814
0.075067 0.959109 0.085815
0.081581 0.960456 0.085816
0.096023 0.962009 0.085817
0.126645 0.963768 0.085819
0.174001 0.965734 0.085821
0.226963 0.967903 0.085824
0.317055 0.970273 0.085826
0.448141 0.972839 0.085829
0.571656 0.975599 0.085831
0.669046 0.978057 0.085834
0.764524 0.979285 0.085837
0.829997 0.980502 0.085844
0.889381 0.981556 0.085852
0.923157 0.982489 0.085860
0.947791 0.983459 0.085869
0.960981 0.984464 0.085886
0.971872 0.985501 0.085902
0.979594 0.986569 0.085919
0.983619 0.987325 0.085935
0.987085 0.988093 0.085959
0.989678 0.988958 0.085988
0.991061 0.989808 0.086017
0.992400 0.990561 0.086046
0.993698 0.991234 0.086077
0.994744 0.991774 0.086127
0.995592 0.992320 0.086189
0.068405 0.969193 0.085813
0.068445 0.969245 0.085813
0.068584 0.969432 0.085813
0.068818 0.969776 0.085814
0.069270 0.970289 0.085814
0.070296 0.970980 0.085815
0.072014 0.971855 0.085816
0.075768 0.972919 0.085817
0.082962 0.974175 0.085818
0.098669 0.975624 0.085819
0.130910 0.977268 0.085821
0.178730 0.978277 0.085823
0.234385 0.979073 0.085826
0.325668 0.979943 0.085828
0.457418 0.980745 0.085830
0.579561 0.981530 0.085833
0.675381 0.982240 0.085836
0.769353 0.982994 0.085840
0.832251 0.983789 0.085848
0.892195 0.984624 0.085856
0.924624 0.985496 0.085863
0.948922 0.986404 0.085877
0.961485 0.987107 0.085893
0.972336 0.987774 0.085909
