velvia/Velvia50_Modern_ExtraPunchy.cube
TITLE "Velvia 50 Modern ExtraPunchy"
# Adobe RGB in/out. REPLACES AgX. Velvia 50 Modern ExtraPunchy.
LUT_3D_SIZE 9
DOMAIN_MIN 0.0 0.0 0.0
DOMAIN_MAX 1.0 1.0 1.0
0.078962 0.074438 0.068230
0.079141 0.074438 0.068230
0.323063 0.075051 0.068230
0.646417 0.134231 0.068230
0.832157 0.378991 0.068230
0.904717 0.560976 0.068298
0.940430 0.684910 0.068706
0.955435 0.784955 0.070399
0.962781 0.835504 0.074536
0.078962 0.074438 0.068230
0.078962 0.074438 0.068230
0.190813 0.075425 0.068230
0.588667 0.142902 0.068230
0.806658 0.386676 0.068230
0.897125 0.567219 0.068241
0.934023 0.689085 0.068662
0.954436 0.786619 0.070069
0.962142 0.837467 0.073994
0.078962 0.172284 0.068230
0.079151 0.125849 0.068230
0.138605 0.102521 0.068230
0.468168 0.207904 0.068230
0.740232 0.430778 0.068230
0.870152 0.589412 0.068230
0.926082 0.705762 0.068542
0.950441 0.792977 0.069507
0.960055 0.844819 0.072944
0.078962 0.539662 0.068230
0.080441 0.503207 0.068230
0.193319 0.448309 0.068230
0.442577 0.428579 0.068230
0.655703 0.511184 0.068230
0.835261 0.633774 0.068230
0.907635 0.742223 0.068404
0.943188 0.806726 0.069006
0.956933 0.859410 0.071618
0.078962 0.744163 0.068230
0.082507 0.726544 0.068230
0.222947 0.685174 0.068230
0.472945 0.656689 0.068230
0.647378 0.661680 0.068230
0.797498 0.712711 0.068230
0.890143 0.788258 0.068314
0.931384 0.834861 0.068729
0.953011 0.876386 0.070618
0.079115 0.844356 0.068230
0.086140 0.838470 0.068230
0.238655 0.822411 0.068230
0.488831 0.806591 0.068230
0.658138 0.801551 0.068230
0.791832 0.809344 0.068230
0.873709 0.832986 0.068289
0.923948 0.870927 0.068660
0.948767 0.892866 0.069936
0.080497 0.895143 0.068230
0.091212 0.893704 0.068230
0.242567 0.889482 0.068230
0.488993 0.884607 0.068230
0.660632 0.881407 0.068230
0.793833 0.882604 0.068230
0.871401 0.887876 0.068369
0.915848 0.896523 0.068656
0.944356 0.910660 0.069790
0.083910 0.921024 0.068230
0.098208 0.920316 0.068230
0.243234 0.917969 0.068230
0.478795 0.915089 0.068230
0.653029 0.913219 0.068230
0.786643 0.913620 0.068230
0.868419 0.916881 0.068455
0.913320 0.922073 0.068756
0.940766 0.926819 0.069868
0.089052 0.932596 0.068230
0.104718 0.932392 0.068230
0.241996 0.931777 0.068230
0.464944 0.931049 0.068230
0.640576 0.930694 0.068230
0.773082 0.931167 0.068297
0.862114 0.932747 0.068529
0.908968 0.935494 0.068913
0.935715 0.937914 0.070202
0.078962 0.074438 0.068411
0.079240 0.074438 0.068455
0.323020 0.075080 0.068550
0.634813 0.125611 0.068649
0.821074 0.363309 0.069093
0.900743 0.547495 0.070640
0.937002 0.676966 0.073567
0.954950 0.782284 0.079400
0.962442 0.832938 0.089555
0.078962 0.074438 0.068230
0.078962 0.074438 0.068230
0.170846 0.075019 0.068230
0.565293 0.128461 0.068416
0.791629 0.369664 0.068755
0.893072 0.553162 0.069893
0.932790 0.681008 0.072836
0.953749 0.783941 0.078343
0.961805 0.834907 0.087890
0.078962 0.136986 0.068345
0.079049 0.102651 0.068230
0.110566 0.089666 0.068230
0.437882 0.172272 0.068230
0.722172 0.401184 0.068431
0.864388 0.578490 0.068958
0.924156 0.697340 0.071128
0.949763 0.790295 0.075448
0.959727 0.842293 0.083791
0.078962 0.508560 0.068360
0.079678 0.478897 0.068255
0.172953 0.403103 0.068230
0.417306 0.391766 0.068230
0.642411 0.492005 0.068230
0.826637 0.622450 0.068593
0.904953 0.733658 0.069557
0.942146 0.803355 0.072782
0.956626 0.856990 0.079337
0.078962 0.728501 0.068347
0.082004 0.711392 0.068310
0.210465 0.670759 0.068230
0.460114 0.642542 0.068230
0.637959 0.648614 0.068265
0.787902 0.702843 0.068482
0.887047 0.784973 0.069006
0.930693 0.831778 0.071335
0.952630 0.874889 0.076127
0.079102 0.838876 0.068342
0.085578 0.833079 0.068333
0.232978 0.817194 0.068315
0.480386 0.801939 0.068326
0.652408 0.797765 0.068396
0.785097 0.804945 0.068540
0.871548 0.829768 0.068854
0.923133 0.869231 0.070427
0.948469 0.892129 0.074124
0.080371 0.893721 0.068346
0.090684 0.892298 0.068350
0.239264 0.888117 0.068366
0.484331 0.883243 0.068409
0.656526 0.879343 0.068497
0.789935 0.881079 0.068636
0.869929 0.886881 0.069013
0.915073 0.895828 0.070141
0.944032 0.910159 0.073472
0.083726 0.920252 0.068356
0.097733 0.919486 0.068365
0.241334 0.917169 0.068398
0.476630 0.914327 0.068462
0.651409 0.912504 0.068566
0.784548 0.912968 0.068710
0.867615 0.916323 0.069191
0.912848 0.921825 0.070721
0.940578 0.926651 0.073458
0.088886 0.932331 0.068366
0.104278 0.932130 0.068378
0.240966 0.931526 0.068418
0.463826 0.930816 0.068494
0.639763 0.930484 0.068607
0.772779 0.930985 0.068831
0.861748 0.932602 0.069443
0.908773 0.935394 0.071159
0.935550 0.937893 0.073877
0.078962 0.074438 0.289932
0.079240 0.074438 0.294349
0.341596 0.075595 0.310486
0.653000 0.144762 0.284349
0.819226 0.362790 0.234828
0.897271 0.537173 0.227168
0.933345 0.666722 0.233929
0.953790 0.775653 0.248406
0.961740 0.827786 0.269549
0.078962 0.074438 0.291472
0.079241 0.074470 0.275043
0.254676 0.078232 0.189936
0.581289 0.140985 0.179527
0.784540 0.364580 0.186667
0.888574 0.540621 0.199461
0.931000 0.669984 0.215830
0.952504 0.778538 0.235338
0.961097 0.829686 0.258827
0.078962 0.096365 0.128665
0.078962 0.085562 0.093595
0.087840 0.076854 0.070531
0.407572 0.145802 0.083251
0.696856 0.379369 0.108503
0.856476 0.558332 0.136884
0.920133 0.683773 0.169245
0.948433 0.785188 0.198999
0.959005 0.836872 0.228693
0.078962 0.450969 0.148934
0.079149 0.406883 0.119146
0.134164 0.332149 0.086019
0.343202 0.313412 0.076103
0.613571 0.461135 0.082384
0.810142 0.601360 0.101187
0.899479 0.716698 0.123405
0.939792 0.797739 0.158218
0.955899 0.851376 0.192155
0.078962 0.689864 0.142134
0.080746 0.674772 0.127581
0.184986 0.637447 0.104165
0.430490 0.609797 0.086586
0.610465 0.617239 0.082149
0.771438 0.679874 0.087347
0.879578 0.774469 0.104993
0.928831 0.824256 0.126428
0.951652 0.871100 0.160902
0.079067 0.823829 0.124805
0.084040 0.818419 0.118288
0.210884 0.803388 0.108224
0.462148 0.791683 0.096298
0.638126 0.787724 0.089484
0.771923 0.795483 0.089136
0.865761 0.821234 0.096582
0.920135 0.864663 0.111244
0.947645 0.890108 0.138685
0.079998 0.889543 0.110043
0.089143 0.888188 0.109119
0.229199 0.884185 0.104782
0.472590 0.877748 0.098573
0.648046 0.873497 0.094386
0.778766 0.875631 0.094299
0.865633 0.883990 0.098971
0.912837 0.893837 0.108244
0.943084 0.908704 0.126981
0.083159 0.917672 0.100455
0.096282 0.916943 0.099793
0.235608 0.914734 0.097862
0.470126 0.912035 0.095734
0.646550 0.910364 0.094832
0.778255 0.911015 0.096604
0.865172 0.914640 0.101590
0.911401 0.921070 0.109155
0.939996 0.926136 0.122412
0.088358 0.931486 0.090231
0.103057 0.931298 0.090170
0.237717 0.930734 0.090093
0.460306 0.930083 0.090442
0.637211 0.929826 0.091858
0.771829 0.930418 0.095330
0.860596 0.932148 0.101428
0.908156 0.935080 0.109276
0.935024 0.937829 0.122706
0.078962 0.074438 0.770747
0.079240 0.074438 0.771383
0.341596 0.076093 0.773656
0.691482 0.184937 0.778100
0.842056 0.402687 0.730375
0.901107 0.553529 0.676417
0.933444 0.669132 0.647394
0.953312 0.773207 0.628217
0.961272 0.824774 0.617819
0.078962 0.074438 0.770969
0.079313 0.074505 0.771605
0.345082 0.092051 0.773876
0.650394 0.223532 0.743532
0.812368 0.402114 0.680188
0.892361 0.555116 0.647752
0.930964 0.671426 0.627458
0.951970 0.775614 0.616896
0.960611 0.826509 0.610160
0.078962 0.101320 0.620270
0.079017 0.100832 0.581697
0.152657 0.114137 0.490158
0.469927 0.217924 0.488115
0.720730 0.404424 0.524820
0.857911 0.564569 0.551320
0.918882 0.681528 0.568131
0.947703 0.782775 0.578175
0.958458 0.833131 0.584184
0.078962 0.374664 0.547734
0.079052 0.348692 0.495118
0.115128 0.284788 0.352065
0.270943 0.237564 0.202466
0.597450 0.447970 0.323052
0.802515 0.592678 0.408767
0.896218 0.707555 0.464842
0.935161 0.793877 0.503381
0.955264 0.846762 0.529585
0.078962 0.645364 0.552063
0.079518 0.633542 0.523746
0.158112 0.602469 0.437015
0.390342 0.574416 0.336325
0.569379 0.581810 0.279808
0.753841 0.657779 0.319857
0.872514 0.760840 0.380835
0.926253 0.817263 0.433694
0.950649 0.867362 0.470919
0.079018 0.804150 0.528686
0.082336 0.800414 0.511834
0.190804 0.790205 0.460525
0.440551 0.778662 0.395813
0.618213 0.771296 0.342188
0.754481 0.784055 0.320642
0.858905 0.811324 0.339058
0.916295 0.858437 0.384173
0.946233 0.887778 0.427546
0.079471 0.883686 0.483397
0.087066 0.882262 0.474219
0.210066 0.876640 0.446301
0.458118 0.869727 0.407439
0.636976 0.865896 0.369148
0.771054 0.868457 0.347067
0.859835 0.878717 0.343716
0.909932 0.891293 0.360129
0.941844 0.906840 0.397712
0.082487 0.913888 0.431293
0.094177 0.913229 0.426903
0.221749 0.911231 0.411203
0.460989 0.908805 0.388084
0.639777 0.907397 0.366820
0.772714 0.908316 0.353647
0.861732 0.912296 0.351797
0.909346 0.919327 0.361813
0.937973 0.925434 0.382488
0.087549 0.930198 0.370759
0.101208 0.930031 0.368630
0.232845 0.929538 0.361923
0.455058 0.928995 0.352786
0.633437 0.928863 0.344874
0.770430 0.929596 0.341652
0.858902 0.931493 0.345536
0.907245 0.934627 0.357718
0.934263 0.937739 0.378314
0.078962 0.074438 0.923487
0.079240 0.074438 0.923798
0.341596 0.076808 0.924315
0.691482 0.196715 0.925226
0.864963 0.473090 0.922789
0.910897 0.589119 0.888994
0.938820 0.685832 0.865969
0.953914 0.779544 0.840691
0.961273 0.825741 0.821767
0.078962 0.074438 0.923596
0.079313 0.074818 0.923863
0.345082 0.095604 0.924363
0.693010 0.283829 0.925260
0.846430 0.474739 0.904199
0.902106 0.590211 0.877316
0.932997 0.687633 0.854004
0.952525 0.780854 0.832164
0.960592 0.827293 0.816031
0.078962 0.172654 0.912931
0.079517 0.186259 0.904830
0.264637 0.245755 0.884446
0.567157 0.351072 0.862518
0.762918 0.478893 0.838748
0.870225 0.595146 0.824058
0.922686 0.695341 0.813768
0.948067 0.785056 0.805293
0.958363 0.833241 0.797526
0.078962 0.368799 0.807205
0.079058 0.361000 0.792615
0.136652 0.349008 0.753941
0.405987 0.386465 0.707575
0.637617 0.490998 0.716662
0.814458 0.610366 0.743804
0.897979 0.714978 0.763661
0.935008 0.794421 0.770163
0.955026 0.845620 0.771972
0.078962 0.609975 0.786478
0.079201 0.602010 0.775201
0.140801 0.580034 0.729702
0.357344 0.548870 0.655182
0.529091 0.534938 0.580767
0.749311 0.650889 0.642153
0.870012 0.756964 0.685783
0.925060 0.814551 0.714239
0.950053 0.865418 0.732353
0.078967 0.788509 0.778587
0.081260 0.785672 0.773175
0.172164 0.774908 0.746231
0.418965 0.757112 0.695357
0.593555 0.748293 0.649094
0.741309 0.765084 0.621527
0.853225 0.802991 0.640945
0.913181 0.852582 0.671979
0.944945 0.885995 0.694316
0.079237 0.873808 0.767330
0.085433 0.872161 0.761527
0.195148 0.867212 0.739535
0.443032 0.861173 0.707304
0.624778 0.856485 0.675525
0.757096 0.860588 0.652761
0.853707 0.871978 0.641201
0.907000 0.888793 0.652659
0.940622 0.905070 0.671425
0.081974 0.909430 0.731598
0.091793 0.908872 0.727632
0.210916 0.907184 0.714789
0.450720 0.905165 0.695922
0.632260 0.904134 0.676230
0.769788 0.905371 0.660673
0.857885 0.909719 0.652536
0.907035 0.917295 0.652711
0.935863 0.924797 0.660514
0.086712 0.928625 0.688207
0.099788 0.928490 0.686229
0.221032 0.928098 0.679763
0.448819 0.927706 0.670116
0.629005 0.927746 0.659936
0.768802 0.928659 0.652005
0.856944 0.930754 0.647348
0.906195 0.934124 0.649679
0.934016 0.937644 0.656739
0.078962 0.074438 0.951391
0.079240 0.074438 0.951455
0.341596 0.078279 0.951684
0.691482 0.213262 0.952103
0.872132 0.493053 0.952725
0.922644 0.625141 0.943503
0.943836 0.712329 0.933787
0.955218 0.786967 0.928742
0.961728 0.830590 0.922155
0.078962 0.074483 0.951414
0.079313 0.075317 0.951477
0.345082 0.100464 0.951706
0.693010 0.295353 0.952125
0.869200 0.531646 0.951655
0.914275 0.627337 0.939794
0.940545 0.714320 0.932060
0.953984 0.787945 0.927344
0.961034 0.832020 0.918599
0.078962 0.213502 0.951494
0.080740 0.253453 0.951557
0.357658 0.371045 0.951786
0.642736 0.462629 0.943307
0.808810 0.547148 0.935012
0.888052 0.634702 0.930140
0.927883 0.721996 0.925976
0.949442 0.791738 0.917072
0.958749 0.837466 0.906973
0.078962 0.438897 0.929827
0.079174 0.444735 0.928734
0.192478 0.460466 0.924559
0.490349 0.495632 0.911285
0.701095 0.572263 0.902342
0.841148 0.650150 0.898052
0.904715 0.739274 0.895504
0.939889 0.799916 0.892878
0.955284 0.848727 0.889556
0.078962 0.599954 0.901252
0.079174 0.596455 0.896328
0.144400 0.588137 0.881347
0.400654 0.586859 0.858216
0.600778 0.613421 0.838415
0.770712 0.682223 0.844382
0.875535 0.769879 0.857930
0.926076 0.818494 0.866486
0.950106 0.866241 0.869571
0.078962 0.772559 0.890806
0.080424 0.768826 0.887175
0.158087 0.757844 0.874831
0.405165 0.743383 0.850265
0.579792 0.735184 0.817284
0.719969 0.741255 0.789664
0.850968 0.801301 0.814370
0.912219 0.851413 0.832307
0.944399 0.885456 0.843991
0.079174 0.863465 0.882814
0.083931 0.862206 0.880440
0.181754 0.856966 0.871985
0.429464 0.850379 0.856128
0.611127 0.846858 0.833503
0.748942 0.850719 0.814955
0.847018 0.865339 0.806361
0.904511 0.886777 0.814331
0.939320 0.903817 0.825667
0.081430 0.904761 0.870176
0.090031 0.904327 0.868625
0.200251 0.903023 0.863093
0.440431 0.901523 0.850097
0.623913 0.900970 0.835718
0.760737 0.902548 0.823269
0.854069 0.907193 0.815429
0.904686 0.915287 0.813539
0.934159 0.924236 0.817748
0.085975 0.926905 0.847112
0.098764 0.926809 0.845700
0.213760 0.926542 0.841017
0.442157 0.926339 0.833791
0.623199 0.926591 0.825698
0.761908 0.927713 0.818639
0.854930 0.930021 0.814171
0.905124 0.933638 0.813131
0.933776 0.937564 0.815390
0.078962 0.074438 0.966316
0.079240 0.074438 0.966324
0.341596 0.080806 0.966352
0.691482 0.235444 0.966460
0.872132 0.503679 0.966625
0.929645 0.661130 0.965591
0.948060 0.742521 0.959840
0.956551 0.796237 0.951828
0.962481 0.838164 0.944792
0.078962 0.074831 0.966319
0.079313 0.076514 0.966326
0.345082 0.108161 0.966355
0.693010 0.314235 0.966466
0.872470 0.550824 0.966630
0.924587 0.665016 0.964961
0.945339 0.745212 0.957862
0.955580 0.797277 0.950134
0.961786 0.839565 0.943598
0.078962 0.235699 0.966328
0.080740 0.273053 0.966336
0.357658 0.384572 0.966376
0.697497 0.528250 0.966433
0.842411 0.605924 0.964395
0.901413 0.676976 0.957554
0.932289 0.754418 0.950617
0.951395 0.801144 0.944601
0.959486 0.844823 0.939651
0.078962 0.506936 0.960725
0.080037 0.513418 0.959770
0.252256 0.537581 0.956805
0.554804 0.582583 0.952126
0.750567 0.632259 0.947145
0.860680 0.696944 0.942864
0.913902 0.769369 0.939329
0.942957 0.810679 0.936316
0.955952 0.855449 0.933796
0.078962 0.621366 0.941035
0.079241 0.621783 0.939999
0.168709 0.625653 0.936831
0.448981 0.640405 0.933243
0.649647 0.674551 0.931029
0.804812 0.731415 0.929955
0.887090 0.788363 0.929620
0.929124 0.828659 0.929424
0.950816 0.869879 0.929042
0.078962 0.762648 0.933088
0.080115 0.760838 0.932421
0.155067 0.755988 0.930254
0.410432 0.752542 0.926670
0.600123 0.758623 0.917744
0.750903 0.782981 0.910613
0.858537 0.813500 0.913176
0.914724 0.857671 0.918205
0.944895 0.886635 0.921591
0.079124 0.852342 0.930551
0.082710 0.851142 0.930072
0.171525 0.847577 0.928481
0.418646 0.843570 0.925209
0.603120 0.842190 0.914500
0.744927 0.846336 0.903013
0.840366 0.858023 0.894247
0.903685 0.886379 0.902877
0.938491 0.903663 0.908716
0.080907 0.900377 0.928002
0.088369 0.900080 0.927584
0.190660 0.899209 0.926188
0.431226 0.898315 0.922985
0.615197 0.898337 0.914834
0.753639 0.900278 0.907286
0.850761 0.905031 0.901909
0.902439 0.913440 0.900175
0.933704 0.923834 0.903011
0.085253 0.925176 0.921902
0.096966 0.925122 0.921123
0.206599 0.924997 0.918514
0.435577 0.925007 0.914408
0.616999 0.925499 0.909657
0.755468 0.926851 0.905294
0.853377 0.929373 0.902247
0.904129 0.933224 0.901115
0.933573 0.937514 0.901913
0.078962 0.074438 0.974125
0.079240 0.074464 0.974131
0.341596 0.087295 0.974153
0.691482 0.262542 0.974193
0.872132 0.517126 0.974252
0.933147 0.692506 0.973947
0.950553 0.767990 0.969426
0.957867 0.806583 0.965951
0.963327 0.846904 0.964119
0.078962 0.075834 0.974127
0.079313 0.078679 0.974133
0.345082 0.121888 0.974155
0.693010 0.340039 0.974195
0.872470 0.564111 0.974254
0.930056 0.698276 0.973004
0.948729 0.770945 0.968531
0.956930 0.808149 0.965653
0.962643 0.848363 0.963274
0.078962 0.262759 0.974135
0.080740 0.290849 0.974141
0.357658 0.401150 0.974163
0.698485 0.542625 0.974202
0.858896 0.647576 0.972912
0.911946 0.715641 0.969045
0.939994 0.780479 0.966016
0.953440 0.813755 0.964547
0.960367 0.853728 0.960018
0.078962 0.575489 0.971834
0.081643 0.582060 0.971423
0.302739 0.601826 0.970080
0.606673 0.636012 0.968037
0.781899 0.683223 0.966050
0.877386 0.741597 0.964985
0.922906 0.789493 0.962220
0.946439 0.824414 0.958362
0.956830 0.863420 0.954843
0.078962 0.660398 0.964554
0.079916 0.662916 0.964273
0.199089 0.672846 0.962657
0.493094 0.693843 0.959893
0.697164 0.729150 0.957029
0.832168 0.774647 0.954345
0.897195 0.803789 0.951863
0.931738 0.842020 0.949740
0.951947 0.875401 0.947729
0.078962 0.770108 0.954027
0.080299 0.770125 0.953344
0.163965 0.771269 0.951134
0.432204 0.777167 0.947933
0.630934 0.786870 0.944777
0.773806 0.802634 0.942626
0.870226 0.832693 0.941707
0.919697 0.866957 0.941440
0.946281 0.889298 0.941167
0.079106 0.846058 0.947862
0.082328 0.845530 0.947297
0.166567 0.844167 0.945414
0.416697 0.843554 0.942480
0.607256 0.846312 0.939141
0.750928 0.855669 0.936244
0.851721 0.871631 0.934888
0.906720 0.889641 0.935410
0.940021 0.905107 0.936258
0.080489 0.896824 0.943890
0.087050 0.896669 0.943502
0.183161 0.896265 0.942199
0.423168 0.896061 0.940120
0.609499 0.896806 0.937647
0.751309 0.899300 0.935244
0.848885 0.904187 0.933613
0.900403 0.911859 0.932822
0.933536 0.923821 0.933819
0.084570 0.923577 0.939624
0.095285 0.923568 0.939391
0.200066 0.923591 0.938603
0.429452 0.923830 0.937345
0.611515 0.924580 0.935857
0.753008 0.926174 0.934445
0.851755 0.928899 0.933666
0.903313 0.932941 0.933355
0.933433 0.937508 0.933516
0.078962 0.074445 0.975638
0.079240 0.074904 0.975640
0.341596 0.096573 0.975646
0.691482 0.286112 0.975657
0.872132 0.533029 0.975674
0.937217 0.715638 0.975697
0.952383 0.784148 0.974790
0.958947 0.817937 0.973216
0.964085 0.855385 0.969696
0.078962 0.078025 0.975639
0.079313 0.084177 0.975640
0.345082 0.142337 0.975647
0.693010 0.369267 0.975658
0.872470 0.579421 0.975675
0.932544 0.724887 0.975500
0.950688 0.786129 0.974631
0.958054 0.819783 0.972597
0.963420 0.856960 0.969240
0.078962 0.286275 0.975641
0.080740 0.317227 0.975643
0.357658 0.426353 0.975649
0.698485 0.558426 0.975660
0.869222 0.680029 0.975565
0.919571 0.747728 0.974811
0.943779 0.792568 0.973728
0.955100 0.826202 0.970544
0.961198 0.862326 0.967712
0.078962 0.616185 0.975488
0.082990 0.622387 0.975415
0.335883 0.643523 0.975169
0.636081 0.678712 0.974777
0.810641 0.725115 0.974231
0.890457 0.774969 0.972188
0.928170 0.802984 0.969670
0.948767 0.837739 0.967369
0.957709 0.869729 0.965867
0.078962 0.701932 0.971950
0.080958 0.705349 0.971706
0.233491 0.717768 0.970897
0.527323 0.740984 0.969627
0.736873 0.771566 0.968117
0.849791 0.795028 0.966571
0.905404 0.822408 0.965775
0.934263 0.855641 0.965147
0.953175 0.881525 0.964326
0.078962 0.785241 0.966032
0.080860 0.785878 0.965942
0.179495 0.788450 0.965647
0.455120 0.794135 0.965198
0.652653 0.804461 0.964618
0.802396 0.824433 0.963286
0.880976 0.850912 0.961643
0.924263 0.875823 0.960305
0.947768 0.892610 0.959073
0.079104 0.846826 0.963900
0.082307 0.846945 0.963543
0.168354 0.847749 0.962354
0.423843 0.850592 0.960504
0.619677 0.857550 0.958420
0.768611 0.867987 0.956610
0.860238 0.882244 0.955456
0.911134 0.894268 0.954822
0.941257 0.907578 0.954483
0.080247 0.894618 0.959659
0.086363 0.894610 0.959391
0.178603 0.894694 0.958485
0.419086 0.895257 0.957030
0.608279 0.896916 0.955252
0.752236 0.900364 0.953175
0.851347 0.906286 0.951599
0.903637 0.915391 0.950976
0.933933 0.924540 0.951200
0.083976 0.922246 0.956114
0.093840 0.922282 0.955945
0.194608 0.922454 0.955356
0.423528 0.922925 0.954220
0.607261 0.923946 0.952858
0.751291 0.925796 0.951538
0.850741 0.928724 0.950529
0.902880 0.932904 0.950050
0.933381 0.937560 0.950254
