velvia/Velvia50_Classic_ExtraSoft.cube
TITLE "Velvia 50 Classic ExtraSoft"
# Adobe RGB in/out. REPLACES AgX. Velvia 50 Classic ExtraSoft.
LUT_3D_SIZE 5
DOMAIN_MIN 0.0 0.0 0.0
DOMAIN_MAX 1.0 1.0 1.0
0.067508 0.080111 0.085805
0.071601 0.080195 0.085805
0.596590 0.084014 0.085813
0.977605 0.322422 0.085854
0.995319 0.844179 0.086042
0.067508 0.080614 0.085805
0.071947 0.081276 0.085805
0.603368 0.113368 0.085814
0.977846 0.487831 0.085857
0.995341 0.900634 0.086049
0.067596 0.322797 0.085805
0.074411 0.391223 0.085805
0.627879 0.620089 0.085821
0.978411 0.876179 0.085873
0.995422 0.967648 0.086080
0.068156 0.933934 0.085809
0.080249 0.944165 0.085814
0.663014 0.965784 0.085832
0.979433 0.983777 0.085913
0.995569 0.991323 0.086174
0.069808 0.992499 0.085827
0.098674 0.992871 0.085832
0.719324 0.994091 0.085861
0.980923 0.995442 0.085983
0.995785 0.996755 0.086346
0.067508 0.080111 0.086334
0.071601 0.080200 0.086382
0.596590 0.084175 0.086529
0.977605 0.324402 0.086918
0.995319 0.845155 0.089056
0.067508 0.080633 0.086354
0.071947 0.081299 0.086385
0.603368 0.114228 0.086545
0.977846 0.489919 0.086938
0.995341 0.900970 0.089206
0.067596 0.324778 0.086387
0.074411 0.393481 0.086432
0.627879 0.621980 0.086620
0.978411 0.876974 0.087070
0.995422 0.967818 0.089740
0.068156 0.934279 0.086496
0.080249 0.944502 0.086544
0.663014 0.965955 0.086762
0.979433 0.983815 0.087436
0.995569 0.991336 0.090863
0.069808 0.992511 0.086693
0.098674 0.992883 0.086754
0.719324 0.994101 0.086972
0.980923 0.995447 0.087966
0.995785 0.996758 0.094043
0.067508 0.080111 0.595838
0.071601 0.080215 0.602708
0.596590 0.084826 0.627265
0.977605 0.332510 0.663321
0.995319 0.848076 0.705243
0.067508 0.080702 0.598294
0.071947 0.081381 0.605083
0.603368 0.117335 0.629670
0.977846 0.497451 0.664177
0.995341 0.902173 0.707065
0.067596 0.332958 0.606819
0.074411 0.401856 0.613638
0.627879 0.628690 0.638336
0.978411 0.879827 0.667244
0.995422 0.968426 0.713613
0.068156 0.935519 0.622605
0.080249 0.945711 0.629480
0.663014 0.966569 0.650735
0.979433 0.983949 0.673490
0.995569 0.991384 0.725677
0.069808 0.992556 0.644650
0.098674 0.992927 0.649999
0.719324 0.994138 0.665180
0.980923 0.995465 0.691921
0.995785 0.996770 0.743761
0.067508 0.080111 0.973929
0.071601 0.080273 0.974354
0.596590 0.085927 0.975870
0.977605 0.348296 0.978584
0.995319 0.853433 0.980171
0.067508 0.080820 0.974077
0.071947 0.081563 0.974502
0.603368 0.123134 0.976016
0.977846 0.511437 0.978641
0.995341 0.904375 0.980226
0.067596 0.348755 0.974610
0.074411 0.417681 0.975033
0.627879 0.637858 0.976542
0.978411 0.885059 0.978845
0.995422 0.969541 0.980424
0.068156 0.937790 0.975585
0.080249 0.947927 0.976005
0.663014 0.967694 0.977505
0.979433 0.984195 0.979218
0.995569 0.991471 0.980787
0.069808 0.992639 0.977032
0.098674 0.993008 0.977448
0.719324 0.994205 0.978708
0.980923 0.995497 0.979771
0.995785 0.996793 0.981325
0.067508 0.080147 0.995480
0.071601 0.080348 0.995494
0.596590 0.087511 0.995544
0.977605 0.371099 0.995635
0.995319 0.861406 0.995769
0.067508 0.081059 0.995485
0.071947 0.082432 0.995499
0.603368 0.132000 0.995549
0.977846 0.532621 0.995640
0.995341 0.907640 0.995774
0.067596 0.371515 0.995502
0.074411 0.440898 0.995516
0.627879 0.651421 0.995566
0.978411 0.892850 0.995657
0.995422 0.971196 0.995791
0.068156 0.941164 0.995534
0.080249 0.950371 0.995548
0.663014 0.969365 0.995598
0.979433 0.984560 0.995688
0.995569 0.991601 0.995822
0.069808 0.992761 0.995582
0.098674 0.993128 0.995596
0.719324 0.994306 0.995645
0.980923 0.995546 0.995735
0.995785 0.996827 0.995868
