velvia/Velvia50_Modern_Punchy.cube
TITLE "Velvia 50 Modern Punchy"
# Adobe RGB in/out. REPLACES AgX. Velvia 50 Modern Punchy.
LUT_3D_SIZE 33
DOMAIN_MIN 0.0 0.0 0.0
DOMAIN_MAX 1.0 1.0 1.0
0.093920 0.090395 0.084157
0.093920 0.090395 0.084157
0.093920 0.090395 0.084157
0.093920 0.090395 0.084157
0.094116 0.090395 0.084157
0.102947 0.090395 0.084157
0.143054 0.090395 0.084157
0.229319 0.090414 0.084157
0.332070 0.091081 0.084157
0.434719 0.093801 0.084157
0.512621 0.102490 0.084157
0.582656 0.118730 0.084157
0.645324 0.148122 0.084157
0.705197 0.198879 0.084157
0.753679 0.265193 0.084157
0.792628 0.316826 0.084157
0.825165 0.379700 0.084157
0.853188 0.435590 0.084157
0.870716 0.482601 0.084157
0.887360 0.517639 0.084157
0.901849 0.556664 0.084234
0.912663 0.595938 0.084352
0.921430 0.625842 0.084469
0.928061 0.653012 0.084583
0.938289 0.679785 0.084697
0.943344 0.706152 0.084977
0.946813 0.732103 0.085279
0.949631 0.754642 0.085853
0.952318 0.774826 0.086478
0.954883 0.794538 0.087426
0.957333 0.806035 0.088290
0.959262 0.818721 0.089540
0.960838 0.831012 0.090717
0.093920 0.090395 0.084157
0.093920 0.090395 0.084157
0.093920 0.090395 0.084157
0.093920 0.090395 0.084157
0.094039 0.090395 0.084157
0.100756 0.090395 0.084157
0.134218 0.090395 0.084157
0.218951 0.090414 0.084157
0.323345 0.091084 0.084157
0.428653 0.093828 0.084157
0.506474 0.102576 0.084157
0.578453 0.118850 0.084157
0.642072 0.148454 0.084157
0.702083 0.199311 0.084157
0.752430 0.265602 0.084157
0.790587 0.317294 0.084157
0.823953 0.380059 0.084157
0.852519 0.436099 0.084157
0.870118 0.482807 0.084157
0.886823 0.517901 0.084157
0.901500 0.556923 0.084231
0.912349 0.596199 0.084349
0.921238 0.626024 0.084466
0.927888 0.653190 0.084581
0.938157 0.679961 0.084694
0.943224 0.706326 0.084972
0.946745 0.732275 0.085268
0.949569 0.754779 0.085843
0.952262 0.774961 0.086463
0.954831 0.794671 0.087408
0.957285 0.806124 0.088269
0.959231 0.818807 0.089521
0.960810 0.831097 0.090701
0.093920 0.090395 0.084157
0.093920 0.090395 0.084157
0.093920 0.090395 0.084157
0.093920 0.090395 0.084157
0.093920 0.090395 0.084157
0.096247 0.090395 0.084157
0.116054 0.090395 0.084157
0.189500 0.090415 0.084157
0.289895 0.091105 0.084157
0.407291 0.093950 0.084157
0.486025 0.102923 0.084157
0.564189 0.119316 0.084157
0.630906 0.149715 0.084157
0.691318 0.200934 0.084157
0.746205 0.267120 0.084157
0.783449 0.319016 0.084157
0.819693 0.381374 0.084157
0.850209 0.437962 0.084157
0.868004 0.483556 0.084157
0.884918 0.518851 0.084157
0.900262 0.557863 0.084220
0.911234 0.597144 0.084339
0.920556 0.626679 0.084456
0.927271 0.653837 0.084572
0.937509 0.680600 0.084685
0.942796 0.706956 0.084951
0.946505 0.732898 0.085229
0.949350 0.755275 0.085806
0.952061 0.775448 0.086410
0.954647 0.795149 0.087343
0.957116 0.806443 0.088195
0.959121 0.819118 0.089451
0.960708 0.831401 0.090642
0.093920 0.090395 0.084157
0.093920 0.090395 0.084157
0.093920 0.090395 0.084157
0.093920 0.090395 0.084157
0.093920 0.090395 0.084157
0.094143 0.090395 0.084157
0.104014 0.090395 0.084157
0.149587 0.090422 0.084157
0.251397 0.091176 0.084157
0.358951 0.094263 0.084157
0.458765 0.103721 0.084157
0.540991 0.120313 0.084157
0.612285 0.152323 0.084157
0.673102 0.204197 0.084157
0.735138 0.270107 0.084157
0.771691 0.322360 0.084157
0.812216 0.383895 0.084157
0.843417 0.441513 0.084157
0.864244 0.484971 0.084157
0.881518 0.520640 0.084157
0.897896 0.559631 0.084199
0.909231 0.598917 0.084321
0.919329 0.627905 0.084438
0.926158 0.655044 0.084556
0.935185 0.681789 0.084670
0.942020 0.708129 0.084914
0.946071 0.734054 0.085195
0.948952 0.756196 0.085738
0.951696 0.776351 0.086315
0.954312 0.795747 0.087225
0.956807 0.807032 0.088060
0.958921 0.819694 0.089326
0.960523 0.831963 0.090536
0.093920 0.090395 0.084157
0.093920 0.090395 0.084157
0.093920 0.090395 0.084157
0.093920 0.090395 0.084157
0.093920 0.090395 0.084157
0.094012 0.090395 0.084157
0.098230 0.090395 0.084157
0.123507 0.090444 0.084157
0.204476 0.091498 0.084157
0.315243 0.094933 0.084157
0.427341 0.105362 0.084157
0.510946 0.122130 0.084157
0.586012 0.156920 0.084157
0.651479 0.209753 0.084157
0.715238 0.275042 0.084157
0.766550 0.327784 0.084157
0.801835 0.387911 0.084157
0.833901 0.446319 0.084157
0.858919 0.487175 0.084157
0.876673 0.523412 0.084157
0.893483 0.562371 0.084170
0.906351 0.601651 0.084295
0.917239 0.629787 0.084413
0.924546 0.656891 0.084533
0.931175 0.683603 0.084647
0.940891 0.709913 0.084861
0.945436 0.735811 0.085147
0.948371 0.757591 0.085641
0.951162 0.777718 0.086200
0.953820 0.796448 0.087053
0.956354 0.807923 0.087863
0.958626 0.820562 0.089143
0.960250 0.832811 0.090379
0.093920 0.090458 0.084157
0.093920 0.090453 0.084157
0.093920 0.090437 0.084157
0.093920 0.090408 0.084157
0.093920 0.090395 0.084157
0.094078 0.090395 0.084157
0.096551 0.090395 0.084157
0.113179 0.090633 0.084157
0.171088 0.092170 0.084157
0.270571 0.096149 0.084157
0.382333 0.108845 0.084157
0.473066 0.126454 0.084157
0.555642 0.164434 0.084157
0.626039 0.218536 0.084157
0.688871 0.281630 0.084157
0.746305 0.335905 0.084157
0.785487 0.393794 0.084157
0.822152 0.451356 0.084157
0.852248 0.490316 0.084157
0.870554 0.527338 0.084157
0.887880 0.566251 0.084157
0.902669 0.605004 0.084262
0.913871 0.632419 0.084382
0.922463 0.659462 0.084503
0.929268 0.686121 0.084619
0.939422 0.712382 0.084792
0.944571 0.738235 0.085083
0.947610 0.759511 0.085514
0.950462 0.779595 0.086086
0.953175 0.797410 0.086845
0.955757 0.809142 0.087716
0.958219 0.821750 0.088902
0.959890 0.833968 0.090154
0.093920 0.095271 0.084157
0.093920 0.095461 0.084157
0.093920 0.094576 0.084157
0.093920 0.092811 0.084157
0.093967 0.091781 0.084157
0.094252 0.091186 0.084157
0.097936 0.091140 0.084157
0.107577 0.091478 0.084157
0.149562 0.093682 0.084157
0.238429 0.099945 0.084157
0.340775 0.113549 0.084157
0.443792 0.134646 0.084157
0.525982 0.176096 0.084157
0.599232 0.231793 0.084157
0.661132 0.289629 0.084157
0.727560 0.347519 0.084157
0.769653 0.401225 0.084157
0.808826 0.458276 0.084157
0.841078 0.494570 0.084157
0.863426 0.532656 0.084157
0.881301 0.571473 0.084157
0.898257 0.608604 0.084223
0.909857 0.635909 0.084346
0.919964 0.662857 0.084468
0.926970 0.689431 0.084587
0.937393 0.715616 0.084709
0.942932 0.741400 0.085007
0.946683 0.762010 0.085360
0.949606 0.782033 0.085947
0.952383 0.798654 0.086642
0.955024 0.810718 0.087667
0.957539 0.823281 0.088609
0.959446 0.835459 0.089879
0.093920 0.118212 0.084157
0.093920 0.118759 0.084157
0.093920 0.117851 0.084157
0.093920 0.110541 0.084157
0.094053 0.103317 0.084157
0.095601 0.098451 0.084157
0.101298 0.096555 0.084157
0.114067 0.096525 0.084157
0.140179 0.097919 0.084157
0.212967 0.107818 0.084157
0.311604 0.121169 0.084157
0.416426 0.147809 0.084157
0.493841 0.192069 0.084157
0.570386 0.251111 0.084157
0.637332 0.301153 0.084157
0.699888 0.363587 0.084157
0.752809 0.410764 0.084157
0.793718 0.467467 0.084157
0.827544 0.501492 0.084157
0.855610 0.539640 0.084157
0.874013 0.578276 0.084157
0.891465 0.613247 0.084180
0.905326 0.640384 0.084307
0.916597 0.667186 0.084428
0.924342 0.693632 0.084551
0.931174 0.719705 0.084668
0.941039 0.744750 0.084920
0.945606 0.765146 0.085209
0.948609 0.785085 0.085784
0.951459 0.800205 0.086407
0.954166 0.812679 0.087373
0.956742 0.825185 0.088269
0.958924 0.837310 0.089559
0.093920 0.183798 0.084157
0.093920 0.185025 0.084157
0.093920 0.179333 0.084157
0.093920 0.158945 0.084157
0.094127 0.139575 0.084157
0.097035 0.127067 0.084157
0.104674 0.120478 0.084157
0.120633 0.118094 0.084157
0.153782 0.118406 0.084157
0.205652 0.121152 0.084157
0.284488 0.137208 0.084157
0.385731 0.171741 0.084157
0.467404 0.217988 0.084157
0.544948 0.275234 0.084157
0.613597 0.321441 0.084157
0.673597 0.379046 0.084157
0.735529 0.429753 0.084157
0.772177 0.478466 0.084157
0.813674 0.510804 0.084157
0.845781 0.548588 0.084157
0.866302 0.586926 0.084157
0.884205 0.619089 0.084157
0.900431 0.645981 0.084265
0.912022 0.672572 0.084387
0.921456 0.698835 0.084511
0.928487 0.724747 0.084629
0.938937 0.748714 0.084824
0.944240 0.768983 0.085120
0.947492 0.788808 0.085603
0.950419 0.802240 0.086181
0.953197 0.815058 0.087045
0.955838 0.827490 0.087889
0.958331 0.839546 0.089201
0.093920 0.293709 0.084157
0.093920 0.291776 0.084157
0.093920 0.281544 0.084157
0.093920 0.260327 0.084157
0.094215 0.230429 0.084157
0.098347 0.203831 0.084157
0.108572 0.184026 0.084157
0.127963 0.173147 0.084157
0.169042 0.168173 0.084157
0.220994 0.170007 0.084157
0.280745 0.178141 0.084157
0.359930 0.204124 0.084157
0.448593 0.253899 0.084157
0.523580 0.296951 0.084157
0.591028 0.349862 0.084157
0.651837 0.398192 0.084157
0.713221 0.451397 0.084157
0.762057 0.488244 0.084157
0.800051 0.522572 0.084157
0.832481 0.559816 0.084157
0.858453 0.597709 0.084157
0.876728 0.626294 0.084157
0.894115 0.652846 0.084222
0.907209 0.679147 0.084347
0.918393 0.705158 0.084470
0.925616 0.730851 0.084591
0.934750 0.753487 0.084723
0.942124 0.773589 0.085026
0.946277 0.793264 0.085410
0.949284 0.805173 0.086004
0.952136 0.817887 0.086743
0.954846 0.830224 0.087702
0.957422 0.842195 0.088812
0.093920 0.391495 0.084157
0.093920 0.388350 0.084157
0.093920 0.377786 0.084157
0.093933 0.359359 0.084157
0.094436 0.331174 0.084157
0.100073 0.303736 0.084157
0.113043 0.286541 0.084157
0.137523 0.272019 0.084157
0.184412 0.260521 0.084157
0.240084 0.255747 0.084157
0.300616 0.259430 0.084157
0.359268 0.269582 0.084157
0.434087 0.289385 0.084157
0.502929 0.331287 0.084157
0.570492 0.379970 0.084157
0.632459 0.423470 0.084157
0.690622 0.471386 0.084157
0.745178 0.501569 0.084157
0.782440 0.537133 0.084157
0.819659 0.573640 0.084157
0.850946 0.608791 0.084157
0.869271 0.635024 0.084157
0.886953 0.661128 0.084180
0.902297 0.687043 0.084307
0.913811 0.712722 0.084429
0.922633 0.738124 0.084552
0.929641 0.759147 0.084670
0.939897 0.779033 0.084928
0.944991 0.797045 0.085221
0.948076 0.808614 0.085816
0.951002 0.821200 0.086467
0.953780 0.833421 0.087466
0.956421 0.845285 0.088401
0.093920 0.478367 0.084157
0.093920 0.476395 0.084157
0.093920 0.468016 0.084157
0.093978 0.453767 0.084157
0.095019 0.430457 0.084157
0.101470 0.404727 0.084157
0.115751 0.385480 0.084157
0.147284 0.368308 0.084157
0.196944 0.352015 0.084157
0.254544 0.341740 0.084157
0.313689 0.338964 0.084157
0.372391 0.343384 0.084157
0.435768 0.354576 0.084157
0.485047 0.374076 0.084157
0.553859 0.409531 0.084157
0.615889 0.457426 0.084157
0.671138 0.489077 0.084157
0.731322 0.520330 0.084157
0.769776 0.554788 0.084157
0.807668 0.590351 0.084157
0.839124 0.619861 0.084157
0.862040 0.645431 0.084157
0.879922 0.670966 0.084157
0.897013 0.696392 0.084268
0.909127 0.721646 0.084390
0.919608 0.745793 0.084513
0.926767 0.765769 0.084631
0.937288 0.785386 0.084830
0.943026 0.800236 0.085128
0.946818 0.812601 0.085623
0.949816 0.825029 0.086205
0.952662 0.837108 0.087106
0.955366 0.848844 0.087977
0.093920 0.537143 0.084157
0.093920 0.535250 0.084157
0.093920 0.528732 0.084157
0.094021 0.517791 0.084157
0.095540 0.503612 0.084157
0.102724 0.489577 0.084157
0.119117 0.477015 0.084157
0.154685 0.460319 0.084157
0.206950 0.446408 0.084157
0.265682 0.431502 0.084157
0.325894 0.423029 0.084157
0.390606 0.421851 0.084157
0.443809 0.427731 0.084157
0.490068 0.440318 0.084157
0.540792 0.454376 0.084157
0.602291 0.484295 0.084157
0.655349 0.510965 0.084157
0.713846 0.542619 0.084157
0.757519 0.575772 0.084157
0.796754 0.608287 0.084157
0.828001 0.632872 0.084157
0.855202 0.657642 0.084157
0.873183 0.682485 0.084157
0.890417 0.707310 0.084233
0.904529 0.732040 0.084355
0.915837 0.753822 0.084476
0.923892 0.773425 0.084596
0.930814 0.792713 0.084735
0.940826 0.804598 0.085036
0.945534 0.817169 0.085432
0.948598 0.829408 0.086026
0.951508 0.841317 0.086781
0.954274 0.852900 0.087710
0.093920 0.601469 0.084157
0.093920 0.599749 0.084157
0.093920 0.593787 0.084157
0.094062 0.583638 0.084157
0.096107 0.570201 0.084157
0.103930 0.554830 0.084157
0.122489 0.539001 0.084157
0.161571 0.524068 0.084157
0.215964 0.511131 0.084157
0.275417 0.500989 0.084157
0.337112 0.494473 0.084157
0.405459 0.491943 0.084157
0.451773 0.492216 0.084157
0.499419 0.495205 0.084157
0.546758 0.502236 0.084157
0.591681 0.512358 0.084157
0.644318 0.538478 0.084157
0.698457 0.568536 0.084157
0.747503 0.600232 0.084157
0.782291 0.624377 0.084157
0.817929 0.647906 0.084157
0.848124 0.671750 0.084157
0.866863 0.695781 0.084157
0.884154 0.719895 0.084201
0.900105 0.743627 0.084323
0.911528 0.763018 0.084442
0.921070 0.782178 0.084562
0.928097 0.798381 0.084679
0.938634 0.810024 0.084948
0.943982 0.822347 0.085246
0.947370 0.834365 0.085850
0.950338 0.846075 0.086515
0.953161 0.857477 0.087530
0.093920 0.647057 0.084157
0.093920 0.645992 0.084157
0.093920 0.642277 0.084157
0.094102 0.635861 0.084157
0.096685 0.627180 0.084157
0.105021 0.616959 0.084157
0.124013 0.606057 0.084157
0.167807 0.591736 0.084157
0.223586 0.577896 0.084157
0.283758 0.566318 0.084157
0.347025 0.557596 0.084157
0.414157 0.552101 0.084157
0.459262 0.550007 0.084157
0.508596 0.551330 0.084157
0.553286 0.555955 0.084157
0.597589 0.563680 0.084157
0.637588 0.574253 0.084157
0.685727 0.598068 0.084157
0.738044 0.620831 0.084157
0.771258 0.642620 0.084157
0.808988 0.664995 0.084157
0.838817 0.687806 0.084157
0.861050 0.710919 0.084157
0.878317 0.734219 0.084173
0.894949 0.754621 0.084295
0.907415 0.773433 0.084411
0.918349 0.792081 0.084532
0.925454 0.803822 0.084647
0.934024 0.816126 0.084865
0.941911 0.828164 0.085157
0.946149 0.839925 0.085678
0.949169 0.851404 0.086259
0.952043 0.862598 0.087197
0.093920 0.690948 0.084157
0.093920 0.690006 0.084157
0.093945 0.686708 0.084157
0.094171 0.680966 0.084157
0.097248 0.673096 0.084157
0.106145 0.663671 0.084157
0.126455 0.653399 0.084157
0.173098 0.643017 0.084157
0.229918 0.633209 0.084157
0.292621 0.624559 0.084157
0.355463 0.617531 0.084157
0.421738 0.612456 0.084157
0.465994 0.609543 0.084157
0.517034 0.608887 0.084157
0.559576 0.610484 0.084157
0.603401 0.614250 0.084157
0.642111 0.620043 0.084157
0.680847 0.627685 0.084157
0.730105 0.642475 0.084157
0.767977 0.662950 0.084157
0.801182 0.684110 0.084157
0.830558 0.705812 0.084157
0.855793 0.727923 0.084157
0.872967 0.748739 0.084157
0.889557 0.766935 0.084271
0.903552 0.785099 0.084387
0.914593 0.799474 0.084505
0.922922 0.810979 0.084619
0.929760 0.822923 0.084790
0.939897 0.834637 0.085083
0.944953 0.846108 0.085518
0.948017 0.857325 0.086099
0.950936 0.868282 0.086883
0.093920 0.733804 0.084157
0.093920 0.732969 0.084157
0.094000 0.730037 0.084157
0.094238 0.724896 0.084157
0.097799 0.717778 0.084157
0.107429 0.709132 0.084157
0.129373 0.699543 0.084157
0.177599 0.689638 0.084157
0.236019 0.680026 0.084157
0.302643 0.671251 0.084157
0.362412 0.663761 0.084157
0.428100 0.657906 0.084157
0.471797 0.653930 0.084157
0.522790 0.651980 0.084157
0.565357 0.652115 0.084157
0.608191 0.654318 0.084157
0.646534 0.658509 0.084157
0.685019 0.664561 0.084157
0.727340 0.672322 0.084157
0.758696 0.685247 0.084157
0.793440 0.705174 0.084157
0.823330 0.725725 0.084157
0.851263 0.745872 0.084157
0.868135 0.763160 0.084157
0.884627 0.780571 0.084253
0.899976 0.796788 0.084366
0.911022 0.807169 0.084482
0.920530 0.818878 0.084596
0.927408 0.830423 0.084723
0.937964 0.841778 0.085015
0.943249 0.852926 0.085372
0.946896 0.863851 0.085958
0.949853 0.873674 0.086663
0.093920 0.769097 0.084157
0.093942 0.768501 0.084157
0.094052 0.766403 0.084157
0.094604 0.762702 0.084157
0.098691 0.757526 0.084157
0.109160 0.751154 0.084157
0.132052 0.743968 0.084157
0.181454 0.735077 0.084157
0.244389 0.725810 0.084157
0.307014 0.717116 0.084157
0.367939 0.709421 0.084157
0.433092 0.703072 0.084157
0.476596 0.698334 0.084157
0.527687 0.695387 0.084157
0.570429 0.694334 0.084157
0.612517 0.695209 0.084157
0.650652 0.697986 0.084157
0.689016 0.702588 0.084157
0.730515 0.708906 0.084157
0.756948 0.716805 0.084157
0.784801 0.728063 0.084157
0.817071 0.746423 0.084157
0.845040 0.762527 0.084157
0.863824 0.778917 0.084157
0.880176 0.795467 0.084238
0.896032 0.804963 0.084350
0.907725 0.816281 0.084463
0.918298 0.827513 0.084576
0.925195 0.838626 0.084688
0.932518 0.849591 0.084956
0.941451 0.860384 0.085242
0.945818 0.870988 0.085828
0.948805 0.878387 0.086462
0.093972 0.798661 0.084157
0.094003 0.798387 0.084157
0.094101 0.797420 0.084157
0.095212 0.795704 0.084157
0.099728 0.791336 0.084157
0.110854 0.785597 0.084157
0.134554 0.779047 0.084157
0.184787 0.772043 0.084157
0.247252 0.764957 0.084157
0.310376 0.758147 0.084157
0.372161 0.751935 0.084157
0.436383 0.746597 0.084157
0.480683 0.742355 0.084157
0.531658 0.738751 0.084157
0.574664 0.736769 0.084157
0.616235 0.736555 0.084157
0.653344 0.738126 0.084157
0.692653 0.741448 0.084157
0.732695 0.745611 0.084157
0.761076 0.750936 0.084157
0.784960 0.757434 0.084157
0.811694 0.765317 0.084157
0.839196 0.780458 0.084157
0.860015 0.795696 0.084157
0.876198 0.804607 0.084229
0.891922 0.815369 0.084339
0.904712 0.826136 0.084449
0.915293 0.836865 0.084560
0.923135 0.847520 0.084669
0.929758 0.858066 0.084906
0.939750 0.868479 0.085184
0.944791 0.876563 0.085713
0.947801 0.881837 0.086283
0.094032 0.818959 0.084157
0.094059 0.818649 0.084157
0.094184 0.817548 0.084157
0.095831 0.815590 0.084157
0.100752 0.812813 0.084157
0.112521 0.809328 0.084157
0.136923 0.805302 0.084157
0.187702 0.801089 0.084157
0.249522 0.797644 0.084157
0.312869 0.793201 0.084157
0.376055 0.787174 0.084157
0.438774 0.781839 0.084157
0.484160 0.777412 0.084157
0.534692 0.774063 0.084157
0.578000 0.771917 0.084157
0.619251 0.771054 0.084157
0.655560 0.771516 0.084157
0.695776 0.773302 0.084157
0.734612 0.776384 0.084157
0.764803 0.780706 0.084157
0.786732 0.786192 0.084157
0.812401 0.792755 0.084157
0.834687 0.797977 0.084157
0.856676 0.806272 0.084157
0.872672 0.816332 0.084224
0.888242 0.826489 0.084332
0.901985 0.836694 0.084439
0.912513 0.846904 0.084548
0.921236 0.857081 0.084655
0.927856 0.867189 0.084866
0.938159 0.875504 0.085141
0.943295 0.881105 0.085616
0.946849 0.885210 0.086169
0.094088 0.839122 0.084157
0.094120 0.838851 0.084157
0.094263 0.837890 0.084157
0.096550 0.836175 0.084157
0.101761 0.833731 0.084157
0.114167 0.830644 0.084157
0.139427 0.827048 0.084157
0.190285 0.823108 0.084157
0.251305 0.819004 0.084157
0.314626 0.814920 0.084157
0.378971 0.811033 0.084157
0.440353 0.807504 0.084157
0.486515 0.804475 0.084157
0.536817 0.802061 0.084157
0.580423 0.800646 0.084157
0.621517 0.799932 0.084157
0.657592 0.799841 0.084157
0.698270 0.800387 0.084157
0.736181 0.801566 0.084157
0.766763 0.803898 0.084157
0.788244 0.807004 0.084157
0.813215 0.810826 0.084157
0.835298 0.815306 0.084157
0.854485 0.820386 0.084157
0.869565 0.828703 0.084224
0.884969 0.838261 0.084329
0.899535 0.847904 0.084433
0.909993 0.857588 0.084540
0.919499 0.867276 0.084644
0.926103 0.875320 0.084835
0.934765 0.880867 0.085108
0.941822 0.884871 0.085536
0.945953 0.888803 0.086087
0.094168 0.858306 0.084157
0.094207 0.858069 0.084157
0.094925 0.857229 0.084157
0.097246 0.855727 0.084157
0.102868 0.853577 0.084157
0.115460 0.850847 0.084157
0.142062 0.847645 0.084157
0.192291 0.844106 0.084157
0.252688 0.840383 0.084157
0.315762 0.836633 0.084157
0.380624 0.833012 0.084157
0.441214 0.829663 0.084157
0.487845 0.826716 0.084157
0.538084 0.824282 0.084157
0.581953 0.822451 0.084157
0.623020 0.821294 0.084157
0.659314 0.820857 0.084157
0.700061 0.821170 0.084157
0.737339 0.822239 0.084157
0.767165 0.824058 0.084157
0.789401 0.826602 0.084157
0.813839 0.829837 0.084157
0.835760 0.833719 0.084157
0.854660 0.838199 0.084157
0.867856 0.843225 0.084236
0.882070 0.850618 0.084330
0.896921 0.859706 0.084431
0.907723 0.868867 0.084536
0.917779 0.876099 0.084638
0.924499 0.881177 0.084814
0.930842 0.885037 0.085082
0.940457 0.888850 0.085475
0.945117 0.892605 0.086022
0.094254 0.875061 0.084157
0.094463 0.874919 0.084157
0.095600 0.874414 0.084157
0.097918 0.873507 0.084157
0.104040 0.872204 0.084157
0.116045 0.870002 0.084157
0.144630 0.867160 0.084157
0.193980 0.863995 0.084157
0.253745 0.860637 0.084157
0.316381 0.857221 0.084157
0.381190 0.853881 0.084157
0.441448 0.850746 0.084157
0.488252 0.847934 0.084157
0.538562 0.845548 0.084157
0.582634 0.843675 0.084157
0.623777 0.842386 0.084157
0.660260 0.841731 0.084157
0.701106 0.841746 0.084157
0.738045 0.842450 0.084157
0.767415 0.843844 0.084157
0.790127 0.845918 0.084157
0.814222 0.848650 0.084157
0.836019 0.852007 0.084157
0.854734 0.855950 0.084181
0.867839 0.860437 0.084262
0.880743 0.865422 0.084344
0.894209 0.871945 0.084433
0.905687 0.877903 0.084536
0.915672 0.882079 0.084636
0.923039 0.885754 0.084802
0.929358 0.889407 0.085066
0.939197 0.893026 0.085431
0.944136 0.896602 0.085973
0.094887 0.883984 0.084157
0.095194 0.883908 0.084157
0.096384 0.883639 0.084157
0.099127 0.883154 0.084157
0.105189 0.882456 0.084157
0.118222 0.881561 0.084157
0.147141 0.880498 0.084157
0.195523 0.879126 0.084157
0.254533 0.877311 0.084157
0.316567 0.875184 0.084157
0.380831 0.873081 0.084157
0.441137 0.870784 0.084157
0.487842 0.868144 0.084157
0.538322 0.865858 0.084157
0.582526 0.864007 0.084157
0.623819 0.862660 0.084157
0.660441 0.861871 0.084157
0.701396 0.861678 0.084157
0.738275 0.862106 0.084157
0.767502 0.863167 0.084157
0.790366 0.864858 0.084157
0.814319 0.867167 0.084157
0.836030 0.870073 0.084157
0.854676 0.872987 0.084209
0.867710 0.875747 0.084289
0.880540 0.878727 0.084368
0.893175 0.881071 0.084450
0.903865 0.883590 0.084539
0.913774 0.887046 0.084636
0.921715 0.890505 0.084799
0.928004 0.893954 0.085058
0.938042 0.897381 0.085405
0.942971 0.900777 0.085940
0.095601 0.890891 0.084157
0.095934 0.890826 0.084157
0.097151 0.890593 0.084157
0.100341 0.890175 0.084157
0.106498 0.889571 0.084157
0.120377 0.888794 0.084157
0.149425 0.887868 0.084157
0.196944 0.886823 0.084157
0.255099 0.885698 0.084157
0.316392 0.884533 0.084157
0.379690 0.883371 0.084157
0.440356 0.882255 0.084157
0.486712 0.881224 0.084157
0.537438 0.880315 0.084157
0.581695 0.879434 0.084157
0.623193 0.878749 0.084157
0.659888 0.878286 0.084157
0.700939 0.878062 0.084157
0.738023 0.878222 0.084157
0.767417 0.878677 0.084157
0.790080 0.879384 0.084157
0.814100 0.880352 0.084157
0.835759 0.881420 0.084161
0.854465 0.882715 0.084238
0.867448 0.884224 0.084315
0.880220 0.885932 0.084392
0.892794 0.887825 0.084474
0.903273 0.889885 0.084557
0.912068 0.892157 0.084640
0.920518 0.895406 0.084803
0.926774 0.898656 0.085058
0.935596 0.901895 0.085395
0.941899 0.905113 0.085923
0.096422 0.897389 0.084157
0.096750 0.897333 0.084157
0.097881 0.897133 0.084157
0.101513 0.896773 0.084157
0.108184 0.896251 0.084157
0.122504 0.895579 0.084157
0.151543 0.894774 0.084157
0.198259 0.893864 0.084157
0.255479 0.892878 0.084157
0.315917 0.891852 0.084157
0.377892 0.890821 0.084157
0.439172 0.889823 0.084157
0.484956 0.888893 0.084157
0.535983 0.888064 0.084157
0.580208 0.887366 0.084157
0.621947 0.886824 0.084157
0.658641 0.886462 0.084157
0.699763 0.886296 0.084157
0.737296 0.886340 0.084157
0.767159 0.886601 0.084157
0.789248 0.887086 0.084157
0.813543 0.887792 0.084157
0.835176 0.888718 0.084191
0.854082 0.889857 0.084265
0.867030 0.891198 0.084340
0.879762 0.892732 0.084416
0.892290 0.894444 0.084497
0.902877 0.896322 0.084578
0.911574 0.898351 0.084660
0.919497 0.900517 0.084819
0.925656 0.903491 0.085066
0.932063 0.906547 0.085402
0.940918 0.909590 0.085920
0.097217 0.903503 0.084157
0.097521 0.903454 0.084157
0.099141 0.903283 0.084157
0.102731 0.902974 0.084157
0.110174 0.902525 0.084157
0.123724 0.901946 0.084157
0.153610 0.901251 0.084157
0.199479 0.900461 0.084157
0.255700 0.899603 0.084157
0.315189 0.898705 0.084157
0.375544 0.897800 0.084157
0.437643 0.896917 0.084157
0.482657 0.896089 0.084157
0.534022 0.895345 0.084157
0.578133 0.894711 0.084157
0.620136 0.894212 0.084157
0.656749 0.893868 0.084157
0.697905 0.893696 0.084157
0.736108 0.893710 0.084157
0.766729 0.893918 0.084157
0.787865 0.894327 0.084157
0.812637 0.894939 0.084157
0.834266 0.895753 0.084219
0.853511 0.896764 0.084292
0.866442 0.897966 0.084365
