velvia/Velvia50_Modern_RadianceIII.cube
TITLE "Velvia 50 Modern RadianceIII"
# Adobe RGB in/out. REPLACES AgX. Velvia 50 Modern RadianceIII.
LUT_3D_SIZE 33
DOMAIN_MIN 0.0 0.0 0.0
DOMAIN_MAX 1.0 1.0 1.0
0.087650 0.087576 0.084044
0.093528 0.088650 0.084337
0.112520 0.091805 0.085087
0.139372 0.096873 0.085900
0.172816 0.105607 0.086813
0.227174 0.122367 0.087538
0.281169 0.143333 0.088417
0.334464 0.169872 0.090254
0.387385 0.201278 0.091909
0.440714 0.233030 0.094995
0.492946 0.263812 0.099124
0.536320 0.291827 0.103084
0.577028 0.318000 0.108079
0.616772 0.344522 0.112812
0.655467 0.371032 0.117422
0.693200 0.397199 0.124223
0.729272 0.423000 0.131634
0.763462 0.448146 0.139407
0.792961 0.472726 0.147579
0.812696 0.496257 0.155618
0.831568 0.519129 0.163520
0.849668 0.541205 0.171297
0.867078 0.562608 0.178960
0.878812 0.583588 0.186507
0.889355 0.599696 0.193748
0.899456 0.613539 0.200720
0.909142 0.626963 0.207565
0.918436 0.639982 0.214400
0.927362 0.652648 0.221369
0.932587 0.664963 0.229351
0.937260 0.676911 0.237083
0.941738 0.688504 0.244546
0.946032 0.699753 0.251887
0.087864 0.089624 0.084139
0.091108 0.089491 0.084274
0.105587 0.091917 0.084822
0.132180 0.097071 0.085716
0.164744 0.105792 0.086710
0.219391 0.122471 0.087423
0.275051 0.143261 0.088333
0.328721 0.169848 0.090085
0.382554 0.201372 0.091786
0.436610 0.233195 0.094707
0.489485 0.263989 0.098891
0.533822 0.292006 0.102818
0.574840 0.318182 0.107853
0.614822 0.344714 0.112617
0.653716 0.371222 0.117197
0.691622 0.397386 0.123953
0.727898 0.423180 0.131388
0.762211 0.448318 0.139148
0.792255 0.472892 0.147339
0.812056 0.496413 0.155395
0.830987 0.519279 0.163312
0.849140 0.541348 0.171103
0.866597 0.562748 0.178780
0.878523 0.583727 0.186339
0.889091 0.599790 0.193597
0.899215 0.613630 0.200580
0.908920 0.627051 0.207433
0.918233 0.640069 0.214272
0.927175 0.652733 0.221226
0.932489 0.665046 0.229215
0.937170 0.676992 0.236960
0.941655 0.688583 0.244430
0.945954 0.699830 0.251777
0.088753 0.094061 0.084419
0.092347 0.093785 0.084563
0.101599 0.093575 0.084788
0.118681 0.098116 0.085452
0.150019 0.106473 0.086406
0.197533 0.122876 0.087193
0.256173 0.143204 0.088068
0.310727 0.170118 0.089549
0.366957 0.201917 0.091384
0.422954 0.233912 0.093751
0.477839 0.264708 0.098108
0.525209 0.292705 0.102113
0.567305 0.318873 0.107075
0.608062 0.345430 0.111941
0.647611 0.371925 0.116543
0.686100 0.398070 0.123012
0.723070 0.423841 0.130527
0.757807 0.448948 0.138239
0.789600 0.473498 0.146495
0.809793 0.496977 0.154609
0.828927 0.519822 0.162578
0.847266 0.541866 0.170419
0.864885 0.563256 0.178141
0.877496 0.584228 0.185742
0.888153 0.600127 0.193064
0.898356 0.613958 0.200080
0.908132 0.627371 0.206965
0.917508 0.640380 0.213817
0.926505 0.653038 0.220717
0.932137 0.665343 0.228734
0.936846 0.677283 0.236521
0.941355 0.688868 0.244014
0.945677 0.700109 0.251383
0.090010 0.106109 0.084773
0.093933 0.105751 0.084887
0.105526 0.104742 0.085212
0.117457 0.104270 0.085524
0.138194 0.109845 0.086097
0.174546 0.124660 0.086954
0.230547 0.144811 0.087728
0.286038 0.172024 0.088802
0.344196 0.203746 0.090785
0.401857 0.235745 0.092687
0.458705 0.266356 0.096853
0.510816 0.294198 0.101038
0.554665 0.320289 0.105775
0.596555 0.346859 0.110794
0.637139 0.373302 0.115524
0.676502 0.399393 0.121388
0.714610 0.425106 0.129030
0.750044 0.450143 0.136649
0.784294 0.474641 0.145009
0.805756 0.498038 0.153217
0.825244 0.520843 0.161275
0.843905 0.542837 0.169201
0.861809 0.564205 0.177001
0.875644 0.585162 0.184673
0.886460 0.600756 0.192105
0.896803 0.614568 0.199181
0.906705 0.627964 0.206121
0.916193 0.640958 0.212996
0.925291 0.653604 0.219900
0.931499 0.665895 0.227863
0.936256 0.677822 0.235726
0.940810 0.689395 0.243260
0.945171 0.700624 0.250668
0.091628 0.129462 0.085323
0.096463 0.129013 0.085407
0.109375 0.127593 0.085626
0.124002 0.125838 0.085948
0.140976 0.125448 0.086388
0.162367 0.131270 0.086855
0.210046 0.151310 0.087481
0.264802 0.177888 0.088332
0.320411 0.208295 0.090156
0.377991 0.239681 0.091935
0.435784 0.269557 0.095354
0.492005 0.296908 0.099699
0.538310 0.322741 0.104109
0.581335 0.349252 0.109287
0.623043 0.375555 0.114159
0.663381 0.401517 0.119342
0.702443 0.427110 0.126979
0.739198 0.452018 0.134560
0.774224 0.476421 0.142937
0.800011 0.499680 0.151262
0.819983 0.522423 0.159434
0.839083 0.544332 0.167471
0.857379 0.565661 0.175374
0.872965 0.586591 0.183142
0.884004 0.601714 0.190728
0.894546 0.615497 0.197885
0.904625 0.628865 0.204901
0.914273 0.641833 0.211806
0.923516 0.654460 0.218777
0.930564 0.666729 0.226597
0.935391 0.678635 0.234567
0.940009 0.690189 0.242161
0.944428 0.701400 0.249624
0.095697 0.181722 0.086020
0.100449 0.180465 0.086112
0.115357 0.176052 0.086375
0.133932 0.168490 0.086644
0.150667 0.160486 0.086847
0.169135 0.158115 0.087078
0.199548 0.164637 0.087416
0.249288 0.190008 0.088185
0.300255 0.217434 0.089664
0.355795 0.246932 0.091433
0.412590 0.275113 0.093882
0.469289 0.301385 0.098299
0.519930 0.326830 0.102389
0.564010 0.352949 0.107588
0.606522 0.378944 0.112578
0.647706 0.404655 0.117403
0.687677 0.430026 0.124529
0.725855 0.454714 0.132234
0.761704 0.478927 0.140397
0.792769 0.502001 0.148841
0.813313 0.524654 0.157138
0.832934 0.546433 0.165297
0.851701 0.567697 0.173316
0.869509 0.588581 0.181195
0.880823 0.603042 0.188931
0.891613 0.616779 0.196221
0.901916 0.630106 0.203328
0.911766 0.643037 0.210288
0.921192 0.655635 0.217321
0.929336 0.667873 0.224952
0.934254 0.679749 0.233042
0.938954 0.691275 0.240725
0.943448 0.702460 0.248259
0.099644 0.241690 0.086721
0.105750 0.242818 0.086787
0.120152 0.237578 0.086919
0.140971 0.225759 0.087068
0.158837 0.212060 0.087214
0.181900 0.204022 0.087406
0.208897 0.202819 0.087756
0.240068 0.208040 0.088157
0.286017 0.232314 0.089403
0.338046 0.258534 0.091075
0.392132 0.283804 0.092885
0.447531 0.308208 0.097035
0.501392 0.332929 0.101131
0.546109 0.358351 0.105880
0.588946 0.383776 0.110931
0.630704 0.409052 0.115721
0.671281 0.434021 0.121867
0.710631 0.458395 0.129659
0.747376 0.482252 0.137546
0.782742 0.505134 0.146092
0.805499 0.527649 0.154505
0.825675 0.549233 0.162780
0.844954 0.570395 0.170914
0.863399 0.590696 0.178905
0.876996 0.604785 0.186751
0.888069 0.618457 0.194240
0.898629 0.631725 0.201446
0.908714 0.644603 0.208501
0.918354 0.657160 0.215565
0.927579 0.669353 0.222964
0.932857 0.681188 0.231143
0.937655 0.692676 0.238979
0.942239 0.703826 0.246593
0.104620 0.291047 0.087135
0.110046 0.291869 0.087182
0.125059 0.290503 0.087303
0.145711 0.278347 0.087433
0.166292 0.265522 0.087640
0.193158 0.255239 0.087880
0.221422 0.249381 0.088156
0.250740 0.249202 0.088499
0.279361 0.254144 0.089454
0.325329 0.273387 0.090897
0.375922 0.295477 0.092484
0.428854 0.317827 0.096050
0.482317 0.341462 0.100053
0.529011 0.365817 0.104328
0.571645 0.390370 0.109361
0.613447 0.414974 0.114168
0.654248 0.439324 0.119335
0.694042 0.463244 0.127002
0.731972 0.486602 0.134654
0.768000 0.509229 0.143175
0.796861 0.531460 0.151672
0.817579 0.552841 0.160040
0.837370 0.573851 0.168273
0.856295 0.593006 0.176365
0.872627 0.606992 0.184313
0.884002 0.620574 0.192009
0.894841 0.633761 0.199315
0.905182 0.646572 0.206467
0.915059 0.659067 0.213556
0.924501 0.671200 0.220685
0.931222 0.682981 0.228956
0.936132 0.694418 0.236962
0.940818 0.705521 0.244663
0.109756 0.337414 0.087585
0.114367 0.338153 0.087645
0.128998 0.334696 0.087776
0.149556 0.323850 0.087916
0.173525 0.312289 0.088095
0.202781 0.301897 0.088301
0.232642 0.294446 0.088671
0.261267 0.290869 0.089391
0.289295 0.291338 0.090185
0.321100 0.295452 0.091036
0.363972 0.310355 0.092295
0.413797 0.330687 0.095412
0.465108 0.352720 0.099241
0.513285 0.375642 0.103048
0.555559 0.399030 0.107982
0.596869 0.422670 0.112740
0.637508 0.446160 0.117428
0.677367 0.469457 0.124424
0.716262 0.492184 0.132080
0.752744 0.514447 0.140247
0.787225 0.536247 0.148781
0.808946 0.557374 0.157206
0.829208 0.578169 0.165507
0.848589 0.595872 0.173678
0.867143 0.609719 0.181711
0.879521 0.623177 0.189602
0.890645 0.636257 0.197004
0.901251 0.648983 0.204248
0.911375 0.661391 0.211353
0.921047 0.673446 0.218533
0.929379 0.685155 0.226538
0.934409 0.696527 0.234720
0.939206 0.707571 0.242510
0.114764 0.386131 0.088120
0.118387 0.385022 0.088149
0.133213 0.378891 0.088221
0.152926 0.369216 0.088340
0.179356 0.357806 0.088567
0.210464 0.346700 0.089069
0.241714 0.337551 0.089630
0.270102 0.331416 0.090249
0.299045 0.328819 0.090926
0.329866 0.329783 0.091655
0.361794 0.333968 0.092590
0.402373 0.346827 0.095122
0.451125 0.366855 0.098726
0.499875 0.387983 0.102254
0.541276 0.409927 0.106873
0.581665 0.432322 0.111518
0.621786 0.454736 0.116023
0.661380 0.477284 0.122074
0.700357 0.499183 0.129671
0.737583 0.520950 0.137449
0.773345 0.542175 0.145967
0.800077 0.562957 0.154400
0.820736 0.583460 0.162732
0.840518 0.599359 0.170948
0.859469 0.613021 0.179039
0.874743 0.626319 0.186997
0.886143 0.639257 0.194588
0.897011 0.651873 0.201910
0.907382 0.664169 0.209080
0.917288 0.676123 0.216280
0.926756 0.687742 0.223951
0.932516 0.699031 0.232266
0.937430 0.709999 0.240184
0.118796 0.428889 0.088685
0.123295 0.427328 0.088734
0.137352 0.422034 0.088901
0.156187 0.413434 0.089184
0.184255 0.402833 0.089561
0.216838 0.391831 0.090007
0.249067 0.381919 0.090507
0.277608 0.374178 0.091054
0.307903 0.369287 0.091646
0.338376 0.367538 0.092376
0.369595 0.368889 0.093691
0.402024 0.373061 0.095857
0.440238 0.383629 0.098499
0.487481 0.402877 0.101831
0.529074 0.423136 0.106071
0.568355 0.444002 0.110558
0.607625 0.465297 0.114958
0.646635 0.486649 0.120060
0.685319 0.507761 0.127532
0.723031 0.528882 0.134953
0.758861 0.549378 0.143344
0.791253 0.569711 0.151734
0.812211 0.589771 0.160050
0.832315 0.603528 0.168273
0.851599 0.616956 0.176389
0.869791 0.630050 0.184385
0.881445 0.642809 0.192141
0.892560 0.655283 0.199522
0.903167 0.667439 0.206758
0.913299 0.679267 0.213948
0.922983 0.690772 0.221262
0.930488 0.701958 0.229650
0.935520 0.712832 0.237741
0.124309 0.469391 0.089700
0.128293 0.468067 0.089741
0.141418 0.463532 0.089884
0.159679 0.456000 0.090129
0.188547 0.446400 0.090461
0.222071 0.435974 0.090860
0.254992 0.425898 0.091310
0.284197 0.417215 0.091801
0.315547 0.410728 0.092448
0.346127 0.406877 0.093504
0.377109 0.405823 0.095340
0.408881 0.407498 0.097292
0.441505 0.411676 0.099340
0.477260 0.420156 0.101654
0.518825 0.438641 0.105596
0.557119 0.457945 0.109897
0.595310 0.477956 0.114152
0.633535 0.497854 0.118780
0.671595 0.518044 0.125738
0.709273 0.538134 0.133023
0.745147 0.557973 0.141004
0.780117 0.577745 0.149300
0.803862 0.595019 0.157554
0.824191 0.608440 0.165742
0.843730 0.621577 0.173844
0.862507 0.634418 0.181846
0.876657 0.646964 0.189735
0.887992 0.659255 0.197153
0.898817 0.671237 0.204434
0.909160 0.682910 0.211597
0.919048 0.694276 0.218838
0.928360 0.705337 0.226983
0.933508 0.716044 0.235234
0.129670 0.507767 0.090614
0.133555 0.506657 0.090649
0.145401 0.502823 0.090773
0.163068 0.496347 0.090987
0.192664 0.487876 0.091280
0.226470 0.478349 0.091639
0.259660 0.468484 0.092046
0.289984 0.459477 0.092692
0.321857 0.452066 0.093742
0.352868 0.446757 0.095308
0.383977 0.443850 0.096982
0.415515 0.443442 0.098762
0.447545 0.445468 0.100638
0.480161 0.449741 0.102597
0.510691 0.456324 0.105435
0.547905 0.474095 0.109532
0.584904 0.492280 0.113616
0.622175 0.510970 0.117890
0.659411 0.530068 0.124333
0.696506 0.548986 0.131435
0.732491 0.568047 0.139012
0.767235 0.587172 0.147168
0.795879 0.601124 0.155315
0.816332 0.614142 0.163426
0.836037 0.626930 0.171477
0.855012 0.639467 0.179450
0.871880 0.651770 0.187330
0.883401 0.663826 0.194862
0.894415 0.675599 0.202165
0.904947 0.687085 0.209336
0.915022 0.698284 0.216563
0.924665 0.709194 0.224326
0.931427 0.719621 0.232691
0.135183 0.544232 0.091444
0.138606 0.543292 0.091474
0.149291 0.540024 0.091582
0.167315 0.534430 0.091770
0.196611 0.526920 0.092032
0.230282 0.518069 0.092485
0.263220 0.508855 0.093041
0.294545 0.500069 0.094240
0.327035 0.492380 0.095596
0.358668 0.486300 0.097051
0.390139 0.482177 0.098601
0.421765 0.480199 0.100244
0.453499 0.480413 0.101977
0.485492 0.482748 0.104240
0.514413 0.487050 0.106869
0.541662 0.493112 0.109591
0.576351 0.508549 0.113342
0.612549 0.525966 0.117322
0.648845 0.543556 0.123330
0.685204 0.561473 0.130218
0.721073 0.579653 0.137408
0.755422 0.595435 0.145384
0.788008 0.608120 0.153385
0.808885 0.620672 0.161380
0.828666 0.633053 0.169344
0.847759 0.645234 0.177255
0.866174 0.657251 0.185093
0.878871 0.669029 0.192704
0.890041 0.680555 0.200004
0.900734 0.691822 0.207186
0.910973 0.702823 0.214358
0.920779 0.713557 0.221733
0.929309 0.723660 0.230126
0.140383 0.578998 0.092257
0.143423 0.578178 0.092297
0.153094 0.575312 0.092439
0.171859 0.570358 0.092689
0.200438 0.563643 0.093041
0.233735 0.555722 0.093882
0.266249 0.547252 0.094926
0.298310 0.538896 0.096094
0.331309 0.531249 0.097365
0.363548 0.524693 0.098729
0.395506 0.519668 0.100179
0.427393 0.516487 0.101712
0.459074 0.515272 0.103593
0.490682 0.516040 0.105947
0.518469 0.518719 0.108411
0.545143 0.523176 0.110973
0.571817 0.529223 0.113615
0.604540 0.542372 0.117060
0.639884 0.558725 0.122721
0.675391 0.575577 0.129375
0.710821 0.591838 0.136207
0.744797 0.603930 0.143973
0.778246 0.616020 0.151797
0.801959 0.628049 0.159644
0.821730 0.639969 0.167489
0.840862 0.651775 0.175305
0.859358 0.663432 0.183072
0.874474 0.674890 0.190725
0.885763 0.686132 0.197996
0.896586 0.697145 0.205164
0.906961 0.707918 0.212265
0.916909 0.718302 0.219444
0.926446 0.728180 0.227656
0.145305 0.605583 0.093521
0.148024 0.605088 0.093594
0.157113 0.603352 0.093851
0.176412 0.600321 0.094310
0.204214 0.596151 0.094961
0.236854 0.591131 0.095785
0.268887 0.583889 0.096757
0.301433 0.575883 0.097852
0.334790 0.568308 0.099049
0.367555 0.561614 0.100336
0.400011 0.556166 0.101702
0.432247 0.552226 0.103342
0.464065 0.549963 0.105451
0.495496 0.549453 0.107669
0.522363 0.550694 0.109991
0.548602 0.553619 0.112408
0.574866 0.558114 0.114911
0.601459 0.564035 0.117655
0.632386 0.575464 0.122480
0.667006 0.590746 0.128893
0.701680 0.601982 0.135404
0.735396 0.613362 0.142943
0.768345 0.624813 0.150566
0.795623 0.636272 0.158240
0.815308 0.647697 0.165938
0.834407 0.659076 0.173633
0.852915 0.670329 0.181301
0.870271 0.681428 0.188923
0.881642 0.692348 0.196178
0.892561 0.703072 0.203309
0.903043 0.713587 0.210342
0.913106 0.723526 0.217490
0.922764 0.733198 0.225325
0.149970 0.627836 0.095502
0.152416 0.627407 0.095568
0.161406 0.625901 0.095802
0.180960 0.623254 0.096221
0.207961 0.619577 0.096819
0.239822 0.615091 0.097583
0.271231 0.610089 0.098490
0.304040 0.604894 0.099519
0.337599 0.599824 0.100650
0.370771 0.595170 0.101869
0.403678 0.591179 0.103370
0.436262 0.587377 0.105271
0.468353 0.584299 0.107275
0.499376 0.582791 0.109380
0.525929 0.582895 0.111580
0.551874 0.584600 0.113872
0.577841 0.587843 0.116247
0.604093 0.591606 0.119260
0.630568 0.595740 0.123546
0.659923 0.602582 0.128745
0.693828 0.613029 0.135023
0.727191 0.623681 0.142283
0.759576 0.634467 0.149691
0.789783 0.645323 0.157175
0.809447 0.656246 0.164705
0.828451 0.667134 0.172256
0.846910 0.677946 0.179803
0.864819 0.688649 0.187325
0.877724 0.699213 0.194575
0.888706 0.709617 0.201649
0.899265 0.719644 0.208640
0.909416 0.729286 0.215699
0.919171 0.738727 0.223168
0.154395 0.649054 0.097362
0.156876 0.648681 0.097422
0.166217 0.647362 0.097636
0.185489 0.645036 0.098021
0.211716 0.641792 0.098574
0.242686 0.637791 0.099283
0.273354 0.633268 0.100132
0.306237 0.628488 0.101101
0.339846 0.623725 0.102172
0.373294 0.619234 0.103599
0.406569 0.615241 0.105316
0.439488 0.611933 0.107135
0.471888 0.609457 0.109051
0.502467 0.607913 0.111060
0.529036 0.607361 0.113157
0.554824 0.607820 0.115341
0.580607 0.609274 0.117815
0.606613 0.611680 0.121287
0.632774 0.614973 0.125586
0.659163 0.619073 0.130048
0.687146 0.624886 0.134958
0.720103 0.634814 0.141973
0.751897 0.644927 0.149161
0.783496 0.655210 0.156443
0.804163 0.665563 0.163792
0.823021 0.675932 0.171183
0.841381 0.686273 0.178591
0.859232 0.696549 0.185993
0.874044 0.706727 0.193207
0.885057 0.716702 0.200205
0.895664 0.726226 0.207136
0.905876 0.735588 0.214093
0.915704 0.744774 0.221215
0.159233 0.669362 0.099111
0.161625 0.669036 0.099166
0.171823 0.667885 0.099363
0.190004 0.665845 0.099718
0.215556 0.662968 0.100230
0.245476 0.659387 0.100892
0.275312 0.655292 0.101688
0.308113 0.650903 0.102602
0.341631 0.646453 0.104000
0.375221 0.642182 0.105536
0.408762 0.638282 0.107183
0.441968 0.634924 0.108930
0.474671 0.632251 0.110769
0.504966 0.630371 0.112696
0.531566 0.629356 0.114706
0.557355 0.629246 0.116796
0.583050 0.630051 0.119611
0.608903 0.631750 0.123531
0.634832 0.634303 0.127682
0.660955 0.637654 0.131995
0.687269 0.641735 0.136626
0.713998 0.646680 0.141984
0.745229 0.656175 0.148953
0.776291 0.665835 0.156031
0.799448 0.675606 0.163192
0.818124 0.685439 0.170412
0.836344 0.695289 0.177667
0.854095 0.705114 0.184935
0.870624 0.714875 0.192085
0.881640 0.724180 0.198991
0.892268 0.733372 0.205844
0.902516 0.742432 0.212692
0.912393 0.751342 0.219639
0.164013 0.688723 0.100758
0.167023 0.688438 0.100809
0.177304 0.687432 0.100991
0.194803 0.685642 0.101320
0.219376 0.683103 0.101796
0.248211 0.679919 0.102415
0.277146 0.676242 0.103369
0.309735 0.672254 0.104570
0.343038 0.668151 0.105915
0.376643 0.664130 0.107387
0.410342 0.660372 0.108970
0.443765 0.657039 0.110651
0.476735 0.654268 0.112423
0.506871 0.652170 0.114278
0.533553 0.650824 0.116213
0.559405 0.650283 0.118632
0.585099 0.650573 0.121933
0.610866 0.651693 0.125787
0.636642 0.653625 0.129806
0.662569 0.656330 0.133984
0.688640 0.659759 0.138754
0.714823 0.663852 0.143898
0.740093 0.668548 0.149210
0.770002 0.677128 0.155917
0.795275 0.686320 0.162888
0.813744 0.695611 0.169932
0.831795 0.704957 0.177026
0.849415 0.714317 0.184149
0.866591 0.723310 0.191212
0.878470 0.732233 0.198012
0.889094 0.741074 0.204774
0.899356 0.749811 0.211506
0.909260 0.758426 0.218386
0.170242 0.707182 0.102310
0.173040 0.706934 0.102357
0.182649 0.706053 0.102526
0.199541 0.704482 0.102909
0.223168 0.702242 0.103527
0.250902 0.699415 0.104333
0.278884 0.696124 0.105316
0.311158 0.692518 0.106459
0.344139 0.688763 0.107744
0.377641 0.685029 0.109156
0.411389 0.681477 0.110679
0.444952 0.678253 0.112301
0.478125 0.675486 0.114011
0.508203 0.673283 0.115803
0.534994 0.671725 0.117903
0.560943 0.670874 0.120701
0.586687 0.670766 0.124284
0.612432 0.671417 0.128030
0.638125 0.672821 0.131934
0.663920 0.674959 0.136090
0.689810 0.677796 0.140920
0.715742 0.681287 0.145930
0.740789 0.685382 0.151110
0.765890 0.690027 0.156448
0.791600 0.697639 0.162860
0.809853 0.706393 0.169727
0.827718 0.715214 0.176657
0.845183 0.723758 0.183630
0.862236 0.732310 0.190585
0.875553 0.740837 0.197269
0.886154 0.749312 0.203930
0.896408 0.757712 0.210553
0.906320 0.766016 0.217343
0.176242 0.724391 0.104217
0.178851 0.724183 0.104279
0.187850 0.723442 0.104498
0.204202 0.722116 0.104896
0.226924 0.720219 0.105478
0.253552 0.717810 0.106240
0.280547 0.714986 0.107172
0.312423 0.711752 0.108260
0.344990 0.708338 0.109490
0.378286 0.704901 0.110846
0.411980 0.701584 0.112312
0.445598 0.698517 0.113878
0.478888 0.695819 0.115532
0.508997 0.693592 0.117369
0.535903 0.691917 0.119762
0.561964 0.690858 0.123092
0.587787 0.690459 0.126589
0.613555 0.690744 0.130240
0.639219 0.691723 0.134042
0.664940 0.693386 0.138388
0.690705 0.695715 0.143100
0.716448 0.698676 0.147988
0.741314 0.702232 0.153045
0.766219 0.706336 0.158260
0.789394 0.710943 0.163623
0.806410 0.717608 0.169778
0.824081 0.725627 0.176544
0.841378 0.733715 0.183363
0.858291 0.741837 0.190195
0.872888 0.749962 0.196757
0.883448 0.758064 0.203308
0.893678 0.766115 0.209834
0.903580 0.774096 0.216511
0.182018 0.740506 0.106145
0.184456 0.740323 0.106202
0.193153 0.739675 0.106409
0.208774 0.738513 0.106784
0.230632 0.736845 0.107333
0.256162 0.734717 0.108054
0.282223 0.732207 0.108940
0.313562 0.729413 0.109978
0.345638 0.726449 0.111155
0.378636 0.723434 0.112458
0.412182 0.720487 0.113872
0.445774 0.717721 0.115385
0.479122 0.715241 0.116999
0.509296 0.713074 0.119223
0.536307 0.711356 0.122146
0.562477 0.710174 0.125413
0.588390 0.709573 0.128833
0.614210 0.709587 0.132401
0.639885 0.710232 0.136232
0.665577 0.711511 0.140662
0.691267 0.713413 0.145269
0.716880 0.715872 0.150048
0.741609 0.718833 0.154993
0.766357 0.722313 0.160095
0.789369 0.726273 0.165345
0.804837 0.730673 0.170733
0.820848 0.736513 0.176668
0.837972 0.744153 0.183335
0.854734 0.751849 0.190032
0.870464 0.759573 0.196467
0.880972 0.767296 0.202904
0.891165 0.774994 0.209327
0.901044 0.782644 0.215890
0.187571 0.755847 0.107973
0.189865 0.755688 0.108028
0.198441 0.755122 0.108222
0.213327 0.754105 0.108576
0.234252 0.752640 0.109096
0.258706 0.750766 0.109780
0.284091 0.748542 0.110623
0.314597 0.746053 0.111615
0.346121 0.743392 0.112743
0.378741 0.740663 0.113996
0.412054 0.737968 0.115360
0.445540 0.735408 0.116823
0.478886 0.733077 0.118835
0.509146 0.731058 0.121407
0.536244 0.729424 0.124455
0.562506 0.728235 0.127657
0.588505 0.727538 0.131007
0.614392 0.727368 0.134501
0.640103 0.727746 0.138553
0.665797 0.728682 0.142896
0.691451 0.730175 0.147410
0.716990 0.732214 0.152091
0.741623 0.734780 0.156933
0.766250 0.737847 0.161931
0.789190 0.741385 0.167076
0.804596 0.745361 0.172361
0.819616 0.749740 0.177775
0.834929 0.755019 0.183526
0.851537 0.762300 0.190079
0.867794 0.769627 0.196388
0.878717 0.776975 0.202707
0.888862 0.784318 0.209022
0.898707 0.791476 0.215474
0.193158 0.770447 0.109708
0.195475 0.770308 0.109759
0.203565 0.769815 0.109943
0.217840 0.768926 0.110278
0.237701 0.767644 0.110771
0.260996 0.765998 0.111422
0.285903 0.764036 0.112225
0.315547 0.761829 0.113173
0.346466 0.759455 0.114256
0.378642 0.757002 0.115461
0.411647 0.754560 0.116778
0.444954 0.752218 0.118594
0.478238 0.750059 0.120859
0.508593 0.748159 0.123688
0.535750 0.746587 0.126677
0.562081 0.745400 0.129818
0.588152 0.744644 0.133104
0.614106 0.744356 0.136711
0.639865 0.744562 0.140808
0.665581 0.745275 0.145074
0.691230 0.746501 0.149505
0.716743 0.748237 0.154098
0.741313 0.750470 0.158849
0.765854 0.753182 0.163752
0.788823 0.756351 0.168801
0.804216 0.759948 0.173988
0.819162 0.763945 0.179306
0.833942 0.768310 0.184745
0.848667 0.773140 0.190322
0.864788 0.780081 0.196505
0.876668 0.787059 0.202707
0.886759 0.793520 0.208912
0.896562 0.799417 0.215256
0.198691 0.784334 0.111352
0.200874 0.784213 0.111401
0.208517 0.783784 0.111576
0.222231 0.783011 0.111894
0.241072 0.781892 0.112362
0.263237 0.780451 0.112982
0.287575 0.778729 0.113749
0.316422 0.776782 0.114657
0.346698 0.774678 0.115696
0.378373 0.772491 0.116857
0.411002 0.770299 0.118507
0.444065 0.768179 0.120504
0.477206 0.766207 0.123106
0.507681 0.764452 0.125877
0.534866 0.762975 0.128809
0.561235 0.761831 0.131893
0.587357 0.761066 0.135120
0.613368 0.760716 0.138956
0.639178 0.760808 0.142987
0.664925 0.761360 0.147183
0.690586 0.762383 0.151540
0.716113 0.763877 0.156055
0.740650 0.765837 0.160723
0.765135 0.768250 0.165541
0.788241 0.771101 0.170501
0.803673 0.774367 0.175599
0.818562 0.778023 0.180827
0.833282 0.782044 0.186178
0.847837 0.786403 0.191557
0.862231 0.791000 0.196876
0.874810 0.796442 0.202888
0.884843 0.802053 0.208984
0.894599 0.807662 0.215226
0.204004 0.796463 0.112911
0.206065 0.796375 0.112957
0.213377 0.796061 0.113123
0.226491 0.795494 0.113426
0.244357 0.794673 0.113872
0.265422 0.793613 0.114463
0.289164 0.792341 0.115196
0.317229 0.790898 0.116067
0.346833 0.789099 0.117104
0.377961 0.787165 0.118582
0.410157 0.785216 0.120351
0.442916 0.783321 0.122714
0.475843 0.781545 0.125259
0.506451 0.779950 0.127975
0.533632 0.778594 0.130852
0.560006 0.777527 0.133880
0.586150 0.776792 0.137308
0.612203 0.776425 0.141113
0.638056 0.776454 0.145084
0.663833 0.776899 0.149216
0.689517 0.777773 0.153506
0.715090 0.779081 0.157950
0.739614 0.780823 0.162544
0.764066 0.782991 0.167284
