velvia/Velvia50_Modern_Punchy.cube
TITLE "Velvia 50 Modern Punchy"
# Adobe RGB in/out. REPLACES AgX. Velvia 50 Modern Punchy.
LUT_3D_SIZE 9
DOMAIN_MIN 0.0 0.0 0.0
DOMAIN_MAX 1.0 1.0 1.0
0.093920 0.090395 0.084157
0.094116 0.090395 0.084157
0.332070 0.091081 0.084157
0.645324 0.148122 0.084157
0.825165 0.379700 0.084157
0.901849 0.556664 0.084234
0.938289 0.679785 0.084697
0.952318 0.774826 0.086478
0.960838 0.831012 0.090717
0.093920 0.090395 0.084157
0.093920 0.090395 0.084157
0.204476 0.091498 0.084157
0.586012 0.156920 0.084157
0.801835 0.387911 0.084157
0.893483 0.562371 0.084170
0.931175 0.683603 0.084647
0.951162 0.777718 0.086200
0.960250 0.832811 0.090379
0.093920 0.183798 0.084157
0.094127 0.139575 0.084157
0.153782 0.118406 0.084157
0.467404 0.217988 0.084157
0.735529 0.429753 0.084157
0.866302 0.586926 0.084157
0.921456 0.698835 0.084511
0.947492 0.788808 0.085603
0.958331 0.839546 0.089201
0.093920 0.537143 0.084157
0.095540 0.503612 0.084157
0.206950 0.446408 0.084157
0.443809 0.427731 0.084157
0.655349 0.510965 0.084157
0.828001 0.632872 0.084157
0.904529 0.732040 0.084355
0.940826 0.804598 0.085036
0.954274 0.852900 0.087710
0.093920 0.733804 0.084157
0.097799 0.717778 0.084157
0.236019 0.680026 0.084157
0.471797 0.653930 0.084157
0.646534 0.658509 0.084157
0.793440 0.705174 0.084157
0.884627 0.780571 0.084253
0.927408 0.830423 0.084723
0.949853 0.873674 0.086663
0.094088 0.839122 0.084157
0.101761 0.833731 0.084157
0.251305 0.819004 0.084157
0.486515 0.804475 0.084157
0.657592 0.799841 0.084157
0.788244 0.807004 0.084157
0.869565 0.828703 0.084224
0.919499 0.867276 0.084644
0.945953 0.888803 0.086087
0.095601 0.890891 0.084157
0.106498 0.889571 0.084157
0.255099 0.885698 0.084157
0.486712 0.881224 0.084157
0.659888 0.878286 0.084157
0.790080 0.879384 0.084157
0.867448 0.884224 0.084315
0.912068 0.892157 0.084640
0.941899 0.905113 0.085923
0.099331 0.914663 0.084157
0.114005 0.913953 0.084157
0.255746 0.911806 0.084157
0.477172 0.909168 0.084157
0.652886 0.907457 0.084157
0.783483 0.907823 0.084157
0.864711 0.910809 0.084412
0.909748 0.916338 0.084753
0.938599 0.923933 0.086012
0.104495 0.930512 0.084157
0.120893 0.930325 0.084157
0.254546 0.929759 0.084157
0.464437 0.929089 0.084157
0.637972 0.928763 0.084157
0.771026 0.929198 0.084234
0.858925 0.930651 0.084496
0.905753 0.933177 0.084931
0.933593 0.935402 0.086312
0.093920 0.090395 0.084363
0.094224 0.090395 0.084412
0.332029 0.091113 0.084520
0.630735 0.139332 0.084632
0.815032 0.363404 0.085135
0.898107 0.544324 0.086681
0.935136 0.672515 0.089900
0.951685 0.770195 0.095449
0.960527 0.828660 0.104893
0.093920 0.090395 0.084157
0.093920 0.090395 0.084157
0.185677 0.091045 0.084157
0.564535 0.142244 0.084368
0.788058 0.369750 0.084752
0.888312 0.549515 0.086040
0.929414 0.676215 0.089080
0.950531 0.773066 0.094281
0.959941 0.830465 0.103583
0.093920 0.150922 0.084287
0.094015 0.118543 0.084157
0.125551 0.105139 0.084157
0.439469 0.183789 0.084157
0.716334 0.402466 0.084385
0.861012 0.572673 0.084982
0.919690 0.691146 0.087158
0.946869 0.784121 0.091279
0.957923 0.837233 0.099667
0.093920 0.508547 0.084304
0.094704 0.481147 0.084186
0.187785 0.404240 0.084157
0.420404 0.393356 0.084157
0.640280 0.493272 0.084157
0.820119 0.622443 0.084569
0.902065 0.724252 0.085660
0.939867 0.801500 0.089019
0.953873 0.850686 0.095378
0.093920 0.719559 0.084290
0.097249 0.703971 0.084248
0.223812 0.666831 0.084157
0.459989 0.640936 0.084157
0.634684 0.646516 0.084197
0.784638 0.696171 0.084443
0.881791 0.774858 0.085036
0.926422 0.827596 0.087392
0.949503 0.872299 0.091831
0.094074 0.834102 0.084284
0.101149 0.828789 0.084274
0.245790 0.814215 0.084254
0.478632 0.800198 0.084266
0.652314 0.796359 0.084346
0.782063 0.802962 0.084509
0.867583 0.825753 0.084864
0.918752 0.865022 0.086502
0.945680 0.888126 0.090463
0.095463 0.889587 0.084289
0.105929 0.888282 0.084293
0.251896 0.884446 0.084311
0.482253 0.879971 0.084360
0.656107 0.876390 0.084460
0.786503 0.877985 0.084617
0.866097 0.883311 0.085045
0.911357 0.891519 0.086260
0.941602 0.904654 0.089793
0.099130 0.913895 0.084300
0.113497 0.913194 0.084310
0.253904 0.911072 0.084347
0.475183 0.908471 0.084420
0.651393 0.906802 0.084538
0.781559 0.907227 0.084701
0.863973 0.910299 0.085246
0.909315 0.915942 0.086749
0.938425 0.923663 0.089777
0.104356 0.930268 0.084312
0.120484 0.930084 0.084325
0.253548 0.929529 0.084370
0.463408 0.928875 0.084457
0.636950 0.928569 0.084584
0.770748 0.929031 0.084838
0.858588 0.930517 0.085530
0.905574 0.933084 0.087194
0.933357 0.935383 0.090248
0.093920 0.090395 0.291940
0.094224 0.090395 0.296021
0.349586 0.091688 0.310890
0.652859 0.158801 0.286774
0.813341 0.362925 0.242716
0.893670 0.534860 0.235436
0.930207 0.663131 0.241863
0.950568 0.762373 0.255366
0.959881 0.823936 0.273311
0.093920 0.090395 0.293363
0.094225 0.090431 0.278144
0.266815 0.094362 0.199931
0.579240 0.154979 0.189910
0.781551 0.364575 0.196815
0.883190 0.538022 0.208983
0.926860 0.666121 0.224624
0.949387 0.764986 0.243200
0.959289 0.825678 0.264241
0.093920 0.111935 0.140608
0.093920 0.101419 0.109145
0.103471 0.092826 0.086589
0.411360 0.159853 0.099077
0.693161 0.380104 0.123763
0.853746 0.554246 0.148834
0.916000 0.678745 0.179895
0.945647 0.775231 0.208545
0.956979 0.832266 0.236888
0.093920 0.449558 0.160169
0.094125 0.407733 0.133455
0.150021 0.334584 0.102098
0.351100 0.317152 0.091805
0.608823 0.461628 0.098128
0.805026 0.602615 0.116077
0.896491 0.708808 0.136204
0.937702 0.796335 0.169100
0.952924 0.845549 0.202044
0.093920 0.684315 0.153861
0.095874 0.670507 0.139519
0.199131 0.636251 0.119211
0.432629 0.610773 0.102552
0.605983 0.617639 0.097871
0.769515 0.675177 0.103154
0.874947 0.761301 0.120080
0.923977 0.820697 0.138361
0.948605 0.867506 0.171733
0.094034 0.820305 0.137099
0.099472 0.815340 0.132896
0.224222 0.801530 0.123470
0.461863 0.786546 0.111442
0.634894 0.779641 0.104838
0.769961 0.793199 0.104565
0.862272 0.817924 0.111682
0.916002 0.858957 0.126631
0.944922 0.886272 0.150631
0.095055 0.885754 0.125375
0.104572 0.884511 0.124408
0.242113 0.880836 0.119859
0.471470 0.874925 0.113360
0.647377 0.870696 0.109819
0.776250 0.872980 0.109745
0.862155 0.880657 0.113740
0.909304 0.889693 0.123492
0.940730 0.903321 0.138917
0.098511 0.911533 0.115305
0.111942 0.910866 0.114607
0.248346 0.908843 0.112762
0.469205 0.906372 0.110964
0.645491 0.904842 0.110199
0.775780 0.905438 0.111701
0.861732 0.908758 0.116502
0.907987 0.914737 0.124445
0.937890 0.922839 0.135567
0.103909 0.929492 0.105543
0.119183 0.929319 0.105478
0.250394 0.928799 0.105395
0.460167 0.928201 0.105770
0.633744 0.927965 0.107291
0.769875 0.928510 0.110621
0.857531 0.930101 0.116330
0.905007 0.932796 0.124572
0.932606 0.935324 0.135756
0.093920 0.090395 0.757168
0.094224 0.090395 0.757742
0.349586 0.092118 0.759793
0.688233 0.195701 0.763799
0.835353 0.403855 0.720665
0.898532 0.549851 0.670571
0.930348 0.665340 0.635040
0.950129 0.760157 0.617744
0.959450 0.821172 0.608347
0.093920 0.090395 0.757369
0.094305 0.090470 0.757942
0.352872 0.107713 0.759991
0.650339 0.233016 0.732579
0.807064 0.403326 0.675056
0.887405 0.551303 0.635362
0.926808 0.667442 0.617058
0.948897 0.762338 0.607512
0.958842 0.822764 0.601417
0.093920 0.117127 0.610563
0.093981 0.116606 0.575603
0.167384 0.128530 0.487495
0.469022 0.227649 0.485629
0.715016 0.405461 0.519392
0.855064 0.559949 0.547436
0.914852 0.676691 0.563263
0.944976 0.771046 0.572401
0.956265 0.828837 0.577863
0.093920 0.375082 0.543636
0.094019 0.349910 0.492024
0.130317 0.290363 0.354428
0.282486 0.246402 0.211830
0.594066 0.446007 0.323448
0.798039 0.591206 0.406533
0.892326 0.700471 0.464323
0.932802 0.790385 0.499560
0.952095 0.841325 0.524427
0.093920 0.643530 0.548223
0.094529 0.632658 0.518257
0.172888 0.604006 0.435638
0.395308 0.568944 0.338115
0.568294 0.576996 0.282566
0.753325 0.654930 0.319926
0.868468 0.748946 0.380945
0.921613 0.814278 0.431890
0.947683 0.862538 0.469895
0.093982 0.802231 0.523477
0.097613 0.798796 0.507258
0.204467 0.783965 0.460362
0.441937 0.765098 0.394685
0.613067 0.758425 0.344612
0.753914 0.773265 0.320791
0.855978 0.808823 0.341143
0.912478 0.852010 0.384011
0.943625 0.884134 0.424962
0.094478 0.880378 0.481317
0.102769 0.879070 0.472918
0.223420 0.873907 0.446137
0.458150 0.865681 0.405320
0.633450 0.860592 0.370194
0.769162 0.863994 0.349804
0.856831 0.875815 0.346307
0.906638 0.887359 0.361878
0.939590 0.901613 0.396423
0.097777 0.908069 0.429182
0.109685 0.907466 0.424238
0.234849 0.905636 0.408758
0.460795 0.903413 0.387600
0.636967 0.902124 0.368049
0.770689 0.902965 0.355891
0.858574 0.906611 0.354181
0.906099 0.913048 0.363432
0.936030 0.921714 0.382464
0.103225 0.928307 0.371678
0.117210 0.928153 0.369717
0.245661 0.927700 0.363533
0.455329 0.927200 0.355095
0.629011 0.927079 0.347593
0.768589 0.927753 0.344018
0.855975 0.929498 0.348328
0.904170 0.932380 0.359653
0.931518 0.935240 0.378629
0.093920 0.090395 0.915405
0.094224 0.090395 0.915689
0.349586 0.092776 0.916702
0.688233 0.207155 0.918552
0.861540 0.475768 0.914770
0.907523 0.586544 0.883957
0.936809 0.680628 0.855329
0.950682 0.765896 0.831294
0.959451 0.822059 0.814093
0.093920 0.090395 0.915504
0.094305 0.090820 0.915787
0.352872 0.111229 0.916801
0.689635 0.289484 0.918620
0.841314 0.477296 0.897832
0.899450 0.587973 0.872496
0.929710 0.682275 0.843375
0.949406 0.767720 0.823547
0.958824 0.823483 0.808874
0.093920 0.184081 0.905791
0.094528 0.196989 0.898407
0.276420 0.254223 0.879804
0.566250 0.352109 0.851094
0.761679 0.481143 0.829529
0.866368 0.594444 0.816177
0.918342 0.689320 0.806813
0.945310 0.775003 0.799093
0.956140 0.828938 0.789699
0.093920 0.368828 0.800836
0.094025 0.361275 0.782847
0.152132 0.350202 0.741992
0.409886 0.387686 0.699978
0.634255 0.492340 0.708229
0.808978 0.611298 0.732826
0.894574 0.707241 0.750773
0.932583 0.791336 0.756642
0.951785 0.840280 0.758274
0.093920 0.610938 0.774309
0.094182 0.603472 0.761186
0.155631 0.574683 0.720055
0.364410 0.545584 0.643572
0.531130 0.532808 0.574757
0.747801 0.648605 0.630317
0.866173 0.745428 0.680154
0.920519 0.811788 0.706030
0.947135 0.859959 0.722458
0.093926 0.781007 0.764239
0.096436 0.776072 0.759359
0.186996 0.761698 0.735021
0.421944 0.745563 0.688869
0.590496 0.737556 0.636571
0.736982 0.752794 0.611699
0.850599 0.801165 0.629228
0.909621 0.846653 0.664908
0.942440 0.882498 0.687923
0.094221 0.871109 0.754085
0.100991 0.868917 0.748846
0.208754 0.862340 0.728962
0.444229 0.854512 0.699732
0.619064 0.850224 0.669433
0.756321 0.853977 0.640510
0.851203 0.868674 0.629459
0.903945 0.885065 0.640380
0.938466 0.899992 0.664202
0.097217 0.903986 0.721774
0.107123 0.903475 0.718179
0.224253 0.901929 0.706529
0.451328 0.900078 0.689383
0.627536 0.899134 0.670333
0.767998 0.900268 0.650530
0.855041 0.904251 0.640225
0.903977 0.911188 0.640446
0.933805 0.920695 0.650329
0.102384 0.926828 0.682361
0.115694 0.926611 0.680560
0.234149 0.925983 0.674669
0.449574 0.925354 0.662535
0.623460 0.925419 0.649595
0.767092 0.926883 0.639554
0.854176 0.928818 0.634998
0.903206 0.931917 0.637097
0.931166 0.935153 0.645544
0.093920 0.090395 0.948732
0.094224 0.090395 0.948790
0.349586 0.094414 0.949000
0.688233 0.223158 0.949383
0.868118 0.494239 0.949953
0.918303 0.624923 0.941504
0.941421 0.704825 0.932596
0.952035 0.778323 0.925704
0.959870 0.826507 0.914193
0.093920 0.090445 0.948752
0.094305 0.091378 0.948810
0.352872 0.116214 0.949020
0.689635 0.300274 0.949404
0.865428 0.529785 0.948974
0.910624 0.626945 0.938105
0.938395 0.706641 0.931012
0.950747 0.780026 0.922857
0.959231 0.827818 0.910955
0.093920 0.223390 0.948825
0.095867 0.261554 0.948884
0.364705 0.371222 0.949093
0.640688 0.463406 0.941325
0.803806 0.544006 0.933720
0.882712 0.633725 0.928556
0.923108 0.713635 0.920076
0.946573 0.786642 0.909564
0.956644 0.832811 0.900361
0.093920 0.437213 0.927916
0.094152 0.442571 0.925687
0.206120 0.460832 0.917199
0.488363 0.496621 0.904291
0.697045 0.566978 0.896139
0.834116 0.647926 0.892225
0.901846 0.729360 0.889900
0.937791 0.798337 0.887503
0.952121 0.843124 0.884471
0.093920 0.600764 0.895145
0.094152 0.596162 0.890652
0.159025 0.585259 0.876972
0.404922 0.583587 0.847194
0.597115 0.614117 0.829227
0.768848 0.677327 0.834645
0.871239 0.757141 0.846935
0.921451 0.815409 0.856108
0.947184 0.861051 0.860765
0.093920 0.759570 0.885612
0.095521 0.756187 0.882297
0.172863 0.746227 0.868727
0.409121 0.733094 0.839984
0.577866 0.725640 0.810014
0.714320 0.731160 0.778737
0.847512 0.799611 0.807361
0.908737 0.845583 0.823677
0.941938 0.882003 0.834290
0.094152 0.857368 0.878312
0.099354 0.855699 0.876143
0.196206 0.850664 0.864417
0.431678 0.844636 0.845301
0.606588 0.841413 0.824764
0.747300 0.844948 0.807895
0.842117 0.859853 0.800067
0.901659 0.883216 0.807326
0.937268 0.898844 0.817641
0.096621 0.899708 0.861680
0.105320 0.899310 0.859337
0.213780 0.898116 0.851614
0.441826 0.896741 0.839831
0.618274 0.896234 0.826777
0.759673 0.897681 0.815460
0.851535 0.901937 0.808326
0.901819 0.909350 0.806605
0.931370 0.919797 0.810436
0.101582 0.924071 0.837122
0.114599 0.923916 0.835841
0.227039 0.923489 0.831590
0.443422 0.923163 0.825026
0.617622 0.923567 0.817669
0.760750 0.925366 0.811247
0.852326 0.928144 0.807180
0.902222 0.931470 0.806234
0.930823 0.935079 0.808290
0.093920 0.090395 0.962392
0.094224 0.090395 0.962399
0.349586 0.096669 0.962425
0.688233 0.244381 0.962524
0.868118 0.504047 0.962674
0.924927 0.658004 0.961729
0.945304 0.732312 0.956467
0.953774 0.794521 0.949131
0.960562 0.833449 0.942686
0.093920 0.090834 0.962394
0.094305 0.092477 0.962402
0.352872 0.122741 0.962428
0.689635 0.317920 0.962529
0.868429 0.547374 0.962680
0.920085 0.661568 0.961153
0.942803 0.734757 0.954657
0.952507 0.795910 0.947580
0.959923 0.834734 0.941592
0.093920 0.244624 0.962403
0.095867 0.279710 0.962411
0.364705 0.385662 0.962447
0.693749 0.526666 0.962499
0.835836 0.607198 0.960635
0.898812 0.672524 0.954375
0.928699 0.743118 0.948022
0.948368 0.799467 0.942511
0.957607 0.839550 0.937973
0.093920 0.507050 0.957277
0.095097 0.513023 0.956403
0.264477 0.535234 0.953689
0.554874 0.578004 0.949405
0.749502 0.631477 0.944842
0.857607 0.690785 0.940919
0.910282 0.756679 0.937678
0.940613 0.808231 0.934916
0.952993 0.849276 0.932605
0.093920 0.621444 0.939242
0.094225 0.621828 0.938293
0.183535 0.625395 0.935388
0.449724 0.638971 0.932097
0.649396 0.670304 0.930066
0.800143 0.722211 0.928177
0.881831 0.780753 0.927494
0.924246 0.824736 0.927094
0.947837 0.865883 0.926315
0.093920 0.750585 0.931955
0.095183 0.748944 0.931343
0.169817 0.744543 0.928788
0.414020 0.741415 0.921485
0.596515 0.746934 0.910176
0.749957 0.771403 0.903680
0.855639 0.810822 0.906015
0.911037 0.851309 0.910596
0.942395 0.883085 0.913679
0.094098 0.846433 0.929394
0.098021 0.845335 0.928415
0.186357 0.842072 0.925171
0.421648 0.838403 0.918517
0.599260 0.837138 0.907221
0.741869 0.840935 0.896750
0.833053 0.851631 0.888753
0.900900 0.882850 0.896627
0.936506 0.898703 0.901950
0.096050 0.895691 0.924196
0.103918 0.895418 0.923346
0.204324 0.894620 0.920506
0.433310 0.893800 0.914948
0.610310 0.893820 0.907526
0.753138 0.895600 0.900647
0.847229 0.899956 0.895744
0.899755 0.907659 0.894162
0.930719 0.919153 0.896749
0.100795 0.921300 0.913963
0.112675 0.921215 0.913253
0.220020 0.921014 0.910878
0.437337 0.921031 0.907137
0.611958 0.921818 0.902808
0.754823 0.923984 0.898831
0.850806 0.927548 0.896052
0.901308 0.931089 0.895019
0.930532 0.935033 0.895748
0.093920 0.090395 0.969533
0.094224 0.090424 0.969538
0.349586 0.103146 0.969558
0.688233 0.270135 0.969595
0.868118 0.516437 0.969649
0.929925 0.686730 0.969370
0.947595 0.755429 0.965237
0.955493 0.804468 0.962059
0.961340 0.841455 0.960383
0.093920 0.091896 0.969535
0.094305 0.094859 0.969540
0.352872 0.136004 0.969560
0.689635 0.341901 0.969597
0.868429 0.559531 0.969651
0.925513 0.692001 0.968508
0.945919 0.758108 0.964418
0.954269 0.805907 0.961785
0.960711 0.842791 0.959609
0.093920 0.270333 0.969542
0.095867 0.296052 0.969547
0.364705 0.402434 0.969567
0.694654 0.539860 0.969603
0.855969 0.645562 0.968424
0.908487 0.707845 0.964888
0.937888 0.767071 0.962118
0.950247 0.811057 0.960774
0.958617 0.847702 0.956630
0.093920 0.569923 0.967438
0.096855 0.577323 0.967063
0.312877 0.603230 0.965835
0.602512 0.634930 0.963966
0.779127 0.678241 0.962149
0.872937 0.731471 0.961174
0.918543 0.782723 0.958645
0.943814 0.820842 0.955114
0.954139 0.857308 0.951892
0.093920 0.657333 0.960780
0.094965 0.659642 0.960523
0.212637 0.668743 0.959045
0.491709 0.687952 0.956515
0.693443 0.720150 0.953894
0.825175 0.761461 0.951437
0.893573 0.801899 0.949164
0.927912 0.836983 0.947219
0.948875 0.872769 0.945377
0.093920 0.757349 0.951145
0.095384 0.757364 0.950520
0.178776 0.758401 0.948496
0.434216 0.763744 0.945564
0.625875 0.778154 0.942672
0.771692 0.800837 0.940701
0.866369 0.828436 0.939859
0.915600 0.862001 0.939614
0.943669 0.885529 0.939363
0.094078 0.840681 0.945498
0.097603 0.840197 0.944981
0.181388 0.838949 0.943256
0.419839 0.838387 0.940567
0.603046 0.840914 0.937506
0.749990 0.849477 0.934850
0.848542 0.868212 0.933606
0.903688 0.885844 0.934085
0.937913 0.900026 0.934863
0.095592 0.892432 0.941859
0.102752 0.892291 0.941504
0.197480 0.891920 0.940309
0.425844 0.891733 0.938403
0.605099 0.892417 0.936137
0.750507 0.894703 0.933933
0.844665 0.899183 0.932437
0.897671 0.906211 0.931711
0.930479 0.919132 0.932625
0.100051 0.918742 0.937949
0.110874 0.918729 0.937735
0.213598 0.918765 0.937013
0.431668 0.919147 0.935859
0.606942 0.920348 0.934495
0.752558 0.922900 0.933199
0.848588 0.927112 0.932485
0.900558 0.930829 0.932200
0.930332 0.935028 0.932348
0.093920 0.090403 0.972857
0.094224 0.090916 0.972862
0.349586 0.112128 0.972876
0.688233 0.291607 0.972904
0.868118 0.531056 0.972945
0.935335 0.707842 0.972999
0.949276 0.773426 0.970811
0.956903 0.814897 0.968702
0.962037 0.849217 0.965484
0.093920 0.094131 0.972859
0.094305 0.099906 0.972863
0.352872 0.156348 0.972878
0.689635 0.369327 0.972905
0.868429 0.573884 0.972946
0.929063 0.716269 0.972525
0.947719 0.776867 0.970427
0.955737 0.816591 0.968136
0.961426 0.850659 0.965066
0.093920 0.291760 0.972864
0.095867 0.320708 0.972868
0.364705 0.425683 0.972883
0.694654 0.554332 0.972910
0.865449 0.675319 0.972680
0.915485 0.737042 0.970861
0.941368 0.788093 0.969170
0.951882 0.822482 0.966259
0.959382 0.855858 0.963669
0.093920 0.616668 0.972495
0.098326 0.622385 0.972318
0.344195 0.641838 0.971725
0.632327 0.674114 0.970779
0.805483 0.716476 0.969629
0.884977 0.761754 0.967762
0.923371 0.801158 0.965459
0.945953 0.833060 0.963355
0.955286 0.865684 0.961982
0.093920 0.695339 0.967544
0.096106 0.698458 0.967322
0.246289 0.709784 0.966582
0.529494 0.730914 0.965420
0.731004 0.758670 0.964039
0.845904 0.792401 0.962625
0.902479 0.819001 0.961897
0.931518 0.849452 0.961323
0.950003 0.878394 0.960571
0.093920 0.775323 0.962133
0.095998 0.776429 0.962050
0.194157 0.780905 0.961780
0.455387 0.790835 0.961369
0.652540 0.802516 0.960839
0.797930 0.820860 0.959620
0.876228 0.845124 0.958116
0.919788 0.873157 0.956892
0.945035 0.888567 0.955765
0.094075 0.841384 0.960182
0.097580 0.841493 0.959855
0.183180 0.842229 0.958767
0.426469 0.844832 0.957075
0.614405 0.851198 0.955167
0.766917 0.863369 0.953511
0.857201 0.879054 0.952453
0.907741 0.890089 0.951873
0.939050 0.902289 0.951563
0.095327 0.890410 0.956301
0.102004 0.890403 0.956056
0.193347 0.890480 0.955226
0.422056 0.890996 0.953894
0.603982 0.892517 0.952267
0.751765 0.895679 0.950365
0.848030 0.901106 0.948922
0.900856 0.909445 0.948352
0.931047 0.920283 0.948557
0.099403 0.916615 0.953056
0.109323 0.916673 0.952901
0.208221 0.916947 0.952362
0.426177 0.917700 0.951322
0.603051 0.919332 0.950075
0.750483 0.922293 0.948866
0.847201 0.926951 0.947942
0.900161 0.930796 0.947503
0.930258 0.935076 0.947690
