velvia/Velvia50_Modern_ExtraSoft.cube
TITLE "Velvia 50 Modern ExtraSoft"
# Adobe RGB in/out. REPLACES AgX. Velvia 50 Modern ExtraSoft.
LUT_3D_SIZE 9
DOMAIN_MIN 0.0 0.0 0.0
DOMAIN_MAX 1.0 1.0 1.0
0.065698 0.081183 0.086406
0.065733 0.081183 0.086406
0.298862 0.081405 0.086406
0.671689 0.120336 0.086406
0.876760 0.367852 0.086406
0.945471 0.584220 0.086424
0.971937 0.729604 0.086512
0.980939 0.826320 0.086839
0.984661 0.886281 0.087870
0.065698 0.081183 0.086406
0.065698 0.081183 0.086406
0.149516 0.081540 0.086406
0.613412 0.126688 0.086406
0.853088 0.376291 0.086406
0.937395 0.590708 0.086409
0.966071 0.734295 0.086502
0.980489 0.828911 0.086788
0.984338 0.888592 0.087784
0.065698 0.151440 0.086406
0.065735 0.114126 0.086406
0.101159 0.099453 0.086406
0.468512 0.189256 0.086406
0.776448 0.426231 0.086406
0.914686 0.618684 0.086406
0.959827 0.753043 0.086477
0.979058 0.836351 0.086679
0.983281 0.897255 0.087483
0.065698 0.559556 0.086406
0.066264 0.514437 0.086406
0.151617 0.445436 0.086406
0.442024 0.423685 0.086406
0.682389 0.524308 0.086406
0.879636 0.671799 0.086406
0.948575 0.785889 0.086448
0.974461 0.852462 0.086574
0.981699 0.908277 0.087097
0.065698 0.787561 0.086406
0.067148 0.772350 0.086406
0.184539 0.729901 0.086406
0.473463 0.697944 0.086406
0.672795 0.703538 0.086406
0.844563 0.760360 0.086406
0.930012 0.830829 0.086429
0.963654 0.885524 0.086516
0.979979 0.923718 0.086873
0.065728 0.896710 0.086406
0.068678 0.889774 0.086406
0.201286 0.870879 0.086406
0.489460 0.852304 0.086406
0.685198 0.846395 0.086406
0.839283 0.855533 0.086406
0.917420 0.883316 0.086422
0.958567 0.918547 0.086502
0.978457 0.939306 0.086768
0.066288 0.941457 0.086406
0.070660 0.940097 0.086406
0.205324 0.936107 0.086406
0.489670 0.931498 0.086406
0.688076 0.928471 0.086406
0.841148 0.929603 0.086406
0.915646 0.934588 0.086441
0.953772 0.942761 0.086501
0.975530 0.953098 0.086738
0.067743 0.958570 0.086406
0.074353 0.958164 0.086406
0.205995 0.956936 0.086406
0.479527 0.955425 0.086406
0.679307 0.954444 0.086406
0.834444 0.954654 0.086406
0.913352 0.956365 0.086459
0.952272 0.959527 0.086522
0.972245 0.963857 0.086754
0.069719 0.969122 0.086406
0.078399 0.968936 0.086406
0.204751 0.968375 0.086406
0.465173 0.967712 0.086406
0.664966 0.967389 0.086406
0.819077 0.967820 0.086424
0.908497 0.969259 0.086474
0.949685 0.971762 0.086555
0.967621 0.973966 0.086809
0.065698 0.081183 0.086450
0.065752 0.081183 0.086459
0.298811 0.081416 0.086479
0.658340 0.113949 0.086500
0.866483 0.349868 0.086593
0.941243 0.569314 0.086876
0.968799 0.720685 0.087662
0.980692 0.821957 0.089724
0.984490 0.883260 0.094886
0.065698 0.081183 0.086406
0.065698 0.081183 0.086406
0.131025 0.081394 0.086406
0.587458 0.116070 0.086450
0.839094 0.357291 0.086522
0.933085 0.576101 0.086759
0.964941 0.725222 0.087451
0.980243 0.824663 0.089297
0.984167 0.885578 0.094066
0.065698 0.122362 0.086435
0.065715 0.099550 0.086406
0.081685 0.089881 0.086406
0.437170 0.151429 0.086406
0.757868 0.392284 0.086454
0.910249 0.602433 0.086564
0.958690 0.743571 0.086953
0.978815 0.833212 0.088107
0.983115 0.894278 0.091594
0.065698 0.521057 0.086439
0.065934 0.484556 0.086413
0.133219 0.394405 0.086406
0.412300 0.381893 0.086406
0.667078 0.500631 0.086406
0.871644 0.658854 0.086488
0.945721 0.778500 0.086690
0.973507 0.848509 0.087436
0.981543 0.906691 0.089698
0.065698 0.774043 0.086436
0.066934 0.759215 0.086427
0.171242 0.713720 0.086406
0.460170 0.681834 0.086406
0.661957 0.688790 0.086415
0.835618 0.749760 0.086464
0.927644 0.826350 0.086574
0.963020 0.881895 0.087014
0.979842 0.922301 0.088388
0.065725 0.890252 0.086435
0.068444 0.883426 0.086433
0.195197 0.864749 0.086429
0.481086 0.846849 0.086431
0.678591 0.841959 0.086446
0.833002 0.850374 0.086477
0.915759 0.879530 0.086543
0.958085 0.916941 0.086844
0.978350 0.938609 0.087805
0.066234 0.940114 0.086436
0.070377 0.938769 0.086436
0.201942 0.934817 0.086440
0.484931 0.930207 0.086449
0.683339 0.926517 0.086468
0.837514 0.928160 0.086497
0.914514 0.933648 0.086576
0.953312 0.942104 0.086799
0.975234 0.952835 0.087634
0.067665 0.958131 0.086438
0.074105 0.957730 0.086440
0.204087 0.956516 0.086447
0.477282 0.955025 0.086460
0.677439 0.954068 0.086482
0.832489 0.954312 0.086512
0.912734 0.956073 0.086613
0.951991 0.959301 0.086889
0.972072 0.963703 0.087630
0.069666 0.968880 0.086440
0.078097 0.968698 0.086442
0.203718 0.968147 0.086451
0.464014 0.967500 0.086467
0.664031 0.967197 0.086491
0.818682 0.967654 0.086538
0.908215 0.969127 0.086666
0.949569 0.971670 0.086963
0.967469 0.973947 0.087750
0.065698 0.081183 0.263314
0.065752 0.081183 0.267591
0.321116 0.081619 0.283336
0.679273 0.128041 0.257913
0.864767 0.349310 0.210523
0.937550 0.556462 0.203085
0.965450 0.709192 0.209615
0.980257 0.814580 0.224082
0.984134 0.877199 0.243794
0.065698 0.081183 0.264804
0.065752 0.081195 0.248940
0.217544 0.083189 0.165982
0.605212 0.125290 0.153857
0.832481 0.351236 0.161935
0.928813 0.560749 0.176635
0.963302 0.712851 0.192220
0.979797 0.817045 0.211039
0.983809 0.879434 0.233761
0.065698 0.095029 0.116674
0.065698 0.087506 0.096840
0.069331 0.082372 0.086860
0.400416 0.128797 0.091219
0.729147 0.368267 0.103723
0.904147 0.581473 0.121309
0.956311 0.728328 0.144138
0.978337 0.826702 0.176196
0.982749 0.887892 0.204550
0.065698 0.448836 0.127768
0.065734 0.398683 0.111165
0.098105 0.316630 0.093132
0.323061 0.296909 0.088379
0.638218 0.461881 0.090671
0.856327 0.634796 0.099859
0.939899 0.763820 0.113649
0.971353 0.841928 0.135045
0.981174 0.903004 0.168746
0.065698 0.735169 0.124102
0.066395 0.718223 0.116054
0.144638 0.676001 0.101447
0.428503 0.644412 0.093418
0.635604 0.652904 0.090598
0.816933 0.723950 0.093797
0.921924 0.813568 0.101884
0.961449 0.873047 0.115393
0.979492 0.918711 0.137143
0.065718 0.872545 0.114458
0.067798 0.866188 0.110660
0.171685 0.848548 0.103578
0.462276 0.834837 0.097861
0.662149 0.830204 0.094852
0.817566 0.839286 0.094681
0.911307 0.869495 0.097967
0.956312 0.912611 0.105140
0.978054 0.936699 0.122311
0.066073 0.936165 0.104522
0.069748 0.934884 0.104043
0.191167 0.931098 0.101773
0.473094 0.925007 0.098706
0.673565 0.920982 0.097141
0.826497 0.923003 0.097108
0.911208 0.930914 0.098852
0.951985 0.940223 0.103589
0.974366 0.952069 0.115710
0.067425 0.956780 0.099465
0.073345 0.956398 0.099154
0.198013 0.955239 0.098443
0.470541 0.953821 0.097649
0.671842 0.952943 0.097310
0.825829 0.953285 0.097975
0.910853 0.955190 0.100075
0.951132 0.958612 0.104062
0.971540 0.963234 0.113073
0.069497 0.968111 0.095217
0.077138 0.967939 0.095188
0.200278 0.967425 0.095150
0.460369 0.966832 0.095320
0.661097 0.966598 0.096008
0.817443 0.967138 0.097497
0.907327 0.968714 0.099988
0.949129 0.971385 0.104124
0.966988 0.973888 0.113243
0.065698 0.081183 0.805359
0.065752 0.081183 0.805937
0.321116 0.081919 0.808002
0.723061 0.165595 0.812037
0.887088 0.393945 0.768537
0.941631 0.576482 0.705969
0.965541 0.711895 0.672379
0.980086 0.812489 0.655875
0.983897 0.873657 0.646890
0.065698 0.081183 0.805561
0.065776 0.081208 0.806139
0.325346 0.091835 0.808202
0.676269 0.204315 0.780565
0.858397 0.393311 0.710413
0.932329 0.578131 0.672686
0.963268 0.714468 0.655220
0.979606 0.814547 0.646091
0.983563 0.875696 0.640255
0.065698 0.098548 0.649010
0.065709 0.098180 0.608803
0.112489 0.105420 0.497283
0.470335 0.198917 0.494867
0.756230 0.395865 0.538618
0.905254 0.587954 0.572821
0.955570 0.725807 0.593612
0.978075 0.822759 0.604857
0.982472 0.883488 0.611591
0.065698 0.363110 0.568168
0.065716 0.334176 0.503156
0.084376 0.266800 0.332108
0.235586 0.218110 0.179489
0.623182 0.445003 0.296772
0.849234 0.623570 0.396484
0.936431 0.755061 0.466347
0.967113 0.837405 0.512962
0.980852 0.899546 0.544737
0.065698 0.685066 0.573785
0.065865 0.671533 0.537241
0.117970 0.636060 0.431089
0.380049 0.598187 0.312909
0.591990 0.607359 0.253525
0.794057 0.699165 0.292994
0.916501 0.801896 0.364584
0.959928 0.864830 0.426678
0.979133 0.915169 0.473896
0.065709 0.849442 0.543582
0.067076 0.845062 0.523021
0.149509 0.833107 0.460998
0.439929 0.817151 0.381638
0.642122 0.810854 0.320134
0.794887 0.824850 0.293922
0.906022 0.857856 0.316273
0.954037 0.907639 0.368373
0.977246 0.934497 0.418542
0.065845 0.930626 0.489294
0.069063 0.929279 0.478005
0.170820 0.923958 0.443458
0.458104 0.917411 0.394959
0.660827 0.913780 0.351334
0.816433 0.916208 0.326178
0.906739 0.925924 0.322024
0.950258 0.937819 0.341163
0.973231 0.951087 0.383809
0.067140 0.954795 0.423495
0.072235 0.954449 0.417692
0.183259 0.953399 0.399286
0.461076 0.952122 0.372822
0.664047 0.951381 0.348704
0.818598 0.951864 0.333882
0.908202 0.953959 0.331809
0.949910 0.957647 0.343059
0.969688 0.962593 0.366459
0.069237 0.966936 0.353156
0.075912 0.966785 0.350748
0.195056 0.966335 0.343182
0.454936 0.965840 0.332917
0.656760 0.965720 0.323458
0.815620 0.966388 0.319473
0.906019 0.968116 0.324279
0.948159 0.970972 0.338452
0.966291 0.973806 0.361719
0.065698 0.081183 0.954652
0.065752 0.081183 0.954808
0.321116 0.082345 0.955367
0.723061 0.178555 0.956387
0.910692 0.477327 0.954302
0.950832 0.618248 0.925973
0.970464 0.730639 0.904871
0.980302 0.817904 0.879580
0.983898 0.874793 0.860782
0.065698 0.081183 0.954707
0.065776 0.081321 0.954863
0.325346 0.094496 0.955422
0.724791 0.265803 0.956424
0.893129 0.479466 0.939873
0.942693 0.619880 0.915278
0.965131 0.732663 0.892791
0.979805 0.819624 0.871112
0.983553 0.876618 0.855080
0.065698 0.151789 0.947841
0.065865 0.167254 0.940448
0.228251 0.226271 0.921810
0.589525 0.336726 0.901234
0.805842 0.484552 0.877650
0.914742 0.627269 0.863058
0.957821 0.741325 0.852829
0.978206 0.826487 0.844399
0.982424 0.883617 0.836670
0.065698 0.356211 0.846302
0.065717 0.347385 0.831206
0.099733 0.334515 0.790061
0.398487 0.376060 0.742776
0.661564 0.499392 0.753550
0.860339 0.645061 0.780814
0.938303 0.762328 0.798914
0.966973 0.838041 0.804828
0.980731 0.898200 0.806472
0.065698 0.644616 0.822616
0.065744 0.635537 0.809405
0.102839 0.604723 0.767920
0.340480 0.571030 0.680503
0.542048 0.553685 0.607761
0.788188 0.691397 0.667877
0.914578 0.798569 0.717012
0.959224 0.861645 0.750675
0.978919 0.913327 0.770347
0.065699 0.831122 0.812480
0.066616 0.827494 0.807565
0.132396 0.813943 0.783029
0.414332 0.798697 0.728318
0.618848 0.791116 0.673837
0.777840 0.805534 0.650097
0.901635 0.848082 0.666838
0.952189 0.903797 0.700744
0.976068 0.932810 0.727088
0.065751 0.921277 0.802252
0.068383 0.919716 0.796972
0.153358 0.915028 0.776914
0.442494 0.909432 0.742455
0.647634 0.906359 0.704919
0.798279 0.909049 0.677589
0.902008 0.919544 0.667059
0.947898 0.935456 0.677466
0.972113 0.950154 0.700093
0.066921 0.952451 0.769656
0.070969 0.952157 0.766025
0.171719 0.951268 0.751328
0.450446 0.950203 0.728985
0.655408 0.949660 0.705750
0.814783 0.950312 0.687121
0.905235 0.952603 0.677317
0.947936 0.956582 0.677528
0.967756 0.962013 0.686930
0.068916 0.965502 0.719872
0.075176 0.965379 0.717537
0.182490 0.965022 0.709912
0.448480 0.964665 0.698522
0.651669 0.964702 0.686232
0.813500 0.965534 0.676679
0.904508 0.967443 0.672339
0.947042 0.970514 0.674339
0.966065 0.973720 0.682379
0.065698 0.081183 0.981362
0.065752 0.081183 0.981390
0.321116 0.083217 0.981490
0.723061 0.194415 0.981675
0.916208 0.501918 0.981948
0.957796 0.661929 0.976841
0.975054 0.760028 0.965963
0.980829 0.829318 0.960319
0.984128 0.880497 0.953983
0.065698 0.081200 0.981371
0.065776 0.081501 0.981399
0.325346 0.097902 0.981500
0.724791 0.277841 0.981684
0.913954 0.549599 0.981478
0.952839 0.664437 0.972688
0.972043 0.761757 0.964031
0.980327 0.830463 0.958756
0.983777 0.882180 0.952194
0.065698 0.194647 0.981407
0.066392 0.234286 0.981435
0.340870 0.359017 0.981535
0.667452 0.463805 0.976622
0.855089 0.568882 0.967335
0.928413 0.672860 0.961883
0.960890 0.768413 0.957226
0.978699 0.834901 0.951424
0.982620 0.888592 0.942405
0.065698 0.435523 0.961533
0.065739 0.441298 0.960310
0.150912 0.461020 0.955641
0.491425 0.505093 0.946340
0.733950 0.595950 0.938176
0.885835 0.690549 0.934257
0.945468 0.783347 0.931927
0.971442 0.844478 0.929526
0.980862 0.901261 0.926488
0.065698 0.633194 0.937181
0.065739 0.629210 0.932681
0.105595 0.616781 0.918972
0.392115 0.614875 0.896968
0.626887 0.648546 0.877320
0.815987 0.726586 0.883244
0.918822 0.809641 0.896685
0.959824 0.866276 0.905345
0.978938 0.914108 0.908176
0.065698 0.811934 0.927631
0.066257 0.808740 0.924309
0.117945 0.799325 0.913001
0.397487 0.786888 0.889081
0.603549 0.779818 0.856325
0.755366 0.785055 0.827072
0.899407 0.846102 0.853428
0.951618 0.903028 0.871254
0.975568 0.932300 0.882855
0.065739 0.911476 0.920315
0.067752 0.910281 0.918141
0.141937 0.906675 0.910391
0.427238 0.902348 0.894897
0.636161 0.899659 0.872442
0.787710 0.902572 0.854010
0.893942 0.913252 0.845462
0.945251 0.933550 0.853389
0.970921 0.949492 0.864658
0.066688 0.949990 0.908731
0.070031 0.949761 0.907308
0.159409 0.948899 0.901804
0.439805 0.947483 0.888914
0.646908 0.946960 0.874642
0.803008 0.948450 0.862274
0.902288 0.951273 0.854481
0.945437 0.955529 0.852601
0.966196 0.961501 0.856787
0.068609 0.963935 0.885952
0.074643 0.963847 0.884551
0.174731 0.963604 0.879903
0.441590 0.963418 0.872728
0.646309 0.963648 0.864689
0.804529 0.964671 0.857672
0.902952 0.966776 0.853230
0.945903 0.970071 0.852196
0.965845 0.973647 0.854443
0.065698 0.081183 0.987900
0.065752 0.081183 0.987903
0.321116 0.084703 0.987916
0.723061 0.216003 0.987963
0.916208 0.515020 0.988035
0.962060 0.702922 0.987584
0.978203 0.786146 0.985070
0.981505 0.840168 0.981554
0.984509 0.889413 0.978285
0.065698 0.081326 0.987901
0.065776 0.082170 0.987905
0.325346 0.102507 0.987917
0.724791 0.297782 0.987965
0.916468 0.573470 0.988037
0.958944 0.707279 0.987309
0.976428 0.788464 0.984204
0.981012 0.841387 0.980808
0.984158 0.891064 0.976948
0.065698 0.216256 0.987906
0.066392 0.254630 0.987909
0.340870 0.373979 0.987926
0.729874 0.545391 0.987951
0.887578 0.639997 0.987062
0.941956 0.720696 0.984069
0.964483 0.796383 0.981021
0.979400 0.845918 0.978071
0.982993 0.897260 0.972527
0.065698 0.519047 0.985458
0.066089 0.527071 0.985039
0.215093 0.556969 0.983740
0.575835 0.608508 0.981685
0.789815 0.670065 0.979491
0.907391 0.743127 0.976125
0.952617 0.809205 0.972167
0.974250 0.857100 0.968794
0.981201 0.905680 0.965974
0.065698 0.657616 0.974077
0.065752 0.658092 0.972918
0.128808 0.662514 0.969371
0.448648 0.679387 0.965355
0.675409 0.717974 0.962878
0.851371 0.776562 0.961676
0.927677 0.830951 0.961301
0.961622 0.878226 0.961082
0.979192 0.917555 0.960655
0.065698 0.803446 0.965182
0.066124 0.801895 0.964435
0.114902 0.797731 0.962011
0.403901 0.794771 0.958001
0.626158 0.799994 0.951763
0.790250 0.823095 0.945727
0.905738 0.860411 0.948065
0.953105 0.907137 0.951995
0.976023 0.933415 0.953699
0.065729 0.903639 0.962343
0.067235 0.902850 0.961807
0.131731 0.900504 0.960027
0.413941 0.895783 0.956368
0.629409 0.894157 0.949272
0.782516 0.899044 0.938789
0.884758 0.907368 0.930778
0.944373 0.933173 0.938665
0.970162 0.949411 0.943996
0.066464 0.946401 0.959491
0.069500 0.946119 0.959024
0.149388 0.945297 0.957462
0.429411 0.944454 0.954400
0.639587 0.944474 0.949577
0.793794 0.946307 0.942691
0.899121 0.950133 0.937781
0.943047 0.954560 0.936197
0.965778 0.961133 0.938787
0.068308 0.962358 0.953856
0.073704 0.962309 0.953464
0.167044 0.962195 0.952151
0.434788 0.962204 0.949189
0.641102 0.962653 0.944855
0.796167 0.963885 0.940872
0.901752 0.966184 0.938089
0.944845 0.969694 0.937055
0.965659 0.973601 0.937785
0.065698 0.081183 0.990370
0.065752 0.081193 0.990371
0.321116 0.088424 0.990375
0.723061 0.243835 0.990383
0.916208 0.531642 0.990395
0.965269 0.738139 0.990334
0.979098 0.808024 0.989256
0.982173 0.852295 0.987741
0.984937 0.899713 0.986941
0.065698 0.081764 0.990370
0.065776 0.083453 0.990372
0.325346 0.111167 0.990376
0.724791 0.324957 0.990384
0.916468 0.587479 0.990396
0.962436 0.744625 0.990147
0.978444 0.810554 0.988866
0.981697 0.854132 0.987611
0.984591 0.901022 0.986572
0.065698 0.244056 0.990372
0.066392 0.273107 0.990373
0.340870 0.392246 0.990377
0.730992 0.563244 0.990385
0.906015 0.687600 0.990129
0.951456 0.762904 0.989089
0.971538 0.819012 0.987769
0.980132 0.860710 0.987128
0.983439 0.904550 0.985148
0.065698 0.599302 0.989914
0.066780 0.607731 0.989832
0.273654 0.635327 0.989540
0.632407 0.674359 0.988650
0.830016 0.727709 0.987784
0.920243 0.785350 0.987319
0.957951 0.832273 0.986112
0.977435 0.873233 0.984423
0.981647 0.911433 0.982879
0.065698 0.702101 0.987131
0.066037 0.704923 0.987008
0.158024 0.716061 0.986302
0.494982 0.739641 0.985093
0.729496 0.774604 0.983838
0.876771 0.813720 0.982660
0.937470 0.849018 0.981569
0.963977 0.893957 0.980635
0.979598 0.922785 0.979748
0.065698 0.809838 0.982520
0.066203 0.809852 0.982220
0.123926 0.810831 0.981248
0.430619 0.815874 0.979838
0.653885 0.829204 0.978268
0.820021 0.847665 0.975859
0.914742 0.882973 0.974830
0.956052 0.914786 0.974531
0.977291 0.935933 0.974225
0.065726 0.898716 0.979807
0.067072 0.898093 0.979557
0.126598 0.896487 0.978727
0.411555 0.895764 0.975695
0.632899 0.899016 0.971956
0.790281 0.905824 0.968714
0.900450 0.919215 0.967195
0.947601 0.936258 0.967780
0.971562 0.950173 0.968729
0.066285 0.943045 0.977274
0.069057 0.942899 0.976841
0.143112 0.942517 0.975381
0.419490 0.942324 0.973052
0.634789 0.943028 0.970284
0.790775 0.945384 0.967595
0.896524 0.949688 0.965769
0.940881 0.953729 0.964884
0.965625 0.961122 0.965999
0.068021 0.960899 0.972498
0.072820 0.960891 0.972236
0.159188 0.960913 0.971354
0.427224 0.961130 0.969946
0.636487 0.961815 0.968280
0.792978 0.963268 0.966699
0.900497 0.965752 0.965828
0.943976 0.969436 0.965480
0.965531 0.973596 0.965660
0.065698 0.081186 0.991092
0.065752 0.081352 0.991093
0.321116 0.095174 0.991096
0.723061 0.268177 0.991102
0.916208 0.551315 0.991111
0.968996 0.762901 0.991123
0.979754 0.825002 0.990648
0.982720 0.865622 0.990189
0.985320 0.905638 0.989373
0.065698 0.083067 0.991093
0.065776 0.086697 0.991093
0.325346 0.126276 0.991097
0.724791 0.356795 0.991103
0.916468 0.603812 0.991111
0.964716 0.770917 0.991020
0.979147 0.828242 0.990564
0.982267 0.867790 0.990066
0.984984 0.906671 0.989174
0.065698 0.268347 0.991094
0.066392 0.300939 0.991095
0.340870 0.421110 0.991098
0.730992 0.581570 0.991104
0.913971 0.724123 0.991054
0.955978 0.790630 0.990659
0.975001 0.835872 0.990291
0.980769 0.875336 0.989657
0.983860 0.910395 0.988509
0.065698 0.651701 0.991014
0.067353 0.658782 0.990975
0.314218 0.682957 0.990846
0.659798 0.722645 0.990641
0.856792 0.771114 0.990391
0.930304 0.813996 0.989984
0.961059 0.848074 0.989361
0.978457 0.888913 0.988359
0.982092 0.917413 0.987704
0.065698 0.748735 0.989937
0.066486 0.752578 0.989888
0.195746 0.764748 0.989727
0.539725 0.784821 0.989343
0.772115 0.811085 0.988685
0.897778 0.838753 0.988011
0.946201 0.870875 0.987664
0.966291 0.905806 0.987390
0.980037 0.928582 0.987032
0.065698 0.826788 0.987776
0.066444 0.827830 0.987737
0.139920 0.831054 0.987608
0.455001 0.837706 0.987412
0.678873 0.849806 0.987159
0.849123 0.873256 0.986577
0.922996 0.902699 0.985859
0.958753 0.923185 0.985274
0.978098 0.939063 0.984734
0.065726 0.899622 0.986846
0.067063 0.899762 0.986690
0.128441 0.900617 0.986170
0.420319 0.902489 0.985361
0.643352 0.907058 0.984448
0.813251 0.915762 0.983655
0.907050 0.929262 0.983148
0.950973 0.940630 0.982870
0.972694 0.951476 0.982721
0.066180 0.940961 0.984991
0.068771 0.940954 0.984873
0.139061 0.941033 0.984476
0.414480 0.941565 0.983839
0.633761 0.943132 0.983059
0.791977 0.946388 0.982146
0.899932 0.950795 0.981453
0.944322 0.955584 0.981179
0.965988 0.961778 0.981277
0.067771 0.959685 0.983437
0.072057 0.959718 0.983363
0.152722 0.959875 0.983104
0.419932 0.960305 0.982605
0.632903 0.961236 0.982007
0.790752 0.962923 0.981426
0.899093 0.965593 0.980982
0.943517 0.969403 0.980771
0.965483 0.973643 0.980861
