velvia/Velvia50_Modern_IlfochromeP.cube
TITLE "Velvia 50 Modern IlfochromeP"
# Adobe RGB in/out. REPLACES AgX. Velvia 50 Modern IlfochromeP.
LUT_3D_SIZE 5
DOMAIN_MIN 0.0 0.0 0.0
DOMAIN_MAX 1.0 1.0 1.0
0.139782 0.101046 0.099244
0.394935 0.232814 0.114790
0.715021 0.426489 0.156274
0.869016 0.605721 0.209083
0.923881 0.715500 0.261178
0.154051 0.348805 0.106589
0.306535 0.305982 0.111734
0.627402 0.447376 0.144530
0.845094 0.619092 0.197042
0.914495 0.721359 0.253292
0.183603 0.643438 0.118884
0.350228 0.605891 0.125456
0.569806 0.590694 0.143219
0.785915 0.681823 0.180455
0.892358 0.745265 0.237156
0.220989 0.769574 0.135645
0.358211 0.761177 0.140915
0.579844 0.749818 0.157400
0.761233 0.758801 0.184224
0.874673 0.792790 0.230056
0.250761 0.831527 0.149204
0.357907 0.829705 0.153811
0.564176 0.827301 0.167693
0.749101 0.831863 0.196096
0.865388 0.846494 0.234412
0.139782 0.112789 0.402023
0.403492 0.240414 0.408654
0.702026 0.419061 0.383412
0.861891 0.593967 0.383079
0.920289 0.710632 0.394832
0.149899 0.296511 0.334818
0.248171 0.252000 0.236562
0.600287 0.426672 0.317630
0.833398 0.604989 0.355831
0.910898 0.716361 0.381115
0.178051 0.608907 0.342298
0.331578 0.573400 0.312631
0.542969 0.558524 0.282777
0.771970 0.665566 0.313515
0.889136 0.740474 0.351711
0.217629 0.761268 0.320758
0.351362 0.753354 0.313291
0.570358 0.742647 0.301947
0.753690 0.753067 0.306973
0.872839 0.789847 0.333826
0.249279 0.829060 0.296677
0.355613 0.827389 0.296492
0.561389 0.825377 0.298845
0.747124 0.830531 0.309672
0.864877 0.846028 0.331261
0.139782 0.133359 0.762140
0.403492 0.251577 0.764038
0.752815 0.467574 0.761210
0.867672 0.606314 0.681406
0.918680 0.709339 0.640987
0.153239 0.348958 0.748129
0.369632 0.375726 0.707249
0.650017 0.471497 0.657414
0.837397 0.612423 0.633277
0.908702 0.714074 0.617677
0.170337 0.553155 0.607109
0.307816 0.530898 0.564883
0.500152 0.506236 0.494138
0.759414 0.652028 0.542236
0.885353 0.735327 0.566235
0.210342 0.742928 0.585666
0.336939 0.736952 0.569889
0.551675 0.728674 0.536875
0.737918 0.741270 0.520456
0.869292 0.784393 0.534725
0.245424 0.822718 0.543498
0.349763 0.821553 0.539093
0.554590 0.820777 0.528676
0.742373 0.827434 0.522568
0.863654 0.845011 0.526987
0.139782 0.165041 0.897664
0.403492 0.270459 0.897974
0.762191 0.488501 0.899081
0.880652 0.642404 0.865326
0.922843 0.717175 0.828873
0.154051 0.372421 0.897773
0.410679 0.429172 0.898082
0.724259 0.550155 0.878694
0.859121 0.650057 0.842766
0.912543 0.721362 0.816730
0.170723 0.561569 0.819988
0.322947 0.564729 0.810119
0.571683 0.599037 0.792048
0.781877 0.681949 0.785563
0.887158 0.739368 0.782915
0.203951 0.726080 0.789841
0.324369 0.723091 0.780351
0.538826 0.719707 0.750205
0.721850 0.729637 0.722486
0.867440 0.782286 0.742562
0.240703 0.815112 0.760030
0.342751 0.814720 0.755527
0.546951 0.815824 0.743804
0.737310 0.824373 0.734049
0.862489 0.844297 0.733611
0.139782 0.206242 0.949287
0.403492 0.296836 0.949389
0.762191 0.505165 0.949755
0.890869 0.675904 0.938330
0.928394 0.727986 0.911487
0.154051 0.392196 0.949323
0.410679 0.446116 0.949425
0.758381 0.602575 0.948333
0.873840 0.686151 0.928321
0.918421 0.732527 0.903457
0.176934 0.616643 0.920672
0.353322 0.626741 0.916372
0.623310 0.663323 0.905092
0.811041 0.707232 0.892993
0.892748 0.749926 0.878296
0.202004 0.722620 0.876164
0.322767 0.723199 0.872026
0.548580 0.729341 0.861555
0.746657 0.750805 0.853721
0.870206 0.788155 0.851628
0.236691 0.808686 0.855457
0.336659 0.809141 0.853498
0.541011 0.812410 0.848151
0.734098 0.822937 0.842556
0.861985 0.844552 0.841896
