velvia/Velvia50_Modern_ExtraPunchy.cube
TITLE "Velvia 50 Modern ExtraPunchy"
# Adobe RGB in/out. REPLACES AgX. Velvia 50 Modern ExtraPunchy.
LUT_3D_SIZE 33
DOMAIN_MIN 0.0 0.0 0.0
DOMAIN_MAX 1.0 1.0 1.0
0.078962 0.074438 0.068230
0.078962 0.074438 0.068230
0.078962 0.074438 0.068230
0.078962 0.074438 0.068230
0.079141 0.074438 0.068230
0.087230 0.074438 0.068230
0.127387 0.074438 0.068230
0.216090 0.074455 0.068230
0.323063 0.075051 0.068230
0.432747 0.077729 0.068230
0.510173 0.086543 0.068230
0.585009 0.102826 0.068230
0.646417 0.134231 0.068230
0.709996 0.188199 0.068230
0.754226 0.257281 0.068230
0.796612 0.313062 0.068230
0.832157 0.378991 0.068230
0.855868 0.437129 0.068230
0.874964 0.480468 0.068230
0.892326 0.518433 0.068230
0.904717 0.560976 0.068298
0.916496 0.596284 0.068402
0.926053 0.626140 0.068505
0.931842 0.655689 0.068606
0.940430 0.684910 0.068706
0.945928 0.713784 0.068954
0.949702 0.742292 0.069221
0.952769 0.767122 0.069728
0.955435 0.784955 0.070399
0.957400 0.796246 0.071365
0.959276 0.808289 0.072133
0.961068 0.822102 0.073246
0.962781 0.835504 0.074536
0.078962 0.074438 0.068230
0.078962 0.074438 0.068230
0.078962 0.074438 0.068230
0.078962 0.074438 0.068230
0.079070 0.074438 0.068230
0.085218 0.074438 0.068230
0.118872 0.074438 0.068230
0.205510 0.074455 0.068230
0.313825 0.075054 0.068230
0.426199 0.077753 0.068230
0.505167 0.086622 0.068230
0.580431 0.102939 0.068230
0.643835 0.134557 0.068230
0.706594 0.188643 0.068230
0.752870 0.257712 0.068230
0.794387 0.313563 0.068230
0.830831 0.379327 0.068230
0.855140 0.437684 0.068230
0.874313 0.480690 0.068230
0.891905 0.518718 0.068230
0.904338 0.561259 0.068295
0.916154 0.596483 0.068400
0.925844 0.626336 0.068502
0.931721 0.655884 0.068604
0.940286 0.685103 0.068704
0.945797 0.713975 0.068949
0.949629 0.742482 0.069211
0.952702 0.767273 0.069719
0.955392 0.785032 0.070381
0.957360 0.796322 0.071349
0.959239 0.808386 0.072115
0.961034 0.822197 0.073229
0.962750 0.835596 0.074510
0.078962 0.074438 0.068230
0.078962 0.074438 0.068230
0.078962 0.074438 0.068230
0.078962 0.074438 0.068230
0.078962 0.074438 0.068230
0.081087 0.074438 0.068230
0.100125 0.074438 0.068230
0.174668 0.074456 0.068230
0.278661 0.075073 0.068230
0.403199 0.077862 0.068230
0.488429 0.087027 0.068230
0.564917 0.103376 0.068230
0.634949 0.135797 0.068230
0.694845 0.190310 0.068230
0.748133 0.259310 0.068230
0.786607 0.315411 0.068230
0.826171 0.380558 0.068230
0.852941 0.439712 0.068230
0.872007 0.481499 0.068230
0.890410 0.519750 0.068230
0.902990 0.562287 0.068285
0.914939 0.597202 0.068391
0.925101 0.627048 0.068494
0.931288 0.656588 0.068596
0.939582 0.685801 0.068696
0.945331 0.714666 0.068931
0.949368 0.743166 0.069176
0.952464 0.767820 0.069686
0.955238 0.785313 0.070319
0.957219 0.796595 0.071291
0.959109 0.808732 0.072049
0.960915 0.822536 0.073168
0.962640 0.835928 0.074415
0.078962 0.074438 0.068230
0.078962 0.074438 0.068230
0.078962 0.074438 0.068230
0.078962 0.074438 0.068230
0.078962 0.074438 0.068230
0.079165 0.074438 0.068230
0.088481 0.074438 0.068230
0.133712 0.074462 0.068230
0.238750 0.075136 0.068230
0.351539 0.078144 0.068230
0.458785 0.087989 0.068230
0.539758 0.104727 0.068230
0.617357 0.138366 0.068230
0.675000 0.193667 0.068230
0.739942 0.262512 0.068230
0.773805 0.319001 0.068230
0.817996 0.382918 0.068230
0.847971 0.443581 0.068230
0.867910 0.483028 0.068230
0.886749 0.521694 0.068230
0.900578 0.564221 0.068267
0.912757 0.598550 0.068374
0.923762 0.628380 0.068478
0.930508 0.657904 0.068582
0.937055 0.687101 0.068682
0.944487 0.715952 0.068898
0.948894 0.744439 0.069147
0.952031 0.768835 0.069626
0.954958 0.785833 0.070206
0.956962 0.797099 0.071187
0.958873 0.809374 0.071929
0.960697 0.823163 0.073056
0.962438 0.836542 0.074243
0.078962 0.074438 0.068230
0.078962 0.074438 0.068230
0.078962 0.074438 0.068230
0.078962 0.074438 0.068230
0.078962 0.074438 0.068230
0.079046 0.074438 0.068230
0.082901 0.074438 0.068230
0.108147 0.074482 0.068230
0.190813 0.075425 0.068230
0.305241 0.078745 0.068230
0.424783 0.089873 0.068230
0.508810 0.107293 0.068230
0.588667 0.142902 0.068230
0.651502 0.199393 0.068230
0.720972 0.267922 0.068230
0.768213 0.324830 0.068230
0.806658 0.386676 0.068230
0.840989 0.448234 0.068230
0.862109 0.485411 0.068230
0.881462 0.524709 0.068230
0.897125 0.567219 0.068241
0.909620 0.600628 0.068351
0.921484 0.630423 0.068455
0.929377 0.659916 0.068561
0.934023 0.689085 0.068662
0.943259 0.717910 0.068851
0.948204 0.746372 0.069104
0.951398 0.770375 0.069540
0.954436 0.786619 0.070069
0.956586 0.797862 0.071034
0.958526 0.810344 0.071754
0.960376 0.824110 0.072892
0.962142 0.837467 0.073994
0.078962 0.074494 0.068230
0.078962 0.074490 0.068230
0.078962 0.074476 0.068230
0.078962 0.074450 0.068230
0.078962 0.074438 0.068230
0.079106 0.074438 0.068230
0.081365 0.074438 0.068230
0.097436 0.074650 0.068230
0.156327 0.076154 0.068230
0.258567 0.079940 0.068230
0.376457 0.093102 0.068230
0.474326 0.112138 0.068230
0.555637 0.150341 0.068230
0.631065 0.208472 0.068230
0.692177 0.275166 0.068230
0.748207 0.333573 0.068230
0.788828 0.392175 0.068230
0.828860 0.452486 0.068230
0.854845 0.488808 0.068230
0.874787 0.528982 0.068230
0.892734 0.571466 0.068230
0.905610 0.603549 0.068322
0.917813 0.633282 0.068428
0.927180 0.662720 0.068535
0.932688 0.691840 0.068638
0.941662 0.720620 0.068790
0.947263 0.749040 0.069048
0.950570 0.772494 0.069428
0.953674 0.787698 0.069934
0.956091 0.798907 0.070835
0.958070 0.811671 0.071623
0.959954 0.825403 0.072679
0.961751 0.838729 0.073793
0.078962 0.079050 0.068230
0.078962 0.079220 0.068230
0.078962 0.078425 0.068230
0.078962 0.076840 0.068230
0.079005 0.075701 0.068230
0.079265 0.075146 0.068230
0.082632 0.075104 0.068230
0.092215 0.075407 0.068230
0.133687 0.077622 0.068230
0.225418 0.084213 0.068230
0.332264 0.097967 0.068230
0.442558 0.120374 0.068230
0.523529 0.162306 0.068230
0.603090 0.222253 0.068230
0.661984 0.283989 0.068230
0.734314 0.346107 0.068230
0.771588 0.399842 0.068230
0.814293 0.458316 0.068230
0.846257 0.493410 0.068230
0.867018 0.534773 0.068230
0.886513 0.577188 0.068230
0.900861 0.607448 0.068288
0.913438 0.637076 0.068397
0.924454 0.666423 0.068504
0.931078 0.695462 0.068609
0.939455 0.724170 0.068717
0.945480 0.752526 0.068980
0.949560 0.775252 0.069292
0.952742 0.789098 0.069811
0.955485 0.800260 0.070594
0.957508 0.813386 0.071580
0.959434 0.827073 0.072418
0.961268 0.840357 0.073549
0.078962 0.102339 0.068230
0.078962 0.102853 0.068230
0.078962 0.102001 0.068230
0.078962 0.094864 0.068230
0.079083 0.087502 0.068230
0.080497 0.082847 0.068230
0.085714 0.080615 0.068230
0.098266 0.080566 0.068230
0.124611 0.082360 0.068230
0.199424 0.092149 0.068230
0.301392 0.105933 0.068230
0.413022 0.133923 0.068230
0.494841 0.181215 0.068230
0.571654 0.242493 0.068230
0.640067 0.296291 0.068230
0.704198 0.363507 0.068230
0.753282 0.410166 0.068230
0.797801 0.466038 0.068230
0.834761 0.500908 0.068230
0.858505 0.542385 0.068230
0.878560 0.582791 0.068230
0.895544 0.612478 0.068250
0.908504 0.641941 0.068362
0.920784 0.671147 0.068469
0.929229 0.700062 0.068577
0.934022 0.728661 0.068681
0.943420 0.756217 0.068903
0.948389 0.778715 0.069159
0.951657 0.790847 0.069667
0.954759 0.801947 0.070315
0.956851 0.815521 0.071318
0.958823 0.829149 0.072115
0.960700 0.842377 0.073264
0.078962 0.172284 0.068230
0.078962 0.173888 0.068230
0.078962 0.166480 0.068230
0.078962 0.144904 0.068230
0.079151 0.125849 0.068230
0.081808 0.112728 0.068230
0.089264 0.104960 0.068230
0.104418 0.102229 0.068230
0.138605 0.102521 0.068230
0.192004 0.105910 0.068230
0.273028 0.123232 0.068230
0.380090 0.157602 0.068230
0.468168 0.207904 0.068230
0.544043 0.268133 0.068230
0.618793 0.318014 0.068230
0.675538 0.378377 0.068230
0.740232 0.430778 0.068230
0.774333 0.476002 0.068230
0.819591 0.511009 0.068230
0.849702 0.552150 0.068230
0.870152 0.589412 0.068230
0.889682 0.618811 0.068230
0.903174 0.648032 0.068325
0.915797 0.677028 0.068433
0.926082 0.705762 0.068542
0.932140 0.734203 0.068647
0.941134 0.760585 0.068819
0.946902 0.781584 0.069080
0.950441 0.792977 0.069507
0.953627 0.804161 0.070047
0.956109 0.818112 0.071027
0.958132 0.831662 0.071777
0.960055 0.844819 0.072944
0.078962 0.288352 0.068230
0.078962 0.286293 0.068230
0.078962 0.275071 0.068230
0.078962 0.252163 0.068230
0.079231 0.220827 0.068230
0.083009 0.193291 0.068230
0.093141 0.172581 0.068230
0.112873 0.159003 0.068230
0.154299 0.154053 0.068230
0.207593 0.155877 0.068230
0.269132 0.164939 0.068230
0.352580 0.193593 0.068230
0.447757 0.245416 0.068230
0.520935 0.291807 0.068230
0.594135 0.348640 0.068230
0.651891 0.396564 0.068230
0.718767 0.452521 0.068230
0.763328 0.486567 0.068230
0.804711 0.523796 0.068230
0.839946 0.564424 0.068230
0.861601 0.597632 0.068230
0.881522 0.626629 0.068230
0.897620 0.655508 0.068287
0.910555 0.684212 0.068397
0.922742 0.712694 0.068506
0.930128 0.740914 0.068613
0.936582 0.765848 0.068730
0.944601 0.784242 0.068997
0.949119 0.795520 0.069336
0.952391 0.807351 0.069861
0.955295 0.821194 0.070714
0.957371 0.834645 0.071611
0.959344 0.847712 0.072598
0.078962 0.390027 0.068230
0.078962 0.387085 0.068230
0.078962 0.377197 0.068230
0.078974 0.358922 0.068230
0.079433 0.328477 0.068230
0.084590 0.299050 0.068230
0.097310 0.280579 0.068230
0.122052 0.264606 0.068230
0.169583 0.252367 0.068230
0.227116 0.247354 0.068230
0.289859 0.251221 0.068230
0.351875 0.261937 0.068230
0.432065 0.283720 0.068230
0.502274 0.328599 0.068230
0.571769 0.379244 0.068230
0.636187 0.423949 0.068230
0.694087 0.469323 0.068230
0.747375 0.500992 0.068230
0.785508 0.539651 0.068230
0.826133 0.579234 0.068230
0.853480 0.607650 0.068230
0.873389 0.636113 0.068230
0.892007 0.664537 0.068250
0.905205 0.692849 0.068362
0.917747 0.720993 0.068469
0.927365 0.748919 0.068578
0.932949 0.772092 0.068683
0.942178 0.787375 0.068911
0.947719 0.798511 0.069169
0.951077 0.811096 0.069695
0.954262 0.824804 0.070386
0.956555 0.838132 0.071401
0.958578 0.851087 0.072232
0.078962 0.475896 0.068230
0.078962 0.473767 0.068230
0.078962 0.466498 0.068230
0.079015 0.454519 0.068230
0.079965 0.431543 0.068230
0.085873 0.403630 0.068230
0.099841 0.384401 0.068230
0.131479 0.368312 0.068230
0.182569 0.350970 0.068230
0.241994 0.339865 0.068230
0.303597 0.336871 0.068230
0.365846 0.341641 0.068230
0.433882 0.353741 0.068230
0.487377 0.373720 0.068230
0.553703 0.408831 0.068230
0.621302 0.457601 0.068230
0.672863 0.487468 0.068230
0.737110 0.521357 0.068230
0.771722 0.558925 0.068230
0.813028 0.592026 0.068230
0.844824 0.619649 0.068230
0.865508 0.647433 0.068230
0.885006 0.675274 0.068230
0.899888 0.703085 0.068328
0.912643 0.730794 0.068435
0.924066 0.757366 0.068544
0.930935 0.779403 0.068648
0.939341 0.791019 0.068824
0.945581 0.801981 0.069087
0.949708 0.815437 0.069525
0.952970 0.828979 0.070075
0.955698 0.842157 0.071081
0.957770 0.854977 0.071855
0.078962 0.539662 0.068230
0.078962 0.537599 0.068230
0.078962 0.530499 0.068230
0.079054 0.518598 0.068230
0.080441 0.503207 0.068230
0.087025 0.488008 0.068230
0.102995 0.474436 0.068230
0.139677 0.460035 0.068230
0.193319 0.448309 0.068230
0.253503 0.432680 0.068230
0.316530 0.423470 0.068230
0.385305 0.422190 0.068230
0.442577 0.428579 0.068230
0.491748 0.442279 0.068230
0.539542 0.455032 0.068230
0.606431 0.482298 0.068230
0.655703 0.511184 0.068230
0.719451 0.545634 0.068230
0.758396 0.580870 0.068230
0.801113 0.607104 0.068230
0.835261 0.633774 0.068230
0.858060 0.660735 0.068230
0.877655 0.687863 0.068230
0.894723 0.715054 0.068297
0.907635 0.742223 0.068404
0.919955 0.766217 0.068512
0.928738 0.784147 0.068617
0.933770 0.795206 0.068740
0.943188 0.806726 0.069006
0.948311 0.820412 0.069356
0.951645 0.833754 0.069881
0.954813 0.846753 0.070759
0.956933 0.859410 0.071618
0.078962 0.600489 0.068230
0.078962 0.599183 0.068230
0.078962 0.594646 0.068230
0.079091 0.586898 0.068230
0.080959 0.575794 0.068230
0.088383 0.558971 0.068230
0.106806 0.541688 0.068230
0.146911 0.525424 0.068230
0.202471 0.511364 0.068230
0.263596 0.500364 0.068230
0.328389 0.493306 0.068230
0.401231 0.490567 0.068230
0.451202 0.490863 0.068230
0.499406 0.494098 0.068230
0.546005 0.501715 0.068230
0.594848 0.512696 0.068230
0.645619 0.541117 0.068230
0.702636 0.573970 0.068230
0.749092 0.599550 0.068230
0.785346 0.624549 0.068230
0.824241 0.650128 0.068230
0.851416 0.676130 0.068230
0.870764 0.702416 0.068230
0.889626 0.728870 0.068268
0.902820 0.754980 0.068376
0.915259 0.776365 0.068481
0.925661 0.789181 0.068587
0.931867 0.799964 0.068691
0.940804 0.812631 0.068928
0.946622 0.826055 0.069192
0.950308 0.839163 0.069725
0.953539 0.851950 0.070443
0.956081 0.863547 0.071458
0.078962 0.649203 0.068230
0.078962 0.648044 0.068230
0.078962 0.644001 0.068230
0.079128 0.637024 0.068230
0.081488 0.627592 0.068230
0.089675 0.616501 0.068230
0.108816 0.604689 0.068230
0.153075 0.593083 0.068230
0.210235 0.582500 0.068230
0.272268 0.571540 0.068230
0.338881 0.561995 0.068230
0.410580 0.555988 0.068230
0.459325 0.553701 0.068230
0.506896 0.555145 0.068230
0.553081 0.560200 0.068230
0.601296 0.568652 0.068230
0.640270 0.579704 0.068230
0.688750 0.597905 0.068230
0.742095 0.620700 0.068230
0.773334 0.644374 0.068230
0.814469 0.668755 0.068230
0.844599 0.693684 0.068230
0.864430 0.719014 0.068230
0.883255 0.744620 0.068244
0.898272 0.767098 0.068352
0.910779 0.784152 0.068454
0.922693 0.794845 0.068561
0.930015 0.805881 0.068662
0.936016 0.819276 0.068855
0.944369 0.832397 0.069113
0.948980 0.845233 0.069573
0.952267 0.857775 0.070139
0.955224 0.867406 0.071162
0.078962 0.697123 0.068230
0.078962 0.696092 0.068230
0.078985 0.692483 0.068230
0.079191 0.686201 0.068230
0.082002 0.677601 0.068230
0.090884 0.667311 0.068230
0.111430 0.656111 0.068230
0.158321 0.644806 0.068230
0.216702 0.634140 0.068230
0.281506 0.624747 0.068230
0.347834 0.617122 0.068230
0.418742 0.611620 0.068230
0.466636 0.608465 0.068230
0.513872 0.607754 0.068230
0.559907 0.609484 0.068230
0.607644 0.613565 0.068230
0.643866 0.619846 0.068230
0.683433 0.628140 0.068230
0.736206 0.644216 0.068230
0.769765 0.666525 0.068230
0.805946 0.689640 0.068230
0.838060 0.713411 0.068230
0.858705 0.737694 0.068230
0.877419 0.760612 0.068230
0.894049 0.780400 0.068331
0.906572 0.790855 0.068432
0.918599 0.801152 0.068537
0.927681 0.813671 0.068638
0.933032 0.826682 0.068788
0.942179 0.839459 0.069047
0.947678 0.851986 0.069432
0.951013 0.863433 0.069950
0.954190 0.871683 0.070880
0.078962 0.744163 0.068230
0.078962 0.743245 0.068230
0.079035 0.740019 0.068230
0.079253 0.734366 0.068230
0.082507 0.726544 0.068230
0.092077 0.717054 0.068230
0.114223 0.706537 0.068230
0.162794 0.695689 0.068230
0.222947 0.685174 0.068230
0.291980 0.675585 0.068230
0.355218 0.667409 0.068230
0.425602 0.661023 0.068230
0.472945 0.656689 0.068230
0.520082 0.654565 0.068230
0.566187 0.654712 0.068230
0.612879 0.657113 0.068230
0.647378 0.661680 0.068230
0.687978 0.668282 0.068230
0.734150 0.676755 0.068230
0.759675 0.690884 0.068230
0.797498 0.712711 0.068230
0.830149 0.735277 0.068230
0.853773 0.757452 0.068230
0.872150 0.776522 0.068230
0.890143 0.788258 0.068314
0.902679 0.798232 0.068415
0.914708 0.809523 0.068516
0.925072 0.822274 0.068617
0.931384 0.834861 0.068729
0.940076 0.847256 0.068988
0.945825 0.859439 0.069303
0.949793 0.868350 0.069820
0.953011 0.876386 0.070618
0.078962 0.781650 0.068230
0.078982 0.781306 0.068230
0.079083 0.780092 0.068230
0.079587 0.776016 0.068230
0.083324 0.770303 0.068230
0.093689 0.763275 0.068230
0.116792 0.755354 0.068230
0.166633 0.745564 0.068230
0.231538 0.735371 0.068230
0.296559 0.725817 0.068230
0.361101 0.717370 0.068230
0.430990 0.710407 0.068230
0.478168 0.705213 0.068230
0.525370 0.701984 0.068230
0.571700 0.700831 0.068230
0.617612 0.701790 0.068230
0.650642 0.704831 0.068230
0.692336 0.709876 0.068230
0.736511 0.716805 0.068230
0.757777 0.725476 0.068230
0.788080 0.737848 0.068230
0.823304 0.758060 0.068230
0.849159 0.775823 0.068230
0.867451 0.787308 0.068230
0.885284 0.796796 0.068302
0.899120 0.807123 0.068401
0.911116 0.819444 0.068500
0.922638 0.831687 0.068599
0.929833 0.843814 0.068698
0.934963 0.855792 0.068935
0.943868 0.865739 0.069188
0.948620 0.873717 0.069706
0.951870 0.881518 0.070380
0.079010 0.800268 0.068230
0.079037 0.799971 0.068230
0.079128 0.798919 0.068230
0.080141 0.797054 0.068230
0.084274 0.794421 0.068230
0.095267 0.791140 0.068230
0.119195 0.787383 0.068230
0.169957 0.783350 0.068230
0.234482 0.778506 0.068230
0.300094 0.770989 0.068230
0.365601 0.764137 0.068230
0.434546 0.758252 0.068230
0.482620 0.753578 0.068230
0.529662 0.749609 0.068230
0.576308 0.747427 0.068230
0.621681 0.747192 0.068230
0.653526 0.748920 0.068230
0.696302 0.752579 0.068230
0.738129 0.757165 0.068230
0.762261 0.763034 0.068230
0.788253 0.770202 0.068230
0.817426 0.778904 0.068230
0.844877 0.788193 0.068230
0.863302 0.797044 0.068230
0.880943 0.806735 0.068293
0.895902 0.818451 0.068390
0.907835 0.830186 0.068487
0.919362 0.841892 0.068585
0.927913 0.853529 0.068682
0.933031 0.863992 0.068891
0.942019 0.871832 0.069137
0.947503 0.879531 0.069604
0.950778 0.885275 0.070168
0.079064 0.822363 0.068230
0.079089 0.822024 0.068230
0.079203 0.820825 0.068230
0.080707 0.818692 0.068230
0.085214 0.815667 0.068230
0.096822 0.811873 0.068230
0.121474 0.807492 0.068230
0.172870 0.802909 0.068230
0.236818 0.799162 0.068230
0.302730 0.795484 0.068230
0.369753 0.792042 0.068230
0.437130 0.788986 0.068230
0.486409 0.786443 0.068230
0.532942 0.784515 0.068230
0.579939 0.783278 0.068230
0.624983 0.782780 0.068230
0.655932 0.783046 0.068230
0.699710 0.784077 0.068230
0.739552 0.785852 0.068230
0.766313 0.788336 0.068230
0.790184 0.791480 0.068230
0.818198 0.795230 0.068230
0.841567 0.799524 0.068230
0.859665 0.808547 0.068230
0.877097 0.819500 0.068289
0.893018 0.830570 0.068384
0.904866 0.841705 0.068478
0.916332 0.852857 0.068575
0.925842 0.863248 0.068669
0.931698 0.870861 0.068856
0.940288 0.878379 0.069099
0.945874 0.884478 0.069518
0.949741 0.888950 0.070033
0.079115 0.844356 0.068230
0.079144 0.844060 0.068230
0.079275 0.843011 0.068230
0.081364 0.841138 0.068230
0.086140 0.838470 0.068230
0.098359 0.835102 0.068230
0.123886 0.831180 0.068230
0.175453 0.826884 0.068230
0.238655 0.822411 0.068230
0.304588 0.817962 0.068230
0.372866 0.813729 0.068230
0.438837 0.809888 0.068230
0.488831 0.806591 0.068230
0.535240 0.803966 0.068230
0.582576 0.802426 0.068230
0.627451 0.801650 0.068230
0.658138 0.801551 0.068230
0.702432 0.802145 0.068230
0.740715 0.803427 0.068230
0.768444 0.805964 0.068230
0.791832 0.809344 0.068230
0.819088 0.813503 0.068230
0.842016 0.818383 0.068230
0.857280 0.823917 0.068230
0.873709 0.832986 0.068289
0.890450 0.843416 0.068381
0.902199 0.853949 0.068473
0.913587 0.863631 0.068568
0.923948 0.870927 0.068660
0.930470 0.878178 0.068829
0.936598 0.884218 0.069069
0.944272 0.888581 0.069448
0.948767 0.892866 0.069936
0.079189 0.864172 0.068230
0.079224 0.863994 0.068230
0.079879 0.863361 0.068230
0.082001 0.862227 0.068230
0.087157 0.860150 0.068230
0.099569 0.857166 0.068230
0.126428 0.853666 0.068230
0.177462 0.849800 0.068230
0.240081 0.845733 0.068230
0.305791 0.841639 0.068230
0.374631 0.837686 0.068230
0.439769 0.834032 0.068230
0.489923 0.830818 0.068230
0.536612 0.828164 0.068230
0.584243 0.826168 0.068230
0.628653 0.824907 0.068230
0.660009 0.824431 0.068230
0.704386 0.824771 0.068230
0.741574 0.825937 0.068230
0.768881 0.827919 0.068230
0.793094 0.830693 0.068230
0.819771 0.834222 0.068230
0.842355 0.838458 0.068230
0.857471 0.843348 0.068230
0.871847 0.848836 0.068299
0.887351 0.856915 0.068382
0.899815 0.865228 0.068472
0.911114 0.872123 0.068564
0.922072 0.879026 0.068655
0.929345 0.884557 0.068810
0.933790 0.888762 0.069047
0.942787 0.892918 0.069393
0.947857 0.897012 0.069877
0.079267 0.877896 0.068230
0.079458 0.877742 0.068230
0.080496 0.877191 0.068230
0.082616 0.876204 0.068230
0.088513 0.874786 0.068230
0.100116 0.872977 0.068230
0.128910 0.870839 0.068230
0.179300 0.868459 0.068230
0.241170 0.865930 0.068230
0.306445 0.863354 0.068230
0.375236 0.860483 0.068230
0.440022 0.857056 0.068230
0.490258 0.853982 0.068230
0.537129 0.851375 0.068230
0.584985 0.849329 0.068230
0.629258 0.847920 0.068230
0.661036 0.847205 0.068230
0.705528 0.847221 0.068230
0.742096 0.847990 0.068230
0.769154 0.849513 0.068230
0.793886 0.851779 0.068230
0.820189 0.854764 0.068230
0.842545 0.858434 0.068230
0.857551 0.862396 0.068251
0.871827 0.865779 0.068323
0.885904 0.869532 0.068395
0.897693 0.874504 0.068473
0.908896 0.880991 0.068564
0.919775 0.885539 0.068652
0.927808 0.889543 0.068799
0.932751 0.893525 0.069032
0.941418 0.897471 0.069355
0.946790 0.901371 0.069834
0.079845 0.887614 0.068230
0.080125 0.887532 0.068230
0.081213 0.887238 0.068230
0.083723 0.886710 0.068230
0.089876 0.885950 0.068230
0.102155 0.884975 0.068230
0.131341 0.883817 0.068230
0.181000 0.882322 0.068230
0.241983 0.880346 0.068230
0.306642 0.878030 0.068230
0.374852 0.875741 0.068230
0.439685 0.873564 0.068230
0.489921 0.871580 0.068230
0.536869 0.869860 0.068230
0.584868 0.868467 0.068230
0.629292 0.867453 0.068230
0.661233 0.866859 0.068230
0.705844 0.866714 0.068230
0.742267 0.867036 0.068230
0.769248 0.867835 0.068230
0.794146 0.869108 0.068230
0.820295 0.870845 0.068230
0.842554 0.873030 0.068230
0.857488 0.875638 0.068276
0.871687 0.878643 0.068346
0.885682 0.881888 0.068416
0.896883 0.884441 0.068489
0.906912 0.887185 0.068567
0.917707 0.890952 0.068653
0.926364 0.894722 0.068796
0.931802 0.898483 0.069025
0.940161 0.902222 0.069332
0.945522 0.905927 0.069805
0.080497 0.895143 0.068230
0.080801 0.895072 0.068230
0.081914 0.894818 0.068230
0.084837 0.894362 0.068230
0.091212 0.893704 0.068230
0.104177 0.892857 0.068230
0.133554 0.891847 0.068230
0.182568 0.890709 0.068230
0.242567 0.889482 0.068230
0.306458 0.888213 0.068230
0.373634 0.886947 0.068230
0.438841 0.885730 0.068230
0.488993 0.884607 0.068230
0.535913 0.883617 0.068230
0.583962 0.882658 0.068230
0.628791 0.881912 0.068230
0.660632 0.881407 0.068230
0.705346 0.881164 0.068230
0.742081 0.881338 0.068230
0.769156 0.881834 0.068230
0.793833 0.882604 0.068230
0.820056 0.883658 0.068230
0.842354 0.884821 0.068233
0.857259 0.886232 0.068301
0.871401 0.887876 0.068369
0.885332 0.889737 0.068437
0.896585 0.891800 0.068510
0.906268 0.894046 0.068583
0.915848 0.896523 0.068656
0.925058 0.900067 0.068801
0.930940 0.903613 0.069025
0.937501 0.907147 0.069323
0.944356 0.910660 0.069790
0.081247 0.902230 0.068230
0.081547 0.902169 0.068230
0.082582 0.901951 0.068230
0.085912 0.901558 0.068230
0.092780 0.900989 0.068230
0.106827 0.900256 0.068230
0.135957 0.899378 0.068230
0.184021 0.898385 0.068230
0.242958 0.897309 0.068230
0.305954 0.896190 0.068230
0.371715 0.895067 0.068230
0.437561 0.893979 0.068230
0.487277 0.892965 0.068230
0.534338 0.892061 0.068230
0.582343 0.891300 0.068230
0.627795 0.890710 0.068230
0.659278 0.890315 0.068230
0.704062 0.890134 0.068230
0.741542 0.890182 0.068230
0.768875 0.890467 0.068230
0.792927 0.890995 0.068230
0.819447 0.891765 0.068230
0.841926 0.892774 0.068259
0.856841 0.894015 0.068325
0.870946 0.895478 0.068392
0.884832 0.897150 0.068458
0.896190 0.899018 0.068530
0.905837 0.901066 0.068602
0.915309 0.903280 0.068674
0.923946 0.905643 0.068814
0.930156 0.908889 0.069032
0.934645 0.912226 0.069329
0.943288 0.915550 0.069787
0.081974 0.908902 0.068230
0.082253 0.908850 0.068230
0.083736 0.908662 0.068230
0.087031 0.908325 0.068230
0.094633 0.907835 0.068230
0.108434 0.907203 0.068230
0.138402 0.906444 0.068230
0.185371 0.905582 0.068230
0.243186 0.904646 0.068230
0.305184 0.903666 0.068230
0.369208 0.902678 0.068230
0.435908 0.901716 0.068230
0.484771 0.900812 0.068230
0.532217 0.900000 0.068230
0.580083 0.899309 0.068230
0.625951 0.898765 0.068230
0.657223 0.898390 0.068230
0.702033 0.898202 0.068230
0.740661 0.898217 0.068230
0.768407 0.898444 0.068230
0.791420 0.898890 0.068230
0.818457 0.899558 0.068230
0.841257 0.900445 0.068285
0.856220 0.901548 0.068349
