velvia/Velvia50_Classic_IlfochromeM.cube
TITLE "Velvia 50 Classic IlfochromeM"
# Adobe RGB in/out. REPLACES AgX. Velvia 50 Classic IlfochromeM.
LUT_3D_SIZE 9
DOMAIN_MIN 0.0 0.0 0.0
DOMAIN_MAX 1.0 1.0 1.0
0.220287 0.179957 0.174424
0.220855 0.179957 0.174424
0.237652 0.183240 0.174424
0.338089 0.199330 0.174424
0.502477 0.239819 0.175372
0.637601 0.318534 0.177171
0.747185 0.415237 0.180384
0.815996 0.508407 0.185235
0.857235 0.598596 0.192467
0.220287 0.180519 0.174424
0.220972 0.181675 0.174424
0.237898 0.187844 0.174424
0.338749 0.206593 0.174424
0.503022 0.253310 0.175418
0.637929 0.332208 0.177216
0.747389 0.428081 0.180478
0.816069 0.518124 0.185305
0.857291 0.606904 0.192565
0.220287 0.199349 0.174424
0.221359 0.202224 0.174424
0.238766 0.215143 0.174424
0.341111 0.247212 0.174424
0.504979 0.306500 0.175577
0.639106 0.381547 0.177376
0.748121 0.467753 0.180817
0.816329 0.551074 0.185554
0.857495 0.634834 0.192914
0.220287 0.276016 0.174424
0.221967 0.282374 0.174424
0.241636 0.304330 0.174424
0.345427 0.342298 0.174449
0.508565 0.397833 0.175847
0.641264 0.463967 0.177656
0.749466 0.533924 0.181421
0.816807 0.607764 0.186002
0.857870 0.673765 0.193546
0.220654 0.415403 0.174424
0.222701 0.420912 0.174424
0.245704 0.438211 0.174424
0.352094 0.467853 0.175019
0.513898 0.509886 0.176312
0.644476 0.560198 0.178046
0.751470 0.619079 0.182283
0.817520 0.672571 0.186914
0.858429 0.723648 0.194716
0.221715 0.553519 0.174424
0.223899 0.557155 0.174424
0.250866 0.570063 0.174713
0.361018 0.593217 0.175643
0.521047 0.626556 0.176994
0.648788 0.660459 0.178999
0.754164 0.699413 0.183377
0.818478 0.735742 0.188514
0.859182 0.767492 0.196482
0.222969 0.676925 0.174929
0.226360 0.679226 0.175079
0.260103 0.687407 0.175561
0.372217 0.702128 0.176424
0.529375 0.721047 0.177738
0.654224 0.741249 0.180650
0.756836 0.763081 0.184665
0.819688 0.785214 0.190445
0.860135 0.807792 0.198642
0.225576 0.762204 0.175872
0.231820 0.763336 0.175980
0.272281 0.767366 0.176522
0.387265 0.774628 0.177423
0.537745 0.784787 0.178949
0.660795 0.797297 0.182492
0.760009 0.812366 0.186108
0.821155 0.829659 0.192630
0.861291 0.847656 0.201165
0.231378 0.819760 0.177090
0.238371 0.820595 0.177221
0.287325 0.823576 0.177664
0.404850 0.828973 0.178569
0.547491 0.836845 0.181311
0.667404 0.846499 0.184428
0.763732 0.855052 0.188862
0.822880 0.864946 0.195414
0.862655 0.875258 0.205296
0.220287 0.179957 0.176279
0.220855 0.179957 0.176435
0.237652 0.183279 0.176956
0.338089 0.199430 0.177783
0.502477 0.240009 0.179812
0.637601 0.318717 0.183199
0.747185 0.415428 0.186957
0.815996 0.508545 0.193463
0.857235 0.598710 0.202607
0.220287 0.180541 0.176334
0.220972 0.181727 0.176489
0.237898 0.187910 0.177003
0.338749 0.206733 0.177823
0.503022 0.253490 0.179909
0.637929 0.332413 0.183279
0.747389 0.428250 0.187079
0.816069 0.518254 0.193558
0.857291 0.607017 0.202778
0.220287 0.199448 0.176527
0.221359 0.202317 0.176675
0.238766 0.215268 0.177170
0.341111 0.247396 0.177963
0.504979 0.306699 0.180251
0.639106 0.381745 0.183562
0.748121 0.467900 0.187515
0.816329 0.551196 0.193896
0.857495 0.634918 0.203387
0.220287 0.276230 0.176862
0.221967 0.282585 0.177000
0.241636 0.304529 0.177463
0.345427 0.342501 0.178211
0.508565 0.398028 0.180872
0.641264 0.464114 0.184070
0.749466 0.534050 0.188302
0.816807 0.607877 0.194774
0.857870 0.673842 0.204496
0.220654 0.415594 0.177321
0.222701 0.421082 0.177446
0.245704 0.438364 0.177869
0.352094 0.467999 0.179097
0.513898 0.510024 0.181764
0.644476 0.560319 0.184800
0.751470 0.619190 0.189446
0.817520 0.672649 0.196085
0.858429 0.723700 0.206139
0.221715 0.553640 0.177877
0.223899 0.557276 0.177988
0.250866 0.570181 0.178521
0.361018 0.593332 0.180397
0.521047 0.626666 0.182894
0.648788 0.660539 0.185736
0.754164 0.699486 0.190932
0.818478 0.735792 0.197805
0.859182 0.767529 0.208311
0.222969 0.677002 0.178922
0.226360 0.679303 0.179214
0.260103 0.687482 0.180217
0.372217 0.702201 0.181944
0.529375 0.721099 0.184221
0.654224 0.741298 0.187299
0.756836 0.763118 0.192697
0.819688 0.785246 0.199911
0.860135 0.807822 0.211001
0.225576 0.762242 0.180932
0.231820 0.763374 0.181195
0.272281 0.767403 0.182103
0.387265 0.774664 0.183646
0.537745 0.784819 0.185703
0.660795 0.797327 0.189727
0.760009 0.812395 0.194987
0.821155 0.829686 0.202891
0.861291 0.847673 0.214183
0.231378 0.819788 0.183059
0.238371 0.820623 0.183288
0.287325 0.823603 0.184085
0.404850 0.829000 0.185452
0.547491 0.836872 0.188158
0.667404 0.846517 0.192381
0.763732 0.855068 0.198181
0.822880 0.864961 0.206994
0.862655 0.875270 0.218709
0.220287 0.179957 0.204843
0.220855 0.179957 0.205320
0.237652 0.183418 0.207011
0.338089 0.199785 0.210043
0.502477 0.240689 0.214398
0.637601 0.319373 0.221859
0.747185 0.416114 0.231690
0.815996 0.509040 0.246470
0.857235 0.599120 0.264276
0.220287 0.180620 0.205010
0.220972 0.181910 0.205486
0.237898 0.188146 0.207174
0.338749 0.207233 0.210200
0.503022 0.254117 0.214548
0.637929 0.333150 0.222067
0.747389 0.428833 0.231887
0.816069 0.518719 0.246741
0.857291 0.607422 0.264521
0.220287 0.199803 0.205607
0.221359 0.202648 0.206079
0.238766 0.215717 0.207757
0.341111 0.248056 0.210764
0.504979 0.307409 0.215086
0.639106 0.382456 0.222811
0.748121 0.468425 0.232591
0.816329 0.551634 0.247711
0.857495 0.635219 0.265399
0.220287 0.276997 0.206694
0.221967 0.283341 0.207161
0.241636 0.305243 0.208819
0.345427 0.343228 0.211792
0.508565 0.398726 0.216198
0.641264 0.464643 0.224172
0.749466 0.534500 0.233981
0.816807 0.608282 0.249469
0.857870 0.674120 0.266997
0.220654 0.416280 0.208297
0.222701 0.421694 0.208756
0.245704 0.438914 0.210385
0.352094 0.468525 0.213308
0.513898 0.510519 0.218262
0.644476 0.560752 0.226189
0.751470 0.619589 0.236091
0.817520 0.672928 0.251976
0.858429 0.723885 0.269375
0.221715 0.554077 0.210419
0.223899 0.557711 0.210867
0.250866 0.570608 0.212459
0.361018 0.593746 0.215319
0.521047 0.627061 0.221070
0.648788 0.660825 0.228879
0.754164 0.699751 0.239660
0.818478 0.735970 0.255339
0.859182 0.767662 0.272830
0.222969 0.677279 0.213048
0.226360 0.679578 0.213484
0.260103 0.687753 0.215032
0.372217 0.702465 0.218694
0.529375 0.721285 0.224583
0.654224 0.741474 0.232242
0.756836 0.763254 0.244307
0.819688 0.785361 0.259573
0.860135 0.807927 0.277226
0.225576 0.762378 0.216334
0.231820 0.763509 0.216933
0.272281 0.767536 0.219083
0.387265 0.774794 0.223034
0.537745 0.784934 0.228782
0.660795 0.797437 0.236656
0.760009 0.812498 0.249872
0.821155 0.829782 0.264685
0.861291 0.847734 0.282545
0.231378 0.819888 0.221496
0.238371 0.820723 0.222091
0.287325 0.823702 0.224212
0.404850 0.829097 0.228050
0.547491 0.836966 0.233718
0.667404 0.846579 0.243428
0.763732 0.855127 0.256085
0.822880 0.865017 0.270712
0.862655 0.875312 0.288689
0.220287 0.179957 0.329657
0.220855 0.179957 0.330383
0.237652 0.183666 0.332988
0.338089 0.200430 0.337758
0.502477 0.241935 0.344871
0.637601 0.320576 0.354354
0.747185 0.417376 0.366103
0.815996 0.509952 0.380311
0.857235 0.599875 0.396958
0.220287 0.180755 0.329911
0.220972 0.182233 0.330637
0.237898 0.188569 0.333241
0.338749 0.208145 0.338009
0.503022 0.255264 0.345123
0.637929 0.334505 0.354597
0.747389 0.429861 0.366343
0.816069 0.519574 0.380549
0.857291 0.608169 0.397192
0.220287 0.200449 0.330822
0.221359 0.203249 0.331548
0.238766 0.216536 0.334149
0.341111 0.249266 0.338911
0.504979 0.308699 0.346030
0.639106 0.383762 0.355471
0.748121 0.469391 0.367204
0.816329 0.552441 0.381404
0.857495 0.635773 0.398032
0.220287 0.278404 0.332497
0.221967 0.284730 0.333221
0.241636 0.306554 0.335816
0.345427 0.344564 0.340569
0.508565 0.400010 0.347697
0.641264 0.465615 0.357075
0.749466 0.535327 0.368786
0.816807 0.609027 0.382976
0.857870 0.674632 0.399574
0.220654 0.417542 0.334995
0.222701 0.422818 0.335717
0.245704 0.439925 0.338304
0.352094 0.469491 0.343047
0.513898 0.511428 0.350169
0.644476 0.561547 0.359470
0.751470 0.620324 0.371146
0.817520 0.673440 0.385321
0.858429 0.724226 0.401877
0.221715 0.554881 0.338358
0.223899 0.558510 0.339077
0.250866 0.571393 0.341653
0.361018 0.594505 0.346424
0.521047 0.627789 0.353431
0.648788 0.661350 0.362694
0.754164 0.700238 0.374343
0.818478 0.736299 0.388481
0.859182 0.767908 0.404979
0.222969 0.677787 0.342615
0.226360 0.680084 0.343340
0.260103 0.688251 0.345939
0.372217 0.702949 0.350672
0.529375 0.721629 0.357561
0.654224 0.741797 0.366777
0.756836 0.763503 0.378410
0.819688 0.785572 0.392483
0.860135 0.808120 0.408910
0.225576 0.762628 0.347859
0.231820 0.763758 0.348579
0.272281 0.767782 0.351123
0.387265 0.775033 0.355732
0.537745 0.785146 0.362578
0.660795 0.797638 0.371737
0.760009 0.812688 0.383352
0.821155 0.829960 0.397349
0.861291 0.847847 0.413626
0.231378 0.820073 0.353929
0.238371 0.820907 0.354625
0.287325 0.823884 0.357123
0.404850 0.829275 0.361698
0.547491 0.837139 0.368493
0.667404 0.846692 0.377639
0.763732 0.855235 0.389185
0.822880 0.865119 0.403091
0.862655 0.875390 0.418753
0.220287 0.179957 0.502155
0.220855 0.179957 0.502664
0.237652 0.184017 0.504386
0.338089 0.201377 0.507541
0.502477 0.243788 0.512234
0.637601 0.322371 0.518524
0.747185 0.419251 0.526442
0.815996 0.511313 0.535994
0.857235 0.601002 0.547170
0.220287 0.181191 0.502340
0.220972 0.182682 0.502832
0.237898 0.189180 0.504553
0.338749 0.209490 0.507707
0.503022 0.256970 0.512399
0.637929 0.336526 0.518688
0.747389 0.431395 0.526603
0.816069 0.520851 0.536154
0.857291 0.609283 0.547328
0.220287 0.201395 0.502954
0.221359 0.204133 0.503434
0.238766 0.217746 0.505153
0.341111 0.251064 0.508305
0.504979 0.310541 0.512992
0.639106 0.385712 0.519275
0.748121 0.470834 0.527185
0.816329 0.553645 0.536727
0.857495 0.636600 0.547892
0.220287 0.280501 0.504061
0.221967 0.286801 0.504540
0.241636 0.308504 0.506256
0.345427 0.346558 0.509403
0.508565 0.401927 0.514082
0.641264 0.467065 0.520356
0.749466 0.536562 0.528253
0.816807 0.610141 0.537781
0.857870 0.675396 0.548930
0.220654 0.419400 0.505713
0.222701 0.424497 0.506190
0.245704 0.441434 0.507902
0.352094 0.470933 0.511041
0.513898 0.512753 0.515710
0.644476 0.562736 0.521968
0.751470 0.621421 0.529847
0.817520 0.674206 0.539354
0.858429 0.724735 0.550479
0.221715 0.556081 0.507939
0.223899 0.559704 0.508415
0.250866 0.572565 0.510121
0.361018 0.595641 0.513250
0.521047 0.628875 0.517903
0.648788 0.662135 0.524142
0.754164 0.700965 0.531996
0.818478 0.736791 0.541475
0.859182 0.768274 0.552567
0.222969 0.678546 0.510759
0.226360 0.680840 0.511233
0.260103 0.688995 0.512932
0.372217 0.703672 0.516048
0.529375 0.722142 0.520683
0.654224 0.742281 0.526896
0.756836 0.763876 0.534720
0.819688 0.785888 0.544163
0.860135 0.808409 0.555214
0.225576 0.763001 0.514189
0.231820 0.764131 0.514660
0.272281 0.768148 0.516351
0.387265 0.775390 0.519451
0.537745 0.785462 0.524063
0.660795 0.797939 0.530247
0.760009 0.812972 0.538034
0.821155 0.830226 0.547433
0.861291 0.848016 0.558435
0.231378 0.820348 0.518238
0.238371 0.821182 0.518706
0.287325 0.824156 0.520387
0.404850 0.829541 0.523470
0.547491 0.837397 0.528055
0.667404 0.846863 0.534204
0.763732 0.855397 0.541947
0.822880 0.865271 0.551296
0.862655 0.875506 0.562241
0.220287 0.179957 0.656201
0.220855 0.180310 0.656545
0.237652 0.185037 0.657779
0.338089 0.202622 0.660044
0.502477 0.246269 0.663418
0.637601 0.324786 0.667952
0.747185 0.421530 0.673205
0.815996 0.513097 0.678777
0.857235 0.602522 0.685308
0.220287 0.181906 0.656321
0.220972 0.183238 0.656665
0.237898 0.189970 0.657899
0.338749 0.211267 0.660164
0.503022 0.259255 0.663537
0.637929 0.339249 0.668070
0.747389 0.433462 0.673299
0.816069 0.522573 0.678870
0.857291 0.610787 0.685400
0.220287 0.202639 0.656753
0.221359 0.205394 0.657097
0.238766 0.219353 0.658330
0.341111 0.253474 0.660593
0.504979 0.313018 0.663964
0.639106 0.388340 0.668494
0.748121 0.472778 0.673638
0.816329 0.555269 0.679205
0.857495 0.637715 0.685730
0.220287 0.283321 0.657546
0.221967 0.289562 0.657890
0.241636 0.310992 0.659121
0.345427 0.349244 0.661382
0.508565 0.404512 0.664749
0.641264 0.469020 0.669274
0.749466 0.538227 0.674261
0.816807 0.611643 0.679820
0.857870 0.676427 0.686337
0.220654 0.421678 0.658732
0.222701 0.426759 0.659074
0.245704 0.443468 0.660304
0.352094 0.472877 0.662560
0.513898 0.514496 0.665922
0.644476 0.564339 0.670439
0.751470 0.622901 0.675190
0.817520 0.675240 0.680739
0.858429 0.725422 0.687243
0.221715 0.557699 0.660330
0.223899 0.561314 0.660672
0.250866 0.574146 0.661898
0.361018 0.597172 0.664150
0.521047 0.630341 0.667504
0.648788 0.663193 0.671865
0.754164 0.701946 0.676444
0.818478 0.737453 0.681978
0.859182 0.768769 0.688466
0.222969 0.679571 0.662357
0.226360 0.681860 0.662698
0.260103 0.689999 0.663921
0.372217 0.704648 0.666166
0.529375 0.722834 0.669510
0.654224 0.742933 0.673470
0.756836 0.764378 0.678033
0.819688 0.786314 0.683549
0.860135 0.808799 0.690016
0.225576 0.763506 0.664826
0.231820 0.764633 0.665166
0.272281 0.768643 0.666384
0.387265 0.775872 0.668621
0.537745 0.785889 0.671819
0.660795 0.798345 0.675423
0.760009 0.813355 0.679968
0.821155 0.830584 0.685461
0.861291 0.848245 0.691902
0.231378 0.820721 0.667745
0.238371 0.821553 0.668084
0.287325 0.824523 0.669297
0.404850 0.829901 0.671474
0.547491 0.837746 0.674145
0.667404 0.847092 0.677732
0.763732 0.855615 0.682254
0.822880 0.865477 0.687722
0.862655 0.875662 0.694133
0.220287 0.179957 0.764145
0.220855 0.180696 0.764297
0.237652 0.186337 0.764846
0.338089 0.204152 0.765853
0.502477 0.249389 0.767353
0.637601 0.327839 0.769368
0.747185 0.424417 0.771913
0.815996 0.515312 0.774995
0.857235 0.604452 0.778615
0.220287 0.182700 0.764198
0.220972 0.183873 0.764351
0.237898 0.191229 0.764899
0.338749 0.213472 0.765906
0.503022 0.262640 0.767405
0.637929 0.342698 0.769421
0.747389 0.436081 0.771965
0.816069 0.524756 0.775047
0.857291 0.612695 0.778666
0.220287 0.204169 0.764390
0.221359 0.207771 0.764543
0.238766 0.221354 0.765091
0.341111 0.256422 0.766097
0.504979 0.316149 0.767595
0.639106 0.391673 0.769609
0.748121 0.475242 0.772153
0.816329 0.557329 0.775232
0.857495 0.639130 0.778850
0.220287 0.286885 0.764742
0.221967 0.293032 0.764895
0.241636 0.314137 0.765442
0.345427 0.352404 0.766447
0.508565 0.407790 0.767944
0.641264 0.471499 0.769956
0.749466 0.540340 0.772497
0.816807 0.613549 0.775573
0.857870 0.677735 0.779187
0.220654 0.424565 0.765269
0.222701 0.429544 0.765421
0.245704 0.446046 0.765968
0.352094 0.475341 0.766971
0.513898 0.516706 0.768466
0.644476 0.566372 0.770474
0.751470 0.624779 0.773011
0.817520 0.676551 0.776082
0.858429 0.726293 0.779690
0.221715 0.559752 0.765980
0.223899 0.563356 0.766132
0.250866 0.576151 0.766677
0.361018 0.599115 0.767678
0.521047 0.631887 0.769169
0.648788 0.664536 0.771173
0.754164 0.703190 0.773704
0.818478 0.738295 0.776768
0.859182 0.769396 0.780369
0.222969 0.680871 0.766881
0.226360 0.683154 0.767032
0.260103 0.691273 0.767576
0.372217 0.705886 0.768574
0.529375 0.723712 0.770061
0.654224 0.743761 0.772060
0.756836 0.765016 0.774583
0.819688 0.786854 0.777640
0.860135 0.809294 0.781230
0.225576 0.764146 0.767978
0.231820 0.765270 0.768129
0.272281 0.769271 0.768671
0.387265 0.776484 0.769666
0.537745 0.786430 0.771148
0.660795 0.798861 0.773139
0.760009 0.813841 0.775655
0.821155 0.831040 0.778701
0.861291 0.848534 0.782279
0.231378 0.821193 0.769276
0.238371 0.822025 0.769427
0.287325 0.824989 0.769966
0.404850 0.830357 0.770957
0.547491 0.838190 0.772433
0.667404 0.847384 0.774417
0.763732 0.855893 0.776922
0.822880 0.865739 0.779956
0.862655 0.875861 0.783520
0.220287 0.180498 0.834481
0.220855 0.181628 0.834553
0.237652 0.187785 0.834811
0.338089 0.206467 0.835284
0.502477 0.253148 0.835989
0.637601 0.332023 0.836938
0.747185 0.427930 0.838138
0.815996 0.518008 0.839593
0.857235 0.606802 0.841304
0.220287 0.183538 0.834506
0.220972 0.185295 0.834578
0.237898 0.193697 0.834836
0.338749 0.216087 0.835309
0.503022 0.267048 0.836014
0.637929 0.346889 0.836963
0.747389 0.439265 0.838162
0.816069 0.527404 0.839617
0.857291 0.615020 0.841329
0.220287 0.206494 0.834596
0.221359 0.210580 0.834668
0.238766 0.223736 0.834926
0.341111 0.259972 0.835398
0.504979 0.319946 0.836104
0.639106 0.395729 0.837052
0.748121 0.478241 0.838251
0.816329 0.559838 0.839705
0.857495 0.640853 0.841415
0.220287 0.291158 0.834762
0.221967 0.297239 0.834834
0.241636 0.317950 0.835091
0.345427 0.356112 0.835563
0.508565 0.411780 0.836268
0.641264 0.474514 0.837215
0.749466 0.542911 0.838413
0.816807 0.615871 0.839866
0.857870 0.679328 0.841575
0.220654 0.428077 0.835010
0.222701 0.432762 0.835081
0.245704 0.449181 0.835338
0.352094 0.478339 0.835810
0.513898 0.519396 0.836513
0.644476 0.568849 0.837459
0.751470 0.627068 0.838656
0.817520 0.678148 0.840106
0.858429 0.727355 0.841813
0.221715 0.562252 0.835343
0.223899 0.565843 0.835415
0.250866 0.578594 0.835671
0.361018 0.601482 0.836142
0.521047 0.633636 0.836844
0.648788 0.666172 0.837789
0.754164 0.704707 0.838983
0.818478 0.739319 0.840431
0.859182 0.770161 0.842135
0.222969 0.682454 0.835767
0.226360 0.684730 0.835839
0.260103 0.692824 0.836094
0.372217 0.707395 0.836564
0.529375 0.724782 0.837265
0.654224 0.744770 0.838207
0.756836 0.765794 0.839398
0.819688 0.787514 0.840843
0.860135 0.809897 0.842543
0.225576 0.764926 0.836284
0.231820 0.766047 0.836355
0.272281 0.770037 0.836610
0.387265 0.777230 0.837078
0.537745 0.787091 0.837777
0.660795 0.799489 0.838716
0.760009 0.814434 0.839904
0.821155 0.831595 0.841345
0.861291 0.848887 0.843040
0.231378 0.821770 0.836895
0.238371 0.822599 0.836966
0.287325 0.825557 0.837220
0.404850 0.830914 0.837687
0.547491 0.838730 0.838383
0.667404 0.847740 0.839319
0.763732 0.856231 0.840503
0.822880 0.866058 0.841939
0.862655 0.876103 0.843629
0.220287 0.181340 0.874158
0.220855 0.182797 0.874195
0.237652 0.189341 0.874326
0.338089 0.209847 0.874567
0.502477 0.257426 0.874926
0.637601 0.337069 0.875410
0.747185 0.431806 0.876023
0.815996 0.521194 0.876767
0.857235 0.609583 0.877644
0.220287 0.184873 0.874171
0.220972 0.187115 0.874207
0.237898 0.196439 0.874338
0.338749 0.219086 0.874579
0.503022 0.272310 0.874939
0.637929 0.351676 0.875423
0.747389 0.443025 0.876036
0.816069 0.530516 0.876780
0.857291 0.617771 0.877657
0.220287 0.209873 0.874217
0.221359 0.213784 0.874253
0.238766 0.227907 0.874384
0.341111 0.265166 0.874625
0.504979 0.324413 0.874985
0.639106 0.400522 0.875468
0.748121 0.481784 0.876081
0.816329 0.562804 0.876825
0.857495 0.642891 0.877701
0.220287 0.296167 0.874301
0.221967 0.302187 0.874337
0.241636 0.322436 0.874469
0.345427 0.360482 0.874709
0.508565 0.416496 0.875068
0.641264 0.478077 0.875552
0.749466 0.545951 0.876164
0.816807 0.618619 0.876907
0.857870 0.681213 0.877783
0.220654 0.431941 0.874427
0.222701 0.436561 0.874463
0.245704 0.452882 0.874594
0.352094 0.481882 0.874835
0.513898 0.522576 0.875194
0.644476 0.571777 0.875677
0.751470 0.629776 0.876288
0.817520 0.680037 0.877030
0.858429 0.728611 0.877905
0.221715 0.565208 0.874597
0.223899 0.568784 0.874634
0.250866 0.581483 0.874764
0.361018 0.604283 0.875004
0.521047 0.635705 0.875363
0.648788 0.668107 0.875845
0.754164 0.706502 0.876455
0.818478 0.740532 0.877196
0.859182 0.771067 0.878070
0.222969 0.684328 0.874813
0.226360 0.686596 0.874850
0.260103 0.694661 0.874980
0.372217 0.709181 0.875220
0.529375 0.726047 0.875577
0.654224 0.745963 0.876058
0.756836 0.766714 0.876668
0.819688 0.788294 0.877408
0.860135 0.810612 0.878280
0.225576 0.765848 0.875077
0.231820 0.766966 0.875113
0.272281 0.770942 0.875243
0.387265 0.778112 0.875482
0.537745 0.787872 0.875839
0.660795 0.800233 0.876319
0.760009 0.815136 0.876927
0.821155 0.832253 0.877665
0.861291 0.849306 0.878535
0.231378 0.822452 0.875388
0.238371 0.823280 0.875425
0.287325 0.826230 0.875554
0.404850 0.831573 0.875793
0.547491 0.839370 0.876148
0.667404 0.848161 0.876627
0.763732 0.856631 0.877234
0.822880 0.866436 0.877970
0.862655 0.876390 0.878838
