velvia/Velvia50_Classic_IlfochromeM.cube
TITLE "Velvia 50 Classic IlfochromeM"
# Adobe RGB in/out. REPLACES AgX. Velvia 50 Classic IlfochromeM.
LUT_3D_SIZE 5
DOMAIN_MIN 0.0 0.0 0.0
DOMAIN_MAX 1.0 1.0 1.0
0.220287 0.179957 0.174424
0.237652 0.183240 0.174424
0.502477 0.239819 0.175372
0.747185 0.415237 0.180384
0.857235 0.598596 0.192467
0.220287 0.199349 0.174424
0.238766 0.215143 0.174424
0.504979 0.306500 0.175577
0.748121 0.467753 0.180817
0.857495 0.634834 0.192914
0.220654 0.415403 0.174424
0.245704 0.438211 0.174424
0.513898 0.509886 0.176312
0.751470 0.619079 0.182283
0.858429 0.723648 0.194716
0.222969 0.676925 0.174929
0.260103 0.687407 0.175561
0.529375 0.721047 0.177738
0.756836 0.763081 0.184665
0.860135 0.807792 0.198642
0.231378 0.819760 0.177090
0.287325 0.823576 0.177664
0.547491 0.836845 0.181311
0.763732 0.855052 0.188862
0.862655 0.875258 0.205296
0.220287 0.179957 0.204843
0.237652 0.183418 0.207011
0.502477 0.240689 0.214398
0.747185 0.416114 0.231690
0.857235 0.599120 0.264276
0.220287 0.199803 0.205607
0.238766 0.215717 0.207757
0.504979 0.307409 0.215086
0.748121 0.468425 0.232591
0.857495 0.635219 0.265399
0.220654 0.416280 0.208297
0.245704 0.438914 0.210385
0.513898 0.510519 0.218262
0.751470 0.619589 0.236091
0.858429 0.723885 0.269375
0.222969 0.677279 0.213048
0.260103 0.687753 0.215032
0.529375 0.721285 0.224583
0.756836 0.763254 0.244307
0.860135 0.807927 0.277226
0.231378 0.819888 0.221496
0.287325 0.823702 0.224212
0.547491 0.836966 0.233718
0.763732 0.855127 0.256085
0.862655 0.875312 0.288689
0.220287 0.179957 0.502155
0.237652 0.184017 0.504386
0.502477 0.243788 0.512234
0.747185 0.419251 0.526442
0.857235 0.601002 0.547170
0.220287 0.201395 0.502954
0.238766 0.217746 0.505153
0.504979 0.310541 0.512992
0.748121 0.470834 0.527185
0.857495 0.636600 0.547892
0.220654 0.419400 0.505713
0.245704 0.441434 0.507902
0.513898 0.512753 0.515710
0.751470 0.621421 0.529847
0.858429 0.724735 0.550479
0.222969 0.678546 0.510759
0.260103 0.688995 0.512932
0.529375 0.722142 0.520683
0.756836 0.763876 0.534720
0.860135 0.808409 0.555214
0.231378 0.820348 0.518238
0.287325 0.824156 0.520387
0.547491 0.837397 0.528055
0.763732 0.855397 0.541947
0.862655 0.875506 0.562241
0.220287 0.179957 0.764145
0.237652 0.186337 0.764846
0.502477 0.249389 0.767353
0.747185 0.424417 0.771913
0.857235 0.604452 0.778615
0.220287 0.204169 0.764390
0.238766 0.221354 0.765091
0.504979 0.316149 0.767595
0.748121 0.475242 0.772153
0.857495 0.639130 0.778850
0.220654 0.424565 0.765269
0.245704 0.446046 0.765968
0.513898 0.516706 0.768466
0.751470 0.624779 0.773011
0.858429 0.726293 0.779690
0.222969 0.680871 0.766881
0.260103 0.691273 0.767576
0.529375 0.723712 0.770061
0.756836 0.765016 0.774583
0.860135 0.809294 0.781230
0.231378 0.821193 0.769276
0.287325 0.824989 0.769966
0.547491 0.838190 0.772433
0.763732 0.855893 0.776922
0.862655 0.875861 0.783520
0.220287 0.181340 0.874158
0.237652 0.189341 0.874326
0.502477 0.257426 0.874926
0.747185 0.431806 0.876023
0.857235 0.609583 0.877644
0.220287 0.209873 0.874217
0.238766 0.227907 0.874384
0.504979 0.324413 0.874985
0.748121 0.481784 0.876081
0.857495 0.642891 0.877701
0.220654 0.431941 0.874427
0.245704 0.452882 0.874594
0.513898 0.522576 0.875194
0.751470 0.629776 0.876288
0.858429 0.728611 0.877905
0.222969 0.684328 0.874813
0.260103 0.694661 0.874980
0.529375 0.726047 0.875577
0.756836 0.766714 0.876668
0.860135 0.810612 0.878280
0.231378 0.822452 0.875388
0.287325 0.826230 0.875554
0.547491 0.839370 0.876148
0.763732 0.856631 0.877234
0.862655 0.876390 0.878838
