velvia/Velvia50_Classic_RadianceIII.cube
TITLE "Velvia 50 Classic RadianceIII"
# Adobe RGB in/out. REPLACES AgX. Velvia 50 Classic RadianceIII.
LUT_3D_SIZE 33
DOMAIN_MIN 0.0 0.0 0.0
DOMAIN_MAX 1.0 1.0 1.0
0.160296 0.123833 0.126067
0.160296 0.123833 0.126067
0.160296 0.123833 0.126067
0.160548 0.123833 0.126067
0.161522 0.123833 0.126067
0.164853 0.123833 0.126067
0.169143 0.124564 0.126067
0.177684 0.126043 0.126067
0.193455 0.128139 0.126067
0.226439 0.131175 0.126067
0.265952 0.135917 0.126067
0.299573 0.145337 0.126067
0.334200 0.160014 0.126067
0.373831 0.174952 0.126067
0.418950 0.195099 0.126304
0.461599 0.215215 0.127049
0.502573 0.234927 0.127750
0.539669 0.254243 0.128413
0.570804 0.276167 0.129104
0.602022 0.298622 0.130061
0.633291 0.320836 0.130977
0.663314 0.343595 0.131853
0.689247 0.367315 0.132694
0.714963 0.391581 0.134498
0.739495 0.416410 0.137088
0.763816 0.439328 0.139737
0.794651 0.461970 0.142330
0.833318 0.484655 0.144870
0.871276 0.507075 0.147361
0.897006 0.528755 0.149805
0.922584 0.549834 0.154417
0.939428 0.571022 0.159019
0.953633 0.592370 0.163605
0.160296 0.123833 0.126067
0.160296 0.123833 0.126067
0.160296 0.123833 0.126067
0.160552 0.123833 0.126067
0.161534 0.123833 0.126067
0.164861 0.123849 0.126067
0.169157 0.124664 0.126067
0.177711 0.126278 0.126067
0.193478 0.128318 0.126067
0.226485 0.131530 0.126067
0.265993 0.136380 0.126067
0.299604 0.146248 0.126067
0.334234 0.160843 0.126067
0.373866 0.175979 0.126067
0.418984 0.196020 0.126309
0.461627 0.216118 0.127054
0.502598 0.235690 0.127754
0.539687 0.254965 0.128416
0.570821 0.276965 0.129108
0.602038 0.299337 0.130066
0.633305 0.321514 0.130981
0.663326 0.344268 0.131857
0.689258 0.367969 0.132698
0.714973 0.392216 0.134507
0.739505 0.417025 0.137098
0.763825 0.439855 0.139746
0.794665 0.462478 0.142338
0.833331 0.485130 0.144877
0.871284 0.507534 0.147368
0.897013 0.529166 0.149813
0.922592 0.550231 0.154430
0.939432 0.571405 0.159031
0.953637 0.592743 0.163616
0.160296 0.123833 0.126067
0.160296 0.123833 0.126067
0.160296 0.123833 0.126067
0.160568 0.123833 0.126067
0.161577 0.123833 0.126067
0.164888 0.124307 0.126067
0.169206 0.125042 0.126067
0.177807 0.127068 0.126067
0.193562 0.128929 0.126067
0.226652 0.132757 0.126067
0.266142 0.137998 0.126067
0.299716 0.149477 0.126067
0.334356 0.163787 0.126067
0.373993 0.179644 0.126067
0.419106 0.199309 0.126327
0.461727 0.219158 0.127070
0.502690 0.238418 0.127768
0.539752 0.257551 0.128428
0.570882 0.279820 0.129126
0.602095 0.301899 0.130081
0.633359 0.323943 0.130995
0.663368 0.346680 0.131869
0.689297 0.370314 0.132709
0.715009 0.394493 0.134539
0.739538 0.419230 0.137132
0.763857 0.441741 0.139777
0.794713 0.464298 0.142367
0.833378 0.486836 0.144905
0.871314 0.509182 0.147394
0.897042 0.530641 0.149860
0.922619 0.551655 0.154474
0.939447 0.572781 0.159073
0.953651 0.594082 0.163657
0.160296 0.123833 0.126067
0.160296 0.123833 0.126067
0.160296 0.123833 0.126067
0.160596 0.123943 0.126067
0.161657 0.124434 0.126067
0.164938 0.124959 0.126067
0.169298 0.126662 0.126067
0.177984 0.128336 0.126067
0.193717 0.130985 0.126067
0.226958 0.134877 0.126067
0.266416 0.141715 0.126067
0.299922 0.155243 0.126067
0.334581 0.169072 0.126067
0.374227 0.186299 0.126067
0.419329 0.205284 0.126361
0.461912 0.224594 0.127099
0.502859 0.243381 0.127794
0.539872 0.262697 0.128451
0.570994 0.285040 0.129158
0.602200 0.306579 0.130110
0.633458 0.328385 0.131020
0.663446 0.351094 0.131893
0.689370 0.374609 0.132730
0.715075 0.398665 0.134597
0.739600 0.422942 0.137194
0.763916 0.445197 0.139835
0.794802 0.467633 0.142421
0.833464 0.489962 0.144956
0.871368 0.512127 0.147441
0.897094 0.533345 0.149945
0.922668 0.554266 0.154556
0.939474 0.575305 0.159152
0.953676 0.596539 0.163732
0.160296 0.124565 0.126067
0.160296 0.124606 0.126067
0.160296 0.124749 0.126067
0.160637 0.125045 0.126067
0.161774 0.126078 0.126067
0.165012 0.127280 0.126067
0.169434 0.128577 0.126067
0.178247 0.130909 0.126067
0.193948 0.134285 0.126067
0.227416 0.139339 0.126067
0.266825 0.150700 0.126067
0.300230 0.163494 0.126067
0.334918 0.177472 0.126067
0.374577 0.195705 0.126067
0.419664 0.214155 0.126412
0.462187 0.232576 0.127142
0.503112 0.250679 0.127832
0.540051 0.270716 0.128484
0.571161 0.292341 0.129206
0.602358 0.313506 0.130153
0.633606 0.335033 0.131059
0.663562 0.357685 0.131928
0.689479 0.380985 0.132762
0.715174 0.404864 0.134684
0.739693 0.428324 0.137286
0.764003 0.450331 0.139921
0.794935 0.472591 0.142502
0.833592 0.494610 0.145031
0.871450 0.516402 0.147512
0.897171 0.537367 0.150073
0.922743 0.558150 0.154679
0.939514 0.579061 0.159269
0.953714 0.600197 0.163845
0.160296 0.127125 0.126067
0.160296 0.127210 0.126067
0.160296 0.127506 0.126067
0.160691 0.128021 0.126067
0.161930 0.128733 0.126067
0.165111 0.130132 0.126067
0.169616 0.132598 0.126067
0.178602 0.135549 0.126067
0.194260 0.140027 0.126067
0.228033 0.150659 0.126067
0.267378 0.162060 0.126067
0.300645 0.174030 0.126067
0.335373 0.190819 0.126067
0.375049 0.207800 0.126067
0.420116 0.225400 0.126479
0.462560 0.242736 0.127201
0.503454 0.260453 0.127883
0.540293 0.281379 0.128529
0.571387 0.301931 0.129270
0.602570 0.322662 0.130210
0.633806 0.344088 0.131110
0.663719 0.366497 0.131974
0.689627 0.389513 0.132805
0.715307 0.413162 0.134802
0.739819 0.435472 0.137411
0.764122 0.457203 0.140038
0.795114 0.479196 0.142611
0.833766 0.500839 0.145133
0.871560 0.522132 0.147608
0.897276 0.542758 0.150245
0.922843 0.563361 0.154844
0.939568 0.584109 0.159427
0.953766 0.605109 0.163996
0.160296 0.131186 0.126067
0.160296 0.131332 0.126067
0.160296 0.131848 0.126067
0.160756 0.132766 0.126067
0.162122 0.134071 0.126067
0.165235 0.136259 0.126067
0.169845 0.139346 0.126067
0.179050 0.146330 0.126067
0.194654 0.155231 0.126067
0.228818 0.164978 0.126067
0.268080 0.175813 0.126067
0.301173 0.190945 0.126067
0.335951 0.206339 0.126067
0.375650 0.222589 0.126067
0.420690 0.238779 0.126563
0.463033 0.255211 0.127274
0.503888 0.274219 0.127947
0.540600 0.294123 0.128586
0.571673 0.313883 0.129350
0.602840 0.334076 0.130282
0.634060 0.355449 0.131176
0.663919 0.377545 0.132033
0.689814 0.400263 0.132858
0.715476 0.423228 0.134950
0.739978 0.444408 0.137569
0.764272 0.465837 0.140185
0.795343 0.487300 0.142749
0.833986 0.508675 0.145263
0.871700 0.529326 0.147730
0.897410 0.549546 0.150464
0.922970 0.569926 0.155053
0.939637 0.590502 0.159628
0.953831 0.611306 0.164189
0.160296 0.139211 0.126067
0.160296 0.139386 0.126067
0.160296 0.140008 0.126067
0.160831 0.142435 0.126067
0.162351 0.146165 0.126067
0.165383 0.151060 0.126067
0.170122 0.157068 0.126067
0.179594 0.164112 0.126067
0.195133 0.172105 0.126067
0.229774 0.183283 0.126067
0.268936 0.196174 0.126067
0.301816 0.209812 0.126067
0.336656 0.224333 0.126067
0.376383 0.239028 0.126067
0.421391 0.254127 0.126664
0.463611 0.271529 0.127362
0.504418 0.290333 0.128024
0.540976 0.308901 0.128654
0.572024 0.328007 0.129448
0.603171 0.348112 0.130370
0.634370 0.369137 0.131255
0.664162 0.390821 0.132105
0.690043 0.413195 0.132924
0.715683 0.434431 0.135131
0.740173 0.455154 0.137762
0.764456 0.476233 0.140365
0.795622 0.497061 0.142917
0.834255 0.517762 0.145420
0.871872 0.537796 0.147878
0.897573 0.557737 0.150731
0.923126 0.577855 0.155309
0.939721 0.598230 0.159873
0.953910 0.618800 0.164424
0.160296 0.160060 0.126067
0.160296 0.160400 0.126067
0.160296 0.161616 0.126067
0.160915 0.163830 0.126067
0.162613 0.167087 0.126067
0.165555 0.171392 0.126067
0.170446 0.177515 0.126067
0.180234 0.186105 0.126067
0.195698 0.195720 0.126067
0.230935 0.206362 0.126067
0.269950 0.218296 0.126067
0.302578 0.230639 0.126067
0.337493 0.243540 0.126067
0.377252 0.257165 0.126067
0.422223 0.273445 0.126781
0.464297 0.290721 0.127464
0.505047 0.307956 0.128114
0.541421 0.325829 0.128734
0.572439 0.344648 0.129562
0.603562 0.364480 0.130473
0.634738 0.385046 0.131348
0.664451 0.406337 0.132190
0.690314 0.427426 0.133001
0.715928 0.447371 0.135349
0.740404 0.467679 0.137989
0.764675 0.488058 0.140577
0.795953 0.508461 0.143115
0.834575 0.528267 0.145606
0.872075 0.547697 0.148053
0.897767 0.567322 0.151047
0.923311 0.587165 0.155611
0.939821 0.607289 0.160163
0.954005 0.626476 0.164703
0.160296 0.185157 0.126067
0.160296 0.185567 0.126067
0.160322 0.187036 0.126067
0.161007 0.189725 0.126067
0.162906 0.193499 0.126067
0.165750 0.198535 0.126067
0.170816 0.204839 0.126067
0.180971 0.212449 0.126067
0.197031 0.221189 0.126067
0.232375 0.230730 0.126067
0.271126 0.241043 0.126067
0.303461 0.252212 0.126067
0.338463 0.265026 0.126067
0.378261 0.279985 0.126214
0.423188 0.295334 0.126914
0.465093 0.311127 0.127581
0.505777 0.327606 0.128217
0.541938 0.345149 0.128825
0.572921 0.363707 0.129693
0.604016 0.383052 0.130591
0.635165 0.403163 0.131455
0.664787 0.423579 0.132287
0.690629 0.442644 0.133254
0.716213 0.462077 0.135630
0.740673 0.481820 0.138251
0.764928 0.501468 0.140821
0.796338 0.520939 0.143344
0.834946 0.539949 0.145821
0.872311 0.559001 0.148255
0.897992 0.578277 0.151413
0.923526 0.597854 0.155962
0.939937 0.617666 0.160499
0.954115 0.634234 0.165026
0.160296 0.215296 0.126067
0.160296 0.215666 0.126067
0.160483 0.216979 0.126067
0.161104 0.219230 0.126067
0.163226 0.222571 0.126067
0.165967 0.227037 0.126067
0.171231 0.232638 0.126067
0.181804 0.239149 0.126067
0.198603 0.246689 0.126067
0.233995 0.255255 0.126067
0.272467 0.265634 0.126067
0.304468 0.277787 0.126067
0.339569 0.290746 0.126067
0.379413 0.304111 0.126383
0.424290 0.318378 0.127061
0.466001 0.333362 0.127710
0.506610 0.349654 0.128332
0.542527 0.366878 0.128928
0.573472 0.384911 0.129841
0.604535 0.403767 0.130724
0.635653 0.423035 0.131575
0.665170 0.441083 0.132396
0.690988 0.459544 0.133554
0.716539 0.478467 0.135949
0.740979 0.497269 0.138548
0.765218 0.516180 0.141099
0.796777 0.534617 0.143604
0.835370 0.553013 0.146066
0.872580 0.571668 0.148485
0.898249 0.590614 0.151830
0.923771 0.609863 0.156361
0.940069 0.627819 0.160882
0.954240 0.642932 0.165393
0.160296 0.244622 0.126067
0.160296 0.244927 0.126067
0.160642 0.246018 0.126067
0.161205 0.248017 0.126067
0.163571 0.250986 0.126067
0.166204 0.254961 0.126067
0.171690 0.260040 0.126067
0.182731 0.266977 0.126067
0.200366 0.275105 0.126067
0.235772 0.284411 0.126067
0.273880 0.294308 0.126067
0.305599 0.305105 0.126067
0.340814 0.316895 0.126067
0.380710 0.329485 0.126567
0.425531 0.343299 0.127223
0.467024 0.358171 0.127853
0.507548 0.373982 0.128459
0.543191 0.390643 0.129105
0.574092 0.408182 0.130004
0.605120 0.425837 0.130871
0.636203 0.442747 0.131709
0.665602 0.460152 0.132518
0.691393 0.478079 0.133889
0.716905 0.495950 0.136305
0.741325 0.514081 0.138881
0.765544 0.531795 0.141410
0.797272 0.549456 0.143896
0.835848 0.567414 0.146339
0.872884 0.585668 0.148743
0.898538 0.604283 0.152297
0.924047 0.623050 0.156809
0.940218 0.637757 0.161312
0.954381 0.652574 0.165806
0.160296 0.276274 0.126067
0.160407 0.276601 0.126067
0.160800 0.277773 0.126067
0.161309 0.279924 0.126067
0.163936 0.283128 0.126067
0.166459 0.287361 0.126067
0.172190 0.292429 0.126067
0.183752 0.298554 0.126067
0.202324 0.305733 0.126067
0.237747 0.313956 0.126067
0.275354 0.323130 0.126067
0.306856 0.333265 0.126067
0.342199 0.344701 0.126111
0.382153 0.357144 0.126765
0.426914 0.370584 0.127397
0.468163 0.384940 0.128008
0.508593 0.400223 0.128597
0.543931 0.416381 0.129303
0.574782 0.431962 0.130182
0.605770 0.447643 0.131033
0.636815 0.463923 0.131856
0.666083 0.480692 0.132652
0.691845 0.497558 0.134258
0.717314 0.514698 0.136699
0.741710 0.531546 0.139248
0.765908 0.548398 0.141754
0.797824 0.565587 0.144218
0.836381 0.583094 0.146643
0.873222 0.601007 0.149028
0.898861 0.619208 0.152817
0.924356 0.634240 0.157307
0.940385 0.648597 0.161789
0.954539 0.663103 0.166265
0.160498 0.309806 0.126067
0.160612 0.310093 0.126067
0.160955 0.311124 0.126067
0.161800 0.313014 0.126067
0.164319 0.315830 0.126067
0.166757 0.319581 0.126067
0.172730 0.324296 0.126067
0.184863 0.330002 0.126067
0.204475 0.336825 0.126067
0.239923 0.344762 0.126067
0.276977 0.353725 0.126067
0.308241 0.363743 0.126067
0.343727 0.374747 0.126349
0.383746 0.386712 0.126975
0.428439 0.399657 0.127584
0.469419 0.413525 0.128174
0.509746 0.427426 0.128745
0.544746 0.441258 0.129516
0.575543 0.455723 0.130375
0.606489 0.470830 0.131208
0.637490 0.486294 0.132015
0.666613 0.502099 0.132798
0.692343 0.518047 0.134661
0.717765 0.533897 0.137129
0.742135 0.549876 0.139650
0.766309 0.566232 0.142130
0.798434 0.582942 0.144572
0.836970 0.600091 0.146975
0.873596 0.617562 0.149341
0.899217 0.632438 0.153387
0.924696 0.646286 0.157854
0.940568 0.660320 0.162315
0.954713 0.674466 0.166770
0.160708 0.343721 0.126067
0.160805 0.343997 0.126067
0.161105 0.344986 0.126067
0.162361 0.346804 0.126067
0.164717 0.349512 0.126067
0.167519 0.353165 0.126067
0.173306 0.357802 0.126067
0.186064 0.363424 0.126067
0.206821 0.370039 0.126067
0.242299 0.377647 0.126067
0.278748 0.386242 0.126067
0.309753 0.395842 0.126067
0.345397 0.406419 0.126598
0.385490 0.417944 0.127196
0.430109 0.429320 0.127780
0.470795 0.441134 0.128349
0.511008 0.453662 0.128903
0.545639 0.466894 0.129744
0.576377 0.480717 0.130582
0.607275 0.494832 0.131396
0.638230 0.509534 0.132187
0.667195 0.524105 0.132955
0.692889 0.538838 0.135096
0.718258 0.553892 0.137594
0.742600 0.569361 0.140085
0.766749 0.585234 0.142539
0.799102 0.601563 0.144955
0.837615 0.618249 0.147336
0.874006 0.632388 0.149682
0.899608 0.645682 0.154010
0.925069 0.659192 0.158451
0.940770 0.672841 0.162888
0.954903 0.686618 0.167366
0.160903 0.379524 0.126067
0.160987 0.379788 0.126067
0.161252 0.380733 0.126067
0.162925 0.382471 0.126067
0.165127 0.385061 0.126067
0.168318 0.388548 0.126067
0.173917 0.392974 0.126067
0.187349 0.398349 0.126067
0.209360 0.404682 0.126067
0.244876 0.411976 0.126067
0.280668 0.420212 0.126067
0.311392 0.428458 0.126280
0.347211 0.437453 0.126856
0.387385 0.447211 0.127426
0.431915 0.457741 0.127986
0.472291 0.469020 0.128534
0.512381 0.480932 0.129150
0.546609 0.493251 0.129986
0.577284 0.506212 0.130802
0.608131 0.519345 0.131597
0.639035 0.532705 0.132370
0.667827 0.546324 0.133355
0.693482 0.560416 0.135602
0.718796 0.574956 0.138095
0.743107 0.589963 0.140554
0.767227 0.605428 0.142979
0.799830 0.621280 0.145369
0.838317 0.634102 0.147726
0.874452 0.646804 0.150269
0.900033 0.659743 0.154684
0.925475 0.672849 0.159098
0.940989 0.686110 0.163510
0.955111 0.699513 0.168239
0.161086 0.416564 0.126067
0.161159 0.416816 0.126067
0.161685 0.417721 0.126067
0.163490 0.419383 0.126067
0.165546 0.421677 0.126067
0.169151 0.424670 0.126067
0.175010 0.428454 0.126067
0.188718 0.433023 0.126067
0.212133 0.438370 0.126067
0.247656 0.444524 0.126067
0.282736 0.451483 0.126067
0.313160 0.459238 0.126576
0.349170 0.467778 0.127122
0.389435 0.477087 0.127665
0.433840 0.486877 0.128201
0.473907 0.497344 0.128727
0.513866 0.508495 0.129430
0.547658 0.519838 0.130241
0.578264 0.531595 0.131034
0.609056 0.543674 0.131809
0.639905 0.556279 0.132564
0.668511 0.569385 0.133891
0.694125 0.582970 0.136174
0.719377 0.597095 0.138631
0.743655 0.611660 0.141056
0.767745 0.625744 0.143450
0.800617 0.637574 0.145813
0.839078 0.649652 0.148144
0.874935 0.661979 0.151025
0.900493 0.674502 0.155409
0.925915 0.687206 0.159794
0.941226 0.700078 0.164179
0.955335 0.713106 0.169182
0.161257 0.450767 0.126067
0.161322 0.450978 0.126067
0.162402 0.451738 0.126067
0.164052 0.453134 0.126067
0.165972 0.455216 0.126067
0.170013 0.458019 0.126067
0.176754 0.461566 0.126067
0.190200 0.465874 0.126067
0.215159 0.470950 0.126067
0.250638 0.476800 0.126067
0.284953 0.483262 0.126365
0.315055 0.490429 0.126877
0.351275 0.498328 0.127394
0.391648 0.506948 0.127910
0.435679 0.516000 0.128422
0.475646 0.525523 0.128928
0.515463 0.535492 0.129722
0.548785 0.545969 0.130507
0.579318 0.557012 0.131277
0.610051 0.568601 0.132031
0.640842 0.580713 0.132769
0.669246 0.593390 0.134459
0.694816 0.606567 0.136781
0.720003 0.620210 0.139199
0.744245 0.631639 0.141590
0.768303 0.642773 0.143952
0.801465 0.654205 0.146285
0.839897 0.665887 0.148590
0.875454 0.677793 0.151834
0.900989 0.689905 0.156185
0.926388 0.702211 0.160540
0.941481 0.714697 0.164896
0.955577 0.726860 0.170194
0.161820 0.484809 0.126067
0.162119 0.485004 0.126067
0.163099 0.485704 0.126067
0.164610 0.486989 0.126067
0.166402 0.488906 0.126067
0.170900 0.491488 0.126067
0.178579 0.494757 0.126067
0.191844 0.498729 0.126067
0.218382 0.503412 0.126067
0.253822 0.508811 0.126233
0.287255 0.514720 0.126701
0.317078 0.521217 0.127182
0.353538 0.528381 0.127670
0.394016 0.536007 0.128160
0.437648 0.544251 0.128650
0.477508 0.553106 0.129255
0.517172 0.562555 0.130025
0.549992 0.572581 0.130784
0.580447 0.583166 0.131531
0.611116 0.594358 0.132264
0.641845 0.606075 0.132984
0.670034 0.618298 0.135056
0.695556 0.629108 0.137421
0.720673 0.639231 0.139800
0.744877 0.649671 0.142154
0.768900 0.660422 0.144483
0.802375 0.671436 0.146786
0.840775 0.682697 0.149063
0.876012 0.694190 0.152696
0.901520 0.705901 0.157012
0.926895 0.717695 0.161334
0.941755 0.729328 0.165660
0.955836 0.741124 0.171275
0.162622 0.518141 0.126067
0.162890 0.518317 0.126067
0.163775 0.518949 0.126067
0.165161 0.520110 0.126067
0.167036 0.521843 0.126067
0.171809 0.524176 0.126067
0.180479 0.527131 0.126067
0.193567 0.530668 0.126067
0.221803 0.534794 0.126185
0.257208 0.539552 0.126601
0.289600 0.544942 0.127037
0.319464 0.550963 0.127489
0.355951 0.557607 0.127950
0.396540 0.564867 0.128416
0.439745 0.572734 0.128882
0.479448 0.581194 0.129596
0.518995 0.590277 0.130337
0.551279 0.599940 0.131071
0.581650 0.610158 0.131794
0.612253 0.620912 0.132507
0.642915 0.630015 0.133608
0.670875 0.639062 0.135736
0.696346 0.648457 0.138093
0.721388 0.658200 0.140431
0.745551 0.668246 0.142748
0.769538 0.678576 0.145043
0.803346 0.689176 0.147315
0.841713 0.700029 0.149562
0.876607 0.711122 0.153608
0.902088 0.722141 0.157889
0.927437 0.733220 0.162177
0.942047 0.744483 0.166472
0.956113 0.754990 0.172426
0.163387 0.549997 0.126067
0.163628 0.550160 0.126067
0.164430 0.550744 0.126067
0.165706 0.551816 0.126067
0.168193 0.553417 0.126067
0.172737 0.555574 0.126067
0.182450 0.558307 0.126067
0.195365 0.561628 0.126222
0.225418 0.565549 0.126579
0.260583 0.570073 0.126965
0.292079 0.575203 0.127373
0.322171 0.580938 0.127797
0.358511 0.587299 0.128232
0.399222 0.594272 0.128674
0.441973 0.601835 0.129230
0.481494 0.609979 0.129945
0.520933 0.618693 0.130658
0.552645 0.626762 0.131366
0.582929 0.634314 0.132066
0.613461 0.642245 0.132758
0.644053 0.650564 0.134306
0.671768 0.659249 0.136485
0.697185 0.668267 0.138797
0.722149 0.677604 0.141093
0.746269 0.687244 0.143371
0.770216 0.697172 0.145631
0.804380 0.707374 0.147870
0.842711 0.717713 0.150342
0.877239 0.728002 0.154572
0.902692 0.738508 0.158815
0.928014 0.749118 0.163068
0.942358 0.758668 0.167378
0.956408 0.768359 0.173646
0.164118 0.581827 0.126067
0.164336 0.581982 0.126067
0.165066 0.582537 0.126067
0.166242 0.583559 0.126067
0.169355 0.585090 0.126067
0.173680 0.587153 0.126085
0.184485 0.589768 0.126340
0.198908 0.592949 0.126636
0.229225 0.596705 0.126966
0.264021 0.601043 0.127325
0.294691 0.605966 0.127706
0.325031 0.611474 0.128105
0.361217 0.617564 0.128516
0.402061 0.623884 0.128936
0.444330 0.629466 0.129616
0.483659 0.635467 0.130301
0.522984 0.641876 0.130986
0.554091 0.648697 0.131669
0.584290 0.655922 0.132346
0.614740 0.663520 0.133038
0.645258 0.671477 0.135030
0.672715 0.679780 0.137264
0.698075 0.688414 0.139529
0.722955 0.697366 0.141783
0.747029 0.706621 0.144022
0.770935 0.716109 0.146246
0.805476 0.725548 0.148451
0.843770 0.735234 0.151397
0.877911 0.745154 0.155586
0.903332 0.754445 0.159790
0.928427 0.763505 0.164006
0.942688 0.772722 0.168699
0.956720 0.782088 0.174935
0.164818 0.614079 0.126067
0.165016 0.614227 0.126067
0.165683 0.614759 0.126094
0.166858 0.615736 0.126194
0.170519 0.617196 0.126342
0.175204 0.619163 0.126534
0.186580 0.621657 0.126768
0.203057 0.624238 0.127041
0.233475 0.627004 0.127347
0.267633 0.630195 0.127681
0.297435 0.633813 0.128037
0.328043 0.637857 0.128412
0.364071 0.642323 0.128801
0.405057 0.647216 0.129357
0.446818 0.652537 0.130006
0.485945 0.658264 0.130662
0.525150 0.664388 0.131320
0.555617 0.670899 0.131978
0.585727 0.677786 0.132633
0.616091 0.685037 0.133836
0.646537 0.692641 0.135847
0.673714 0.700585 0.138071
0.699015 0.708858 0.140290
0.723806 0.717339 0.142500
0.747833 0.725883 0.144700
0.771695 0.734701 0.146886
0.806636 0.743781 0.149058
0.844890 0.752529 0.152503
0.878621 0.760904 0.156649
0.904009 0.769464 0.160813
0.928796 0.778197 0.164992
0.943037 0.787093 0.170091
0.957051 0.795287 0.176293
0.165490 0.641060 0.126501
0.165670 0.641169 0.126515
0.166281 0.641557 0.126566
0.168236 0.642272 0.126658
0.171683 0.643339 0.126792
0.177714 0.644776 0.126969
0.188730 0.646603 0.127185
0.207390 0.648829 0.127436
0.237900 0.651458 0.127720
0.271420 0.654493 0.128031
0.300308 0.657936 0.128366
0.331206 0.661787 0.128718
0.367070 0.666044 0.129175
0.408211 0.670704 0.129781
0.449435 0.675761 0.130400
0.488350 0.681209 0.131028
0.527311 0.687041 0.131660
0.557223 0.693248 0.132294
0.587241 0.699820 0.132926
0.617513 0.706748 0.134657
0.647885 0.714022 0.136732
0.674768 0.721363 0.138905
0.700005 0.728984 0.141077
0.724704 0.736902 0.143244
0.748679 0.745104 0.145403
0.772496 0.752941 0.147552
0.807859 0.760590 0.149689
0.846072 0.768448 0.153658
0.879369 0.776502 0.157760
0.904723 0.784743 0.161883
0.929185 0.792768 0.166023
0.943404 0.800020 0.171552
0.957399 0.807392 0.177719
0.166136 0.666080 0.126961
0.166300 0.666183 0.126974
0.167107 0.666553 0.127021
0.169596 0.667232 0.127105
0.172844 0.668247 0.127228
0.180265 0.669614 0.127390
0.191026 0.671348 0.127589
0.211937 0.673457 0.127823
0.242526 0.675949 0.128086
0.275116 0.678827 0.128377
0.303308 0.682094 0.128690
0.334519 0.685752 0.129074
0.370214 0.689798 0.129631
0.411523 0.694230 0.130207
0.452181 0.699043 0.130797
0.490875 0.704234 0.131397
0.529151 0.709795 0.132004
0.558909 0.715681 0.132614
0.588830 0.721718 0.133661
0.619008 0.728087 0.135526
0.649301 0.734777 0.137642
0.675874 0.741780 0.139764
0.701046 0.749001 0.141889
0.725647 0.755658 0.144012
0.749570 0.762554 0.146130
0.773338 0.769677 0.148241
0.809146 0.777019 0.150830
0.847315 0.784568 0.154861
0.880157 0.792053 0.158919
0.905475 0.798759 0.162999
0.929594 0.805605 0.167099
0.943791 0.812584 0.173082
0.957766 0.819687 0.179213
0.166828 0.691017 0.127404
0.167229 0.691115 0.127416
0.168611 0.691466 0.127458
0.170936 0.692110 0.127536
0.174000 0.693073 0.127649
0.182852 0.694370 0.127799
0.193452 0.696016 0.127983
0.216790 0.698018 0.128200
0.247350 0.700385 0.128445
0.278745 0.703120 0.128717
0.306435 0.706227 0.129056
0.337982 0.709706 0.129558
0.373767 0.713558 0.130085
0.414992 0.717662 0.130632
0.455057 0.722073 0.131195
0.493521 0.726833 0.131769
0.531039 0.731935 0.132352
0.560674 0.737374 0.132939
0.590495 0.743143 0.134574
0.620574 0.749132 0.136513
0.650786 0.754745 0.138575
0.677034 0.760619 0.140647
0.702138 0.766747 0.142724
0.726636 0.773118 0.144803
0.750504 0.779725 0.146880
0.774222 0.786557 0.148953
0.810498 0.793144 0.152129
0.848621 0.799275 0.156112
0.880983 0.805564 0.160124
0.906263 0.812004 0.164161
0.930023 0.818586 0.168679
0.944197 0.825303 0.174681
0.958151 0.832148 0.180775
0.168423 0.715811 0.127831
0.168795 0.715900 0.127842
0.170080 0.716221 0.127881
0.172257 0.716810 0.127952
0.176539 0.717690 0.128057
0.185471 0.718876 0.128195
0.196131 0.720380 0.128366
0.221824 0.722211 0.128568
0.252370 0.724375 0.128797
0.282513 0.726878 0.129121
0.309685 0.729721 0.129564
0.341592 0.732907 0.130038
0.377543 0.736434 0.130537
0.418619 0.740303 0.131057
0.458062 0.744510 0.131594
0.496286 0.748973 0.132143
0.533012 0.753244 0.132702
0.562518 0.757797 0.133788
0.592236 0.762626 0.135532
0.622212 0.767724 0.137521
0.652339 0.773084 0.139529
0.678247 0.778700 0.141551
0.703280 0.784563 0.143582
0.727671 0.790658 0.145617
