velvia/Velvia50_Modern_ExtraPunchy.cube
TITLE "Velvia 50 Modern ExtraPunchy"
# Adobe RGB in/out. REPLACES AgX. Velvia 50 Modern ExtraPunchy.
LUT_3D_SIZE 5
DOMAIN_MIN 0.0 0.0 0.0
DOMAIN_MAX 1.0 1.0 1.0
0.078962 0.074438 0.068230
0.323063 0.075051 0.068230
0.832157 0.378991 0.068230
0.940430 0.684910 0.068706
0.962781 0.835504 0.074536
0.078962 0.172284 0.068230
0.138605 0.102521 0.068230
0.740232 0.430778 0.068230
0.926082 0.705762 0.068542
0.960055 0.844819 0.072944
0.078962 0.744163 0.068230
0.222947 0.685174 0.068230
0.647378 0.661680 0.068230
0.890143 0.788258 0.068314
0.953011 0.876386 0.070618
0.080497 0.895143 0.068230
0.242567 0.889482 0.068230
0.660632 0.881407 0.068230
0.871401 0.887876 0.068369
0.944356 0.910660 0.069790
0.089052 0.932596 0.068230
0.241996 0.931777 0.068230
0.640576 0.930694 0.068230
0.862114 0.932747 0.068529
0.935715 0.937914 0.070202
0.078962 0.074438 0.289932
0.341596 0.075595 0.310486
0.819226 0.362790 0.234828
0.933345 0.666722 0.233929
0.961740 0.827786 0.269549
0.078962 0.096365 0.128665
0.087840 0.076854 0.070531
0.696856 0.379369 0.108503
0.920133 0.683773 0.169245
0.959005 0.836872 0.228693
0.078962 0.689864 0.142134
0.184986 0.637447 0.104165
0.610465 0.617239 0.082149
0.879578 0.774469 0.104993
0.951652 0.871100 0.160902
0.079998 0.889543 0.110043
0.229199 0.884185 0.104782
0.648046 0.873497 0.094386
0.865633 0.883990 0.098971
0.943084 0.908704 0.126981
0.088358 0.931486 0.090231
0.237717 0.930734 0.090093
0.637211 0.929826 0.091858
0.860596 0.932148 0.101428
0.935024 0.937829 0.122706
0.078962 0.074438 0.923487
0.341596 0.076808 0.924315
0.864963 0.473090 0.922789
0.938820 0.685832 0.865969
0.961273 0.825741 0.821767
0.078962 0.172654 0.912931
0.264637 0.245755 0.884446
0.762918 0.478893 0.838748
0.922686 0.695341 0.813768
0.958363 0.833241 0.797526
0.078962 0.609975 0.786478
0.140801 0.580034 0.729702
0.529091 0.534938 0.580767
0.870012 0.756964 0.685783
0.950053 0.865418 0.732353
0.079237 0.873808 0.767330
0.195148 0.867212 0.739535
0.624778 0.856485 0.675525
0.853707 0.871978 0.641201
0.940622 0.905070 0.671425
0.086712 0.928625 0.688207
0.221032 0.928098 0.679763
0.629005 0.927746 0.659936
0.856944 0.930754 0.647348
0.934016 0.937644 0.656739
0.078962 0.074438 0.966316
0.341596 0.080806 0.966352
0.872132 0.503679 0.966625
0.948060 0.742521 0.959840
0.962481 0.838164 0.944792
0.078962 0.235699 0.966328
0.357658 0.384572 0.966376
0.842411 0.605924 0.964395
0.932289 0.754418 0.950617
0.959486 0.844823 0.939651
0.078962 0.621366 0.941035
0.168709 0.625653 0.936831
0.649647 0.674551 0.931029
0.887090 0.788363 0.929620
0.950816 0.869879 0.929042
0.079124 0.852342 0.930551
0.171525 0.847577 0.928481
0.603120 0.842190 0.914500
0.840366 0.858023 0.894247
0.938491 0.903663 0.908716
0.085253 0.925176 0.921902
0.206599 0.924997 0.918514
0.616999 0.925499 0.909657
0.853377 0.929373 0.902247
0.933573 0.937514 0.901913
0.078962 0.074445 0.975638
0.341596 0.096573 0.975646
0.872132 0.533029 0.975674
0.952383 0.784148 0.974790
0.964085 0.855385 0.969696
0.078962 0.286275 0.975641
0.357658 0.426353 0.975649
0.869222 0.680029 0.975565
0.943779 0.792568 0.973728
0.961198 0.862326 0.967712
0.078962 0.701932 0.971950
0.233491 0.717768 0.970897
0.736873 0.771566 0.968117
0.905404 0.822408 0.965775
0.953175 0.881525 0.964326
0.079104 0.846826 0.963900
0.168354 0.847749 0.962354
0.619677 0.857550 0.958420
0.860238 0.882244 0.955456
0.941257 0.907578 0.954483
0.083976 0.922246 0.956114
0.194608 0.922454 0.955356
0.607261 0.923946 0.952858
0.850741 0.928724 0.950529
0.933381 0.937560 0.950254
