velvia/Velvia50_Classic_Normal.cube
TITLE "Velvia 50 Classic Normal"
# Adobe RGB in/out. REPLACES AgX. Velvia 50 Classic Normal.
LUT_3D_SIZE 33
DOMAIN_MIN 0.0 0.0 0.0
DOMAIN_MAX 1.0 1.0 1.0
0.090873 0.083221 0.090772
0.090873 0.083221 0.090772
0.090873 0.083221 0.090772
0.090922 0.083221 0.090772
0.091111 0.083221 0.090772
0.091751 0.083221 0.090772
0.092562 0.083285 0.090772
0.094957 0.083412 0.090772
0.099253 0.083591 0.090772
0.107890 0.083845 0.090772
0.126406 0.084198 0.090772
0.165117 0.084661 0.090772
0.219991 0.085450 0.090772
0.278414 0.086632 0.090772
0.359514 0.088442 0.090773
0.464379 0.090967 0.090779
0.567013 0.098135 0.090784
0.663293 0.104797 0.090788
0.739352 0.116718 0.090793
0.798253 0.139854 0.090800
0.844488 0.171082 0.090806
0.880807 0.209818 0.090812
0.906053 0.254308 0.090818
0.921459 0.303701 0.090830
0.934550 0.354054 0.090846
0.945304 0.407960 0.090861
0.953362 0.466588 0.090889
0.960409 0.519620 0.090919
0.966307 0.576418 0.090948
0.971271 0.627526 0.090977
0.976090 0.676605 0.091029
0.980327 0.726659 0.091079
0.982261 0.770478 0.091128
0.090873 0.083221 0.090772
0.090873 0.083221 0.090772
0.090873 0.083221 0.090772
0.090923 0.083221 0.090772
0.091113 0.083221 0.090772
0.091752 0.083223 0.090772
0.092565 0.083293 0.090772
0.094964 0.083432 0.090772
0.099259 0.083606 0.090772
0.107899 0.083874 0.090772
0.126434 0.084222 0.090772
0.165161 0.084705 0.090772
0.220035 0.085518 0.090772
0.278477 0.086727 0.090772
0.359578 0.088524 0.090774
0.464432 0.091145 0.090779
0.567070 0.098433 0.090784
0.663337 0.105116 0.090788
0.739386 0.117374 0.090793
0.798282 0.140717 0.090800
0.844510 0.172107 0.090806
0.880818 0.210748 0.090812
0.906063 0.255901 0.090818
0.921464 0.305608 0.090830
0.934555 0.355148 0.090846
0.945307 0.409296 0.090861
0.953364 0.467730 0.090889
0.960411 0.520791 0.090919
0.966309 0.577617 0.090948
0.971272 0.628404 0.090977
0.976092 0.677753 0.091029
0.980327 0.727440 0.091079
0.982262 0.771250 0.091128
0.090873 0.083221 0.090772
0.090873 0.083221 0.090772
0.090873 0.083221 0.090772
0.090926 0.083221 0.090772
0.091122 0.083221 0.090772
0.091757 0.083263 0.090772
0.092574 0.083326 0.090772
0.094991 0.083500 0.090772
0.099280 0.083657 0.090772
0.107934 0.083975 0.090772
0.126533 0.084303 0.090772
0.165317 0.084856 0.090772
0.220192 0.085755 0.090772
0.278703 0.087062 0.090772
0.359809 0.088815 0.090774
0.464624 0.092171 0.090779
0.567276 0.099381 0.090784
0.663496 0.106258 0.090788
0.739508 0.119737 0.090793
0.798385 0.144257 0.090800
0.844587 0.175811 0.090806
0.880860 0.214101 0.090812
0.906102 0.261672 0.090818
0.921483 0.312516 0.090830
0.934573 0.359275 0.090846
0.945318 0.414109 0.090861
0.953373 0.471838 0.090889
0.960419 0.525000 0.090920
0.966314 0.581927 0.090949
0.971278 0.631557 0.090977
0.976097 0.681878 0.091029
0.980329 0.730243 0.091080
0.982264 0.773593 0.091128
0.090873 0.083221 0.090772
0.090873 0.083221 0.090772
0.090873 0.083221 0.090772
0.090931 0.083231 0.090772
0.091137 0.083274 0.090772
0.091767 0.083319 0.090772
0.092591 0.083465 0.090772
0.095041 0.083607 0.090772
0.099319 0.083829 0.090772
0.107998 0.084146 0.090772
0.126716 0.084487 0.090772
0.165604 0.085119 0.090772
0.220481 0.086172 0.090772
0.279120 0.087656 0.090772
0.360233 0.089335 0.090774
0.464977 0.094225 0.090779
0.567654 0.100943 0.090784
0.663789 0.108721 0.090789
0.739734 0.124179 0.090794
0.798576 0.150614 0.090800
0.844728 0.182932 0.090806
0.880936 0.220313 0.090812
0.906172 0.269637 0.090818
0.921519 0.323244 0.090831
0.934606 0.367932 0.090846
0.945339 0.423019 0.090861
0.953390 0.479418 0.090890
0.960435 0.532766 0.090920
0.966325 0.589676 0.090949
0.971288 0.637356 0.090978
0.976106 0.689480 0.091030
0.980333 0.735396 0.091080
0.982267 0.777825 0.091129
0.090873 0.083285 0.090772
0.090873 0.083288 0.090772
0.090873 0.083301 0.090772
0.090939 0.083326 0.090772
0.091160 0.083415 0.090772
0.091781 0.083518 0.090772
0.092617 0.083628 0.090772
0.095116 0.083823 0.090772
0.099377 0.084100 0.090772
0.108093 0.084370 0.090772
0.126989 0.084913 0.090772
0.166033 0.085732 0.090772
0.220914 0.086864 0.090772
0.279744 0.088496 0.090772
0.360867 0.090759 0.090774
0.465504 0.097231 0.090779
0.568220 0.103225 0.090784
0.664227 0.113177 0.090789
0.740071 0.132416 0.090794
0.798860 0.160318 0.090800
0.844940 0.194569 0.090807
0.881049 0.231928 0.090813
0.906278 0.281113 0.090818
0.921572 0.333840 0.090831
0.934655 0.380718 0.090847
0.945370 0.436479 0.090862
0.953414 0.490807 0.090891
0.960458 0.544432 0.090921
0.966341 0.601031 0.090950
0.971302 0.646024 0.090980
0.976120 0.700639 0.091031
0.980339 0.743091 0.091082
0.982272 0.784136 0.091130
0.090873 0.083505 0.090772
0.090873 0.083512 0.090772
0.090873 0.083537 0.090772
0.090950 0.083581 0.090772
0.091190 0.083641 0.090772
0.091800 0.083758 0.090772
0.092651 0.083962 0.090772
0.095216 0.084180 0.090772
0.099455 0.084404 0.090772
0.108221 0.084911 0.090772
0.127358 0.085616 0.090772
0.166614 0.086554 0.090772
0.221499 0.088055 0.090772
0.280588 0.089661 0.090772
0.361725 0.094529 0.090775
0.466217 0.100740 0.090780
0.568985 0.107628 0.090785
0.664818 0.121036 0.090789
0.740527 0.144309 0.090794
0.799244 0.173851 0.090801
0.845226 0.210500 0.090807
0.881203 0.252325 0.090813
0.906421 0.297557 0.090819
0.921644 0.348306 0.090832
0.934721 0.398253 0.090847
0.945413 0.454914 0.090862
0.953448 0.506294 0.090892
0.960489 0.560286 0.090922
0.966363 0.613818 0.090951
0.971322 0.657726 0.090982
0.976139 0.711130 0.091033
0.980346 0.753465 0.091083
0.982279 0.792629 0.091132
0.090873 0.083846 0.090772
0.090873 0.083858 0.090772
0.090873 0.083900 0.090772
0.090962 0.083976 0.090772
0.091227 0.084082 0.090772
0.091823 0.084216 0.090772
0.092716 0.084370 0.090772
0.095342 0.084708 0.090772
0.099554 0.085119 0.090772
0.108383 0.085850 0.090772
0.127827 0.086712 0.090772
0.167354 0.088066 0.090772
0.222244 0.089461 0.090772
0.281663 0.093468 0.090772
0.362817 0.099495 0.090775
0.467124 0.105225 0.090780
0.569957 0.115204 0.090785
0.665570 0.134501 0.090790
0.741106 0.160857 0.090795
0.799733 0.192864 0.090801
0.845590 0.227480 0.090807
0.881398 0.274886 0.090813
0.906602 0.325959 0.090819
0.921735 0.368605 0.090833
0.934806 0.420975 0.090848
0.945466 0.475328 0.090863
0.953490 0.526148 0.090894
0.960528 0.580600 0.090924
0.966390 0.628745 0.090953
0.971348 0.675773 0.090984
0.976162 0.724431 0.091036
0.980355 0.766620 0.091086
0.982288 0.803374 0.091134
0.090873 0.084363 0.090772
0.090873 0.084372 0.090772
0.090873 0.084403 0.090772
0.090977 0.084522 0.090772
0.091271 0.084701 0.090772
0.091852 0.084929 0.090772
0.092796 0.085208 0.090772
0.095495 0.085781 0.090772
0.099674 0.086407 0.090772
0.108581 0.087389 0.090772
0.128400 0.088538 0.090772
0.168259 0.089936 0.090772
0.223154 0.094126 0.090772
0.282979 0.099573 0.090772
0.364153 0.104746 0.090776
0.468233 0.113647 0.090781
0.571146 0.130091 0.090786
0.666489 0.153822 0.090790
0.741813 0.182284 0.090796
0.800330 0.216105 0.090802
0.846034 0.258763 0.090808
0.881637 0.301433 0.090814
0.906823 0.348365 0.090819
0.921847 0.395657 0.090834
0.934909 0.449366 0.090849
0.945531 0.499266 0.090865
0.953542 0.550639 0.090896
0.960576 0.604666 0.090926
0.966423 0.646952 0.090954
0.971379 0.699665 0.090987
0.976191 0.740616 0.091038
0.980367 0.780741 0.091088
0.982299 0.816418 0.091136
0.090873 0.085454 0.090772
0.090873 0.085482 0.090772
0.090873 0.085581 0.090772
0.090993 0.085759 0.090772
0.091321 0.086017 0.090772
0.091884 0.086352 0.090772
0.092889 0.086868 0.090772
0.095675 0.087639 0.090772
0.099816 0.088497 0.090772
0.108862 0.089464 0.090772
0.129080 0.091845 0.090772
0.169335 0.096502 0.090772
0.224236 0.100992 0.090772
0.284543 0.106088 0.090772
0.365741 0.114755 0.090777
0.469549 0.130538 0.090782
0.572558 0.152511 0.090786
0.667579 0.178722 0.090791
0.742652 0.211275 0.090796
0.801038 0.247485 0.090803
0.846561 0.288571 0.090809
0.881919 0.336385 0.090814
0.907086 0.378564 0.090820
0.921979 0.428686 0.090836
0.935031 0.479521 0.090851
0.945609 0.528028 0.090868
0.953604 0.580040 0.090898
0.960633 0.626506 0.090928
0.966463 0.670445 0.090956
0.971416 0.719143 0.090991
0.976226 0.759743 0.091042
0.980381 0.796406 0.091091
0.982312 0.826080 0.091139
0.090873 0.087555 0.090772
0.090873 0.087591 0.090772
0.090878 0.087721 0.090772
0.091011 0.087955 0.090772
0.091378 0.088298 0.090772
0.091922 0.088747 0.090772
0.092996 0.089297 0.090772
0.095882 0.090422 0.090772
0.100149 0.092939 0.090772
0.109344 0.096536 0.090772
0.129870 0.100208 0.090772
0.170587 0.103901 0.090772
0.225494 0.109906 0.090772
0.286366 0.119874 0.090773
0.367589 0.135929 0.090778
0.471079 0.156941 0.090783
0.574199 0.181599 0.090787
0.668846 0.211970 0.090791
0.743627 0.245646 0.090797
0.801860 0.284895 0.090803
0.847173 0.330915 0.090809
0.882248 0.369432 0.090815
0.907391 0.416425 0.090822
0.922132 0.466828 0.090837
0.935173 0.512674 0.090852
0.945699 0.561903 0.090871
0.953675 0.611361 0.090901
0.960699 0.651618 0.090930
0.966509 0.702347 0.090959
0.971459 0.741482 0.090995
0.976266 0.780093 0.091046
0.980397 0.814441 0.091095
0.982326 0.834092 0.091143
0.090873 0.090983 0.090772
0.090873 0.091056 0.090772
0.090909 0.091347 0.090772
0.091030 0.092199 0.090772
0.091439 0.093461 0.090772
0.091963 0.095146 0.090772
0.093116 0.097254 0.090772
0.096115 0.099611 0.090772
0.100549 0.101979 0.090772
0.110003 0.105244 0.090772
0.130771 0.110254 0.090772
0.172020 0.118052 0.090772
0.226933 0.130567 0.090772
0.288454 0.147249 0.090774
0.369705 0.167400 0.090779
0.472829 0.191599 0.090783
0.576075 0.218276 0.090788
0.670293 0.253247 0.090792
0.744740 0.288323 0.090798
0.802799 0.331953 0.090804
0.847872 0.368151 0.090810
0.882622 0.412425 0.090816
0.907739 0.461152 0.090824
0.922307 0.504527 0.090839
0.935334 0.551167 0.090854
0.945802 0.600436 0.090874
0.953757 0.640092 0.090904
0.960775 0.685826 0.090933
0.966562 0.727976 0.090961
0.971508 0.766850 0.091000
0.976311 0.800869 0.091050
0.980415 0.827468 0.091099
0.982343 0.843050 0.091146
0.090873 0.101332 0.090772
0.090873 0.101427 0.090772
0.090940 0.101769 0.090772
0.091049 0.102394 0.090772
0.091505 0.103360 0.090772
0.092008 0.105114 0.090772
0.093248 0.107427 0.090772
0.096375 0.111025 0.090772
0.101049 0.115848 0.090772
0.110743 0.123584 0.090772
0.131922 0.134719 0.090772
0.173640 0.148598 0.090772
0.228558 0.165207 0.090772
0.290816 0.184825 0.090775
0.372096 0.209411 0.090780
0.474802 0.232901 0.090784
0.578191 0.268524 0.090789
0.671924 0.300904 0.090793
0.745994 0.339587 0.090799
0.803857 0.374776 0.090805
0.848659 0.416690 0.090811
0.883044 0.462511 0.090817
0.908131 0.503590 0.090826
0.922505 0.547819 0.090841
0.935517 0.594851 0.090856
0.945917 0.634030 0.090878
0.953848 0.675512 0.090908
0.960860 0.719330 0.090936
0.966621 0.756666 0.090964
0.971563 0.791199 0.091005
0.976363 0.822535 0.091055
0.980435 0.837724 0.091104
0.982363 0.852914 0.091151
0.090873 0.116806 0.090772
0.090895 0.117074 0.090772
0.090971 0.118041 0.090772
0.091070 0.119823 0.090772
0.091575 0.122503 0.090772
0.092056 0.126695 0.090772
0.093391 0.132519 0.090772
0.096659 0.139772 0.090772
0.101601 0.149455 0.090772
0.111565 0.160961 0.090772
0.133345 0.174565 0.090772
0.175452 0.191427 0.090772
0.230373 0.211348 0.090772
0.293445 0.230846 0.090777
0.374769 0.262343 0.090781
0.477004 0.288375 0.090786
0.580552 0.325891 0.090790
0.673742 0.354002 0.090795
0.747392 0.389545 0.090801
0.805035 0.429398 0.090806
0.849535 0.470992 0.090812
0.883514 0.509926 0.090818
0.908568 0.551903 0.090828
0.922724 0.596490 0.090843
0.935720 0.633496 0.090858
0.946046 0.672462 0.090882
0.953951 0.715629 0.090911
0.960955 0.751385 0.090940
0.966687 0.785535 0.090968
0.971624 0.817130 0.091011
0.976420 0.834099 0.091060
0.980458 0.848855 0.091109
0.982384 0.859884 0.091155
0.090912 0.155086 0.090772
0.090935 0.155488 0.090772
0.091001 0.156936 0.090772
0.091164 0.159615 0.090772
0.091649 0.163660 0.090772
0.092112 0.169196 0.090772
0.093546 0.176353 0.090772
0.096968 0.185719 0.090772
0.102206 0.197791 0.090772
0.112469 0.211433 0.090772
0.134921 0.224091 0.090772
0.177459 0.245734 0.090772
0.232381 0.269883 0.090774
0.296163 0.291666 0.090778
0.377731 0.324927 0.090783
0.479440 0.348946 0.090787
0.583164 0.378566 0.090791
0.675751 0.412873 0.090796
0.748635 0.450904 0.090802
0.806174 0.486744 0.090808
0.850503 0.523662 0.090813
0.884033 0.563525 0.090818
0.909050 0.605429 0.090831
0.922967 0.638543 0.090846
0.935944 0.676726 0.090860
0.946189 0.716934 0.090886
0.954064 0.751073 0.090916
0.961060 0.783952 0.090944
0.966760 0.814259 0.090971
0.971692 0.832240 0.091017
0.976483 0.846493 0.091066
0.980483 0.857648 0.091114
0.982407 0.873144 0.091161
0.090953 0.209992 0.090772
0.090972 0.210374 0.090772
0.091030 0.211744 0.090772
0.091273 0.214274 0.090772
0.091725 0.218075 0.090772
0.092257 0.223246 0.090772
0.093711 0.232161 0.090772
0.097301 0.244976 0.090772
0.102862 0.260989 0.090772
0.113455 0.275070 0.090772
0.136651 0.290792 0.090772
0.179667 0.316662 0.090772
0.234587 0.336528 0.090776
0.299153 0.356787 0.090780
0.380989 0.383114 0.090784
0.482112 0.412556 0.090788
0.586030 0.445355 0.090792
0.677953 0.477731 0.090798
0.749778 0.509988 0.090803
0.807296 0.544992 0.090809
0.851563 0.582852 0.090814
0.884601 0.617886 0.090820
0.909578 0.649208 0.090834
0.923232 0.688390 0.090848
0.936189 0.723281 0.090863
0.946345 0.755774 0.090891
0.954187 0.786496 0.090920
0.961175 0.815456 0.090948
0.966839 0.832187 0.090975
0.971766 0.845875 0.091024
0.976553 0.857178 0.091073
0.980511 0.871249 0.091120
0.982433 0.887300 0.091167
0.090991 0.278459 0.090772
0.091007 0.278937 0.090772
0.091059 0.280656 0.090772
0.091381 0.283829 0.090772
0.091803 0.288601 0.090772
0.092407 0.295097 0.090772
0.093886 0.307895 0.090772
0.097656 0.322709 0.090772
0.103568 0.333527 0.090772
0.114525 0.346218 0.090772
0.138538 0.361551 0.090772
0.182080 0.381039 0.090773
0.236996 0.403219 0.090777
0.302423 0.428269 0.090781
0.385895 0.456380 0.090785
0.486707 0.482587 0.090789
0.589154 0.510510 0.090793
0.680352 0.541004 0.090799
0.751021 0.574171 0.090805
0.808517 0.608089 0.090810
0.852716 0.635982 0.090816
0.885219 0.666505 0.090822
0.910018 0.705192 0.090837
0.923521 0.734683 0.090851
0.936456 0.765508 0.090867
0.946514 0.793180 0.090897
0.954322 0.820702 0.090925
0.961300 0.833957 0.090953
0.966926 0.847022 0.090982
0.971847 0.857407 0.091032
0.976628 0.871259 0.091080
0.980541 0.886709 0.091127
0.982461 0.902296 0.091176
0.091026 0.354329 0.090772
0.091041 0.354777 0.090772
0.091142 0.356389 0.090772
0.091490 0.359629 0.090772
0.091883 0.364968 0.090772
0.092564 0.372006 0.090772
0.094198 0.381030 0.090772
0.098033 0.392162 0.090772
0.104324 0.405533 0.090772
0.115676 0.421276 0.090772
0.140667 0.439536 0.090772
0.184704 0.460468 0.090775
0.239609 0.479747 0.090779
0.305979 0.501261 0.090783
0.391482 0.525101 0.090787
0.497027 0.551359 0.090791
0.592542 0.580129 0.090795
0.682948 0.609100 0.090801
0.752365 0.633600 0.090806
0.809838 0.659724 0.090812
0.853963 0.695376 0.090817
0.885886 0.723331 0.090826
0.910409 0.751130 0.090840
0.923833 0.778783 0.090854
0.936745 0.803989 0.090874
0.946698 0.825322 0.090902
0.954468 0.837536 0.090930
0.961435 0.849932 0.090957
0.967020 0.858571 0.090991
0.971935 0.873186 0.091040
0.976710 0.887985 0.091087
0.980573 0.902952 0.091134
0.982491 0.918072 0.091185
0.091060 0.437633 0.090772
0.091072 0.438195 0.090772
0.091281 0.440214 0.090772
0.091598 0.443940 0.090772
0.091964 0.449535 0.090772
0.092764 0.457137 0.090772
0.094693 0.465681 0.090772
0.098430 0.475411 0.090772
0.105128 0.487021 0.090772
0.116910 0.500591 0.090772
0.143148 0.516201 0.090774
0.187542 0.533931 0.090778
0.242432 0.553865 0.090781
0.309829 0.576087 0.090785
0.396873 0.599956 0.090788
0.501893 0.620817 0.090792
0.596196 0.641978 0.090797
0.685746 0.665488 0.090803
0.753811 0.697530 0.090808
0.811259 0.721737 0.090813
0.855306 0.746485 0.090818
0.886605 0.772403 0.090830
0.910830 0.795154 0.090844
0.924169 0.818877 0.090858
0.937056 0.831415 0.090880
0.946895 0.842887 0.090908
0.954624 0.854577 0.090936
0.961580 0.863135 0.090963
0.967121 0.877022 0.091000
0.972029 0.891126 0.091048
0.976798 0.905430 0.091095
0.980608 0.919917 0.091141
0.982524 0.928499 0.091196
0.091168 0.520001 0.090772
0.091226 0.520481 0.090772
0.091415 0.522205 0.090772
0.091704 0.525379 0.090772
0.092045 0.530137 0.090772
0.093020 0.536581 0.090772
0.095209 0.544803 0.090772
0.098847 0.554886 0.090772
0.105979 0.566911 0.090772
0.118225 0.580956 0.090773
0.145821 0.596548 0.090776
0.190600 0.611933 0.090780
0.245469 0.626744 0.090783
0.313979 0.643088 0.090787
0.402153 0.660984 0.090790
0.503947 0.686098 0.090794
0.600121 0.709503 0.090800
0.688746 0.729836 0.090805
0.755359 0.751534 0.090810
0.812780 0.774069 0.090815
0.856743 0.794302 0.090820
0.887374 0.815543 0.090834
0.911281 0.828800 0.090847
0.924529 0.839242 0.090861
0.937388 0.849951 0.090887
0.947106 0.857690 0.090915
0.954792 0.869610 0.090942
0.961736 0.882736 0.090968
0.967230 0.896110 0.091009
0.972130 0.909714 0.091057
0.976892 0.923531 0.091104
0.980645 0.929530 0.091149
0.982559 0.934423 0.091206
0.091323 0.605622 0.090772
0.091375 0.605983 0.090772
0.091544 0.607277 0.090772
0.091809 0.609659 0.090772
0.092165 0.613221 0.090772
0.093282 0.618033 0.090772
0.095744 0.624149 0.090772
0.099281 0.631616 0.090772
0.106876 0.640474 0.090773
0.119621 0.650756 0.090776
0.149762 0.662554 0.090779
0.194601 0.679870 0.090782
0.248722 0.699280 0.090785
0.318436 0.714173 0.090788
0.407758 0.730147 0.090792
0.506137 0.747473 0.090797
0.604321 0.766155 0.090802
0.691951 0.783692 0.090807
0.757010 0.801381 0.090812
0.814403 0.820104 0.090817
0.858277 0.829738 0.090824
0.888194 0.839068 0.090838
0.911730 0.848711 0.090851
0.924913 0.856765 0.090866
0.937743 0.865888 0.090894
0.947332 0.877935 0.090921
0.954971 0.890277 0.090948
0.961902 0.902895 0.090974
0.967345 0.915772 0.091020
0.972237 0.926522 0.091067
0.976992 0.931150 0.091113
0.980685 0.935552 0.091158
0.982596 0.938852 0.091221
0.091470 0.677076 0.090772
0.091516 0.677546 0.090772
0.091670 0.679236 0.090772
0.091913 0.682347 0.090772
0.092384 0.687005 0.090772
0.093548 0.693309 0.090772
0.096296 0.700952 0.090772
0.099732 0.707634 0.090773
0.107677 0.715551 0.090775
0.121098 0.724729 0.090778
0.154899 0.735188 0.090781
0.200695 0.746947 0.090784
0.252196 0.760019 0.090787
0.323208 0.773920 0.090790
0.413764 0.786965 0.090794
0.508465 0.801072 0.090799
0.608799 0.816232 0.090804
0.695363 0.826376 0.090809
0.758763 0.834175 0.090814
0.816129 0.842344 0.090818
0.859908 0.850863 0.090829
0.889065 0.857202 0.090842
0.912171 0.865913 0.090855
0.925320 0.876802 0.090874
0.938120 0.888030 0.090901
0.947572 0.899576 0.090928
0.955162 0.911423 0.090954
0.962079 0.923553 0.090983
0.967468 0.928976 0.091030
0.972352 0.933343 0.091077
0.977099 0.937052 0.091122
0.980728 0.939974 0.091167
0.982636 0.942910 0.091240
0.091610 0.748777 0.090772
0.091652 0.749095 0.090772
0.091791 0.750237 0.090772
0.092015 0.752338 0.090772
0.092602 0.755479 0.090772
0.093818 0.759720 0.090772
0.096863 0.765106 0.090774
0.100636 0.771644 0.090776
0.108468 0.778112 0.090778
0.123112 0.785597 0.090781
0.158401 0.794113 0.090783
0.207330 0.803666 0.090786
0.256485 0.814263 0.090789
0.328303 0.823398 0.090792
0.420184 0.829171 0.090797
0.515061 0.835364 0.090801
0.613560 0.841964 0.090806
0.698983 0.848957 0.090811
0.760621 0.855815 0.090815
0.817956 0.860371 0.090820
0.861636 0.869658 0.090833
0.889988 0.879338 0.090847
0.912639 0.889391 0.090859
0.925752 0.899801 0.090882
0.938520 0.910549 0.090909
0.947825 0.921619 0.090935
0.955363 0.927950 0.090961
0.962266 0.931986 0.090995
0.967598 0.935772 0.091042
0.972473 0.938685 0.091087
0.977213 0.941443 0.091132
0.980773 0.944223 0.091180
0.982678 0.946812 0.091261
0.091744 0.808195 0.090772
0.091782 0.808453 0.090772
0.091909 0.809378 0.090772
0.092132 0.811080 0.090773
0.092911 0.813621 0.090774
0.094253 0.817051 0.090775
0.097444 0.821092 0.090777
0.101808 0.823765 0.090779
0.109786 0.826626 0.090781
0.127529 0.829924 0.090783
0.162154 0.833658 0.090786
0.212160 0.837827 0.090788
0.261354 0.842424 0.090791
0.333727 0.847443 0.090795
0.427027 0.852876 0.090799
0.523480 0.856792 0.090804
0.618606 0.861384 0.090808
0.702814 0.868984 0.090813
0.762581 0.877014 0.090817
0.819886 0.885460 0.090825
0.863461 0.894308 0.090838
0.890962 0.903542 0.090851
0.913133 0.913145 0.090864
0.926208 0.923102 0.090891
0.938942 0.928091 0.090917
0.948094 0.931765 0.090943
0.955576 0.935322 0.090968
0.962464 0.938099 0.091007
0.967736 0.940654 0.091053
0.972602 0.943243 0.091098
0.977333 0.945863 0.091142
0.980821 0.947829 0.091195
0.982723 0.949653 0.091282
0.091872 0.841125 0.090775
0.091906 0.841237 0.090775
0.092022 0.841637 0.090775
0.092392 0.842372 0.090776
0.093246 0.843469 0.090777
0.094965 0.844946 0.090778
0.098036 0.846817 0.090780
0.103021 0.849092 0.090781
0.111628 0.851775 0.090783
0.130067 0.854870 0.090786
0.166142 0.856655 0.090788
0.216166 0.858346 0.090790
0.266529 0.863318 0.090794
0.339490 0.868756 0.090798
0.434306 0.874654 0.090802
0.531275 0.881003 0.090806
0.623824 0.887793 0.090811
0.706856 0.895013 0.090815
0.764646 0.902652 0.090819
0.821919 0.910697 0.090831
0.865384 0.919135 0.090844
0.891988 0.926195 0.090856
0.913653 0.929386 0.090874
0.926688 0.932678 0.090900
0.939387 0.935755 0.090925
0.948376 0.938225 0.090951
0.955801 0.940558 0.090975
0.962672 0.942937 0.091020
0.967881 0.945356 0.091065
0.972737 0.947352 0.091110
0.977459 0.949054 0.091153
0.980871 0.951084 0.091209
0.982770 0.954394 0.091304
0.091995 0.863360 0.090778
0.092026 0.863480 0.090778
0.092179 0.863912 0.090779
0.092647 0.864705 0.090779
0.093579 0.865889 0.090780
0.095684 0.867485 0.090781
0.098640 0.869508 0.090783
0.104272 0.871968 0.090784
0.113550 0.874873 0.090786
0.133115 0.878227 0.090788
0.170370 0.882034 0.090790
0.220401 0.886292 0.090793
0.272019 0.891001 0.090797
0.345598 0.896155 0.090801
0.442031 0.901750 0.090805
0.539542 0.907779 0.090809
0.630009 0.914233 0.090813
0.711112 0.921103 0.090817
0.766814 0.926344 0.090824
0.824055 0.929012 0.090837
0.867057 0.931797 0.090849
0.893066 0.934667 0.090861
0.914199 0.937016 0.090884
0.927192 0.939056 0.090909
0.939854 0.941154 0.090934
0.948673 0.943307 0.090959
0.956037 0.945511 0.090988
0.962892 0.947317 0.091034
0.968034 0.948884 0.091078
0.972879 0.950516 0.091121
0.977592 0.953594 0.091164
0.980924 0.956714 0.091232
0.982819 0.959374 0.091326
0.092126 0.892420 0.090781
0.092202 0.892533 0.090781
0.092462 0.892941 0.090782
0.093031 0.893691 0.090782
0.093909 0.894810 0.090783
0.096408 0.896319 0.090784
0.099252 0.898231 0.090785
0.105559 0.900559 0.090787
0.115549 0.903308 0.090789
0.136647 0.906485 0.090790
0.174843 0.910092 0.090793
0.224870 0.914129 0.090796
0.278300 0.918597 0.090800
0.352061 0.923491 0.090804
0.450217 0.926494 0.090808
0.546953 0.928488 0.090812
0.636525 0.930616 0.090815
0.715582 0.932873 0.090819
0.769086 0.935113 0.090830
0.826294 0.937056 0.090842
0.868517 0.938777 0.090854
0.894195 0.940567 0.090869
0.914771 0.942423 0.090894
0.927720 0.944342 0.090918
0.940343 0.946319 0.090943
0.948984 0.947720 0.090967
0.956284 0.949143 0.091003
0.963122 0.950749 0.091047
0.968194 0.953575 0.091091
0.973028 0.956455 0.091134
0.977731 0.959033 0.091180
0.980979 0.961107 0.091257
0.982871 0.963207 0.091350
0.092427 0.921260 0.090784
0.092497 0.921368 0.090784
0.092784 0.921754 0.090785
0.093410 0.922464 0.090785
0.094632 0.923524 0.090786
0.097137 0.924954 0.090787
0.099924 0.925782 0.090788
0.106881 0.926551 0.090789
0.117626 0.927459 0.090791
0.140419 0.928507 0.090793
0.179568 0.929694 0.090796
0.229577 0.931020 0.090800
0.285069 0.932484 0.090803
0.358886 0.934084 0.090807
0.457642 0.935561 0.090810
0.553042 0.937007 0.090814
0.643377 0.938318 0.090818
0.720268 0.939708 0.090825
0.771462 0.941176 0.090837
0.828636 0.942718 0.090848
0.870044 0.944332 0.090859
0.895376 0.946013 0.090880
0.915369 0.947316 0.090904
0.928273 0.948551 0.090928
0.940855 0.949825 0.090952
