velvia/Velvia50_Modern_IlfochromeP.cube
TITLE "Velvia 50 Modern IlfochromeP"
# Adobe RGB in/out. REPLACES AgX. Velvia 50 Modern IlfochromeP.
LUT_3D_SIZE 9
DOMAIN_MIN 0.0 0.0 0.0
DOMAIN_MAX 1.0 1.0 1.0
0.139782 0.101046 0.099244
0.205041 0.139740 0.104571
0.394935 0.232814 0.114790
0.569011 0.331111 0.133754
0.715021 0.426489 0.156274
0.810005 0.520502 0.179457
0.869016 0.605721 0.209083
0.898744 0.677096 0.235679
0.923881 0.715500 0.261178
0.143130 0.169303 0.102017
0.175023 0.164404 0.103776
0.334676 0.238412 0.111683
0.531189 0.335610 0.129705
0.689216 0.430178 0.152678
0.798582 0.523808 0.176002
0.863671 0.608407 0.205994
0.895747 0.679561 0.233377
0.921674 0.716736 0.259281
0.154051 0.348805 0.106589
0.205582 0.325738 0.107938
0.306535 0.305982 0.111734
0.464234 0.362650 0.123574
0.627402 0.447376 0.144530
0.759598 0.537891 0.167836
0.845094 0.619092 0.197042
0.886270 0.686491 0.226366
0.914495 0.721359 0.253292
0.166635 0.508878 0.112487
0.220614 0.488230 0.113660
0.335989 0.452705 0.117296
0.448904 0.446751 0.125440
0.576692 0.492799 0.140175
0.717476 0.570703 0.161524
0.814412 0.642216 0.186888
0.872989 0.697285 0.217370
0.903831 0.730504 0.244996
0.183603 0.643438 0.118884
0.232075 0.632311 0.120345
0.350228 0.605891 0.125456
0.467043 0.587447 0.132913
0.569806 0.590694 0.143219
0.681031 0.623523 0.158863
0.785915 0.681823 0.180455
0.856753 0.715095 0.209899
0.892358 0.745265 0.237156
0.203068 0.721069 0.127748
0.243631 0.717368 0.129114
0.356118 0.707234 0.133386
0.475493 0.697200 0.140632
0.578422 0.693621 0.150575
0.677212 0.698949 0.162772
0.764258 0.713912 0.178900
0.840253 0.740317 0.205847
0.882316 0.766192 0.232024
0.220989 0.769574 0.135645
0.255357 0.767436 0.136878
0.358211 0.761177 0.140915
0.475593 0.753977 0.147878
0.579844 0.749818 0.157400
0.678562 0.751245 0.168296
0.761233 0.758801 0.184224
0.826868 0.771627 0.205576
0.874673 0.792790 0.230056
0.236501 0.806014 0.142685
0.267153 0.805043 0.143696
0.358566 0.802108 0.147742
0.470468 0.798509 0.154467
0.574481 0.796177 0.163117
0.673710 0.796676 0.174100
0.757330 0.800747 0.190713
0.823026 0.808307 0.210603
0.869500 0.818732 0.231117
0.250761 0.831527 0.149204
0.278171 0.831073 0.150244
0.357907 0.829705 0.153811
0.462331 0.828088 0.159791
0.564176 0.827301 0.167693
0.662938 0.828351 0.179427
0.749101 0.831863 0.196096
0.816429 0.837991 0.214831
0.865388 0.846494 0.234412
0.139782 0.106350 0.187426
0.210498 0.143610 0.190744
0.394914 0.233474 0.197616
0.559402 0.325574 0.205048
0.703913 0.419217 0.219770
0.804018 0.513240 0.237302
0.866339 0.600598 0.256839
0.897103 0.673149 0.276584
0.922711 0.713882 0.295768
0.142650 0.161943 0.159957
0.164511 0.147811 0.133378
0.324028 0.232092 0.164692
0.519096 0.327527 0.187772
0.677075 0.421955 0.210593
0.791248 0.516342 0.231456
0.860433 0.603206 0.252679
0.894112 0.675597 0.273572
0.920513 0.715123 0.293516
0.152575 0.332564 0.182398
0.196783 0.306178 0.166392
0.285313 0.286160 0.151576
0.445981 0.348800 0.164826
0.614201 0.437028 0.188917
0.752065 0.529744 0.216070
0.840725 0.613704 0.240625
0.884667 0.684260 0.264354
0.913371 0.719772 0.286382
0.165315 0.491299 0.183514
0.215488 0.471500 0.176859
0.325084 0.437924 0.166147
0.434392 0.432598 0.163636
0.565695 0.481345 0.175207
0.709597 0.562368 0.200803
0.810360 0.636812 0.227020
0.871486 0.695120 0.252371
0.902788 0.728990 0.276404
0.181864 0.633551 0.182589
0.229303 0.622683 0.180204
0.344662 0.596583 0.175081
0.459470 0.577137 0.172949
0.562009 0.581584 0.177443
0.674560 0.617227 0.192653
0.781819 0.677124 0.217367
0.854946 0.713151 0.242046
0.891455 0.743909 0.266717
0.201844 0.717623 0.182199
0.241774 0.713971 0.181605
0.353041 0.703931 0.180512
0.471396 0.693943 0.181182
0.573967 0.690473 0.186285
0.672666 0.696153 0.196911
0.761426 0.711883 0.213227
0.838409 0.738781 0.235863
0.881614 0.765098 0.259744
0.220136 0.767461 0.182525
0.254235 0.765349 0.182757
0.356445 0.759158 0.183964
0.473312 0.752027 0.187263
0.577373 0.747946 0.193744
0.675932 0.749521 0.204000
0.759306 0.757331 0.217573
0.825690 0.770593 0.234013
0.874206 0.792035 0.256297
0.235975 0.804964 0.183256
0.266336 0.804005 0.183918
0.357554 0.801107 0.186388
0.469202 0.797558 0.191204
0.573141 0.795285 0.198791
0.672295 0.795863 0.209338
0.756278 0.800051 0.222292
0.822310 0.807764 0.237855
0.869229 0.818360 0.256215
0.250408 0.830938 0.184023
0.277704 0.830491 0.184877
0.357357 0.829149 0.187941
0.461670 0.827571 0.193551
0.563502 0.826834 0.201840
0.662259 0.827947 0.212619
0.748623 0.831540 0.225530
0.816133 0.837767 0.240843
0.865266 0.846381 0.258610
0.139782 0.112789 0.402023
0.210498 0.147659 0.403517
0.403492 0.240414 0.408654
0.574457 0.336546 0.399904
0.702026 0.419061 0.383412
0.798802 0.507487 0.380536
0.861891 0.593967 0.383079
0.894209 0.666480 0.388258
0.920289 0.710632 0.394832
0.143925 0.189071 0.402578
0.210537 0.211950 0.396473
0.364556 0.259891 0.365383
0.527261 0.334634 0.360700
0.672289 0.419599 0.363946
0.783839 0.509414 0.369465
0.855749 0.596082 0.376139
0.891155 0.668708 0.383601
0.918075 0.711831 0.391552
0.149899 0.296511 0.334818
0.185168 0.279545 0.301124
0.248171 0.252000 0.236562
0.429205 0.337066 0.285200
0.600287 0.426672 0.317630
0.741766 0.519097 0.339520
0.833398 0.604989 0.355831
0.881530 0.677442 0.369270
0.910898 0.716361 0.381115
0.162327 0.454227 0.345688
0.205455 0.439681 0.329071
0.303897 0.409523 0.290948
0.404220 0.403365 0.266634
0.544863 0.460053 0.283295
0.692763 0.546771 0.309410
0.802117 0.626061 0.331685
0.868183 0.690451 0.350350
0.900319 0.725474 0.366348
0.178051 0.608907 0.342298
0.222444 0.599180 0.334180
0.331578 0.573400 0.312631
0.441354 0.553023 0.291735
0.542969 0.558524 0.282777
0.659257 0.602475 0.292776
0.771970 0.665566 0.313515
0.850475 0.708401 0.333498
0.889136 0.740474 0.351711
0.198460 0.708131 0.332528
0.236873 0.704707 0.328536
0.344868 0.695148 0.317061
0.460677 0.685415 0.303988
0.562147 0.681182 0.295673
0.660342 0.688576 0.295204
0.753857 0.706489 0.304307
0.833402 0.734643 0.322439
0.879673 0.762103 0.340521
0.217629 0.761268 0.320758
0.250955 0.759263 0.318882
0.351362 0.753354 0.313291
0.466835 0.746500 0.306532
0.570358 0.742647 0.301947
0.668385 0.744581 0.301856
0.753690 0.753067 0.306973
0.822292 0.767634 0.317102
0.872839 0.789847 0.333826
0.234352 0.801736 0.308609
0.263830 0.800825 0.307881
0.354473 0.798066 0.305741
0.465387 0.794699 0.303350
0.569121 0.792344 0.302409
0.668039 0.793324 0.304332
0.753088 0.797950 0.309850
0.820115 0.806115 0.318955
0.868392 0.817227 0.331082
0.249279 0.829060 0.296677
0.276214 0.828642 0.296595
0.355613 0.827389 0.296492
0.459585 0.825947 0.296959
0.561389 0.825377 0.298845
0.660132 0.826690 0.302923
0.747124 0.830531 0.309672
0.815200 0.837065 0.319201
0.864877 0.846028 0.331261
0.139782 0.122151 0.590293
0.210498 0.154486 0.591156
0.403492 0.244973 0.594244
0.597278 0.353898 0.599877
0.723841 0.437730 0.565227
0.804565 0.516538 0.537342
0.862150 0.595530 0.522584
0.893073 0.664591 0.514882
0.918676 0.708728 0.510087
0.143925 0.195242 0.590595
0.213065 0.220231 0.591457
0.405069 0.289636 0.594543
0.572301 0.368269 0.571918
0.695031 0.437463 0.539315
0.789934 0.517385 0.522718
0.855652 0.597015 0.514533
0.889890 0.666450 0.509659
0.916403 0.709825 0.506532
0.150205 0.304157 0.511220
0.193887 0.303412 0.494409
0.314491 0.317100 0.467643
0.465270 0.366295 0.467067
0.613415 0.438539 0.477264
0.743630 0.522407 0.485397
0.831490 0.603542 0.490423
0.879811 0.673875 0.493380
0.909029 0.714004 0.495133
0.159709 0.424394 0.484311
0.197138 0.414749 0.469035
0.289449 0.391464 0.423072
0.372783 0.373042 0.370721
0.535839 0.452511 0.412853
0.685001 0.540322 0.441422
0.797075 0.620236 0.460383
0.864978 0.687240 0.471331
0.898164 0.722580 0.478746
0.173884 0.579205 0.485621
0.214421 0.570532 0.476929
0.317435 0.547594 0.450972
0.421677 0.527600 0.417606
0.521139 0.532223 0.398179
0.644071 0.588156 0.411687
0.762691 0.655029 0.432628
0.845484 0.703974 0.449768
0.886762 0.737087 0.462151
0.193985 0.695647 0.478467
0.231132 0.692676 0.473653
0.334672 0.684162 0.459117
0.447644 0.668804 0.437399
0.547689 0.663114 0.419663
0.644858 0.675766 0.411974
0.744923 0.700207 0.418568
0.827549 0.729896 0.433702
0.877381 0.758657 0.447522
0.214112 0.752619 0.465731
0.246396 0.750827 0.463104
0.344466 0.745496 0.454309
0.458285 0.739231 0.441014
0.561195 0.735760 0.428810
0.658400 0.738080 0.421356
0.746132 0.747378 0.420195
0.817888 0.763859 0.425805
0.871052 0.787047 0.437994
0.231964 0.797011 0.448893
0.260170 0.796189 0.447286
0.350031 0.793649 0.442168
0.459990 0.789998 0.434953
0.563514 0.787884 0.428040
0.662114 0.789263 0.423612
0.748602 0.795026 0.422981
0.817000 0.803806 0.426371
0.867057 0.815681 0.433161
0.247548 0.826200 0.429342
0.273939 0.825832 0.428639
0.352969 0.824739 0.426407
0.456463 0.823536 0.423318
0.558263 0.823245 0.420597
0.657008 0.824867 0.419476
0.744919 0.829074 0.420826
0.813822 0.836054 0.424993
0.864303 0.845531 0.431811
0.139782 0.133359 0.762140
0.210498 0.164658 0.762554
0.403492 0.251577 0.764038
0.597278 0.358412 0.766754
0.752815 0.467574 0.761210
0.819350 0.537673 0.714300
0.867672 0.606314 0.681406
0.894503 0.669485 0.659299
0.918680 0.709339 0.640987
0.143925 0.203977 0.762285
0.213065 0.227608 0.762699
0.405069 0.295320 0.764182
0.598134 0.390990 0.766897
0.729002 0.468606 0.736615
0.806069 0.538486 0.696881
0.860978 0.607473 0.670655
0.891205 0.671040 0.651035
0.916337 0.710320 0.635457
0.153239 0.348958 0.748129
0.214415 0.354414 0.737443
0.369632 0.375726 0.707249
0.520028 0.415486 0.677595
0.650017 0.471497 0.657414
0.759692 0.542157 0.643199
0.837397 0.612423 0.633277
0.880668 0.677247 0.625128
0.908702 0.714074 0.617677
0.159338 0.421531 0.626965
0.197628 0.418520 0.612975
0.305382 0.414847 0.577288
0.428354 0.430077 0.553533
0.561725 0.480590 0.558209
0.697161 0.553444 0.572056
0.799864 0.624967 0.583135
0.864865 0.687692 0.589502
0.897361 0.721863 0.591956
0.170337 0.553155 0.607109
0.208345 0.547254 0.596346
0.307816 0.530898 0.564883
0.410540 0.514003 0.526163
0.500152 0.506236 0.494138
0.638508 0.583247 0.520784
0.759414 0.652028 0.542236
0.842775 0.702255 0.556964
0.885353 0.735327 0.566235
0.189797 0.682124 0.600180
0.225234 0.678159 0.593590
0.324689 0.665905 0.573286
0.435271 0.652143 0.547214
0.533780 0.646036 0.523226
0.628717 0.658312 0.511801
0.737039 0.694818 0.520368
0.822815 0.726230 0.535016
0.875522 0.756024 0.546674
0.210342 0.742928 0.585666
0.241297 0.741435 0.581812
0.336939 0.736952 0.569889
0.449186 0.731606 0.553393
0.551675 0.728674 0.536875
0.647803 0.731241 0.524880
0.737918 0.741270 0.520456
0.813451 0.760157 0.524826
0.869292 0.784393 0.534725
0.229139 0.790938 0.565850
0.256588 0.790099 0.563826
0.344883 0.787563 0.557246
0.453872 0.784535 0.547507
0.557288 0.782990 0.537245
0.655578 0.784844 0.529065
0.743597 0.791373 0.524761
0.813504 0.801265 0.524854
0.865497 0.814281 0.528982
0.245424 0.822718 0.543498
0.271158 0.822419 0.542468
0.349763 0.821553 0.539093
0.452733 0.820688 0.534038
0.554590 0.820777 0.528676
0.653386 0.822794 0.524479
0.742373 0.827434 0.522568
0.812236 0.834932 0.523448
0.863654 0.845011 0.526987
0.139782 0.147557 0.844625
0.210498 0.176573 0.844778
0.403492 0.260128 0.845328
0.597278 0.364616 0.846335
0.762191 0.482129 0.847830
0.837302 0.564352 0.825818
0.873922 0.623280 0.802525
0.898010 0.680077 0.781544
0.920247 0.712401 0.760367
0.143925 0.215007 0.844678
0.213065 0.237141 0.844832
0.405069 0.302849 0.845381
0.598134 0.396616 0.846388
0.758352 0.504388 0.845259
0.824477 0.565968 0.817068
0.869182 0.624548 0.796802
0.894672 0.681447 0.775897
0.917856 0.713304 0.755640
0.154051 0.364703 0.844871
0.222411 0.378185 0.845024
0.410679 0.422630 0.845573
0.565964 0.460996 0.825354
0.691406 0.513048 0.805871
0.783148 0.571384 0.787952
0.848888 0.629427 0.769982
0.883908 0.685461 0.753613
0.910022 0.716736 0.740264
0.161255 0.449664 0.786512
0.206833 0.451291 0.781507
0.335550 0.459630 0.764766
0.476435 0.483864 0.745953
0.602641 0.526468 0.734174
0.722770 0.582707 0.728445
0.810001 0.640358 0.724452
0.868237 0.692261 0.720349
0.898233 0.723813 0.715175
0.169072 0.545728 0.732744
0.206835 0.543129 0.725744
0.309885 0.536941 0.702463
0.425481 0.535989 0.674087
0.537593 0.555703 0.657091
0.657636 0.603989 0.662815
0.766654 0.662019 0.673855
0.845081 0.704754 0.682108
0.885478 0.736073 0.686302
0.186449 0.664090 0.717119
0.220497 0.661206 0.711477
0.317422 0.652710 0.693480
0.427913 0.642947 0.667608
0.526462 0.637777 0.636664
0.612999 0.641606 0.610152
0.734367 0.693413 0.633857
0.821355 0.725497 0.651174
0.874734 0.755229 0.662497
0.206839 0.733558 0.704726
0.236563 0.732418 0.701166
0.329830 0.728975 0.689593
0.440789 0.724849 0.672385
0.543373 0.722640 0.652332
0.638055 0.725063 0.634421
0.729697 0.735255 0.626154
0.809694 0.757179 0.633819
0.867935 0.782516 0.644754
0.226159 0.783929 0.687126
0.252847 0.783279 0.685015
0.339558 0.781328 0.678063
0.447569 0.779085 0.667471
0.551151 0.778258 0.654478
0.649189 0.780617 0.642437
0.738585 0.787577 0.634877
0.809957 0.798758 0.633057
0.864030 0.813048 0.637111
0.243085 0.818921 0.665039
0.268108 0.818708 0.663889
0.346271 0.818121 0.659615
0.448643 0.817673 0.652611
0.550717 0.818228 0.644783
0.649634 0.820704 0.637970
0.739759 0.825810 0.633665
0.810619 0.833848 0.632664
0.863023 0.844571 0.634840
0.139782 0.165041 0.897664
0.210498 0.192563 0.897732
0.403492 0.270459 0.897974
0.597278 0.372335 0.898419
0.762191 0.488501 0.899081
0.852211 0.590336 0.890888
0.880652 0.642404 0.865326
0.902530 0.689202 0.845673
0.922843 0.717175 0.828873
0.143925 0.227900 0.897688
0.213065 0.248842 0.897755
0.405069 0.312105 0.897998
0.598134 0.403641 0.898442
0.762634 0.515086 0.899104
0.841701 0.592861 0.883158
0.876090 0.644098 0.860078
0.899235 0.690067 0.841608
0.920445 0.718057 0.826044
0.154051 0.372421 0.897773
0.222411 0.385596 0.897840
0.410679 0.429172 0.898082
0.600646 0.502478 0.898312
0.724259 0.550155 0.878694
0.805025 0.600604 0.859262
0.859121 0.650057 0.842766
0.888527 0.693282 0.828419
0.912543 0.721362 0.816730
0.164107 0.490369 0.867681
0.217887 0.494073 0.865139
0.363303 0.507716 0.857282
0.513820 0.532800 0.846390
0.640049 0.569589 0.834468
0.747232 0.613451 0.824305
0.823910 0.661625 0.815974
0.872656 0.699797 0.808915
0.900497 0.728026 0.802557
0.170723 0.561569 0.819988
0.210527 0.561877 0.817550
0.322947 0.564729 0.810119
0.452830 0.575570 0.800721
0.571683 0.599037 0.792048
0.687337 0.635394 0.787099
0.781877 0.681949 0.785563
0.850966 0.711183 0.784664
0.887158 0.739368 0.782915
0.184815 0.656427 0.800207
0.218417 0.655027 0.797996
0.315801 0.651273 0.788475
0.430735 0.648705 0.772975
0.537248 0.653313 0.754505
0.640461 0.674179 0.745066
0.744444 0.701588 0.748453
0.825159 0.729417 0.755117
0.875450 0.756969 0.759616
0.203951 0.726080 0.789841
0.233068 0.725327 0.787637
0.324369 0.723091 0.780351
0.435102 0.720575 0.766698
0.538826 0.719707 0.750205
0.633139 0.722312 0.735055
0.721850 0.729637 0.722486
0.808448 0.756590 0.734877
0.867440 0.782286 0.742562
0.223320 0.777373 0.778389
0.249302 0.776928 0.776940
0.334596 0.775629 0.770895
0.441816 0.774296 0.761470
0.545854 0.774329 0.750648
0.643822 0.777225 0.740677
0.734122 0.784334 0.733606
0.806570 0.796452 0.731331
0.862832 0.812165 0.735053
0.240703 0.815112 0.760030
0.265013 0.814995 0.758993
0.342751 0.814720 0.755527
0.444541 0.814743 0.750083
0.546951 0.815824 0.743804
0.646072 0.818801 0.738055
0.737310 0.824373 0.734049
0.809117 0.832925 0.732563
0.862489 0.844297 0.733611
0.139782 0.183697 0.931542
0.210498 0.210656 0.931571
0.403492 0.282655 0.931676
0.597278 0.381525 0.931870
0.762191 0.496184 0.932158
0.861372 0.610604 0.930120
0.886534 0.660559 0.910392
0.907010 0.697195 0.894513
0.925768 0.722669 0.877109
0.143925 0.242612 0.931552
0.213065 0.262155 0.931581
0.405069 0.322975 0.931687
0.598134 0.412039 0.931880
0.762634 0.522164 0.932168
0.853283 0.614304 0.924995
0.882228 0.662843 0.906766
0.903819 0.698190 0.891645
0.923402 0.723584 0.874487
0.154051 0.381608 0.931589
0.222411 0.394434 0.931618
0.410679 0.437012 0.931723
0.601197 0.510531 0.931916
0.744911 0.580824 0.924617
0.820941 0.625389 0.908845
0.868388 0.670486 0.895072
0.893379 0.701750 0.879569
0.915564 0.726948 0.865799
0.166414 0.528164 0.920197
0.227326 0.532410 0.918520
0.385196 0.547117 0.913048
0.540691 0.572346 0.904767
0.670504 0.604634 0.895369
0.769087 0.641822 0.883444
0.837894 0.683306 0.871669
0.877679 0.708501 0.861401
0.903480 0.733517 0.852399
0.173839 0.589861 0.879608
0.217076 0.591497 0.877991
0.338965 0.597934 0.872836
0.478137 0.611462 0.865466
0.600459 0.633961 0.857872
0.715030 0.665703 0.851332
0.798688 0.695417 0.845758
0.857677 0.719601 0.840666
0.889834 0.744372 0.835861
0.185388 0.662197 0.850651
0.219651 0.662209 0.849189
0.320512 0.663094 0.844007
0.442429 0.667650 0.836346
0.556189 0.679933 0.828837
0.664562 0.694522 0.823744
0.759694 0.713728 0.821574
0.832733 0.736721 0.820943
0.877451 0.760905 0.820300
0.202240 0.722138 0.836176
0.231085 0.721806 0.834829
0.321854 0.720950 0.830350
0.434070 0.720565 0.823398
0.541008 0.722297 0.815532
0.640491 0.728164 0.808747
0.735258 0.740955 0.805581
0.813028 0.761412 0.806800
0.868427 0.784448 0.808779
0.220936 0.772074 0.826734
0.246352 0.771845 0.825817
0.330593 0.771243 0.822734
0.437488 0.770939 0.817833
0.542379 0.772049 0.812029
0.640959 0.775765 0.806413
0.731902 0.783070 0.801949
0.803506 0.794480 0.799325
0.862391 0.812136 0.802631
0.238452 0.811601 0.816668
0.262100 0.811583 0.816118
0.339463 0.811633 0.814269
0.440783 0.812156 0.811321
0.543609 0.813804 0.807842
0.643047 0.817310 0.804549
0.735298 0.823324 0.802124
0.807887 0.832295 0.801091
0.862121 0.844267 0.801626
0.139782 0.206242 0.949287
0.210498 0.229530 0.949309
0.403492 0.296836 0.949389
0.597278 0.392116 0.949536
0.762191 0.505165 0.949755
0.866499 0.625386 0.950050
0.890869 0.675904 0.938330
0.910698 0.704402 0.925867
0.928394 0.727986 0.911487
0.143925 0.258844 0.949295
0.213065 0.276808 0.949317
0.405069 0.335323 0.949397
0.598134 0.421761 0.949544
0.762634 0.530439 0.949763
0.859788 0.631261 0.947501
0.886855 0.678836 0.936288
0.907649 0.705570 0.923324
0.926090 0.728972 0.909634
0.154051 0.392196 0.949323
0.222411 0.404640 0.949345
0.410679 0.446116 0.949425
0.601197 0.519147 0.949572
0.758381 0.602575 0.948333
0.832541 0.645681 0.938599
0.873840 0.686151 0.928321
0.897612 0.709631 0.914934
0.918421 0.732527 0.903457
0.167981 0.557746 0.947338
0.233868 0.562322 0.946390
0.400885 0.577856 0.943213
0.560454 0.601725 0.938163
0.693271 0.631405 0.932054
0.786422 0.665952 0.921648
0.849368 0.694812 0.911379
0.882316 0.716907 0.902073
0.906472 0.739232 0.893788
0.176934 0.616643 0.920672
0.223595 0.618828 0.919677
0.353322 0.626741 0.916372
0.499084 0.641436 0.911204
0.623310 0.663323 0.905092
0.732975 0.688197 0.898866
0.811041 0.707232 0.892993
0.864303 0.728146 0.885432
0.892748 0.749926 0.878296
0.187483 0.677520 0.895213
0.223062 0.678463 0.894436
0.328595 0.682054 0.891572
0.456500 0.687454 0.886050
0.574170 0.695845 0.879980
0.684880 0.708513 0.874519
0.773810 0.725183 0.870126
0.840967 0.744755 0.866561
0.879962 0.765811 0.863287
0.202004 0.722620 0.876164
0.230968 0.722695 0.875208
0.322767 0.723199 0.872026
0.437843 0.724983 0.867092
0.548580 0.729341 0.861555
0.652961 0.737654 0.856767
0.746657 0.750805 0.853721
0.819710 0.768274 0.852353
0.870206 0.788155 0.851628
0.219300 0.768794 0.864844
0.244367 0.768782 0.864131
0.328104 0.768907 0.861727
0.435334 0.769744 0.857875
0.541633 0.772212 0.853276
0.642098 0.777353 0.848828
0.734815 0.786216 0.845125
0.808376 0.798887 0.843629
0.863435 0.813716 0.844166
0.236691 0.808686 0.855457
0.259666 0.808765 0.855010
0.336659 0.809141 0.853498
0.437677 0.810173 0.851065
0.541011 0.812410 0.848151
0.640937 0.816476 0.844978
0.734098 0.822937 0.842556
0.807235 0.832214 0.841409
0.861985 0.844552 0.841896
