LUTs/negative-ektar-100/Ektar100_Modern_ExtraSoft.cube
TITLE "Kodak Ektar 100 Modern ExtraSoft"
# Adobe RGB in/out. REPLACES AgX. Kodak Ektar 100 Modern ExtraSoft.
LUT_3D_SIZE 9
DOMAIN_MIN 0.0 0.0 0.0
DOMAIN_MAX 1.0 1.0 1.0
0.057526 0.063911 0.078815
0.147394 0.071200 0.082552
0.565061 0.085789 0.088535
0.728191 0.108819 0.096066
0.793929 0.140093 0.106082
0.817337 0.174228 0.117040
0.829633 0.183565 0.135039
0.838980 0.219998 0.595160
0.831617 0.435642 0.657997
0.059146 0.094490 0.081910
0.070124 0.086454 0.083388
0.308223 0.097258 0.088743
0.659722 0.123500 0.096018
0.769824 0.161063 0.105773
0.808678 0.198212 0.116312
0.824976 0.207323 0.132270
0.836314 0.214771 0.590901
0.829723 0.431472 0.654609
0.062889 0.308416 0.088552
0.070058 0.262741 0.090434
0.112809 0.180806 0.091670
0.412594 0.201301 0.097355
0.667702 0.255389 0.106257
0.771338 0.308204 0.115828
0.808229 0.324574 0.128172
0.827977 0.213988 0.578458
0.823545 0.418067 0.643635
0.067194 0.525219 0.094992
0.072483 0.504384 0.097019
0.102741 0.445773 0.099831
0.243154 0.394158 0.102381
0.512334 0.395622 0.108543
0.689374 0.422381 0.117221
0.780390 0.445578 0.127842
0.807413 0.441713 0.147998
0.814316 0.360870 0.558030
0.071300 0.633653 0.101321
0.075376 0.626174 0.103343
0.098232 0.603637 0.107804
0.191084 0.564664 0.110987
0.408968 0.534137 0.114251
0.587637 0.529343 0.120639
0.721606 0.543391 0.130516
0.789283 0.551605 0.145612
0.803792 0.551769 0.331859
0.074159 0.694819 0.106188
0.077824 0.690725 0.107739
0.096241 0.678790 0.112643
0.158768 0.659581 0.118124
0.348421 0.639801 0.122421
0.522368 0.625207 0.126839
0.664805 0.620804 0.134960
0.759474 0.626660 0.148113
0.793605 0.628471 0.188143
0.075432 0.731508 0.106676
0.078191 0.729238 0.108157
0.091130 0.723050 0.113769
0.139406 0.712916 0.121174
0.294030 0.700810 0.127473
0.471792 0.688986 0.134376
0.605435 0.679497 0.140865
0.719027 0.675717 0.151465
0.785223 0.678906 0.175918
0.072508 0.764969 0.093727
0.073520 0.762943 0.095572
0.084457 0.756139 0.105932
0.115850 0.747921 0.115758
0.230486 0.738051 0.124822
0.418732 0.728344 0.134005
0.557375 0.721032 0.141728
0.682710 0.717345 0.151208
0.777718 0.715948 0.166612
0.068728 0.758293 0.078902
0.068678 0.757333 0.078906
0.078105 0.771210 0.079082
0.077466 0.767844 0.087346
0.140284 0.766136 0.099029
0.344259 0.757024 0.112231
0.512684 0.750193 0.121134
0.632066 0.746560 0.125656
0.774501 0.746209 0.126706
0.058348 0.074405 0.122092
0.133729 0.109109 0.316618
0.592401 0.100130 0.157064
0.741293 0.119720 0.139500
0.794318 0.148549 0.131347
0.815099 0.179926 0.135273
0.827540 0.190153 0.157968
0.837551 0.217205 0.592881
0.830635 0.433480 0.656241
0.061956 0.092991 0.108572
0.077654 0.086634 0.104752
0.411460 0.104600 0.117624
0.684980 0.133682 0.126470
0.774580 0.169573 0.127303
0.806861 0.203524 0.132910
0.822932 0.213365 0.151807
0.834890 0.212073 0.588645
0.828748 0.429336 0.652871
0.068465 0.279876 0.115873
0.077350 0.226077 0.112593
0.132644 0.161196 0.108674
0.472851 0.197888 0.115944
0.685212 0.258066 0.122569
0.773896 0.308683 0.129365
0.806752 0.325414 0.142500
0.826614 0.215982 0.575897
0.822601 0.416046 0.641968
0.073116 0.506835 0.117240
0.079993 0.482033 0.117781
0.115414 0.424593 0.117227
0.284560 0.373227 0.117160
0.534347 0.387621 0.121527
0.698635 0.419637 0.128531
0.780978 0.443576 0.139919
0.806240 0.441338 0.162978
0.813439 0.396839 0.625904
0.076047 0.625853 0.116187
0.081074 0.618546 0.117958
0.108052 0.591765 0.121622
0.216603 0.554379 0.123766
0.428738 0.527148 0.126262
0.600855 0.525486 0.131314
0.726799 0.541034 0.141271
0.788865 0.549980 0.158406
0.803016 0.554589 0.384772
0.077859 0.690551 0.115509
0.081398 0.685852 0.117324
0.102780 0.673836 0.123027
0.174851 0.654931 0.128342
0.366732 0.635927 0.133428
0.531856 0.622470 0.138613
0.670362 0.619208 0.145978
0.761400 0.625549 0.159762
0.793046 0.628215 0.206450
0.077851 0.729408 0.112910
0.080571 0.727160 0.114789
0.095656 0.720943 0.121599
0.146628 0.710844 0.129611
0.306354 0.698963 0.137439
0.481280 0.687063 0.144863
0.612689 0.678147 0.153303
0.722918 0.674932 0.162313
0.784958 0.678499 0.189425
0.073181 0.763536 0.097753
0.074490 0.761593 0.099543
0.085927 0.755008 0.110787
0.120365 0.746832 0.121829
0.240265 0.737074 0.132648
0.424776 0.727563 0.142316
0.561767 0.720495 0.152366
0.686159 0.717003 0.161675
0.777863 0.715745 0.178929
0.068702 0.764672 0.102040
0.068652 0.763710 0.101911
0.078046 0.775904 0.101481
0.077411 0.771630 0.100799
0.143426 0.765828 0.102681
0.349318 0.756789 0.117225
0.514787 0.750072 0.126141
0.634754 0.746541 0.132646
0.775800 0.746211 0.133802
0.059829 0.097215 0.312872
0.107887 0.264103 0.632193
0.569561 0.262766 0.610243
0.747239 0.257016 0.561352
0.794616 0.257587 0.500126
0.812978 0.285291 0.494254
0.824467 0.306609 0.528326
0.835095 0.227773 0.597200
0.828601 0.429021 0.652627
0.065921 0.135084 0.321817
0.097754 0.174939 0.443182
0.470451 0.188208 0.456084
0.696372 0.213586 0.432840
0.777211 0.248567 0.419786
0.805010 0.285422 0.439219
0.819840 0.307355 0.487540
0.832403 0.226388 0.593943
0.826701 0.424875 0.649231
0.072269 0.239624 0.220670
0.081584 0.201940 0.197182
0.148326 0.159725 0.174230
0.516519 0.216253 0.220344
0.701056 0.289790 0.267794
0.776684 0.339887 0.311927
0.804394 0.359789 0.355751
0.823257 0.292027 0.578111
0.820523 0.411625 0.638305
0.082134 0.472870 0.231405
0.088955 0.450704 0.221138
0.136402 0.396889 0.195542
0.327880 0.343706 0.181335
0.576199 0.382575 0.204242
0.716031 0.426143 0.241430
0.781546 0.451552 0.269723
0.803764 0.456348 0.358425
0.811364 0.391682 0.622302
0.087771 0.613728 0.223892
0.095077 0.603072 0.221531
0.133694 0.572635 0.213278
0.276264 0.537015 0.202081
0.475260 0.513929 0.197943
0.643066 0.521467 0.215373
0.738660 0.540579 0.236634
0.787980 0.550836 0.279353
0.801002 0.567617 0.520925
0.090203 0.682110 0.211625
0.096737 0.677475 0.212355
0.127948 0.664554 0.215279
0.232991 0.645907 0.214635
0.415007 0.628180 0.213544
0.564374 0.617063 0.216542
0.689903 0.616924 0.225040
0.765971 0.624402 0.253750
0.791518 0.629765 0.337391
0.088225 0.724860 0.184091
0.092042 0.722654 0.186379
0.114489 0.716171 0.195162
0.188337 0.706020 0.204745
0.357381 0.694648 0.211975
0.513371 0.682668 0.218526
0.641170 0.675240 0.226721
0.735978 0.673676 0.242745
0.784186 0.678115 0.274148
0.081579 0.758001 0.149227
0.083648 0.756434 0.152460
0.100004 0.751329 0.168124
0.145439 0.743602 0.185582
0.289038 0.734313 0.200161
0.454489 0.725462 0.212718
0.582728 0.719181 0.223656
0.700679 0.716268 0.234809
0.778070 0.715415 0.247958
0.068618 0.763064 0.101829
0.078250 0.777274 0.101703
0.077857 0.774638 0.101281
0.077250 0.770466 0.100633
0.165133 0.764618 0.128959
0.374582 0.756048 0.154645
0.524787 0.749749 0.170251
0.647453 0.746562 0.180149
0.776817 0.746357 0.184241
0.061667 0.154654 0.556683
0.082103 0.355933 0.694744
0.528914 0.409841 0.714987
0.745052 0.426319 0.710125
0.799560 0.417848 0.685693
0.814422 0.411701 0.667391
0.823807 0.409930 0.664926
0.831211 0.371823 0.679174
0.827246 0.435455 0.670019
0.067073 0.224503 0.570788
0.088468 0.331845 0.651923
0.492284 0.413144 0.695741
0.712641 0.410901 0.679690
0.784271 0.404333 0.658663
0.806281 0.408186 0.646954
0.819008 0.411697 0.651723
0.828073 0.377652 0.673268
0.825296 0.431239 0.667560
0.077472 0.316887 0.477470
0.089063 0.310199 0.476634
0.234777 0.309908 0.496981
0.555399 0.333524 0.518609
0.711558 0.380269 0.545167
0.778670 0.414575 0.569210
0.803247 0.433066 0.596534
0.816627 0.435239 0.639071
0.818953 0.417774 0.659649
0.085819 0.453880 0.423202
0.094890 0.437768 0.409481
0.145617 0.393704 0.373404
0.347773 0.348440 0.343112
0.594080 0.404055 0.402198
0.720032 0.448813 0.453902
0.780198 0.479757 0.497880
0.801534 0.497448 0.574059
0.809553 0.398013 0.643055
0.098067 0.595841 0.421590
0.106790 0.586194 0.413916
0.150849 0.558862 0.393026
0.306003 0.525032 0.364831
0.499417 0.500678 0.349284
0.660702 0.521813 0.381846
0.741303 0.545670 0.419410
0.786076 0.560761 0.476960
0.798882 0.584122 0.612389
0.104513 0.672251 0.405503
0.111114 0.668028 0.402312
0.149647 0.655776 0.393936
0.276644 0.638040 0.380689
0.444764 0.621350 0.367117
0.587451 0.611828 0.364006
0.701871 0.616067 0.382288
0.765962 0.625096 0.413674
0.789632 0.637904 0.543489
0.102583 0.719431 0.378985
0.107858 0.717353 0.378347
0.137205 0.711055 0.377915
0.233160 0.701311 0.374662
0.398364 0.689950 0.369469
0.537124 0.678541 0.367481
0.664248 0.672682 0.371642
0.743511 0.673135 0.385214
0.782893 0.680477 0.457838
0.089478 0.753525 0.327063
0.093269 0.752119 0.328391
0.114393 0.747532 0.337359
0.175471 0.740186 0.344753
0.327886 0.731503 0.350480
0.483968 0.723424 0.354855
0.604221 0.717925 0.360232
0.714189 0.715740 0.368828
0.777500 0.715953 0.400251
0.072422 0.770487 0.285366
0.077944 0.777601 0.283919
0.077570 0.775073 0.279114
0.092213 0.772954 0.209938
0.211567 0.762381 0.294268
0.401982 0.754889 0.309730
0.539555 0.749352 0.320337
0.663631 0.746656 0.326909
0.776883 0.746950 0.338792
0.064209 0.290285 0.681153
0.073668 0.408168 0.731529
0.455057 0.493560 0.769435
0.727536 0.514294 0.769722
0.806918 0.524742 0.765653
0.819628 0.499130 0.739033
0.826194 0.478911 0.722985
0.830721 0.439518 0.717215
0.827250 0.459492 0.714903
0.068031 0.346502 0.686567
0.081389 0.425259 0.724347
0.426353 0.506475 0.764720
0.714256 0.525635 0.766277
0.792665 0.515264 0.747945
0.811573 0.495760 0.726324
0.821313 0.480958 0.714812
0.827545 0.444713 0.712104
0.825240 0.454119 0.710633
0.085110 0.464457 0.676496
0.102952 0.472621 0.683395
0.313511 0.493647 0.702399
0.602972 0.488606 0.696670
0.728910 0.487627 0.688214
0.785586 0.496471 0.685133
0.805304 0.499688 0.686691
0.816582 0.488654 0.693088
0.818678 0.437001 0.696864
0.090734 0.489024 0.588148
0.102887 0.481294 0.585046
0.177586 0.464478 0.582100
0.425423 0.456212 0.585048
0.626402 0.474303 0.598234
0.728566 0.506791 0.617903
0.781995 0.527778 0.638456
0.801138 0.535810 0.663001
0.809106 0.502436 0.682986
0.104053 0.587825 0.561878
0.112768 0.580638 0.555571
0.162677 0.559110 0.538340
0.322880 0.529530 0.516033
0.506673 0.507646 0.502141
0.667070 0.537292 0.539249
0.742665 0.564634 0.579943
0.785009 0.583380 0.613889
0.797529 0.600663 0.662857
0.113234 0.664838 0.550830
0.121409 0.661239 0.546738
0.167498 0.650507 0.535493
0.301002 0.634368 0.519877
0.462716 0.618515 0.506312
0.598641 0.609047 0.502251
0.706486 0.619214 0.523297
0.764614 0.631105 0.561174
0.788017 0.646415 0.632063
0.112888 0.714582 0.533941
0.119078 0.712744 0.531640
0.153536 0.707016 0.525427
0.265848 0.698069 0.516528
0.420263 0.686728 0.507892
0.553671 0.676356 0.502613
0.673981 0.671913 0.503724
0.746242 0.674910 0.518289
0.781401 0.686506 0.593969
0.098978 0.749756 0.512164
0.103451 0.748469 0.510728
0.128656 0.744218 0.507738
0.203701 0.737463 0.503070
0.358530 0.729471 0.498529
0.505388 0.722170 0.495394
0.622271 0.717442 0.494846
0.723520 0.716098 0.498365
0.776522 0.718334 0.539717
0.073324 0.771301 0.573877
0.073894 0.771740 0.572363
0.075696 0.772056 0.567292
0.113408 0.768035 0.490244
0.237113 0.760891 0.485055
0.417417 0.754209 0.482370
0.550244 0.749295 0.481079
0.672382 0.747181 0.481276
0.776590 0.748746 0.496183
0.066589 0.430366 0.762990
0.072834 0.487005 0.782759
0.396292 0.555880 0.804075
0.708223 0.570246 0.804980
0.806265 0.586837 0.805592
0.826235 0.567164 0.788231
0.830605 0.540734 0.770466
0.832720 0.502040 0.758275
0.828566 0.475475 0.741965
0.069733 0.460359 0.765430
0.077891 0.507573 0.782062
0.385804 0.566574 0.802543
0.697970 0.581492 0.803929
0.801158 0.594234 0.802720
0.818598 0.564599 0.780678
0.825817 0.541932 0.765492
0.829539 0.507165 0.753534
0.826517 0.470528 0.738952
0.088722 0.557266 0.768018
0.105968 0.571943 0.776338
0.363996 0.610826 0.794640
0.635137 0.593659 0.782653
0.748259 0.575710 0.768241
0.793841 0.563285 0.755386
0.810077 0.552931 0.744372
0.818735 0.536011 0.737564
0.819787 0.454562 0.729093
0.101303 0.561652 0.702173
0.113198 0.560993 0.703412
0.231784 0.564450 0.710994
0.489341 0.561683 0.711483
0.665305 0.561178 0.708698
0.743607 0.565611 0.708051
0.786971 0.571552 0.709905
0.803029 0.569973 0.713567
0.809616 0.538882 0.714132
0.109905 0.605623 0.659384
0.118971 0.601216 0.657245
0.185660 0.590181 0.653822
0.369026 0.574968 0.649191
0.546868 0.568708 0.648788
0.681844 0.580120 0.659362
0.748893 0.598618 0.671614
0.786138 0.611412 0.685403
0.797473 0.617707 0.699238
0.118471 0.663064 0.640334
0.128488 0.660321 0.637991
0.180226 0.651944 0.631728
0.316858 0.638815 0.623053
0.476549 0.624527 0.614098
0.603453 0.614996 0.607939
0.710082 0.629901 0.629801
0.764687 0.643096 0.655451
0.787311 0.655586 0.681889
0.119507 0.711730 0.628273
0.127621 0.710156 0.626492
0.166980 0.705247 0.621628
0.285696 0.697435 0.614989
0.433698 0.687235 0.608706
0.563679 0.677500 0.604503
0.678616 0.673960 0.605634
0.746758 0.680452 0.621185
0.779774 0.693469 0.664976
0.104098 0.747282 0.616464
0.108693 0.746141 0.615027
0.137089 0.742333 0.611058
0.220671 0.736228 0.605660
0.377347 0.729007 0.600687
0.515110 0.722450 0.597249
0.634134 0.718394 0.596248
0.728196 0.717868 0.599264
0.775348 0.722776 0.638492
0.073481 0.769701 0.603265
0.073979 0.770079 0.603989
0.075459 0.770259 0.607083
0.115393 0.767176 0.601143
0.246651 0.760492 0.593860
0.423927 0.754442 0.589190
0.555327 0.750166 0.586479
0.677030 0.748565 0.585393
0.776094 0.752306 0.612601
0.069694 0.547091 0.817607
0.074784 0.571016 0.828768
0.307327 0.608289 0.835627
0.696081 0.618526 0.836068
0.803647 0.628400 0.836445
0.833034 0.624127 0.827796
0.836023 0.592610 0.805833
0.836048 0.551237 0.789083
0.830746 0.500082 0.771882
0.072385 0.562700 0.818878
0.078891 0.582867 0.828343
0.311766 0.616779 0.835375
0.688200 0.625465 0.835925
0.800934 0.635268 0.836341
0.826063 0.621987 0.821033
0.831442 0.593363 0.801231
0.832932 0.554521 0.785981
0.828691 0.494686 0.769499
0.089987 0.623121 0.821203
0.104421 0.629584 0.826312
0.332606 0.645679 0.833746
0.661483 0.653524 0.834884
0.767644 0.635643 0.816514
0.803203 0.619951 0.799781
0.816344 0.601773 0.786341
0.822412 0.576454 0.775713
0.821902 0.476875 0.761392
0.112524 0.637062 0.788947
0.127458 0.637382 0.790108
0.275631 0.638831 0.791289
0.530272 0.632991 0.785630
0.690281 0.625977 0.777586
0.762080 0.620628 0.770319
0.793919 0.615543 0.764564
0.806806 0.605533 0.760144
0.811135 0.583108 0.752410
0.117529 0.638213 0.736641
0.129907 0.637204 0.737030
0.213981 0.635669 0.739143
0.415775 0.631262 0.737564
0.589429 0.627597 0.733879
0.702781 0.627887 0.732087
0.760602 0.630269 0.732840
0.789586 0.631871 0.735074
0.798818 0.632298 0.736328
0.124485 0.671970 0.705863
0.134287 0.670201 0.705174
0.192292 0.665293 0.704127
0.341990 0.657267 0.702011
0.507956 0.648795 0.698366
0.639093 0.645782 0.697127
0.720832 0.651197 0.702640
0.768701 0.658827 0.711415
0.787958 0.666192 0.720628
0.122499 0.712406 0.689923
0.130855 0.711186 0.689028
0.173519 0.707375 0.686847
0.295187 0.701171 0.684141
0.444456 0.693895 0.681402
0.572788 0.685442 0.678435
0.680317 0.679507 0.675921
0.748176 0.690621 0.690185
0.779398 0.699465 0.707827
0.103943 0.747022 0.677859
0.108655 0.746025 0.676961
0.138052 0.742662 0.674522
0.224702 0.737325 0.671376
0.384294 0.730997 0.668753
0.519857 0.725191 0.667163
0.640569 0.721638 0.667205
0.729762 0.721736 0.670845
0.774409 0.728084 0.696678
0.073163 0.767260 0.648610
0.074262 0.768882 0.647713
0.075955 0.769461 0.644898
0.106878 0.768343 0.662314
0.237719 0.761512 0.657299
0.420367 0.755969 0.653624
0.553790 0.752214 0.651408
0.676273 0.751101 0.650471
0.775676 0.757508 0.686962
0.074923 0.629884 0.856071
0.080551 0.631825 0.857023
0.348251 0.640906 0.857535
0.709935 0.648314 0.857660
0.808231 0.656696 0.857893
0.841176 0.659677 0.855582
0.842115 0.631156 0.838831
0.840474 0.590880 0.822281
0.833225 0.532768 0.799926
0.078051 0.636177 0.855972
0.083734 0.638066 0.856871
0.356377 0.647156 0.857512
0.703900 0.654447 0.857655
0.806262 0.662736 0.857890
0.834993 0.657333 0.851256
0.837885 0.631122 0.835774
0.837474 0.593784 0.819147
0.831205 0.531032 0.797704
0.100379 0.668001 0.855576
0.113041 0.669279 0.856208
0.391430 0.676053 0.857113
0.681513 0.681998 0.857420
0.789414 0.675727 0.850899
0.814378 0.655766 0.837475
0.823777 0.636306 0.822188
0.827347 0.613137 0.808697
0.824559 0.541029 0.790332
0.131586 0.692643 0.844526
0.148848 0.690895 0.843731
0.357442 0.686617 0.840301
0.585774 0.676622 0.833563
0.723682 0.665439 0.822194
0.784029 0.654775 0.811039
0.802740 0.643864 0.801139
0.812164 0.630109 0.792986
0.813702 0.611816 0.784497
0.133254 0.679847 0.801042
0.146521 0.678901 0.800771
0.274294 0.676762 0.799018
0.478102 0.671007 0.794205
0.646038 0.664976 0.788342
0.729891 0.660446 0.782990
0.776983 0.656581 0.778721
0.795139 0.651240 0.775565
0.801307 0.646442 0.772113
0.131885 0.693811 0.770551
0.142054 0.693118 0.770640
0.220063 0.690949 0.770517
0.387980 0.685153 0.767693
0.546127 0.678906 0.763583
0.674730 0.675605 0.760475
0.738619 0.675403 0.758934
0.777477 0.675877 0.759566
0.790008 0.677671 0.760237
0.123495 0.718802 0.746731
0.131683 0.718034 0.746870
0.181017 0.715889 0.748104
0.308804 0.711662 0.747944
0.466543 0.706042 0.744849
0.598392 0.701119 0.740451
0.699196 0.699638 0.738626
0.755622 0.702113 0.742046
0.781282 0.706261 0.746928
0.097470 0.750512 0.725646
0.102376 0.749636 0.725269
0.131319 0.746633 0.724946
0.217456 0.742204 0.725217
0.383604 0.737112 0.726420
0.523546 0.732369 0.727062
0.648308 0.729085 0.726825
0.729730 0.727025 0.725741
0.774459 0.733521 0.738496
0.072328 0.764537 0.692755
0.075713 0.770107 0.692947
0.076051 0.769374 0.696411
0.095058 0.769746 0.702725
0.203819 0.764595 0.701318
0.403901 0.759435 0.700679
0.543861 0.756141 0.700727
0.668648 0.755320 0.700640
0.775426 0.762642 0.733614
0.292533 0.661930 0.876467
0.393669 0.662881 0.876468
0.670011 0.666636 0.876469
0.797265 0.673152 0.876488
0.833928 0.680748 0.876538
0.853635 0.686974 0.876651
0.850609 0.654975 0.860530
0.846866 0.609784 0.846183
0.835406 0.560367 0.830493
0.298926 0.666706 0.876388
0.395882 0.667668 0.876390
0.667451 0.671458 0.876395
0.796016 0.678016 0.876422
0.833379 0.685622 0.876480
0.850196 0.684721 0.873218
0.847880 0.654043 0.857556
0.844254 0.609843 0.844008
0.833431 0.564109 0.830950
0.338856 0.690501 0.875997
0.413362 0.691392 0.876007
0.656841 0.694283 0.876043
0.790143 0.698804 0.876116
0.828234 0.700901 0.874287
0.834874 0.681071 0.860756
0.836021 0.656300 0.847813
0.834864 0.619436 0.836735
0.826843 0.550650 0.823453
0.386471 0.720440 0.872734
0.424948 0.718756 0.871477
0.603911 0.713372 0.867268
0.745919 0.705209 0.860042
0.794802 0.695276 0.851200
0.810010 0.681530 0.841989
0.817237 0.664768 0.832970
0.820413 0.641362 0.821812
0.816880 0.626989 0.812361
0.296411 0.708732 0.841055
0.331473 0.707666 0.840237
0.494411 0.704333 0.837511
0.671526 0.699450 0.832807
0.744238 0.693813 0.825318
0.782714 0.686069 0.817629
0.796420 0.676485 0.810401
0.804344 0.662799 0.803967
0.805011 0.653217 0.798768
0.212213 0.712853 0.813090
0.238734 0.711926 0.812199
0.377923 0.709065 0.809256
0.561709 0.705026 0.804670
0.686948 0.700831 0.799496
0.741474 0.697139 0.794752
0.773753 0.693466 0.790876
0.789378 0.686767 0.787836
0.793678 0.685311 0.785665
0.146683 0.731741 0.796052
0.158175 0.730839 0.795311
0.248570 0.727949 0.792801
0.433936 0.723508 0.788762
0.598327 0.718748 0.784081
0.698645 0.714981 0.779907
0.745965 0.712529 0.777181
0.774362 0.710026 0.775880
0.784819 0.711435 0.775622
0.093138 0.759132 0.785006
0.097964 0.758505 0.785000
0.125077 0.756043 0.783996
0.243844 0.751518 0.781180
0.444623 0.746178 0.777451
0.607870 0.741542 0.773620
0.710669 0.738626 0.770576
0.758492 0.736988 0.769231
0.777926 0.737875 0.769665
0.071057 0.761650 0.727822
0.075992 0.771088 0.740948
0.075776 0.769610 0.739012
0.080153 0.767663 0.735888
0.135566 0.772539 0.760814
0.365412 0.769924 0.770681
0.533407 0.766672 0.769323
0.669961 0.765862 0.768224
0.775426 0.767704 0.768001
