LUTs/negative-ektar-100/Ektar100_Classic_ExtraPunchy.cube
TITLE "Kodak Ektar 100 Classic ExtraPunchy"
# Adobe RGB in/out. REPLACES AgX. Kodak Ektar 100 Classic ExtraPunchy.
LUT_3D_SIZE 33
DOMAIN_MIN 0.0 0.0 0.0
DOMAIN_MAX 1.0 1.0 1.0
0.069662 0.073299 0.081842
0.068224 0.072491 0.081842
0.068779 0.072344 0.081842
0.073136 0.072425 0.080935
0.094810 0.073959 0.079056
0.114742 0.075057 0.078483
0.171225 0.077228 0.078165
0.269175 0.079853 0.078467
0.319085 0.081093 0.078635
0.385294 0.083324 0.078855
0.475685 0.086870 0.079389
0.526643 0.089815 0.079772
0.568616 0.092127 0.080098
0.603158 0.095487 0.080494
0.639313 0.100134 0.081082
0.663295 0.102899 0.081454
0.681740 0.105990 0.081930
0.699206 0.109616 0.082887
0.715609 0.114280 0.084020
0.730526 0.117827 0.085031
0.743253 0.121502 0.086171
0.754317 0.125703 0.087502
0.765264 0.129199 0.089451
0.774899 0.129907 0.091558
0.781046 0.131044 0.094749
0.786731 0.131086 0.099737
0.794188 0.123972 0.111722
0.798316 0.127360 0.163271
0.807335 0.154888 0.453680
0.807334 0.154854 0.453651
0.807334 0.154852 0.453649
0.807334 0.154853 0.453648
0.810415 0.303810 0.563354
0.068942 0.072882 0.081842
0.067799 0.072919 0.081842
0.069241 0.072282 0.081842
0.073878 0.072933 0.080620
0.093415 0.074698 0.078777
0.111107 0.075512 0.078386
0.163969 0.077674 0.078195
0.258583 0.080278 0.078495
0.311185 0.081454 0.078655
0.378575 0.083729 0.078869
0.470770 0.087352 0.079411
0.522456 0.090224 0.079791
0.566131 0.092480 0.080114
0.601170 0.095895 0.080507
0.637776 0.100507 0.081095
0.662380 0.103323 0.081465
0.681036 0.106380 0.081951
0.698675 0.109980 0.082905
0.715216 0.114846 0.084034
0.730229 0.118366 0.085047
0.743039 0.122020 0.086184
0.754159 0.126205 0.087510
0.765146 0.129820 0.089457
0.774835 0.130511 0.091553
0.780999 0.131629 0.094718
0.786696 0.131643 0.099661
0.794159 0.124335 0.111352
0.798299 0.127365 0.161198
0.807335 0.154889 0.453680
0.807334 0.154854 0.453651
0.807334 0.154852 0.453649
0.807334 0.154853 0.453648
0.810415 0.303812 0.563353
0.068632 0.073540 0.081842
0.067844 0.073654 0.081842
0.068114 0.073598 0.081842
0.071543 0.074983 0.079701
0.082342 0.077200 0.078443
0.098692 0.077516 0.078151
0.144533 0.079518 0.078292
0.229318 0.082162 0.078598
0.285187 0.083212 0.078727
0.354695 0.085276 0.078930
0.447299 0.089176 0.079488
0.506725 0.091760 0.079859
0.554702 0.093954 0.080169
0.593619 0.097411 0.080552
0.631942 0.101888 0.081142
0.658908 0.104888 0.081503
0.678369 0.107813 0.082028
0.696671 0.111315 0.082968
0.713740 0.116929 0.084086
0.729116 0.120345 0.085108
0.742241 0.123917 0.086231
0.753567 0.128043 0.087542
0.764705 0.132098 0.089479
0.774599 0.132728 0.091539
0.780825 0.133775 0.094614
0.786566 0.133694 0.099405
0.794052 0.125699 0.110099
0.798234 0.127510 0.154108
0.807335 0.154892 0.453683
0.807334 0.154854 0.453651
0.807334 0.154852 0.453649
0.807334 0.154854 0.453648
0.810415 0.303814 0.563353
0.068006 0.078341 0.081829
0.067632 0.078484 0.080929
0.068098 0.078745 0.079745
0.069604 0.078588 0.078892
0.075418 0.081527 0.078060
0.083965 0.080878 0.078157
0.113091 0.082855 0.078412
0.177850 0.085865 0.078725
0.235387 0.086420 0.078835
0.311391 0.088553 0.079084
0.405019 0.092836 0.079636
0.475836 0.095376 0.079989
0.527846 0.097394 0.080273
0.577987 0.100416 0.080647
0.619810 0.105116 0.081230
0.651216 0.107946 0.081577
0.672847 0.110595 0.082173
0.692547 0.114272 0.083089
0.710723 0.120975 0.084223
0.726853 0.124174 0.085225
0.740627 0.127575 0.086321
0.752379 0.132336 0.087605
0.763824 0.136495 0.089530
0.774130 0.137006 0.091527
0.780480 0.137920 0.094452
0.786308 0.137675 0.098987
0.793842 0.128442 0.108088
0.798105 0.128307 0.142586
0.807335 0.154898 0.453688
0.807334 0.154855 0.453652
0.807334 0.154852 0.453650
0.807335 0.154858 0.453648
0.810415 0.303816 0.563352
0.067513 0.087564 0.079432
0.067594 0.087768 0.078821
0.068255 0.088486 0.078400
0.069766 0.088692 0.078080
0.073350 0.088435 0.078271
0.077861 0.086363 0.078329
0.093560 0.088670 0.078558
0.135179 0.092011 0.078860
0.180513 0.091854 0.078978
0.255912 0.093476 0.079316
0.355930 0.098500 0.079873
0.425376 0.100478 0.080182
0.489133 0.102171 0.080431
0.548734 0.105715 0.080813
0.597969 0.110842 0.081369
0.633945 0.113044 0.081692
0.662800 0.116343 0.082399
0.685106 0.121201 0.083279
0.705339 0.127598 0.084448
0.722850 0.130836 0.085410
0.737803 0.134771 0.086467
0.750322 0.139613 0.087710
0.762314 0.143608 0.089627
0.773331 0.143926 0.091543
0.779897 0.144630 0.094277
0.785874 0.144164 0.098482
0.793490 0.134279 0.105698
0.797884 0.131257 0.130261
0.807336 0.154910 0.453697
0.807334 0.154856 0.453653
0.807334 0.154853 0.453650
0.807336 0.154894 0.453649
0.810415 0.303817 0.563352
0.067567 0.093113 0.078621
0.067678 0.093176 0.078461
0.068178 0.094055 0.078165
0.069241 0.094580 0.078201
0.071673 0.094532 0.078327
0.075236 0.094254 0.078499
0.085438 0.097265 0.078738
0.112692 0.101122 0.079123
0.143241 0.099668 0.079253
0.198493 0.100931 0.079553
0.297267 0.105779 0.080108
0.369663 0.107712 0.080400
0.438257 0.109247 0.080642
0.508365 0.112185 0.081032
0.573473 0.118969 0.081546
0.611697 0.122622 0.082032
0.646013 0.126418 0.082712
0.672149 0.132696 0.083551
0.695878 0.140339 0.084777
0.715890 0.143017 0.085681
0.732881 0.146298 0.086686
0.746859 0.150691 0.087876
0.759807 0.154380 0.089798
0.772021 0.154393 0.091627
0.778953 0.154786 0.094160
0.785174 0.154055 0.098001
0.792923 0.143754 0.103422
0.797519 0.138082 0.120216
0.807336 0.154936 0.453716
0.807335 0.154859 0.453655
0.807334 0.154854 0.453651
0.810413 0.271901 0.453649
0.810415 0.303817 0.563352
0.067893 0.106319 0.078123
0.067999 0.106362 0.078168
0.068402 0.107245 0.078309
0.069374 0.108111 0.078454
0.071671 0.108501 0.078635
0.074705 0.108355 0.078783
0.081508 0.108002 0.078950
0.099762 0.112773 0.079475
0.121938 0.110049 0.079576
0.162281 0.110704 0.079853
0.244123 0.116843 0.080380
0.317013 0.118907 0.080659
0.381952 0.119744 0.080898
0.460889 0.123776 0.081262
0.535771 0.132042 0.081833
0.584057 0.136639 0.082494
0.623472 0.139584 0.083098
0.659153 0.145288 0.083876
0.685079 0.153930 0.085185
0.706487 0.157672 0.086040
0.724807 0.162314 0.086994
0.740830 0.167272 0.088252
0.755532 0.170376 0.090083
0.769177 0.169904 0.091832
0.777397 0.169826 0.094194
0.784034 0.168793 0.097685
0.791996 0.158532 0.101768
0.796910 0.150779 0.112889
0.807337 0.155000 0.453762
0.807335 0.154866 0.453660
0.807334 0.154857 0.453654
0.810415 0.271964 0.453650
0.810415 0.303817 0.563352
0.068248 0.128952 0.078438
0.068321 0.129009 0.078475
0.068835 0.130933 0.078621
0.069705 0.132662 0.078785
0.071930 0.134018 0.078950
0.074819 0.134535 0.079269
0.081143 0.134028 0.079532
0.092606 0.133214 0.079816
0.109172 0.126488 0.079906
0.139818 0.126701 0.080172
0.202100 0.135874 0.080681
0.271718 0.136801 0.080976
0.333402 0.136552 0.081190
0.406201 0.140883 0.081525
0.492521 0.150039 0.082372
0.551679 0.153130 0.082965
0.595797 0.156154 0.083537
0.636514 0.162477 0.084361
0.670378 0.170981 0.085697
0.695672 0.173138 0.086478
0.717092 0.176599 0.087368
0.735096 0.181898 0.088747
0.750534 0.187372 0.090535
0.764730 0.190074 0.092204
0.774665 0.193865 0.094493
0.782069 0.192107 0.097690
0.790379 0.181683 0.101218
0.795832 0.172619 0.109185
0.807343 0.155255 0.453921
0.807335 0.154888 0.453678
0.807335 0.154866 0.453662
0.810415 0.271968 0.453654
0.810415 0.303817 0.563352
0.068408 0.145844 0.078600
0.068508 0.145862 0.078628
0.068903 0.146952 0.078733
0.069642 0.149041 0.078881
0.071476 0.150832 0.079121
0.073725 0.151743 0.079407
0.078032 0.151972 0.079696
0.085939 0.151321 0.079962
0.100303 0.150531 0.080223
0.124798 0.150254 0.080470
0.175047 0.160599 0.081038
0.230508 0.160301 0.081297
0.291727 0.158762 0.081493
0.360490 0.161967 0.081914
0.445975 0.170766 0.082961
0.509266 0.172845 0.083500
0.566206 0.175247 0.084020
0.610313 0.180807 0.084991
0.653878 0.189816 0.086265
0.681030 0.193612 0.086997
0.704616 0.199536 0.087842
0.726454 0.204539 0.089373
0.744827 0.209964 0.091137
0.760797 0.211330 0.092685
0.772730 0.214191 0.094967
0.780217 0.217442 0.097981
0.788364 0.214189 0.101610
0.793942 0.212273 0.108481
0.807504 0.162073 0.455730
0.807341 0.155155 0.453862
0.807336 0.154925 0.453711
0.810415 0.271973 0.453668
0.810415 0.303817 0.563352
0.068751 0.170747 0.078814
0.068827 0.170749 0.078835
0.069123 0.171432 0.078919
0.069811 0.173633 0.079149
0.071489 0.175531 0.079435
0.073527 0.177063 0.079715
0.076971 0.177637 0.080011
0.083701 0.177479 0.080279
0.094752 0.176836 0.080524
0.114853 0.176117 0.080798
0.155865 0.187495 0.081371
0.201004 0.186197 0.081620
0.256691 0.183240 0.081891
0.322214 0.185492 0.082567
0.400855 0.196446 0.083568
0.470141 0.197838 0.084055
0.527218 0.199566 0.084731
0.582323 0.205723 0.085672
0.628973 0.217254 0.086902
0.664329 0.220487 0.087577
0.692081 0.223955 0.088587
0.715820 0.231213 0.090083
0.736317 0.239338 0.091881
0.754415 0.240941 0.093315
0.768992 0.242064 0.095622
0.778161 0.243998 0.098415
0.786964 0.239578 0.101819
0.792998 0.236263 0.107786
0.799405 0.226916 0.116497
0.803996 0.220766 0.148328
0.808737 0.238835 0.413136
0.810415 0.272624 0.456358
0.810415 0.303817 0.563352
0.069208 0.215863 0.079279
0.069268 0.215871 0.079313
0.069578 0.216540 0.079438
0.070611 0.220219 0.079679
0.072106 0.223030 0.079967
0.073875 0.225053 0.080258
0.077415 0.226636 0.080541
0.084029 0.227010 0.080853
0.094722 0.226547 0.081147
0.113968 0.225541 0.081430
0.142144 0.224662 0.081702
0.179979 0.222119 0.082215
0.226503 0.216854 0.082588
0.290241 0.218855 0.083213
0.364261 0.230529 0.084215
0.426482 0.230392 0.084871
0.489933 0.230607 0.085490
0.551735 0.236156 0.086372
0.603014 0.248123 0.087570
0.643821 0.249676 0.088344
0.675780 0.254058 0.089470
0.702529 0.262018 0.090991
0.727116 0.267962 0.092682
0.747632 0.270050 0.094238
0.763299 0.274707 0.096463
0.774787 0.280826 0.099075
0.784722 0.274830 0.102442
0.791526 0.269640 0.107629
0.798355 0.258658 0.114349
0.803336 0.246765 0.131942
0.808486 0.237770 0.349877
0.810415 0.274658 0.464720
0.810415 0.275398 0.467731
0.069532 0.251649 0.079621
0.069598 0.251650 0.079648
0.069913 0.252124 0.079763
0.070909 0.255169 0.079986
0.072183 0.257771 0.080240
0.073809 0.260735 0.080516
0.076968 0.263268 0.080847
0.082525 0.264140 0.081156
0.091474 0.264196 0.081447
0.107355 0.263584 0.081730
0.130583 0.262480 0.082332
0.164079 0.261664 0.082928
0.203127 0.254358 0.083237
0.263864 0.256346 0.083858
0.334285 0.268239 0.085093
0.390663 0.266461 0.085688
0.453924 0.265718 0.086284
0.516381 0.270750 0.087123
0.577169 0.282231 0.088417
0.618294 0.282882 0.089317
0.657862 0.287220 0.090444
0.688174 0.292649 0.091964
0.715001 0.299678 0.093652
0.738236 0.302763 0.095376
0.757073 0.304723 0.097442
0.771872 0.308477 0.099889
0.782203 0.307847 0.103438
0.789370 0.308792 0.108117
0.796594 0.302708 0.113945
0.802228 0.288725 0.125371
0.807894 0.250264 0.250225
0.810415 0.274673 0.464762
0.810415 0.276105 0.470579
0.069804 0.284624 0.079907
0.069911 0.284616 0.079934
0.070311 0.284900 0.080030
0.071120 0.286817 0.080216
0.072295 0.289702 0.080454
0.073760 0.292608 0.080742
0.076366 0.294677 0.081060
0.081130 0.296121 0.081370
0.088320 0.296848 0.081654
0.101145 0.296625 0.082204
0.120991 0.295974 0.082792
0.148629 0.294900 0.083337
0.186505 0.294211 0.083891
0.238408 0.295258 0.084620
0.307717 0.306507 0.085966
0.361736 0.304032 0.086520
0.418184 0.302232 0.087056
0.485200 0.306136 0.087876
0.549998 0.315821 0.089567
0.593526 0.315380 0.090364
0.635228 0.318296 0.091506
0.671624 0.324227 0.093000
0.701061 0.331980 0.094994
0.728072 0.332926 0.096551
0.748977 0.337431 0.098542
0.765622 0.344214 0.101445
0.779305 0.341200 0.104686
0.787510 0.340098 0.108900
0.795102 0.337195 0.114138
0.800810 0.333315 0.123426
0.805696 0.330682 0.146843
0.810415 0.274772 0.464815
0.810415 0.277170 0.474697
0.070407 0.322770 0.080256
0.070499 0.322768 0.080279
0.070838 0.322995 0.080362
0.071513 0.324454 0.080520
0.072651 0.328134 0.080789
0.073916 0.330575 0.081083
0.076391 0.332884 0.081381
0.080838 0.334946 0.081680
0.087106 0.336227 0.082312
0.097918 0.336393 0.082917
0.115919 0.335973 0.083481
0.140564 0.335233 0.084036
0.173812 0.334157 0.084741
0.218402 0.333445 0.085491
0.285417 0.345390 0.086780
0.337569 0.342329 0.087337
0.389655 0.339003 0.087835
0.454410 0.342110 0.088977
0.519474 0.352277 0.090703
0.570508 0.351403 0.091601
0.611820 0.353547 0.092674
0.654426 0.359671 0.094300
0.686292 0.366677 0.096333
0.715122 0.369063 0.097837
0.739334 0.374160 0.099731
0.759218 0.378806 0.103084
0.775685 0.379507 0.106166
0.784595 0.382545 0.110063
0.793273 0.377601 0.114677
0.799697 0.370880 0.122365
0.805032 0.363450 0.136993
0.808645 0.369489 0.242493
0.810775 0.409900 0.478383
0.071140 0.374953 0.080700
0.071220 0.374977 0.080725
0.071512 0.375257 0.080817
0.072128 0.376620 0.080991
0.073194 0.381050 0.081266
0.074366 0.383291 0.081529
0.077025 0.386720 0.081984
0.081378 0.389232 0.082645
0.087427 0.391068 0.083300
0.098016 0.391980 0.083908
0.115489 0.392133 0.084666
0.138649 0.391492 0.085425
0.170409 0.390456 0.086178
0.211915 0.389359 0.086876
0.266733 0.388480 0.087584
0.314802 0.384296 0.088202
0.365501 0.380687 0.088987
0.424731 0.383290 0.090128
0.492828 0.393048 0.091952
0.544304 0.391140 0.092778
0.589666 0.392767 0.093981
0.632726 0.398562 0.095820
0.670465 0.404426 0.097745
0.700635 0.406833 0.099179
0.728372 0.409882 0.101513
0.750622 0.415623 0.104940
0.771427 0.416291 0.107823
0.781966 0.416766 0.111405
0.791132 0.416998 0.115798
0.797973 0.416799 0.122466
0.803979 0.408789 0.132940
0.808086 0.401377 0.179535
0.810714 0.416845 0.469672
0.071562 0.412297 0.081006
0.071631 0.412312 0.081028
0.071905 0.412485 0.081108
0.072451 0.413333 0.081260
0.073352 0.416064 0.081498
0.074574 0.418619 0.081827
0.077163 0.422067 0.082521
0.081016 0.423577 0.083125
0.086513 0.425255 0.083750
0.095809 0.426610 0.084495
0.110920 0.426877 0.085290
0.130947 0.426632 0.086060
0.159425 0.426144 0.086800
0.196462 0.425208 0.087502
0.244326 0.424433 0.088320
0.296215 0.423815 0.089363
0.344638 0.420245 0.090094
0.399990 0.422059 0.091383
0.469488 0.430155 0.093206
0.518305 0.428119 0.094209
0.569163 0.428470 0.095517
0.611566 0.432773 0.097327
0.654551 0.437725 0.099195
0.685793 0.439318 0.100859
0.715361 0.442856 0.103579
0.740958 0.448631 0.106884
0.764541 0.449197 0.109562
0.778227 0.452310 0.113009
0.788728 0.452190 0.117299
0.796557 0.449715 0.123099
0.802819 0.447889 0.131904
0.807087 0.448882 0.157526
0.810415 0.439935 0.410771
0.071969 0.445351 0.081283
0.072036 0.445361 0.081302
0.072282 0.445488 0.081373
0.072758 0.446126 0.081506
0.073533 0.448178 0.081724
0.074849 0.451371 0.082331
0.077025 0.453443 0.082930
0.080693 0.455776 0.083552
0.085827 0.457829 0.084195
0.094009 0.459211 0.085052
0.107196 0.459973 0.085877
0.125073 0.460060 0.086641
0.150681 0.459729 0.087359
0.183032 0.459122 0.088157
0.225544 0.458246 0.089187
0.277099 0.457524 0.090179
0.326198 0.457082 0.091324
0.378660 0.458646 0.092597
0.443164 0.466287 0.094751
0.495236 0.463724 0.095777
0.546599 0.463821 0.097086
0.591881 0.467516 0.098828
0.634700 0.472338 0.101061
0.670632 0.473392 0.103080
0.701403 0.477168 0.105730
0.730049 0.482172 0.108877
0.755937 0.484188 0.111449
0.774157 0.486428 0.114653
0.785969 0.487699 0.119009
0.794493 0.488767 0.124288
0.801618 0.485476 0.131663
0.806469 0.482030 0.149391
0.809706 0.492884 0.276237
0.072451 0.483642 0.081599
0.072511 0.483658 0.081617
0.072730 0.483787 0.081679
0.073150 0.484333 0.081924
0.073827 0.485981 0.082357
0.075351 0.489864 0.082967
0.077296 0.491118 0.083493
0.081030 0.494202 0.084143
0.085805 0.496159 0.084999
0.093299 0.497525 0.085819
0.105407 0.498636 0.086641
0.122224 0.499090 0.087410
0.145721 0.499143 0.088302
0.175202 0.498518 0.089335
0.214014 0.497911 0.090419
0.263415 0.497113 0.091553
0.310900 0.496395 0.092651
0.360613 0.496128 0.093899
0.420307 0.503561 0.096325
0.475106 0.500719 0.097325
0.523662 0.500122 0.098583
0.573957 0.503581 0.100500
0.615629 0.508052 0.103396
0.655700 0.508674 0.105333
0.687243 0.512467 0.107927
0.717649 0.517194 0.110960
0.746386 0.519393 0.113388
0.768411 0.521928 0.116735
0.782455 0.525283 0.120962
0.792561 0.524244 0.125716
0.800268 0.524218 0.132268
0.805496 0.525597 0.146006
0.809309 0.524744 0.210493
0.073007 0.527420 0.082314
0.073061 0.527455 0.082351
0.073257 0.527635 0.082485
0.073632 0.528201 0.082738
0.074278 0.529677 0.083129
0.075926 0.533064 0.083684
0.078046 0.535189 0.084267
0.081643 0.537888 0.085145
0.086183 0.539366 0.085979
0.093829 0.540937 0.086834
0.105743 0.541885 0.087632
0.121974 0.542476 0.088718
0.143861 0.542529 0.089846
0.172168 0.542339 0.091032
0.208514 0.541835 0.092198
0.256729 0.541422 0.093398
0.302998 0.540941 0.094892
0.351098 0.540386 0.096328
0.401188 0.540333 0.097842
0.453417 0.538163 0.098803
0.503473 0.537715 0.100091
0.556140 0.539711 0.102814
0.598027 0.542671 0.105672
0.637903 0.542937 0.107572
0.673101 0.545133 0.110083
0.704639 0.548550 0.113069
0.735829 0.549900 0.115440
0.760220 0.552475 0.119006
0.778883 0.554078 0.122900
0.790073 0.555087 0.127392
0.798775 0.555820 0.133351
0.804760 0.554661 0.144770
0.808815 0.557355 0.182228
0.073292 0.556178 0.082739
0.073341 0.556194 0.082773
0.073519 0.556283 0.082897
0.073858 0.556575 0.083130
0.074568 0.557351 0.083489
0.076062 0.559144 0.083996
0.078294 0.561084 0.084754
0.081398 0.562374 0.085542
0.085893 0.564204 0.086408
0.092899 0.565696 0.087253
0.103039 0.566467 0.088094
0.117794 0.567111 0.089295
0.137399 0.567397 0.090484
0.163363 0.567356 0.091741
0.197079 0.567113 0.092950
0.240243 0.566594 0.094318
0.287149 0.566189 0.095866
0.333752 0.565857 0.097352
0.380784 0.565448 0.098753
0.433290 0.565541 0.100357
0.485496 0.564691 0.102302
0.535639 0.566650 0.105050
0.582017 0.569214 0.107928
0.620603 0.569338 0.109757
0.659625 0.571228 0.112233
0.691413 0.574220 0.115186
0.723785 0.575568 0.117833
0.751011 0.578258 0.121298
0.774404 0.580139 0.124965
0.787152 0.581802 0.129165
0.797198 0.582325 0.134561
0.803762 0.583464 0.144949
0.808375 0.584153 0.169558
0.073585 0.582934 0.083168
0.073630 0.582950 0.083200
0.073792 0.583029 0.083316
0.074100 0.583269 0.083532
0.074910 0.583885 0.083866
0.076305 0.585274 0.084441
0.078723 0.587587 0.085292
0.081448 0.588403 0.086009
0.086011 0.590547 0.086915
0.091933 0.591303 0.087667
0.101596 0.592507 0.088805
0.115803 0.593362 0.090028
0.133412 0.593617 0.091316
0.157632 0.593577 0.092555
0.188644 0.593454 0.093916
0.228207 0.593126 0.095500
0.274733 0.592625 0.096998
0.318497 0.592205 0.098487
0.365206 0.592004 0.099955
0.413694 0.591755 0.102136
0.469554 0.591966 0.104431
0.517361 0.593211 0.107156
0.567325 0.595679 0.110025
0.604722 0.595808 0.111886
0.644730 0.597316 0.114310
0.678613 0.600100 0.117691
0.711351 0.601384 0.120221
0.741054 0.603686 0.123534
0.768112 0.606165 0.127086
0.783943 0.607553 0.130924
0.795244 0.609406 0.136371
0.802817 0.609924 0.145621
0.807894 0.611553 0.164745
0.073913 0.610657 0.083646
0.073954 0.610680 0.083676
0.074103 0.610780 0.083785
0.074553 0.611037 0.083988
0.075344 0.611612 0.084391
0.076695 0.612804 0.085028
0.079201 0.615132 0.085884
0.081843 0.616116 0.086596
0.085886 0.617656 0.087425
0.091958 0.618974 0.088422
0.101334 0.620250 0.089697
0.113818 0.620886 0.090959
0.130730 0.621428 0.092317
0.154040 0.621587 0.093676
0.183040 0.621430 0.095311
0.219711 0.621242 0.096964
0.265279 0.620837 0.098500
0.308047 0.620408 0.100000
0.353303 0.619981 0.102324
0.400582 0.619888 0.104664
0.452228 0.619799 0.106894
0.501047 0.620096 0.109160
0.551013 0.621980 0.112019
0.590111 0.622164 0.113819
0.628936 0.623390 0.116556
0.666122 0.625858 0.120083
0.698979 0.627274 0.122551
0.730233 0.629365 0.125786
0.759668 0.631885 0.129196
0.780051 0.633562 0.132771
0.793128 0.635491 0.138298
0.801734 0.636679 0.146734
0.807364 0.638488 0.162559
0.074215 0.638554 0.084033
0.074283 0.638574 0.084062
0.074529 0.638656 0.084196
0.074994 0.638850 0.084477
0.075741 0.639250 0.084910
0.077046 0.640029 0.085517
0.079444 0.641486 0.086331
0.082337 0.642663 0.087119
0.085932 0.643529 0.087889
0.092307 0.644878 0.089257
0.100279 0.645442 0.090449
0.112939 0.646191 0.091878
0.129497 0.646776 0.093303
0.150774 0.646838 0.094977
0.177845 0.646757 0.096639
0.212108 0.646595 0.098284
0.256007 0.646373 0.099903
0.299151 0.646071 0.102309
0.343571 0.645760 0.104688
0.388637 0.645471 0.107024
0.438342 0.645469 0.109346
0.488010 0.645557 0.111622
0.534189 0.645885 0.113873
0.576863 0.645967 0.115804
0.614325 0.646693 0.118749
0.654200 0.648276 0.122298
0.686778 0.649436 0.124720
0.718730 0.650903 0.127894
0.750631 0.652819 0.131248
0.775504 0.654384 0.134652
0.790707 0.655827 0.140189
0.800482 0.657346 0.148122
0.806931 0.658544 0.161606
0.074435 0.660439 0.084131
0.074498 0.660452 0.084172
0.074728 0.660506 0.084319
0.075162 0.660635 0.084594
0.075885 0.660907 0.085015
0.077093 0.661445 0.085606
0.079297 0.662461 0.086397
0.082386 0.663752 0.087286
0.085610 0.664278 0.088080
0.091510 0.665390 0.089477
0.098726 0.665925 0.090746
0.111336 0.666621 0.092247
0.125366 0.666888 0.093637
0.145972 0.667145 0.095497
0.172038 0.667155 0.097275
0.203510 0.666920 0.098893
0.244250 0.666665 0.100842
0.287735 0.666357 0.103345
0.330916 0.666064 0.105802
0.374725 0.665798 0.108159
0.422093 0.665641 0.110492
0.473632 0.665691 0.112755
0.517843 0.665980 0.115067
0.564796 0.666490 0.117814
0.600914 0.666879 0.120771
0.639856 0.668121 0.124314
0.675006 0.669331 0.126675
0.707121 0.670553 0.129831
0.740683 0.672373 0.133043
0.769919 0.674084 0.137035
0.787850 0.675688 0.142127
0.799181 0.677009 0.149246
0.806447 0.678722 0.161401
0.074704 0.680828 0.084281
0.074763 0.680845 0.084321
0.074978 0.680910 0.084465
0.075383 0.681051 0.084734
0.076099 0.681318 0.085146
0.077220 0.681799 0.085723
0.079290 0.682647 0.086493
0.082617 0.684122 0.087496
0.085545 0.684539 0.088355
0.090670 0.685348 0.089679
0.098114 0.686195 0.091170
0.109123 0.686594 0.092578
0.123400 0.687022 0.094249
0.142754 0.687280 0.096177
0.165689 0.687257 0.097919
0.196598 0.687137 0.099653
0.235592 0.686890 0.102137
0.279559 0.686543 0.104754
0.320881 0.686209 0.107234
0.363950 0.685928 0.109682
0.409055 0.685731 0.112028
0.459246 0.685685 0.114333
0.503862 0.685774 0.116935
0.549825 0.686214 0.119750
0.588646 0.686846 0.122544
0.626188 0.687666 0.126106
0.663937 0.689088 0.128397
0.695605 0.689953 0.131479
0.730150 0.691689 0.134674
0.761746 0.693307 0.138861
0.784525 0.695149 0.143959
0.797758 0.696569 0.150392
0.805935 0.698201 0.161404
0.074936 0.700732 0.084299
0.074992 0.700753 0.084339
0.075193 0.700831 0.084483
0.075572 0.700990 0.084751
0.076280 0.701266 0.085161
0.077325 0.701721 0.085736
0.079283 0.702462 0.086503
0.082318 0.703675 0.087500
0.085580 0.704449 0.088575
0.090130 0.705094 0.089849
0.098018 0.706168 0.091587
0.107812 0.706431 0.092926
0.122434 0.706939 0.094910
0.139021 0.707043 0.096729
0.162522 0.707146 0.098664
0.191816 0.707038 0.100715
0.227492 0.706820 0.103444
0.271358 0.706490 0.106135
0.311568 0.706099 0.108729
0.354299 0.705773 0.111248
0.398035 0.705523 0.113695
0.446257 0.705411 0.116318
0.492405 0.705426 0.119120
0.536009 0.705600 0.121870
0.577292 0.706162 0.124743
0.613586 0.706900 0.127587
0.653511 0.708597 0.129801
0.684667 0.709204 0.132911
0.719207 0.710766 0.136284
0.752864 0.712250 0.140480
0.780460 0.714062 0.145325
0.796132 0.715726 0.151355
0.805613 0.717363 0.161566
0.074702 0.724584 0.083538
0.074754 0.724594 0.083568
0.074942 0.724630 0.083676
0.075297 0.724702 0.083877
0.075897 0.724825 0.084224
0.076882 0.725028 0.084851
0.078531 0.725366 0.085691
0.081326 0.725953 0.086790
0.084979 0.726569 0.087879
0.088696 0.726860 0.089160
0.095562 0.727369 0.090817
0.105551 0.727686 0.092470
0.118096 0.727813 0.094244
0.134671 0.727851 0.096345
0.156926 0.727715 0.098350
0.183663 0.727509 0.100326
0.218561 0.727224 0.103293
0.261188 0.726838 0.106083
0.300975 0.726400 0.108734
0.343178 0.726002 0.111318
0.385650 0.725700 0.113825
0.432170 0.725521 0.116549
0.480637 0.725506 0.119433
0.523147 0.725679 0.122251
