LUTs/negative-ektar-100/Ektar100_Classic_Soft.cube
TITLE "Kodak Ektar 100 Classic Soft"
# Adobe RGB in/out. REPLACES AgX. Kodak Ektar 100 Classic Soft.
LUT_3D_SIZE 33
DOMAIN_MIN 0.0 0.0 0.0
DOMAIN_MAX 1.0 1.0 1.0
0.061862 0.068788 0.085817
0.064782 0.069724 0.086088
0.065725 0.069949 0.086184
0.072490 0.071019 0.086534
0.094723 0.072781 0.087166
0.109485 0.073579 0.087514
0.158080 0.075477 0.088340
0.258391 0.078036 0.089517
0.323301 0.079289 0.090110
0.399726 0.081347 0.091126
0.472686 0.084615 0.092761
0.521547 0.086888 0.093711
0.557558 0.088804 0.094454
0.591658 0.091265 0.095717
0.618330 0.095140 0.097472
0.638155 0.097695 0.098705
0.655824 0.100080 0.099864
0.672139 0.103046 0.101517
0.687209 0.106626 0.103872
0.700900 0.108421 0.105387
0.709759 0.110409 0.107041
0.717166 0.113792 0.108983
0.724463 0.116524 0.111787
0.731814 0.116971 0.114298
0.737568 0.117631 0.117505
0.742890 0.117654 0.122320
0.749867 0.112399 0.131025
0.753731 0.115123 0.171975
0.762170 0.131750 0.454409
0.762170 0.131731 0.454385
0.762170 0.131730 0.454383
0.762170 0.131730 0.454382
0.765052 0.299109 0.555686
0.062196 0.071445 0.085897
0.063830 0.071489 0.086135
0.066825 0.070508 0.086135
0.073995 0.071506 0.086660
0.093534 0.073318 0.087289
0.106899 0.074005 0.087589
0.150879 0.075927 0.088439
0.246138 0.078466 0.089613
0.311894 0.079615 0.090179
0.393760 0.081721 0.091203
0.467885 0.084928 0.092816
0.518157 0.087228 0.093754
0.554755 0.089095 0.094488
0.590180 0.091607 0.095758
0.617204 0.095451 0.097514
0.637279 0.098023 0.098740
0.655150 0.100379 0.099894
0.671651 0.103351 0.101553
0.686848 0.106914 0.103902
0.700628 0.108691 0.105411
0.709616 0.110826 0.107060
0.717060 0.114195 0.109000
0.724384 0.116916 0.111794
0.731755 0.117327 0.114292
0.737524 0.117963 0.117479
0.742857 0.117971 0.122238
0.749840 0.112692 0.130746
0.753715 0.115127 0.169978
0.762170 0.131750 0.454410
0.762170 0.131731 0.454385
0.762170 0.131730 0.454383
0.762170 0.131730 0.454382
0.765052 0.299111 0.555686
0.062290 0.072418 0.086015
0.062751 0.072550 0.086214
0.064534 0.072487 0.086265
0.069917 0.073525 0.086956
0.083295 0.075449 0.087545
0.098050 0.075768 0.087778
0.132138 0.077698 0.088757
0.212531 0.080224 0.089977
0.281671 0.081243 0.090435
0.364642 0.083149 0.091486
0.448887 0.086359 0.093016
0.502983 0.088500 0.093908
0.544140 0.090179 0.094640
0.584556 0.092873 0.095907
0.612922 0.096779 0.097668
0.633953 0.099230 0.098870
0.652595 0.101534 0.100003
0.669809 0.104468 0.101685
0.685493 0.107969 0.104011
0.699607 0.109680 0.105499
0.709080 0.112355 0.107127
0.716665 0.115671 0.109063
0.724090 0.118229 0.111823
0.731534 0.118585 0.114276
0.737361 0.119184 0.117393
0.742734 0.119131 0.121958
0.749741 0.113789 0.129799
0.753654 0.115244 0.164192
0.762171 0.131752 0.454412
0.762170 0.131731 0.454385
0.762170 0.131730 0.454383
0.762170 0.131731 0.454382
0.765052 0.299114 0.555686
0.062589 0.076600 0.086319
0.063013 0.076736 0.086536
0.064499 0.076943 0.086942
0.067501 0.076818 0.087220
0.076313 0.079672 0.087993
0.084748 0.079072 0.088312
0.108355 0.080913 0.089288
0.164494 0.083692 0.090427
0.219535 0.084204 0.091014
0.312190 0.085840 0.091977
0.414136 0.089389 0.093398
0.472832 0.091173 0.094204
0.522520 0.092858 0.094985
0.568144 0.095375 0.096191
0.603989 0.099406 0.097961
0.627030 0.101646 0.099114
0.647306 0.103866 0.100208
0.666017 0.106623 0.101935
0.682722 0.109993 0.104217
0.697531 0.112562 0.105668
0.707997 0.115295 0.107258
0.715871 0.118363 0.109189
0.723505 0.120974 0.111888
0.731095 0.121310 0.114263
0.737038 0.121908 0.117258
0.742493 0.121748 0.121501
0.749544 0.115991 0.128272
0.753533 0.115883 0.155751
0.762171 0.131755 0.454416
0.762170 0.131732 0.454385
0.762170 0.131730 0.454384
0.762170 0.131733 0.454383
0.765052 0.299116 0.555685
0.063159 0.085065 0.087043
0.063460 0.085197 0.087255
0.064852 0.085785 0.087578
0.067845 0.085956 0.088062
0.072884 0.085743 0.088688
0.079198 0.084152 0.088917
0.093657 0.085938 0.089837
0.125136 0.088708 0.091150
0.167075 0.088578 0.091703
0.243065 0.089877 0.092572
0.365980 0.093781 0.093940
0.429786 0.095427 0.094684
0.485816 0.097054 0.095507
0.539352 0.099867 0.096629
0.587798 0.104072 0.098421
0.614394 0.105892 0.099499
0.637681 0.107673 0.100531
0.659048 0.110165 0.102328
0.677775 0.115314 0.104544
0.693857 0.117512 0.105936
0.706099 0.119841 0.107471
0.714495 0.123015 0.109401
0.722499 0.125461 0.112014
0.730347 0.125640 0.114281
0.736493 0.126038 0.117113
0.742087 0.125775 0.120948
0.749214 0.119517 0.126465
0.753326 0.117752 0.146082
0.762171 0.131762 0.454424
0.762170 0.131732 0.454386
0.762170 0.131731 0.454384
0.762171 0.131753 0.454383
0.765052 0.299117 0.555685
0.063417 0.089618 0.087408
0.063593 0.089670 0.087531
0.064680 0.090243 0.087759
0.066826 0.090574 0.088457
0.070111 0.090544 0.088911
0.076073 0.090369 0.089629
0.086299 0.092751 0.090484
0.108081 0.096037 0.092076
0.131172 0.094753 0.092409
0.183245 0.095851 0.093182
0.292758 0.099917 0.094476
0.382789 0.101449 0.095405
0.441000 0.102737 0.096179
0.504584 0.105196 0.097307
0.563041 0.108994 0.099013
0.597991 0.111312 0.100009
0.623232 0.114367 0.101154
0.646637 0.118567 0.102894
0.669080 0.123488 0.105019
0.687467 0.125127 0.106330
0.702843 0.126976 0.107789
0.712177 0.129430 0.109733
0.720829 0.131470 0.112237
0.729121 0.131477 0.114375
0.735609 0.131694 0.117015
0.741432 0.131291 0.120422
0.748684 0.125543 0.124934
0.752985 0.122015 0.137900
0.762171 0.131776 0.454440
0.762170 0.131734 0.454388
0.762170 0.131731 0.454385
0.765051 0.260880 0.454383
0.765052 0.299117 0.555685
0.064039 0.100332 0.088201
0.064277 0.100365 0.088349
0.065151 0.101057 0.088827
0.067084 0.101784 0.089470
0.070107 0.102111 0.090110
0.075375 0.101989 0.090732
0.082622 0.101692 0.091575
0.098770 0.105688 0.092982
0.115069 0.103409 0.093242
0.149046 0.103957 0.093896
0.229581 0.107926 0.095340
0.320277 0.108963 0.096224
0.397263 0.109381 0.096865
0.460302 0.112241 0.098068
0.528920 0.118197 0.099726
0.575015 0.121069 0.100705
0.606690 0.122995 0.101954
0.634187 0.126409 0.103572
0.659022 0.131222 0.105610
0.678831 0.133507 0.106851
0.695653 0.139754 0.108237
0.708133 0.146541 0.110232
0.717978 0.149951 0.112606
0.727063 0.149444 0.114606
0.734153 0.149360 0.117044
0.740365 0.148253 0.120076
0.747816 0.134655 0.123812
0.752416 0.129478 0.131902
0.762173 0.131811 0.454479
0.762170 0.131737 0.454393
0.762170 0.131733 0.454387
0.765052 0.260957 0.454384
0.765052 0.299117 0.555685
0.064837 0.116368 0.089409
0.065002 0.116404 0.089543
0.065838 0.117567 0.090058
0.067710 0.118548 0.090742
0.070459 0.119345 0.091577
0.075525 0.119686 0.092451
0.082280 0.119351 0.093128
0.092843 0.118860 0.093812
0.105451 0.114423 0.094015
0.128607 0.114594 0.094651
0.183414 0.120566 0.096281
0.261890 0.121175 0.097120
0.343364 0.121012 0.097828
0.414993 0.123842 0.098942
0.489123 0.129067 0.100492
0.541716 0.130780 0.101678
0.586180 0.132446 0.102866
0.616279 0.139975 0.104417
0.644941 0.150600 0.106353
0.668890 0.152920 0.107486
0.688571 0.156657 0.108780
0.704278 0.162409 0.110873
0.714637 0.168153 0.113143
0.724107 0.170463 0.115027
0.731595 0.173701 0.117292
0.738526 0.172200 0.120081
0.746303 0.162175 0.123437
0.751407 0.152362 0.129107
0.762178 0.131952 0.454615
0.762170 0.131750 0.454408
0.762170 0.131738 0.454394
0.765052 0.260962 0.454387
0.765052 0.299117 0.555685
0.065157 0.126721 0.089987
0.065283 0.126731 0.090085
0.066002 0.127343 0.090455
0.067571 0.128511 0.091267
0.069828 0.129507 0.092072
0.073642 0.130013 0.092807
0.079359 0.130140 0.093538
0.086860 0.129779 0.094143
0.099133 0.129341 0.094819
0.117272 0.129187 0.095636
0.161778 0.137434 0.097326
0.213902 0.137032 0.098183
0.287705 0.134964 0.098834
0.371549 0.139283 0.099841
0.447733 0.150370 0.101671
0.505462 0.152605 0.102788
0.554840 0.155196 0.103873
0.596966 0.161221 0.105329
0.629134 0.170243 0.107177
0.655144 0.173485 0.108240
0.677111 0.178540 0.109665
0.697165 0.182803 0.111685
0.710815 0.187753 0.113822
0.721489 0.189309 0.115569
0.729785 0.192576 0.117686
0.736792 0.196303 0.120399
0.744418 0.192573 0.123705
0.749638 0.190385 0.128571
0.762329 0.139426 0.456152
0.762176 0.131897 0.454564
0.762171 0.131770 0.454436
0.765052 0.260967 0.454400
0.765052 0.299117 0.555685
0.065679 0.150349 0.090900
0.065818 0.150351 0.091014
0.066538 0.151085 0.091439
0.067910 0.153455 0.092143
0.069843 0.155503 0.092879
0.073211 0.157159 0.093582
0.078074 0.157780 0.094255
0.084508 0.157610 0.095003
0.094674 0.156914 0.095814
0.109571 0.156136 0.096588
0.142567 0.168258 0.098430
0.183363 0.167102 0.099260
0.243960 0.163871 0.099808
0.327886 0.166330 0.100856
0.411112 0.175904 0.102930
0.467270 0.177091 0.103945
0.522012 0.178565 0.104953
0.573051 0.183811 0.106317
0.610740 0.196087 0.108103
0.639146 0.199808 0.109134
0.665589 0.203816 0.110666
0.687403 0.212257 0.112607
0.705100 0.221793 0.114662
0.717232 0.223684 0.116279
0.726940 0.225012 0.118229
0.734868 0.227302 0.120875
0.743107 0.222076 0.123847
0.748754 0.218173 0.128041
0.754750 0.207251 0.134823
0.759046 0.200129 0.159984
0.763482 0.221200 0.410922
0.765052 0.261762 0.456686
0.765052 0.299117 0.555684
0.066745 0.194491 0.092476
0.066892 0.194500 0.092563
0.067456 0.195268 0.092887
0.068831 0.199498 0.093500
0.070697 0.202744 0.094155
0.073989 0.205087 0.094935
0.078678 0.206925 0.095872
0.084807 0.207360 0.096733
0.094648 0.206821 0.097686
0.108937 0.205654 0.098626
0.130351 0.204634 0.099533
0.166558 0.201691 0.100269
0.209298 0.195628 0.100898
0.286349 0.197928 0.102192
0.376163 0.211458 0.104206
0.430729 0.211299 0.105156
0.486597 0.211550 0.106053
0.541761 0.218048 0.107333
0.591551 0.232204 0.109120
0.621630 0.234055 0.110351
0.650115 0.239293 0.111811
0.675194 0.248874 0.113657
0.697772 0.256080 0.115566
0.712695 0.258621 0.117080
0.723155 0.264310 0.118925
0.731710 0.271587 0.121597
0.741009 0.264461 0.124271
0.747377 0.258122 0.127922
0.753767 0.244820 0.132996
0.758428 0.230587 0.147433
0.763248 0.219945 0.344458
0.765052 0.264250 0.463779
0.765052 0.265156 0.466328
0.067371 0.236410 0.093358
0.067492 0.236411 0.093429
0.068027 0.236977 0.093690
0.069174 0.240626 0.094198
0.070800 0.243753 0.094874
0.073836 0.247324 0.095789
0.078069 0.250386 0.096717
0.083441 0.251441 0.097717
0.091874 0.251510 0.098683
0.104086 0.250768 0.099580
0.121788 0.249432 0.100436
0.150998 0.248447 0.101602
0.183461 0.239653 0.102242
0.252234 0.242039 0.103534
0.344181 0.256417 0.105478
0.403668 0.254256 0.106339
0.454652 0.253355 0.107205
0.512403 0.259475 0.108425
0.567219 0.273083 0.110446
0.602869 0.273776 0.111612
0.632950 0.278876 0.113040
0.661987 0.285466 0.114756
0.686650 0.294043 0.116592
0.706390 0.297824 0.118025
0.719006 0.300230 0.119809
0.728981 0.304851 0.122486
0.738651 0.304074 0.124944
0.745359 0.305239 0.128294
0.752119 0.297756 0.132693
0.757392 0.280699 0.142122
0.762693 0.234755 0.243612
0.765052 0.264269 0.463815
0.765052 0.266022 0.468738
0.067902 0.275735 0.094018
0.068025 0.275726 0.094078
0.068485 0.276069 0.094298
0.069417 0.278388 0.094796
0.070951 0.281885 0.095584
0.073722 0.285416 0.096441
0.077384 0.287935 0.097400
0.082268 0.289696 0.098426
0.089166 0.290583 0.099372
0.099697 0.290311 0.100254
0.114338 0.289517 0.101320
0.135625 0.288207 0.102450
0.172890 0.287368 0.103603
0.223038 0.288644 0.104792
0.306942 0.302424 0.106743
0.373072 0.299381 0.107547
0.423641 0.297172 0.108327
0.481976 0.301967 0.109734
0.540367 0.313929 0.111937
0.584487 0.313382 0.112949
0.615335 0.316557 0.114239
0.646134 0.322355 0.115924
0.673844 0.329931 0.117708
0.698650 0.330856 0.118997
0.713596 0.336031 0.121014
0.724700 0.344524 0.123592
0.735939 0.340745 0.125786
0.743618 0.339365 0.128890
0.750723 0.335737 0.132838
0.756065 0.331235 0.140535
0.760637 0.328663 0.158895
0.765052 0.264389 0.463860
0.765053 0.267329 0.472217
0.068596 0.320930 0.094929
0.068701 0.320929 0.095004
0.069092 0.321150 0.095278
0.069873 0.322576 0.095802
0.071599 0.326173 0.096566
0.074082 0.328558 0.097473
0.077410 0.330814 0.098461
0.081994 0.332885 0.099460
0.088167 0.334528 0.100407
0.097527 0.334735 0.101578
0.110403 0.334212 0.102748
0.129167 0.333265 0.103907
0.160583 0.332057 0.104967
0.200047 0.331362 0.106054
0.281942 0.346001 0.107925
0.347218 0.342160 0.108736
0.402930 0.337996 0.109652
0.455075 0.341886 0.111172
0.515419 0.354333 0.113332
0.559693 0.353572 0.114345
0.598082 0.355438 0.115556
0.629658 0.361050 0.117132
0.660184 0.367508 0.118817
0.686762 0.369706 0.120242
0.707128 0.374395 0.122314
0.720437 0.378665 0.124705
0.732550 0.379310 0.126803
0.740890 0.382099 0.129772
0.749012 0.377558 0.133264
0.755023 0.371378 0.139667
0.760015 0.364535 0.151575
0.763396 0.370098 0.236661
0.765389 0.408738 0.475329
0.069440 0.375124 0.096331
0.069532 0.375147 0.096397
0.069872 0.375404 0.096638
0.070726 0.376657 0.097171
0.072597 0.380726 0.098081
0.074932 0.382783 0.098956
0.078147 0.385930 0.099940
0.082500 0.388232 0.101016
0.088474 0.389915 0.102373
0.097594 0.390750 0.103637
0.110068 0.390891 0.104859
0.127727 0.390303 0.105958
0.157291 0.389354 0.107051
0.192699 0.388349 0.108065
0.255557 0.387543 0.109148
0.317085 0.383706 0.110167
0.377682 0.380393 0.111184
0.429237 0.382782 0.112665
0.489423 0.391729 0.114742
0.535792 0.389981 0.115674
0.581373 0.391472 0.116866
0.613498 0.396777 0.118393
0.645024 0.402620 0.120141
0.673452 0.405309 0.121710
0.698925 0.408718 0.123638
0.714696 0.415145 0.125957
0.728564 0.415893 0.128070
0.738430 0.416425 0.130786
0.747008 0.416686 0.134241
0.753409 0.416463 0.139749
0.759030 0.407496 0.148233
0.762873 0.399351 0.186074
0.765332 0.416514 0.467971
0.069946 0.411421 0.097221
0.070048 0.411437 0.097294
0.070425 0.411630 0.097558
0.071233 0.412580 0.098060
0.072889 0.415639 0.098851
0.075203 0.418503 0.099717
0.078335 0.422371 0.100761
0.082161 0.424066 0.102010
0.087502 0.425952 0.103308
0.095656 0.427473 0.104612
0.106759 0.427774 0.105762
0.122060 0.427499 0.106880
0.145989 0.426950 0.107954
0.182572 0.425898 0.108983
0.229812 0.425027 0.110320
0.291799 0.424334 0.111673
0.354379 0.420326 0.112621
0.410482 0.422362 0.114100
0.466742 0.431460 0.116157
0.514278 0.429170 0.117055
0.558175 0.429565 0.118142
0.597894 0.434407 0.119683
0.629778 0.439986 0.121728
0.659706 0.441783 0.123192
0.686981 0.445223 0.125040
0.708219 0.450135 0.127353
0.723982 0.450615 0.129393
0.734929 0.453258 0.131992
0.744758 0.453156 0.135489
0.752085 0.451055 0.140267
0.757945 0.449504 0.147402
0.761938 0.450347 0.166657
0.765052 0.442479 0.408366
0.070511 0.447347 0.098136
0.070602 0.447355 0.098200
0.070934 0.447463 0.098435
0.071795 0.448005 0.098878
0.073223 0.449749 0.099571
0.075565 0.452461 0.100434
0.078147 0.454219 0.101605
0.081858 0.456197 0.102897
0.086735 0.457936 0.104178
0.094040 0.459106 0.105418
0.103966 0.459752 0.106614
0.117504 0.459825 0.107723
0.137592 0.459545 0.108768
0.169519 0.459031 0.110109
0.208198 0.458290 0.111444
0.269735 0.457678 0.112731
0.333750 0.457303 0.114033
0.393864 0.458628 0.115470
0.445282 0.465089 0.117506
0.491773 0.462924 0.118357
0.537637 0.463006 0.119439
0.583260 0.466127 0.121326
0.614947 0.470195 0.123330
0.645184 0.471083 0.124703
0.674158 0.474263 0.126486
0.700463 0.478470 0.128872
0.718247 0.480164 0.130819
0.731120 0.482044 0.133240
0.742176 0.483111 0.136904
0.750153 0.484006 0.141239
0.756821 0.481245 0.147209
0.761360 0.478351 0.160762
0.764389 0.487456 0.268497
0.071234 0.479705 0.099190
0.071343 0.479719 0.099248
0.071744 0.479827 0.099458
0.072516 0.480285 0.099854
0.073876 0.481669 0.100471
0.076225 0.484926 0.101683
0.078515 0.485977 0.102773
0.082174 0.488560 0.104102
0.086710 0.490197 0.105341
0.093435 0.491339 0.106529
0.102617 0.492269 0.107723
0.115290 0.492648 0.108842
0.133025 0.492692 0.110297
0.161929 0.492169 0.111635
0.195071 0.491662 0.113011
0.251715 0.490995 0.114292
0.311486 0.490394 0.115531
0.371699 0.490171 0.116798
0.425446 0.496381 0.118811
0.472120 0.494009 0.119681
0.519134 0.493510 0.121058
0.563588 0.496398 0.122946
0.600900 0.500127 0.124916
0.630879 0.500646 0.126221
0.661095 0.503805 0.128149
0.689082 0.507738 0.130450
0.711860 0.509564 0.132277
0.726554 0.511670 0.135021
0.738887 0.514453 0.138514
0.748345 0.513591 0.142402
0.755557 0.513570 0.147694
0.760449 0.514714 0.158279
0.764017 0.514006 0.209693
0.072252 0.516225 0.100410
0.072351 0.516254 0.100462
0.072713 0.516403 0.100687
0.073427 0.516872 0.101208
0.074816 0.518094 0.102017
0.076913 0.520898 0.103171
0.079372 0.522656 0.104282
0.082748 0.524621 0.105552
0.087134 0.525819 0.106763
0.093887 0.527092 0.108004
0.102871 0.527860 0.109244
0.115097 0.528338 0.110836
0.131636 0.528381 0.112299
0.158992 0.528227 0.113703
0.188868 0.527819 0.115020
0.244004 0.527484 0.116372
0.300241 0.527095 0.117624
0.360971 0.526646 0.118813
0.411354 0.526603 0.120247
0.454212 0.524844 0.121299
0.499810 0.524481 0.122666
0.545292 0.526099 0.124523
0.587841 0.528496 0.126447
0.617297 0.528711 0.127878
0.647549 0.530489 0.129787
0.677133 0.533252 0.132038
0.704771 0.534342 0.133944
0.721104 0.536421 0.136902
0.735544 0.537715 0.140105
0.746017 0.538528 0.143764
0.754160 0.539120 0.148562
0.759761 0.538185 0.157368
0.763555 0.540357 0.188167
0.072778 0.539408 0.101210
0.072868 0.539422 0.101280
0.073197 0.539493 0.101537
0.073948 0.539728 0.102019
0.075197 0.540354 0.102765
0.077058 0.541799 0.103823
0.079605 0.543361 0.104987
0.082519 0.544399 0.106129
0.086809 0.545871 0.107384
0.093093 0.547072 0.108613
0.100960 0.547691 0.110027
0.111861 0.548209 0.111584
0.126786 0.548439 0.113085
0.150220 0.548405 0.114504
0.183173 0.548210 0.115868
0.225171 0.547793 0.117147
0.283525 0.547467 0.118431
0.343687 0.547200 0.119711
0.396401 0.546872 0.121244
0.436658 0.546946 0.122849
0.482266 0.546263 0.124175
0.528814 0.547838 0.126031
0.572704 0.549898 0.128150
0.604574 0.549997 0.129541
0.634639 0.551515 0.131410
0.664974 0.553915 0.133732
0.694715 0.554996 0.135932
0.714956 0.557151 0.138791
0.731351 0.558658 0.141791
0.743284 0.559989 0.145197
0.752684 0.560407 0.149691
0.758827 0.561318 0.157500
0.763144 0.561869 0.178019
0.073320 0.560895 0.102099
0.073422 0.560907 0.102165
0.073797 0.560970 0.102405
0.074511 0.561162 0.102856
0.075645 0.561655 0.103551
0.077318 0.562765 0.104533
0.080008 0.564614 0.105765
0.082566 0.565265 0.106805
0.086941 0.566977 0.108122
0.092267 0.567581 0.109313
0.099998 0.568541 0.110948
0.110312 0.569223 0.112535
0.123901 0.569426 0.114024
0.144265 0.569395 0.115422
0.174968 0.569296 0.116812
0.211254 0.569035 0.118128
0.266275 0.568635 0.119366
0.322442 0.568300 0.120954
0.377321 0.568140 0.122559
0.420410 0.567941 0.124062
0.466791 0.568110 0.125614
0.513359 0.569103 0.127560
0.556101 0.571070 0.129743
0.592819 0.571172 0.131148
0.622295 0.572374 0.132966
0.652828 0.574591 0.135814
0.683298 0.575613 0.137905
0.708283 0.577444 0.140624
0.726355 0.579414 0.143515
0.740280 0.580517 0.146614
0.750856 0.581989 0.151107
0.757943 0.582400 0.157996
0.762694 0.583692 0.173393
0.074077 0.582981 0.103092
0.074172 0.583000 0.103154
0.074518 0.583079 0.103381
0.075177 0.583283 0.103807
0.076215 0.583739 0.104461
0.077735 0.584685 0.105383
0.080457 0.586531 0.106624
0.082913 0.587311 0.107658
0.086801 0.588531 0.108864
0.092288 0.589575 0.110452
0.099823 0.590585 0.112106
0.108837 0.591088 0.113622
0.121897 0.591517 0.115153
0.140814 0.591643 0.116612
0.169526 0.591519 0.117972
0.201537 0.591370 0.119338
0.253872 0.591049 0.120968
0.307412 0.590710 0.122604
0.363221 0.590372 0.124190
0.410913 0.590298 0.125771
0.453178 0.590228 0.127360
0.497443 0.590463 0.129088
0.541182 0.591954 0.131249
0.581879 0.592099 0.132599
0.610713 0.593069 0.134872
0.640864 0.595021 0.137791
0.671930 0.596140 0.139819
0.700632 0.597791 0.142459
0.720737 0.599780 0.145223
0.736637 0.601103 0.148098
0.748876 0.602624 0.152555
0.756929 0.603560 0.158815
0.762198 0.605369 0.171289
0.074733 0.605436 0.103900
0.074822 0.605456 0.103961
0.075145 0.605539 0.104178
0.075756 0.605734 0.104586
0.076715 0.606138 0.105212
0.078175 0.606925 0.106092
0.080686 0.608396 0.107273
0.083292 0.609585 0.108419
0.086852 0.610460 0.109760
0.092587 0.611823 0.111535
0.099117 0.612393 0.113045
0.108254 0.613150 0.114659
0.120974 0.613741 0.116266
0.137681 0.613804 0.117694
0.164489 0.613722 0.119070
0.192917 0.613558 0.120732
0.243174 0.613334 0.122502
0.294812 0.613029 0.124180
0.353290 0.612715 0.125787
0.402183 0.612423 0.127459
0.441074 0.612420 0.129229
0.484720 0.612509 0.130950
0.527644 0.612841 0.132640
0.566873 0.612923 0.134246
0.599936 0.613657 0.136690
0.629442 0.615257 0.139611
0.660650 0.616430 0.141591
0.690075 0.617913 0.144170
0.714702 0.619851 0.146875
0.732381 0.621433 0.149781
0.746610 0.622893 0.153968
0.755757 0.624429 0.159834
0.761792 0.625642 0.170370
0.075021 0.627559 0.104085
0.075104 0.627572 0.104144
0.075406 0.627626 0.104357
0.075976 0.627757 0.104754
0.076869 0.628032 0.105365
0.078239 0.628576 0.106221
0.080547 0.629606 0.107368
0.083329 0.630912 0.108661
0.086492 0.631445 0.110009
0.091905 0.632570 0.111820
0.098072 0.633112 0.113380
0.107070 0.633817 0.115075
0.117752 0.634087 0.116579
0.133212 0.634347 0.118126
0.158866 0.634357 0.119627
0.183479 0.634119 0.121398
0.229725 0.633862 0.123181
0.284060 0.633549 0.124882
0.340736 0.633252 0.126534
0.389014 0.632984 0.128326
0.426985 0.632825 0.130097
0.470680 0.632875 0.131802
0.513828 0.633168 0.133632
0.553250 0.633684 0.135916
0.589990 0.634078 0.138357
0.618728 0.635336 0.141261
0.649374 0.636561 0.143182
0.679413 0.637800 0.145735
0.708034 0.639643 0.148315
0.727556 0.641376 0.151607
0.743936 0.643002 0.155411
0.754541 0.644341 0.160656
0.761340 0.646078 0.170173
0.075374 0.647496 0.104302
0.075452 0.647507 0.104359
0.075734 0.647548 0.104568
0.076266 0.647637 0.104957
0.077098 0.647807 0.105554
0.078412 0.648112 0.106390
0.080541 0.648650 0.107509
0.083525 0.649576 0.108971
0.086419 0.649835 0.110365
0.091185 0.650337 0.112082
0.097659 0.650863 0.113859
0.105414 0.651111 0.115448
0.116197 0.651377 0.117089
0.130808 0.651537 0.118688
0.152730 0.651523 0.120332
0.182704 0.651448 0.122228
0.219772 0.651295 0.124063
0.273346 0.651080 0.125831
0.325930 0.650872 0.127620
0.375782 0.650698 0.129483
0.417060 0.650575 0.131256
0.459068 0.650547 0.132983
0.500191 0.650602 0.135187
0.540228 0.650875 0.137516
0.580217 0.651268 0.139813
0.608691 0.651776 0.142720
0.638770 0.652658 0.144577
0.668829 0.653195 0.147061
0.700556 0.654270 0.149803
0.722121 0.655271 0.152976
0.740824 0.656410 0.156768
0.753209 0.657288 0.161493
0.760860 0.658296 0.170176
0.075680 0.659857 0.104329
0.075752 0.659870 0.104386
0.076017 0.659918 0.104594
0.076515 0.660016 0.104982
0.077292 0.660186 0.105576
0.078555 0.660466 0.106410
0.080534 0.660923 0.107523
0.083277 0.661670 0.108980
0.086458 0.662146 0.110650
0.090722 0.662543 0.112302
0.097595 0.663204 0.114330
0.104430 0.663365 0.115841
0.115452 0.663677 0.117639
0.128007 0.663741 0.119144
0.149308 0.663804 0.121147
0.178051 0.663738 0.123094
0.210434 0.663604 0.124949
0.261367 0.663402 0.126778
0.312443 0.663161 0.128760
0.364238 0.662961 0.130667
0.409058 0.662807 0.132506
0.447979 0.662738 0.134675
0.489010 0.662747 0.136997
0.529113 0.662854 0.139261
0.567358 0.663200 0.141610
0.599389 0.663654 0.143921
0.628782 0.664696 0.145711
0.658628 0.665068 0.148210
0.690513 0.666027 0.151042
0.716195 0.666937 0.154186
0.737019 0.668047 0.157777
0.751688 0.669066 0.162195
0.760559 0.670067 0.170332
0.075372 0.674501 0.102868
0.075440 0.674507 0.102930
0.075687 0.674529 0.103154
0.076153 0.674574 0.103574
0.076883 0.674650 0.104220
0.077952 0.674776 0.105127
0.079827 0.674986 0.106344
0.082451 0.675350 0.107940
0.085786 0.675732 0.109740
0.089490 0.675913 0.111409
0.095407 0.676228 0.113460
0.102726 0.676425 0.115326
0.112095 0.676504 0.117085
0.124796 0.676527 0.118827
0.143586 0.676443 0.120804
0.170131 0.676315 0.122827
0.200228 0.676138 0.124847
0.249142 0.675899 0.126738
0.297383 0.675627 0.128763
0.352889 0.675380 0.130720
0.399988 0.675193 0.132604
0.435678 0.675082 0.134867
0.477521 0.675073 0.137255
0.518717 0.675180 0.139573
