LUTs/negative-ektar-100/Ektar100_Classic_ExtraPunchy.cube
TITLE "Kodak Ektar 100 Classic ExtraPunchy"
# Adobe RGB in/out. REPLACES AgX. Kodak Ektar 100 Classic ExtraPunchy.
LUT_3D_SIZE 5
DOMAIN_MIN 0.0 0.0 0.0
DOMAIN_MAX 1.0 1.0 1.0
0.069662 0.073299 0.081842
0.319085 0.081093 0.078635
0.681740 0.105990 0.081930
0.781046 0.131044 0.094749
0.810415 0.303810 0.563354
0.068408 0.145844 0.078600
0.100303 0.150531 0.080223
0.566206 0.175247 0.084020
0.772730 0.214191 0.094967
0.810415 0.303817 0.563352
0.071969 0.445351 0.081283
0.085827 0.457829 0.084195
0.326198 0.457082 0.091324
0.701403 0.477168 0.105730
0.809706 0.492884 0.276237
0.074704 0.680828 0.084281
0.085545 0.684539 0.088355
0.235592 0.686890 0.102137
0.588646 0.686846 0.122544
0.805935 0.698201 0.161404
0.073248 0.781853 0.081842
0.079364 0.806194 0.081842
0.143850 0.814527 0.084000
0.494762 0.808822 0.103757
0.807705 0.815653 0.114327
0.067546 0.085835 0.139063
0.313892 0.131076 0.355533
0.691360 0.149459 0.295559
0.780647 0.187200 0.365399
0.810415 0.303823 0.563375
0.072840 0.154189 0.133444
0.171931 0.181499 0.172278
0.639509 0.207098 0.188482
0.775034 0.247591 0.242551
0.810415 0.303817 0.563352
0.079673 0.445047 0.134650
0.112079 0.453328 0.148669
0.419136 0.461697 0.171139
0.734188 0.489028 0.201191
0.809584 0.522372 0.466387
0.083080 0.679750 0.130252
0.102941 0.682478 0.143839
0.293201 0.685028 0.174367
0.630289 0.688089 0.207980
0.806822 0.700635 0.261861
0.073248 0.791342 0.084753
0.079364 0.814849 0.084752
0.167963 0.814745 0.110158
0.513396 0.809830 0.159971
0.810321 0.816496 0.181811
0.068776 0.139736 0.463873
0.204606 0.238853 0.609113
0.675828 0.270719 0.610032
0.777969 0.305284 0.623520
0.810415 0.333856 0.657734
0.075145 0.229338 0.471386
0.159052 0.283309 0.555793
0.638788 0.321468 0.583535
0.773676 0.362782 0.608114
0.810415 0.331284 0.648792
0.092100 0.470673 0.440048
0.145270 0.480614 0.458228
0.507397 0.512107 0.510684
0.749113 0.537719 0.543194
0.809151 0.566997 0.640557
0.102617 0.685112 0.434995
0.138849 0.687426 0.443081
0.366860 0.691429 0.466158
0.680473 0.698381 0.494297
0.807489 0.718965 0.589810
0.076260 0.811227 0.527496
0.078149 0.817758 0.527493
0.228183 0.815277 0.454476
0.554289 0.813164 0.468946
0.811221 0.821495 0.501380
0.070508 0.285181 0.697867
0.133750 0.343061 0.727102
0.663022 0.373155 0.728965
0.775678 0.399947 0.732247
0.810415 0.364671 0.730290
0.076373 0.364400 0.703431
0.142821 0.402827 0.722993
0.634289 0.427936 0.727304
0.772354 0.450837 0.731382
0.810411 0.363546 0.728354
0.101334 0.544080 0.683134
0.162255 0.556816 0.699030
0.533631 0.575221 0.716576
0.753920 0.592235 0.725361
0.808815 0.606140 0.737992
0.115993 0.703705 0.658475
0.160387 0.706812 0.665382
0.405858 0.714343 0.686851
0.701770 0.724602 0.703862
0.807795 0.742671 0.735510
0.076572 0.814729 0.630763
0.078966 0.822270 0.631055
0.235379 0.822839 0.658566
0.564259 0.821717 0.665124
0.811430 0.832435 0.717496
0.128892 0.427047 0.809742
0.432174 0.434212 0.809744
0.717637 0.456113 0.809885
0.785258 0.467661 0.810771
0.810415 0.423844 0.808525
0.145055 0.471610 0.808793
0.408377 0.478640 0.808886
0.711784 0.499956 0.809235
0.784398 0.511343 0.810258
0.810415 0.432807 0.812199
0.172704 0.612540 0.806853
0.328591 0.615306 0.807218
0.683630 0.625080 0.807978
0.780521 0.632660 0.809227
0.811015 0.627814 0.812977
0.138398 0.743529 0.806644
0.211983 0.744234 0.807217
0.579896 0.746889 0.808267
0.768087 0.751013 0.809561
0.811006 0.755377 0.812467
0.075248 0.815696 0.745893
0.079364 0.828543 0.762380
0.148911 0.839400 0.791704
0.539933 0.839730 0.811929
0.811655 0.844004 0.813300
