LUTs/negative-ektar-100/Ektar100_Modern_ExtraSoft.cube
TITLE "Kodak Ektar 100 Modern ExtraSoft"
# Adobe RGB in/out. REPLACES AgX. Kodak Ektar 100 Modern ExtraSoft.
LUT_3D_SIZE 5
DOMAIN_MIN 0.0 0.0 0.0
DOMAIN_MAX 1.0 1.0 1.0
0.057526 0.063911 0.078815
0.565061 0.085789 0.088535
0.793929 0.140093 0.106082
0.829633 0.183565 0.135039
0.831617 0.435642 0.657997
0.062889 0.308416 0.088552
0.112809 0.180806 0.091670
0.667702 0.255389 0.106257
0.808229 0.324574 0.128172
0.823545 0.418067 0.643635
0.071300 0.633653 0.101321
0.098232 0.603637 0.107804
0.408968 0.534137 0.114251
0.721606 0.543391 0.130516
0.803792 0.551769 0.331859
0.075432 0.731508 0.106676
0.091130 0.723050 0.113769
0.294030 0.700810 0.127473
0.605435 0.679497 0.140865
0.785223 0.678906 0.175918
0.068728 0.758293 0.078902
0.078105 0.771210 0.079082
0.140284 0.766136 0.099029
0.512684 0.750193 0.121134
0.774501 0.746209 0.126706
0.059829 0.097215 0.312872
0.569561 0.262766 0.610243
0.794616 0.257587 0.500126
0.824467 0.306609 0.528326
0.828601 0.429021 0.652627
0.072269 0.239624 0.220670
0.148326 0.159725 0.174230
0.701056 0.289790 0.267794
0.804394 0.359789 0.355751
0.820523 0.411625 0.638305
0.087771 0.613728 0.223892
0.133694 0.572635 0.213278
0.475260 0.513929 0.197943
0.738660 0.540579 0.236634
0.801002 0.567617 0.520925
0.088225 0.724860 0.184091
0.114489 0.716171 0.195162
0.357381 0.694648 0.211975
0.641170 0.675240 0.226721
0.784186 0.678115 0.274148
0.068618 0.763064 0.101829
0.077857 0.774638 0.101281
0.165133 0.764618 0.128959
0.524787 0.749749 0.170251
0.776817 0.746357 0.184241
0.064209 0.290285 0.681153
0.455057 0.493560 0.769435
0.806918 0.524742 0.765653
0.826194 0.478911 0.722985
0.827250 0.459492 0.714903
0.085110 0.464457 0.676496
0.313511 0.493647 0.702399
0.728910 0.487627 0.688214
0.805304 0.499688 0.686691
0.818678 0.437001 0.696864
0.104053 0.587825 0.561878
0.162677 0.559110 0.538340
0.506673 0.507646 0.502141
0.742665 0.564634 0.579943
0.797529 0.600663 0.662857
0.112888 0.714582 0.533941
0.153536 0.707016 0.525427
0.420263 0.686728 0.507892
0.673981 0.671913 0.503724
0.781401 0.686506 0.593969
0.073324 0.771301 0.573877
0.075696 0.772056 0.567292
0.237113 0.760891 0.485055
0.550244 0.749295 0.481079
0.776590 0.748746 0.496183
0.069694 0.547091 0.817607
0.307327 0.608289 0.835627
0.803647 0.628400 0.836445
0.836023 0.592610 0.805833
0.830746 0.500082 0.771882
0.089987 0.623121 0.821203
0.332606 0.645679 0.833746
0.767644 0.635643 0.816514
0.816344 0.601773 0.786341
0.821902 0.476875 0.761392
0.117529 0.638213 0.736641
0.213981 0.635669 0.739143
0.589429 0.627597 0.733879
0.760602 0.630269 0.732840
0.798818 0.632298 0.736328
0.122499 0.712406 0.689923
0.173519 0.707375 0.686847
0.444456 0.693895 0.681402
0.680317 0.679507 0.675921
0.779398 0.699465 0.707827
0.073163 0.767260 0.648610
0.075955 0.769461 0.644898
0.237719 0.761512 0.657299
0.553790 0.752214 0.651408
0.775676 0.757508 0.686962
0.292533 0.661930 0.876467
0.670011 0.666636 0.876469
0.833928 0.680748 0.876538
0.850609 0.654975 0.860530
0.835406 0.560367 0.830493
0.338856 0.690501 0.875997
0.656841 0.694283 0.876043
0.828234 0.700901 0.874287
0.836021 0.656300 0.847813
0.826843 0.550650 0.823453
0.296411 0.708732 0.841055
0.494411 0.704333 0.837511
0.744238 0.693813 0.825318
0.796420 0.676485 0.810401
0.805011 0.653217 0.798768
0.146683 0.731741 0.796052
0.248570 0.727949 0.792801
0.598327 0.718748 0.784081
0.745965 0.712529 0.777181
0.784819 0.711435 0.775622
0.071057 0.761650 0.727822
0.075776 0.769610 0.739012
0.135566 0.772539 0.760814
0.533407 0.766672 0.769323
0.775426 0.767704 0.768001
