LUTs/negative-ektar-100/Ektar100_Classic_ExtraPunchy.cube
TITLE "Kodak Ektar 100 Classic ExtraPunchy"
# Adobe RGB in/out. REPLACES AgX. Kodak Ektar 100 Classic ExtraPunchy.
LUT_3D_SIZE 9
DOMAIN_MIN 0.0 0.0 0.0
DOMAIN_MAX 1.0 1.0 1.0
0.069662 0.073299 0.081842
0.094810 0.073959 0.079056
0.319085 0.081093 0.078635
0.568616 0.092127 0.080098
0.681740 0.105990 0.081930
0.743253 0.121502 0.086171
0.781046 0.131044 0.094749
0.807335 0.154888 0.453680
0.810415 0.303810 0.563354
0.067513 0.087564 0.079432
0.073350 0.088435 0.078271
0.180513 0.091854 0.078978
0.489133 0.102171 0.080431
0.662800 0.116343 0.082399
0.737803 0.134771 0.086467
0.779897 0.144630 0.094277
0.807336 0.154910 0.453697
0.810415 0.303817 0.563352
0.068408 0.145844 0.078600
0.071476 0.150832 0.079121
0.100303 0.150531 0.080223
0.291727 0.158762 0.081493
0.566206 0.175247 0.084020
0.704616 0.199536 0.087842
0.772730 0.214191 0.094967
0.807504 0.162073 0.455730
0.810415 0.303817 0.563352
0.069804 0.284624 0.079907
0.072295 0.289702 0.080454
0.088320 0.296848 0.081654
0.186505 0.294211 0.083891
0.418184 0.302232 0.087056
0.635228 0.318296 0.091506
0.748977 0.337431 0.098542
0.795102 0.337195 0.114138
0.810415 0.277170 0.474697
0.071969 0.445351 0.081283
0.073533 0.448178 0.081724
0.085827 0.457829 0.084195
0.150681 0.459729 0.087359
0.326198 0.457082 0.091324
0.546599 0.463821 0.097086
0.701403 0.477168 0.105730
0.785969 0.487699 0.119009
0.809706 0.492884 0.276237
0.073585 0.582934 0.083168
0.074910 0.583885 0.083866
0.086011 0.590547 0.086915
0.133412 0.593617 0.091316
0.274733 0.592625 0.096998
0.469554 0.591966 0.104431
0.644730 0.597316 0.114310
0.768112 0.606165 0.127086
0.807894 0.611553 0.164745
0.074704 0.680828 0.084281
0.076099 0.681318 0.085146
0.085545 0.684539 0.088355
0.123400 0.687022 0.094249
0.235592 0.686890 0.102137
0.409055 0.685731 0.112028
0.588646 0.686846 0.122544
0.730150 0.691689 0.134674
0.805935 0.698201 0.161404
0.074147 0.763375 0.080949
0.074901 0.762836 0.081351
0.082668 0.760818 0.085714
0.111067 0.760549 0.092258
0.200814 0.759385 0.101665
0.365285 0.757713 0.113512
0.542407 0.757461 0.125259
0.687553 0.760176 0.136908
0.804909 0.764422 0.158174
0.073248 0.781853 0.081842
0.073248 0.781855 0.081842
0.079364 0.806194 0.081842
0.079365 0.808159 0.079386
0.143850 0.814527 0.084000
0.314195 0.810498 0.093384
0.494762 0.808822 0.103757
0.640526 0.810463 0.111820
0.807705 0.815653 0.114327
0.068172 0.075526 0.085014
0.087895 0.090400 0.140437
0.349173 0.087456 0.094468
0.594858 0.097764 0.091874
0.689598 0.109810 0.090459
0.744595 0.125342 0.093323
0.780987 0.135811 0.106525
0.807336 0.154910 0.453699
0.810415 0.303817 0.563355
0.068646 0.089015 0.084190
0.082698 0.095333 0.089149
0.265810 0.097415 0.088391
0.551232 0.108189 0.090466
0.675953 0.122111 0.090664
0.740039 0.139371 0.093521
0.779915 0.148920 0.104725
0.807336 0.154945 0.453727
0.810415 0.303817 0.563352
0.070431 0.145585 0.084117
0.074382 0.148901 0.085540
0.124375 0.152006 0.087608
0.366200 0.165403 0.090794
0.602891 0.181840 0.092552
0.713650 0.204595 0.095754
0.773519 0.218022 0.104251
0.807552 0.164284 0.456618
0.810415 0.303817 0.563352
0.072345 0.282331 0.085124
0.074794 0.286484 0.086372
0.098920 0.293130 0.089303
0.223753 0.294414 0.092924
0.465543 0.305917 0.096579
0.656012 0.322048 0.100061
0.753446 0.340024 0.108968
0.795278 0.339860 0.126168
0.810415 0.303832 0.563349
0.073599 0.441725 0.085839
0.075634 0.444576 0.086949
0.092082 0.453473 0.090738
0.168374 0.456577 0.095916
0.353332 0.456716 0.102013
0.567930 0.464903 0.108345
0.711146 0.478555 0.116540
0.786970 0.488673 0.130060
0.809681 0.498838 0.321207
0.074831 0.580540 0.086825
0.076727 0.581614 0.087719
0.089973 0.587943 0.092220
0.144116 0.591243 0.098581
0.290599 0.591175 0.107304
0.485635 0.591668 0.116402
0.655877 0.597648 0.126132
0.772009 0.606522 0.138381
0.807939 0.612630 0.182495
0.075851 0.679878 0.087247
0.077428 0.680370 0.088141
0.087874 0.683449 0.092893
0.129685 0.685875 0.100579
0.248157 0.685986 0.111602
0.420996 0.685294 0.122741
0.597371 0.686812 0.133794
0.736368 0.691866 0.147682
0.806156 0.698543 0.174976
0.074635 0.762685 0.081854
0.075473 0.762238 0.082748
0.084128 0.760463 0.088166
0.114997 0.760181 0.097000
0.208272 0.759085 0.109582
0.372704 0.757576 0.122744
0.549624 0.757518 0.134851
0.692734 0.760325 0.149527
0.805384 0.764568 0.170126
0.073248 0.791339 0.084751
0.073248 0.791341 0.084751
0.079364 0.814848 0.084751
0.079366 0.814848 0.084750
0.147424 0.814663 0.086088
0.318637 0.810656 0.097936
0.498117 0.809045 0.110902
0.643569 0.810716 0.119888
0.809024 0.815806 0.123027
0.067546 0.085835 0.139063
0.081194 0.131504 0.387249
0.313892 0.131076 0.355533
0.589681 0.136498 0.319200
0.691360 0.149459 0.295559
0.745467 0.169291 0.311803
0.780647 0.187200 0.365399
0.807427 0.161740 0.466885
0.810415 0.303823 0.563375
0.069246 0.099407 0.142339
0.078754 0.110157 0.204866
0.262516 0.123091 0.248673
0.562315 0.137308 0.245920
0.682108 0.155514 0.245693
0.742188 0.175540 0.273749
0.779759 0.193175 0.331334
0.807461 0.163606 0.468695
0.810415 0.303818 0.563356
0.072840 0.154189 0.133444
0.078488 0.157801 0.139519
0.171931 0.181499 0.172278
0.435596 0.183248 0.173574
0.639509 0.207098 0.188482
0.725405 0.232990 0.211314
0.775034 0.247591 0.242551
0.806665 0.206749 0.465980
0.810415 0.303817 0.563352
0.076044 0.287792 0.134480
0.081197 0.290813 0.138608
0.121572 0.297307 0.148967
0.291263 0.303185 0.159711
0.542580 0.321129 0.173207
0.688169 0.341552 0.191312
0.762141 0.358012 0.207053
0.795819 0.362379 0.276880
0.810415 0.303820 0.563355
0.079673 0.445047 0.134650
0.083863 0.447079 0.138332
0.112079 0.453328 0.148669
0.217880 0.457674 0.160218
0.419136 0.461697 0.171139
0.619874 0.474533 0.188649
0.734188 0.489028 0.201191
0.789681 0.497708 0.234990
0.809584 0.522372 0.466387
0.082494 0.581642 0.136244
0.085749 0.582480 0.139475
0.108791 0.586754 0.150300
0.183037 0.589836 0.163113
0.344951 0.591373 0.176542
0.539861 0.594090 0.191309
0.686783 0.601734 0.204247
0.779450 0.610509 0.228979
0.808089 0.619281 0.307126
0.083080 0.679750 0.130252
0.085628 0.680183 0.132729
0.102941 0.682478 0.143839
0.159239 0.684426 0.158922
0.293201 0.685028 0.174367
0.469808 0.685530 0.191410
0.630289 0.688089 0.207980
0.756254 0.693742 0.229668
0.806822 0.700635 0.261861
0.079994 0.759057 0.115436
0.081720 0.759050 0.118574
0.094627 0.759070 0.132584
0.136944 0.759149 0.151130
0.247812 0.758429 0.169774
0.406992 0.757518 0.189576
0.576400 0.758140 0.207923
0.713980 0.761223 0.225526
0.806631 0.765440 0.244878
0.073248 0.791342 0.084753
0.079364 0.814848 0.084753
0.079364 0.814849 0.084752
0.079376 0.814852 0.084753
0.167963 0.814745 0.110158
0.339655 0.811150 0.138963
0.513396 0.809830 0.159971
0.656437 0.811632 0.173304
0.810321 0.816496 0.181811
0.068133 0.104345 0.294950
0.073823 0.163348 0.489757
0.271167 0.184231 0.523862
0.567670 0.194161 0.516646
0.685012 0.213117 0.515367
0.742817 0.234677 0.521410
0.779510 0.253739 0.542518
0.803348 0.243605 0.588229
0.810415 0.312204 0.592490
0.069577 0.120644 0.307874
0.075813 0.154540 0.414471
0.231223 0.185873 0.491690
0.539560 0.199535 0.490240
0.677133 0.220905 0.495268
0.739941 0.243430 0.508516
0.778692 0.263220 0.533392
0.802898 0.252316 0.584988
0.810415 0.312297 0.592752
0.074152 0.181903 0.292983
0.081138 0.189006 0.311916
0.164914 0.211962 0.368497
0.444316 0.232400 0.400245
0.644047 0.259818 0.421152
0.726295 0.287277 0.444561
0.774686 0.307609 0.488829
0.799334 0.317772 0.555580
0.810415 0.312634 0.593706
0.080052 0.302944 0.277492
0.086294 0.306416 0.284484
0.137351 0.315607 0.306448
0.345057 0.345069 0.346298
0.573085 0.349509 0.355224
0.698318 0.372939 0.379655
0.764934 0.394489 0.416078
0.795640 0.410406 0.499965
0.810415 0.312753 0.593992
0.086106 0.453878 0.276916
0.092316 0.455653 0.281217
0.130770 0.461886 0.295895
0.262367 0.467997 0.312536
0.473073 0.475276 0.328032
0.650885 0.490728 0.347393
0.744785 0.506937 0.371272
0.790785 0.519252 0.420581
0.809401 0.547553 0.577729
0.090994 0.585123 0.274032
0.095992 0.585920 0.277623
0.127780 0.589644 0.290673
0.220359 0.592968 0.306603
0.389092 0.595942 0.320797
0.580079 0.600478 0.335079
0.709522 0.609672 0.353482
0.783357 0.618560 0.380996
0.808145 0.637405 0.518869
0.092422 0.681209 0.268202
0.096359 0.681603 0.271476
0.121696 0.683517 0.284030
0.192273 0.685405 0.301387
0.335363 0.686576 0.316334
0.509912 0.688129 0.330689
0.661431 0.691667 0.345461
0.770134 0.697672 0.364378
0.807307 0.707284 0.436835
0.086791 0.758627 0.251291
0.089794 0.758727 0.254591
0.109316 0.759119 0.269587
0.161798 0.759287 0.288448
0.284938 0.758969 0.307755
0.444047 0.758696 0.323038
0.601618 0.759865 0.337391
0.734971 0.763240 0.352642
0.807578 0.768090 0.391166
0.075358 0.805502 0.240975
0.079363 0.818892 0.240975
0.079364 0.818895 0.240974
0.094312 0.822158 0.184504
0.204658 0.814238 0.270965
0.367626 0.811781 0.295738
0.536318 0.811104 0.313020
0.672604 0.813080 0.324440
0.810903 0.818067 0.339190
0.068776 0.139736 0.463873
0.071869 0.183400 0.548791
0.204606 0.238853 0.609113
0.538200 0.253169 0.609646
0.675828 0.270719 0.610032
0.738993 0.291236 0.614620
0.777969 0.305284 0.623520
0.800914 0.296034 0.639793
0.810415 0.333856 0.657734
0.069844 0.159915 0.474077
0.073666 0.193479 0.537896
0.186485 0.247742 0.600386
0.514693 0.263822 0.603260
0.668742 0.282282 0.604763
0.736320 0.301405 0.610604
0.777204 0.315527 0.620734
0.800544 0.306024 0.638353
0.810415 0.333235 0.655596
0.075145 0.229338 0.471386
0.081273 0.243391 0.497900
0.159052 0.283309 0.555793
0.437098 0.303334 0.575413
0.638788 0.321468 0.583535
0.724295 0.344695 0.593678
0.773676 0.362782 0.608114
0.798213 0.367355 0.629782
0.810415 0.331284 0.648792
0.083498 0.338577 0.452157
0.090605 0.343551 0.460646
0.148236 0.360748 0.493387
0.347243 0.380039 0.523830
0.580576 0.399209 0.540597
0.701085 0.420880 0.558694
0.765114 0.440047 0.582429
0.795168 0.452243 0.613086
0.810749 0.421610 0.648853
0.092100 0.470673 0.440048
0.099745 0.472967 0.443871
0.145270 0.480614 0.458228
0.287312 0.489966 0.479766
0.507397 0.512107 0.510684
0.663403 0.519058 0.521170
0.749113 0.537719 0.543194
0.791050 0.549959 0.583227
0.809151 0.566997 0.640557
0.099796 0.593251 0.436919
0.107368 0.594116 0.439136
0.145448 0.597919 0.448126
0.252117 0.602052 0.461678
0.423402 0.606671 0.477938
0.604104 0.612857 0.494591
0.722087 0.623318 0.514123
0.785323 0.634176 0.541672
0.808065 0.651850 0.622268
0.102617 0.685112 0.434995
0.108691 0.685554 0.436558
0.138849 0.687426 0.443081
0.221296 0.689548 0.453455
0.366860 0.691429 0.466158
0.542686 0.693945 0.479734
0.680473 0.698381 0.494297
0.776019 0.704852 0.513548
0.807489 0.718965 0.589810
0.094478 0.760213 0.433647
0.098179 0.760324 0.434539
0.122884 0.760709 0.439513
0.184769 0.761066 0.447331
0.313008 0.761119 0.457511
0.475568 0.761427 0.468754
0.624205 0.763118 0.480336
0.750287 0.766881 0.493371
0.808080 0.773308 0.539935
0.076260 0.811227 0.527496
0.076803 0.813173 0.527496
0.078149 0.817758 0.527493
0.117459 0.817677 0.450640
0.228183 0.815277 0.454476
0.387585 0.813480 0.461454
0.554289 0.813164 0.468946
0.685635 0.815359 0.476396
0.811221 0.821495 0.501380
0.069456 0.196773 0.597203
0.071575 0.234379 0.634166
0.167724 0.293156 0.675457
0.504218 0.306390 0.677245
0.667652 0.321979 0.678453
0.735136 0.338391 0.681091
0.776417 0.351801 0.685182
0.799462 0.343297 0.691243
0.810415 0.346133 0.692825
0.070522 0.216448 0.601696
0.072884 0.248502 0.632842
0.161795 0.302984 0.672440
0.486703 0.316921 0.675170
0.661770 0.332908 0.676804
0.732604 0.350311 0.679703
0.775723 0.363602 0.684468
0.799129 0.354917 0.690848
0.810415 0.346134 0.692825
0.075907 0.294421 0.606484
0.080649 0.307969 0.622021
0.153976 0.345695 0.656997
0.421038 0.363203 0.665631
0.633819 0.380463 0.669375
0.721926 0.398639 0.673757
0.772643 0.411663 0.680699
0.797292 0.413033 0.688697
0.810415 0.346137 0.692824
0.085546 0.389561 0.593002
0.092392 0.396160 0.600133
0.153553 0.418916 0.626612
0.352368 0.436494 0.645352
0.584924 0.451106 0.654214
0.701765 0.466397 0.661496
0.764834 0.482339 0.671305
0.794691 0.490079 0.684433
0.810424 0.461448 0.692640
0.096918 0.502496 0.578698
0.106093 0.505232 0.582780
0.157091 0.516963 0.597493
0.304822 0.530676 0.615600
0.516748 0.542359 0.630419
0.669696 0.552766 0.641431
0.751225 0.565632 0.654826
0.791144 0.575910 0.673857
0.808913 0.586657 0.694077
0.107600 0.606901 0.569018
0.115679 0.608054 0.571076
0.158113 0.612591 0.579618
0.273691 0.618259 0.592248
0.447894 0.624870 0.605453
0.622314 0.636361 0.619965
0.729133 0.642524 0.632205
0.786382 0.651853 0.654258
0.807999 0.665419 0.689851
0.111061 0.692337 0.565295
0.117867 0.692808 0.566283
0.152392 0.694842 0.570905
0.243720 0.697454 0.579206
0.389572 0.700227 0.589757
0.565315 0.703748 0.599648
0.693125 0.709134 0.610172
0.779057 0.716571 0.627383
0.807591 0.731509 0.679354
0.100222 0.763998 0.566758
0.105417 0.764126 0.566943
0.132556 0.764554 0.568678
0.201015 0.765038 0.572562
0.332925 0.765447 0.579015
0.494305 0.766279 0.587119
0.640886 0.768465 0.594337
0.759711 0.772627 0.603154
0.808318 0.781419 0.652202
0.076617 0.813335 0.570869
0.077080 0.815081 0.573198
0.078260 0.819111 0.582044
0.121223 0.820402 0.580868
0.239392 0.818075 0.579186
0.398220 0.816612 0.581215
0.563747 0.816642 0.584834
0.693288 0.818931 0.588508
0.811333 0.826280 0.624263
0.070508 0.285181 0.697867
0.072166 0.307106 0.715200
0.133750 0.343061 0.727102
0.483517 0.356887 0.728105
0.663022 0.373155 0.728965
0.733126 0.389418 0.730165
0.775678 0.399947 0.732247
0.798653 0.391643 0.734687
0.810415 0.364671 0.730290
0.071424 0.299407 0.699830
0.073110 0.318220 0.714537
0.135318 0.354057 0.726528
0.470353 0.368270 0.727781
0.658239 0.384748 0.728726
0.731022 0.401222 0.729980
0.775050 0.410279 0.732129
0.798357 0.403423 0.734732
0.810415 0.364483 0.729941
0.076373 0.364400 0.703431
0.080206 0.375137 0.711369
0.142821 0.402827 0.722993
0.415716 0.414943 0.725828
0.634289 0.427936 0.727304
0.721967 0.441125 0.728883
0.772354 0.450837 0.731382
0.796851 0.450670 0.734576
0.810411 0.363546 0.728354
0.086904 0.447359 0.695668
0.093464 0.452947 0.701069
0.152859 0.471651 0.714200
0.358823 0.484976 0.720742
0.591880 0.497153 0.723719
0.704618 0.510084 0.726250
0.765594 0.520893 0.729470
0.794642 0.525291 0.733872
0.809864 0.514060 0.736072
0.101334 0.544080 0.683134
0.109953 0.546625 0.686729
0.162255 0.556816 0.699030
0.318039 0.566809 0.710128
0.533631 0.575221 0.716576
0.676969 0.583891 0.720800
0.753920 0.592235 0.725361
0.791585 0.599235 0.731626
0.808815 0.606140 0.737992
0.113435 0.629057 0.668616
0.121760 0.630538 0.671262
0.166526 0.636738 0.681864
0.289030 0.643007 0.693721
0.471534 0.649028 0.704013
0.634752 0.655139 0.711307
0.735118 0.661760 0.717832
0.787469 0.668951 0.726508
0.808066 0.678230 0.737891
0.115993 0.703705 0.658475
0.123214 0.704321 0.659777
0.160387 0.706812 0.665382
0.258390 0.710310 0.675419
0.405858 0.714343 0.686851
0.578266 0.718894 0.696122
0.701770 0.724602 0.703862
0.781230 0.731859 0.715782
0.807795 0.742671 0.735510
0.101902 0.770588 0.654149
0.107257 0.770716 0.654508
0.136353 0.771127 0.656621
0.208377 0.771797 0.661170
0.343081 0.772618 0.668459
0.505772 0.773979 0.677338
0.651750 0.776720 0.685882
0.764972 0.781307 0.694677
0.808530 0.790512 0.727840
0.076572 0.814729 0.630763
0.077463 0.818016 0.630773
0.078966 0.822270 0.631055
0.111936 0.825206 0.658517
0.235379 0.822839 0.658566
0.397624 0.821505 0.661516
0.564259 0.821717 0.665124
0.693615 0.823756 0.668433
0.811430 0.832435 0.717496
0.072198 0.375641 0.770770
0.073481 0.378908 0.772497
0.148401 0.394520 0.773426
0.507178 0.406699 0.773653
0.671142 0.419158 0.774077
0.737161 0.431374 0.774733
0.776866 0.437942 0.775736
0.799423 0.427711 0.778068
0.810449 0.396630 0.770583
0.072920 0.386298 0.770592
0.074181 0.389535 0.772223
0.151284 0.404996 0.773385
0.496788 0.415793 0.773645
0.667647 0.428270 0.774072
0.735697 0.440549 0.774733
0.776414 0.447297 0.775758
0.799166 0.437561 0.778083
0.810460 0.399675 0.770583
0.079028 0.436304 0.769874
0.082831 0.438267 0.771019
0.164836 0.448757 0.772661
0.456133 0.458082 0.773219
0.651724 0.469474 0.773748
0.728588 0.481150 0.774485
0.774274 0.488472 0.775628
0.797901 0.483260 0.777876
0.810581 0.427129 0.770583
0.090597 0.507714 0.767462
0.096775 0.509698 0.768660
0.173807 0.519018 0.771084
0.395921 0.527257 0.772254
0.616957 0.537375 0.773060
0.715406 0.545249 0.773981
0.770073 0.551090 0.775339
0.796108 0.550858 0.777627
0.809953 0.542713 0.778266
0.106397 0.583812 0.762666
0.114934 0.585409 0.764186
0.179785 0.591885 0.767909
0.348447 0.597488 0.770305
0.569406 0.603576 0.771813
0.693136 0.610518 0.773072
0.761010 0.616684 0.774653
0.793649 0.619494 0.777140
0.809171 0.623120 0.779198
0.118143 0.655824 0.753476
0.126313 0.657112 0.755894
0.179803 0.662119 0.761985
0.309958 0.666574 0.766510
0.501021 0.670633 0.769398
0.658628 0.675334 0.771426
0.745649 0.680122 0.773396
0.790328 0.683876 0.776232
0.808618 0.689812 0.779399
0.118533 0.721063 0.738396
0.125565 0.721960 0.740427
0.167144 0.725659 0.748237
0.271657 0.730016 0.758035
0.426578 0.733812 0.764105
0.598151 0.737539 0.767993
0.716173 0.741675 0.770846
0.784996 0.745406 0.774496
0.808420 0.750852 0.779062
0.096797 0.781381 0.725007
0.102168 0.781472 0.725816
0.132192 0.781713 0.729766
0.206494 0.782664 0.737206
0.345945 0.784199 0.747499
0.513586 0.786307 0.757317
0.659753 0.789277 0.763358
0.767857 0.791829 0.766613
0.808977 0.798933 0.777797
0.076068 0.815632 0.697338
0.078861 0.824221 0.698358
0.079335 0.825483 0.705349
0.099669 0.829564 0.717774
0.209315 0.828353 0.721426
0.382084 0.827282 0.726175
0.553474 0.827534 0.731021
0.684481 0.829231 0.734166
0.811531 0.838366 0.774539
0.128892 0.427047 0.809742
0.166117 0.428490 0.809743
0.432174 0.434212 0.809744
0.651376 0.444248 0.809783
0.717637 0.456113 0.809885
0.758664 0.465971 0.810113
0.785258 0.467661 0.810771
0.804107 0.440758 0.812185
0.810415 0.423844 0.808525
0.130999 0.434320 0.809583
0.167473 0.435794 0.809586
0.426959 0.441625 0.809597
0.648508 0.451825 0.809651
0.716627 0.463819 0.809768
0.758262 0.473784 0.810013
0.785116 0.475398 0.810677
0.803976 0.447331 0.812107
0.810415 0.432786 0.812199
0.145055 0.471610 0.808793
0.178302 0.473041 0.808814
0.408377 0.478640 0.808886
0.635136 0.488464 0.809033
0.711784 0.499956 0.809235
0.756325 0.509645 0.809568
0.784398 0.511343 0.810258
0.803307 0.484878 0.811677
0.810415 0.432807 0.812199
0.166027 0.544876 0.807643
0.192926 0.545630 0.807696
0.374855 0.548597 0.807878
0.608384 0.554055 0.808159
0.701199 0.560697 0.808477
0.751890 0.566608 0.808911
0.782890 0.568425 0.809656
0.802151 0.558179 0.810938
0.810914 0.558790 0.813049
0.172704 0.612540 0.806853
0.193397 0.613080 0.806937
0.328591 0.615306 0.807218
0.567724 0.619548 0.807560
0.683630 0.625080 0.807978
0.744377 0.630288 0.808486
0.780521 0.632660 0.809227
0.801079 0.627454 0.810469
0.811015 0.627814 0.812977
0.163254 0.678404 0.806519
0.179350 0.678684 0.806633
0.279710 0.679930 0.807002
0.490055 0.682401 0.807438
0.653256 0.685772 0.807889
0.730718 0.689336 0.808428
0.776647 0.691505 0.809138
0.799692 0.689823 0.810265
0.810941 0.695259 0.812509
0.138398 0.743529 0.806644
0.149321 0.743654 0.806787
0.211983 0.744234 0.807217
0.373497 0.745260 0.807741
0.579896 0.746889 0.808267
0.700728 0.749110 0.808819
0.768087 0.751013 0.809561
0.797671 0.750755 0.810540
0.811006 0.755377 0.812467
0.094372 0.797619 0.804834
0.098471 0.797848 0.805736
0.127739 0.798150 0.807394
0.229522 0.797869 0.808379
0.411636 0.797745 0.809147
0.610990 0.798635 0.809788
0.734902 0.800638 0.810454
0.792427 0.801709 0.811319
0.811254 0.804003 0.812776
0.075248 0.815696 0.745893
0.079364 0.828543 0.762379
0.079364 0.828543 0.762380
0.083514 0.829507 0.762411
0.148911 0.839400 0.791704
0.348726 0.839979 0.810283
0.539933 0.839730 0.811929
0.686819 0.841171 0.812762
0.811655 0.844004 0.813300
