LUTs/negative-ektar-100/Ektar100_Modern_ExtraSoft.cube
TITLE "Kodak Ektar 100 Modern ExtraSoft"
# Adobe RGB in/out. REPLACES AgX. Kodak Ektar 100 Modern ExtraSoft.
LUT_3D_SIZE 33
DOMAIN_MIN 0.0 0.0 0.0
DOMAIN_MAX 1.0 1.0 1.0
0.057526 0.063911 0.078815
0.061792 0.065532 0.080187
0.063884 0.066113 0.080432
0.077662 0.068126 0.081282
0.147394 0.071200 0.082552
0.228124 0.073279 0.083360
0.398319 0.077778 0.085349
0.521466 0.082504 0.087425
0.565061 0.085789 0.088535
0.622380 0.090666 0.090207
0.680286 0.097631 0.092522
0.706820 0.103909 0.094210
0.728191 0.108819 0.096066
0.750483 0.115200 0.098397
0.772994 0.125749 0.101617
0.785985 0.132455 0.103929
0.793929 0.140093 0.106082
0.801108 0.149567 0.108695
0.807517 0.162125 0.111902
0.812976 0.168061 0.114151
0.817337 0.174228 0.117040
0.820817 0.181686 0.120558
0.824175 0.187001 0.124320
0.827544 0.184838 0.128437
0.829633 0.183565 0.135039
0.831366 0.180138 0.145180
0.834357 0.160816 0.165253
0.834927 0.165652 0.265053
0.838980 0.219998 0.595160
0.836581 0.215167 0.591298
0.834193 0.210522 0.587486
0.831815 0.205990 0.583704
0.831617 0.435642 0.657997
0.057861 0.068374 0.079514
0.059495 0.067369 0.079785
0.063720 0.066534 0.080005
0.077709 0.068584 0.081159
0.133470 0.071743 0.082584
0.200052 0.073719 0.083370
0.372012 0.078231 0.085350
0.506937 0.082991 0.087426
0.553169 0.086317 0.088534
0.612331 0.091112 0.090200
0.675412 0.098186 0.092508
0.702867 0.104473 0.094184
0.724972 0.109326 0.096043
0.747876 0.115800 0.098376
0.770901 0.126434 0.101590
0.784915 0.133273 0.103903
0.793078 0.140881 0.106057
0.800413 0.150343 0.108670
0.806948 0.163093 0.111875
0.812499 0.169009 0.114112
0.816935 0.175162 0.116997
0.820476 0.182619 0.120509
0.823883 0.187936 0.124262
0.827289 0.185757 0.128329
0.829411 0.184458 0.134886
0.831170 0.180986 0.144845
0.834181 0.161470 0.164456
0.834773 0.165476 0.260706
0.838850 0.219740 0.594952
0.836462 0.214935 0.591109
0.834084 0.210314 0.587313
0.831715 0.205803 0.583546
0.831526 0.435440 0.657833
0.057945 0.069626 0.079810
0.058411 0.069349 0.080225
0.060131 0.068481 0.080113
0.066672 0.070076 0.081007
0.089860 0.073855 0.082489
0.135745 0.075531 0.083299
0.281013 0.080048 0.085356
0.444997 0.085990 0.087511
0.514405 0.088617 0.088593
0.577721 0.092968 0.090215
0.656765 0.100733 0.092480
0.688535 0.106703 0.094118
0.713247 0.111298 0.095983
0.738364 0.118106 0.098317
0.763270 0.129044 0.101507
0.780514 0.136375 0.103821
0.789980 0.143848 0.105975
0.797893 0.153249 0.108585
0.804889 0.166710 0.111784
0.810780 0.172535 0.113979
0.815488 0.178629 0.116851
0.819250 0.186075 0.120341
0.822832 0.191720 0.124061
0.826376 0.189156 0.127952
0.828614 0.187759 0.134356
0.830468 0.184130 0.143690
0.833550 0.163962 0.161749
0.834222 0.165150 0.246123
0.838387 0.218822 0.594210
0.836039 0.214108 0.590433
0.833696 0.209570 0.586696
0.831360 0.205135 0.582982
0.831198 0.434719 0.657246
0.058344 0.077077 0.080583
0.058782 0.076837 0.080887
0.060486 0.075641 0.081141
0.063311 0.073871 0.081230
0.073530 0.077748 0.082552
0.089734 0.078702 0.083301
0.151419 0.082690 0.085273
0.325079 0.090134 0.087501
0.427805 0.092441 0.088652
0.520967 0.096489 0.090287
0.604895 0.106429 0.092510
0.661931 0.111735 0.094107
0.691010 0.115824 0.095948
0.720172 0.123022 0.098265
0.748673 0.135054 0.101412
0.768625 0.142797 0.103716
0.783965 0.149899 0.105861
0.793124 0.159233 0.108459
0.801020 0.173973 0.111640
0.807568 0.179560 0.113765
0.812800 0.185491 0.116609
0.816984 0.193422 0.120058
0.820895 0.199505 0.123719
0.824699 0.196780 0.127312
0.827155 0.194971 0.133453
0.829183 0.190505 0.141747
0.832396 0.169133 0.157359
0.833214 0.165805 0.223185
0.837545 0.217167 0.592865
0.835269 0.212611 0.589205
0.832992 0.208223 0.585575
0.830712 0.203928 0.581955
0.830601 0.433403 0.656178
0.059146 0.094490 0.081910
0.059595 0.094125 0.082276
0.061215 0.092951 0.082716
0.064678 0.089966 0.083071
0.070124 0.086454 0.083388
0.078212 0.083059 0.083528
0.105435 0.088877 0.085327
0.190689 0.095687 0.087516
0.308223 0.097258 0.088743
0.430512 0.102557 0.090375
0.543098 0.113085 0.092633
0.604981 0.118612 0.094242
0.659722 0.123500 0.096018
0.692581 0.132080 0.098294
0.725155 0.147856 0.101405
0.749453 0.154413 0.103662
0.769824 0.161063 0.105773
0.785539 0.171830 0.108339
0.794956 0.186496 0.111484
0.802586 0.191859 0.113514
0.808678 0.198212 0.116312
0.813542 0.206503 0.119699
0.817977 0.212520 0.123276
0.822183 0.209496 0.126477
0.824976 0.207323 0.132270
0.827270 0.202395 0.139708
0.830680 0.178296 0.152006
0.831718 0.169683 0.196650
0.836314 0.214771 0.590901
0.834142 0.210435 0.587408
0.831957 0.206260 0.583931
0.829762 0.202232 0.580450
0.829723 0.431472 0.654609
0.059792 0.112964 0.083070
0.060164 0.112178 0.083272
0.061438 0.110600 0.083564
0.064360 0.105925 0.084244
0.068106 0.098815 0.084297
0.074568 0.094815 0.084759
0.088178 0.096665 0.085841
0.131567 0.105605 0.087930
0.197989 0.106276 0.088932
0.323748 0.111069 0.090479
0.462517 0.122428 0.092700
0.540977 0.128683 0.094411
0.599825 0.134398 0.096228
0.661022 0.144774 0.098447
0.698368 0.160583 0.101470
0.725447 0.170003 0.103678
0.748524 0.179361 0.105760
0.769104 0.193182 0.108298
0.785927 0.209954 0.111382
0.795306 0.214263 0.113305
0.802777 0.219643 0.116032
0.808705 0.227415 0.119331
0.813932 0.233024 0.122800
0.818735 0.229579 0.125671
0.822017 0.226811 0.130965
0.824686 0.221285 0.137715
0.828366 0.194204 0.146621
0.829709 0.179894 0.175228
0.834700 0.211687 0.588336
0.832661 0.207609 0.585053
0.830596 0.203703 0.581774
0.830676 0.398305 0.578036
0.828564 0.428932 0.652543
0.060983 0.162523 0.085123
0.061285 0.162718 0.085445
0.062566 0.157953 0.086154
0.065321 0.146854 0.086573
0.069245 0.131766 0.086806
0.075589 0.121609 0.086945
0.084859 0.114869 0.087302
0.108719 0.119428 0.088696
0.143295 0.118261 0.089489
0.229456 0.122843 0.090834
0.379993 0.137486 0.092946
0.471278 0.145200 0.094764
0.539031 0.149979 0.096397
0.602846 0.160343 0.098581
0.666828 0.180943 0.101667
0.696939 0.191907 0.103875
0.724538 0.199542 0.105836
0.749596 0.213039 0.108281
0.771439 0.233198 0.111314
0.786153 0.240651 0.113176
0.794744 0.249778 0.115852
0.801966 0.259254 0.119052
0.808445 0.263860 0.122392
0.814149 0.259539 0.125115
0.818152 0.255953 0.129746
0.821351 0.249997 0.135853
0.825387 0.223063 0.142120
0.827144 0.202219 0.160040
0.832728 0.208040 0.585224
0.830847 0.204196 0.582176
0.828924 0.200603 0.579060
0.829130 0.395247 0.574271
0.827134 0.425816 0.649999
0.062101 0.256168 0.087388
0.062437 0.256342 0.087605
0.064282 0.255306 0.088523
0.066524 0.233804 0.089077
0.070795 0.207853 0.089385
0.077592 0.183921 0.089755
0.086246 0.165698 0.089964
0.102631 0.153566 0.090365
0.120124 0.137905 0.090253
0.169257 0.141527 0.091353
0.294929 0.159458 0.093406
0.398908 0.166786 0.095246
0.476968 0.171337 0.096792
0.547191 0.183426 0.098889
0.617319 0.206586 0.101935
0.666949 0.216701 0.104032
0.696730 0.225837 0.105991
0.724770 0.241595 0.108421
0.750670 0.261846 0.111374
0.771902 0.266538 0.113147
0.786472 0.273742 0.115732
0.794962 0.284871 0.118856
0.802167 0.295446 0.122110
0.808467 0.297820 0.124726
0.813051 0.301573 0.128864
0.817051 0.294997 0.134456
0.821559 0.269795 0.139774
0.823908 0.245780 0.151761
0.830436 0.204254 0.581680
0.828729 0.200306 0.578603
0.826968 0.197036 0.574286
0.827315 0.390263 0.569876
0.825453 0.422172 0.647013
0.062889 0.308416 0.088552
0.063244 0.308465 0.088774
0.064500 0.303384 0.089387
0.066428 0.285956 0.089993
0.070058 0.262741 0.090434
0.075339 0.237841 0.090725
0.083319 0.214537 0.091052
0.094302 0.194532 0.091302
0.112809 0.180806 0.091670
0.142435 0.172246 0.092119
0.229572 0.191735 0.094146
0.326858 0.198019 0.095920
0.412594 0.201301 0.097355
0.497490 0.213847 0.099296
0.566036 0.238162 0.102391
0.620649 0.246853 0.104387
0.667702 0.255389 0.106257
0.698773 0.270389 0.108611
0.728303 0.291314 0.111500
0.751637 0.299026 0.113279
0.771338 0.308204 0.115828
0.786330 0.315100 0.118820
0.795231 0.322077 0.121947
0.802752 0.322411 0.124425
0.808229 0.324574 0.128172
0.812539 0.326923 0.133475
0.817161 0.319331 0.138768
0.819814 0.313541 0.148527
0.827977 0.213988 0.578458
0.826351 0.196508 0.572967
0.824760 0.193179 0.568973
0.825261 0.384238 0.564943
0.823545 0.418067 0.643635
0.064115 0.377020 0.090278
0.064350 0.374412 0.090389
0.065223 0.364166 0.090739
0.067072 0.351082 0.091311
0.070355 0.332603 0.091792
0.075235 0.311938 0.092150
0.082435 0.288379 0.092460
0.091374 0.264667 0.092730
0.108297 0.244903 0.093050
0.132443 0.229615 0.093482
0.191351 0.241598 0.095574
0.269410 0.238709 0.096784
0.353432 0.239105 0.098006
0.436851 0.249778 0.099847
0.521618 0.274165 0.102993
0.573316 0.281622 0.104857
0.625481 0.288822 0.106650
0.671890 0.302621 0.108917
0.703946 0.321487 0.111766
0.729780 0.327593 0.113560
0.753379 0.333364 0.115946
0.773056 0.344063 0.118890
0.786676 0.355414 0.121960
0.795593 0.356619 0.124310
0.802413 0.356625 0.127715
0.807670 0.357362 0.132662
0.812983 0.348566 0.137429
0.816174 0.341123 0.145199
0.819491 0.324964 0.158325
0.821407 0.313300 0.207708
0.823321 0.335219 0.524349
0.823003 0.378648 0.562066
0.821442 0.413576 0.639923
0.065629 0.451880 0.092416
0.065804 0.449592 0.092482
0.066546 0.442694 0.092741
0.068692 0.434772 0.093372
0.072131 0.421645 0.094064
0.077134 0.405471 0.094817
0.084003 0.385866 0.095470
0.093981 0.361516 0.096007
0.110421 0.340481 0.096476
0.134723 0.322521 0.097032
0.172492 0.308363 0.097684
0.230989 0.293807 0.098213
0.300455 0.281485 0.098821
0.391180 0.290740 0.100499
0.475271 0.312972 0.103739
0.532646 0.317386 0.105496
0.581845 0.321725 0.107142
0.636264 0.332849 0.109308
0.679464 0.352413 0.112124
0.707008 0.356766 0.113928
0.732549 0.364419 0.116266
0.755036 0.377080 0.119128
0.775210 0.386197 0.122036
0.788150 0.388831 0.124292
0.795776 0.394622 0.127537
0.801737 0.399663 0.132204
0.808067 0.391059 0.136515
0.812008 0.380780 0.142695
0.815814 0.362063 0.152953
0.818188 0.342846 0.179137
0.820559 0.327601 0.462574
0.820582 0.374630 0.564035
0.819178 0.371679 0.563422
0.066410 0.494161 0.093646
0.066622 0.492173 0.093715
0.067438 0.485951 0.094095
0.069366 0.478379 0.094941
0.072305 0.466332 0.095772
0.077023 0.452340 0.096611
0.083492 0.436939 0.097393
0.091559 0.420102 0.097945
0.106772 0.403902 0.098451
0.127074 0.386574 0.098935
0.156154 0.367608 0.099467
0.209473 0.353374 0.100106
0.266722 0.333510 0.100230
0.340840 0.330373 0.101481
0.429622 0.350400 0.104623
0.496542 0.352822 0.106220
0.544343 0.356215 0.107808
0.596169 0.366826 0.109888
0.652990 0.386861 0.112520
0.683760 0.390805 0.114407
0.710852 0.398198 0.116737
0.736481 0.405276 0.119448
0.758722 0.413635 0.122293
0.777670 0.417155 0.124480
0.788857 0.418987 0.127578
0.796090 0.422378 0.131993
0.802889 0.420579 0.135992
0.807276 0.420169 0.141194
0.811540 0.411809 0.149995
0.814546 0.394594 0.164772
0.817441 0.337946 0.338921
0.818037 0.367434 0.557963
0.816790 0.365992 0.560268
0.067194 0.525219 0.094992
0.067373 0.523981 0.095082
0.068057 0.519994 0.095427
0.069754 0.514158 0.096142
0.072483 0.504384 0.097019
0.076803 0.492039 0.097886
0.082448 0.477244 0.098627
0.089267 0.461527 0.099289
0.102741 0.445773 0.099831
0.119097 0.430423 0.100321
0.144901 0.416519 0.100868
0.185023 0.404194 0.101542
0.243154 0.394158 0.102381
0.311064 0.384688 0.103397
0.394295 0.393202 0.105643
0.453233 0.394289 0.107111
0.512334 0.395622 0.108543
0.561210 0.402679 0.110567
0.616165 0.415565 0.113292
0.661562 0.417410 0.115073
0.689374 0.422381 0.117221
0.716619 0.430115 0.119911
0.741133 0.439322 0.122710
0.763195 0.440847 0.124721
0.780390 0.445578 0.127842
0.789308 0.451965 0.132141
0.797450 0.448227 0.135743
0.802730 0.446023 0.140363
0.807413 0.441713 0.147998
0.810632 0.436017 0.159829
0.813143 0.431278 0.192249
0.815413 0.360640 0.551757
0.814316 0.360870 0.558030
0.068191 0.556905 0.096775
0.068346 0.555834 0.096856
0.068999 0.552317 0.097165
0.070627 0.547229 0.097790
0.073254 0.541800 0.098729
0.077329 0.533250 0.099552
0.082508 0.523369 0.100310
0.088957 0.511617 0.101154
0.101264 0.496215 0.101996
0.115696 0.480590 0.102681
0.139342 0.465885 0.103314
0.173728 0.452618 0.104022
0.225752 0.440803 0.104694
0.289894 0.431112 0.105516
0.368917 0.435210 0.107577
0.419791 0.426029 0.108201
0.477354 0.424698 0.109410
0.531094 0.430489 0.111268
0.583173 0.442824 0.114150
0.628445 0.444417 0.115924
0.668880 0.448538 0.117956
0.696811 0.456087 0.120493
0.723360 0.464066 0.123163
0.746986 0.467199 0.125127
0.766634 0.472482 0.128294
0.782386 0.476897 0.132317
0.791572 0.477149 0.135760
0.797485 0.479222 0.140033
0.803065 0.473386 0.146565
0.806922 0.465549 0.156118
0.809884 0.456755 0.176154
0.811530 0.460435 0.312859
0.812041 0.497070 0.555254
0.069724 0.596548 0.099068
0.069909 0.595620 0.099143
0.070606 0.592525 0.099427
0.072015 0.587833 0.099993
0.074798 0.583397 0.101050
0.078669 0.575228 0.102101
0.083683 0.566706 0.103259
0.089935 0.556722 0.104239
0.102299 0.546071 0.105162
0.116434 0.535072 0.105944
0.140086 0.524252 0.106696
0.173005 0.513128 0.107328
0.223510 0.499980 0.108036
0.285070 0.488469 0.108721
0.344941 0.478756 0.109527
0.400073 0.467431 0.110001
0.445725 0.457918 0.110554
0.505707 0.460464 0.112123
0.554651 0.471861 0.115152
0.597225 0.472519 0.116783
0.643092 0.476135 0.118773
0.677893 0.483260 0.121235
0.705284 0.490581 0.123762
0.730024 0.494366 0.125647
0.752402 0.498470 0.128844
0.770572 0.505182 0.132771
0.785370 0.505807 0.135998
0.792529 0.505824 0.139923
0.798561 0.505194 0.145833
0.802827 0.503733 0.153975
0.806375 0.493272 0.167205
0.808485 0.483356 0.228483
0.809463 0.498195 0.541560
0.070567 0.618405 0.100185
0.070732 0.617877 0.100254
0.071344 0.616090 0.100510
0.072565 0.613276 0.101134
0.075057 0.608876 0.102270
0.078863 0.602332 0.103420
0.083757 0.595280 0.104713
0.089183 0.585561 0.105640
0.100145 0.575661 0.106582
0.113558 0.565564 0.107508
0.133827 0.554976 0.108217
0.160089 0.544699 0.108916
0.206014 0.535144 0.109610
0.262070 0.526234 0.110301
0.320227 0.518484 0.110997
0.383172 0.510332 0.111788
0.425600 0.499154 0.112228
0.478173 0.494965 0.113467
0.530040 0.502379 0.116281
0.570227 0.502427 0.117829
0.613470 0.504877 0.119641
0.660064 0.511391 0.122038
0.687706 0.517622 0.124478
0.713293 0.519762 0.126409
0.737139 0.523169 0.129598
0.757670 0.528050 0.133370
0.776851 0.528573 0.136368
0.786931 0.530809 0.140140
0.793978 0.530253 0.145562
0.799022 0.527605 0.152576
0.802848 0.525221 0.163235
0.805175 0.524804 0.194704
0.806743 0.516445 0.483689
0.071300 0.633653 0.101321
0.071446 0.633193 0.101407
0.071990 0.631623 0.101721
0.073062 0.629084 0.102335
0.075376 0.626174 0.103343
0.079166 0.622861 0.104586
0.083192 0.618003 0.105693
0.088386 0.612546 0.106789
0.098232 0.603637 0.107804
0.110617 0.594038 0.108724
0.128065 0.584152 0.109569
0.151216 0.574218 0.110307
0.191084 0.564664 0.110987
0.241002 0.555733 0.111694
0.298984 0.547494 0.112380
0.356523 0.540279 0.113177
0.408968 0.534137 0.114251
0.457342 0.530312 0.115610
0.511756 0.531758 0.117916
0.546547 0.527905 0.118866
0.587637 0.529343 0.120639
0.632732 0.533393 0.122918
0.671032 0.538143 0.125287
0.696826 0.539846 0.127437
0.721606 0.543391 0.130516
0.744337 0.547620 0.134083
0.765238 0.549338 0.136954
0.780737 0.550966 0.140447
0.789283 0.551605 0.145612
0.794879 0.551837 0.151945
0.799378 0.548555 0.160761
0.802194 0.544927 0.181607
0.803792 0.551769 0.331859
0.072200 0.650584 0.102934
0.072332 0.650193 0.103013
0.072821 0.648851 0.103303
0.073776 0.646632 0.103866
0.076145 0.643954 0.104778
0.079979 0.641546 0.106122
0.083395 0.636827 0.107095
0.088645 0.632455 0.108341
0.097790 0.627049 0.109383
0.109245 0.621136 0.110307
0.125111 0.615100 0.111221
0.147262 0.606751 0.112028
0.182665 0.597473 0.112810
0.228932 0.588347 0.113689
0.285972 0.580014 0.114692
0.339474 0.572345 0.115635
0.395424 0.565538 0.116598
0.439509 0.559828 0.117684
0.496162 0.560514 0.119932
0.529477 0.554167 0.120526
0.564794 0.551003 0.121634
0.607756 0.554651 0.123856
0.652824 0.558930 0.126284
0.681040 0.560248 0.128586
0.706385 0.563706 0.131563
0.730468 0.567641 0.134967
0.753255 0.569505 0.137662
0.770902 0.571380 0.140943
0.784130 0.573606 0.146031
0.790962 0.572400 0.151685
0.795919 0.571693 0.159436
0.799062 0.571770 0.174660
0.801129 0.570009 0.250255
0.073298 0.669087 0.104915
0.073419 0.668754 0.104989
0.073864 0.667601 0.105262
0.075165 0.665665 0.105786
0.077368 0.663239 0.106627
0.080806 0.660926 0.107878
0.084270 0.657174 0.108960
0.089304 0.653222 0.110199
0.098175 0.648409 0.111280
0.109698 0.643419 0.112361
0.125279 0.637908 0.113468
0.146755 0.632130 0.114725
0.179386 0.626192 0.115799
0.224363 0.620406 0.116818
0.278637 0.614798 0.117757
0.332451 0.607968 0.118809
0.388577 0.600814 0.119784
0.430446 0.594302 0.120740
0.477260 0.588977 0.121854
0.515715 0.582138 0.122369
0.548636 0.577598 0.123290
0.585601 0.576165 0.124825
0.628825 0.579986 0.127592
0.666314 0.581025 0.129805
0.691626 0.583845 0.132645
0.716550 0.587717 0.135956
0.740864 0.589341 0.138463
0.760380 0.591979 0.141859
0.777537 0.593431 0.146513
0.786816 0.594065 0.151811
0.792493 0.594198 0.158791
0.796203 0.592226 0.170531
0.798493 0.593857 0.213998
0.073679 0.682355 0.105545
0.073789 0.682058 0.105616
0.074341 0.681023 0.105876
0.075558 0.679259 0.106374
0.077543 0.676973 0.107165
0.080590 0.674606 0.108328
0.084175 0.671626 0.109559
0.088402 0.667600 0.110677
0.096761 0.663523 0.111903
0.107601 0.658926 0.113120
0.120236 0.653698 0.114408
0.140125 0.648394 0.115694
0.167050 0.642973 0.116895
0.208788 0.637546 0.117991
0.259163 0.632202 0.119039
0.312548 0.627036 0.120007
0.367153 0.622341 0.121040
0.413271 0.618098 0.122050
0.456513 0.614202 0.123013
0.503426 0.609987 0.124112
0.534825 0.604709 0.124964
0.570053 0.602709 0.126704
0.607681 0.601708 0.129062
0.648174 0.602011 0.131051
0.677800 0.604416 0.133803
0.702866 0.607773 0.136980
0.728027 0.609354 0.139346
0.749410 0.612078 0.142898
0.768814 0.613511 0.147234
0.782267 0.614367 0.152139
0.789152 0.614353 0.158393
0.793290 0.614594 0.168254
0.796004 0.614408 0.196294
0.074159 0.694819 0.106188
0.074317 0.694623 0.106257
0.074897 0.693936 0.106508
0.076016 0.692751 0.106985
0.077824 0.690725 0.107739
0.080562 0.688432 0.108837
0.084296 0.686121 0.110230
0.087961 0.682212 0.111258
0.096241 0.678790 0.112643
0.105325 0.674114 0.113945
0.117024 0.669574 0.115460
0.136445 0.664747 0.116872
0.158768 0.659581 0.118124
0.197241 0.654374 0.119247
0.244145 0.649343 0.120379
0.297422 0.644466 0.121436
0.348421 0.639801 0.122421
0.398766 0.635484 0.123437
0.440294 0.631637 0.124475
0.485151 0.628108 0.125453
0.522368 0.625207 0.126839
0.556079 0.623269 0.128947
0.592135 0.622378 0.131251
0.628011 0.620241 0.132527
0.664805 0.620804 0.134960
0.689880 0.622771 0.138070
0.715277 0.623707 0.140291
0.738197 0.625184 0.143961
0.759474 0.626660 0.148113
0.775774 0.627331 0.152544
0.785706 0.628167 0.158371
0.790548 0.628038 0.166709
0.793605 0.628471 0.188143
0.074922 0.704740 0.106981
0.075070 0.704572 0.107048
0.075610 0.703980 0.107292
0.076648 0.702951 0.107755
0.078312 0.701561 0.108481
0.080802 0.699983 0.109530
0.084454 0.698526 0.110986
0.088023 0.695990 0.112062
0.095033 0.693416 0.113530
0.104528 0.689815 0.115158
0.115818 0.685692 0.116782
0.132555 0.681054 0.118162
0.153263 0.676363 0.119549
0.189270 0.671516 0.120822
0.233481 0.666635 0.121959
0.286067 0.661959 0.123129
0.334939 0.657413 0.124179
0.388340 0.653147 0.125214
0.427679 0.649192 0.126395
0.471419 0.645755 0.127958
0.511598 0.642623 0.129449
0.543299 0.640013 0.131031
0.577949 0.638639 0.133288
0.612381 0.636424 0.134465
0.649583 0.635067 0.136367
0.677462 0.635780 0.139127
0.702906 0.636727 0.141358
0.726779 0.638006 0.145133
0.749730 0.639431 0.149069
0.768277 0.640239 0.153146
0.782008 0.641087 0.158485
0.787849 0.641373 0.165813
0.791297 0.642203 0.183277
0.075498 0.714488 0.107490
0.075637 0.714341 0.107556
0.076144 0.713825 0.107797
0.077113 0.712919 0.108253
0.078656 0.711676 0.108965
0.080946 0.710220 0.109987
0.084262 0.708775 0.111395
0.088103 0.706785 0.112689
0.094165 0.704293 0.114287
0.104140 0.701867 0.116217
0.113806 0.698785 0.117698
0.130059 0.695722 0.119299
0.150506 0.692521 0.120865
0.181548 0.687876 0.122154
0.223072 0.683231 0.123367
0.272998 0.678693 0.124563
0.322533 0.674323 0.125740
0.375717 0.670136 0.127291
0.416972 0.666210 0.128851
0.458444 0.662578 0.130399
0.502556 0.659444 0.131973
0.532743 0.656647 0.133539
0.564828 0.654287 0.135122
0.598021 0.651968 0.136247
0.633829 0.650357 0.138091
0.666752 0.649588 0.140467
0.690959 0.649345 0.142576
0.715327 0.650409 0.146225
0.739815 0.651735 0.150044
0.760346 0.652703 0.153876
0.776771 0.653481 0.158656
0.785170 0.654210 0.165381
0.789180 0.654586 0.180019
0.075408 0.723631 0.107059
0.075538 0.723498 0.107125
0.076014 0.723027 0.107368
0.076921 0.722194 0.107826
0.078359 0.721030 0.108537
0.080478 0.719623 0.109555
0.083517 0.718134 0.110947
0.087527 0.716473 0.112503
0.092364 0.714050 0.113969
0.101871 0.711757 0.116017
0.111179 0.708940 0.117642
0.126147 0.706110 0.119430
0.143708 0.702967 0.120908
0.170874 0.699819 0.122434
0.211348 0.696571 0.123841
0.257149 0.693266 0.125047
0.306635 0.689255 0.126457
0.357051 0.685162 0.128164
0.403514 0.681307 0.129834
0.443004 0.677716 0.131418
0.486370 0.674454 0.133008
0.520840 0.671594 0.134558
0.551760 0.669153 0.136168
0.584716 0.667100 0.137789
0.619125 0.665158 0.139614
0.656031 0.664050 0.142326
0.680695 0.663080 0.144207
0.704058 0.662615 0.147203
0.729454 0.663809 0.150807
0.752021 0.664844 0.154667
0.770886 0.665710 0.158955
0.782335 0.666268 0.164897
0.787152 0.667020 0.177776
0.075432 0.731508 0.106676
0.075554 0.731393 0.106743
0.076000 0.730986 0.106986
0.076849 0.730261 0.107445
0.078191 0.729238 0.108157
0.080156 0.727978 0.109169
0.082952 0.726595 0.110549
0.087177 0.725279 0.112388
0.091130 0.723050 0.113769
0.099497 0.720835 0.115733
0.109476 0.718471 0.117741
0.121192 0.715719 0.119433
0.139406 0.712916 0.121174
0.162880 0.709991 0.122836
0.198601 0.706922 0.124248
0.243038 0.703857 0.125639
0.294030 0.700810 0.127473
0.342797 0.697823 0.129341
0.392605 0.694981 0.131063
0.430532 0.692252 0.132763
0.471792 0.688986 0.134376
0.510572 0.686056 0.135971
0.540177 0.683442 0.137536
0.571739 0.681300 0.139198
0.605435 0.679497 0.140865
0.641202 0.678012 0.144043
0.671466 0.677142 0.145822
0.694251 0.675998 0.148547
0.719027 0.675717 0.151465
0.743240 0.676631 0.155010
0.764721 0.677634 0.159243
0.778773 0.678237 0.164529
0.785223 0.678906 0.175918
0.075368 0.738795 0.106013
0.075483 0.738697 0.106082
0.075902 0.738347 0.106331
0.076698 0.737721 0.106799
0.077952 0.736830 0.107524
0.079783 0.735716 0.108553
0.082375 0.734459 0.109950
0.086078 0.733196 0.111805
0.090147 0.731417 0.113428
0.097553 0.729350 0.115344
0.108246 0.727366 0.117777
0.117567 0.724779 0.119407
0.136371 0.722257 0.121437
0.154481 0.719462 0.123013
0.190142 0.716668 0.124707
0.232218 0.713789 0.126343
0.280973 0.710914 0.128391
0.328188 0.708067 0.130380
0.380398 0.705297 0.132257
0.419019 0.702692 0.134056
0.458825 0.700268 0.135791
0.501476 0.698063 0.137470
0.530227 0.696072 0.139093
0.560286 0.694312 0.140689
0.592505 0.692904 0.142953
0.626993 0.691449 0.145321
0.662605 0.690742 0.146999
0.685078 0.689364 0.149739
0.709855 0.688823 0.152407
0.734231 0.688336 0.155305
0.757965 0.689152 0.159209
0.774615 0.689901 0.164095
0.783365 0.690545 0.174377
0.074224 0.748167 0.103181
0.074331 0.748073 0.103258
0.074721 0.747741 0.103536
0.075463 0.747141 0.104058
0.076635 0.746271 0.104868
0.078351 0.745151 0.106018
0.080798 0.743827 0.107583
0.084288 0.742388 0.109669
0.088637 0.740732 0.111708
0.094255 0.738682 0.113284
0.103752 0.736599 0.115787
0.113766 0.734277 0.117989
0.128705 0.731758 0.120008
0.147906 0.729139 0.121983
0.177419 0.726404 0.123814
0.215997 0.723648 0.125437
0.264360 0.720893 0.127596
0.312931 0.718150 0.129749
0.361872 0.715468 0.131735
0.405691 0.712914 0.133646
0.444131 0.710532 0.135479
0.485939 0.708344 0.137248
0.519760 0.706374 0.138960
0.549263 0.704637 0.140627
