LUTs/negative-ektar-100/Ektar100_Classic_Soft.cube
TITLE "Kodak Ektar 100 Classic Soft"
# Adobe RGB in/out. REPLACES AgX. Kodak Ektar 100 Classic Soft.
LUT_3D_SIZE 9
DOMAIN_MIN 0.0 0.0 0.0
DOMAIN_MAX 1.0 1.0 1.0
0.061862 0.068788 0.085817
0.094723 0.072781 0.087166
0.323301 0.079289 0.090110
0.557558 0.088804 0.094454
0.655824 0.100080 0.099864
0.709759 0.110409 0.107041
0.737568 0.117631 0.117505
0.762170 0.131750 0.454409
0.765052 0.299109 0.555686
0.063159 0.085065 0.087043
0.072884 0.085743 0.088688
0.167075 0.088578 0.091703
0.485816 0.097054 0.095507
0.637681 0.107673 0.100531
0.706099 0.119841 0.107471
0.736493 0.126038 0.117113
0.762171 0.131762 0.454424
0.765052 0.299117 0.555685
0.065157 0.126721 0.089987
0.069828 0.129507 0.092072
0.099133 0.129341 0.094819
0.287705 0.134964 0.098834
0.554840 0.155196 0.103873
0.677111 0.178540 0.109665
0.729785 0.192576 0.117686
0.762329 0.139426 0.456152
0.765052 0.299117 0.555685
0.067902 0.275735 0.094018
0.070951 0.281885 0.095584
0.089166 0.290583 0.099372
0.172890 0.287368 0.103603
0.423641 0.297172 0.108327
0.615335 0.316557 0.114239
0.713596 0.336031 0.121014
0.750723 0.335737 0.132838
0.765053 0.267329 0.472217
0.070511 0.447347 0.098136
0.073223 0.449749 0.099571
0.086735 0.457936 0.104178
0.137592 0.459545 0.108768
0.333750 0.457303 0.114033
0.537637 0.463006 0.119439
0.674158 0.474263 0.126486
0.742176 0.483111 0.136904
0.764389 0.487456 0.268497
0.073320 0.560895 0.102099
0.075645 0.561655 0.103551
0.086941 0.566977 0.108122
0.123901 0.569426 0.114024
0.266275 0.568635 0.119366
0.466791 0.568110 0.125614
0.622295 0.572374 0.132966
0.726355 0.579414 0.143515
0.762694 0.583692 0.173393
0.075374 0.647496 0.104302
0.077098 0.647807 0.105554
0.086419 0.649835 0.110365
0.116197 0.651377 0.117089
0.219772 0.651295 0.124063
0.417060 0.650575 0.131256
0.580217 0.651268 0.139813
0.700556 0.654270 0.149803
0.760860 0.658296 0.170176
0.074620 0.702386 0.097033
0.075634 0.701962 0.098363
0.083571 0.700371 0.106377
0.106869 0.700159 0.115087
0.183354 0.699241 0.123742
0.377417 0.697923 0.132370
0.534266 0.697724 0.142031
0.661392 0.699865 0.151512
0.759900 0.703210 0.167122
0.072696 0.716918 0.085817
0.072696 0.716920 0.085817
0.080611 0.735986 0.085817
0.080612 0.737522 0.092752
0.131627 0.742495 0.103831
0.316212 0.739349 0.116357
0.491311 0.738040 0.125160
0.619219 0.739322 0.131099
0.762517 0.743373 0.132979
0.062496 0.074020 0.105363
0.088809 0.087374 0.154154
0.359007 0.084995 0.117271
0.585481 0.093167 0.114654
0.663305 0.103209 0.113056
0.710659 0.113502 0.116288
0.737513 0.120525 0.127078
0.762171 0.131762 0.454426
0.765052 0.299117 0.555687
0.065508 0.086225 0.104170
0.083598 0.091137 0.111395
0.254487 0.092876 0.110412
0.541357 0.101849 0.113064
0.650281 0.110900 0.113288
0.707602 0.122857 0.116483
0.736509 0.128443 0.125812
0.762172 0.131781 0.454449
0.765052 0.299117 0.555685
0.068623 0.126575 0.104065
0.074952 0.128433 0.106125
0.116947 0.130159 0.109196
0.378540 0.143969 0.113434
0.591459 0.162346 0.115419
0.685410 0.182850 0.118339
0.730523 0.196969 0.125493
0.762374 0.142437 0.456906
0.765052 0.299117 0.555685
0.071040 0.273189 0.105522
0.075492 0.277984 0.107332
0.098203 0.286051 0.111594
0.206149 0.287615 0.115838
0.463791 0.301697 0.119021
0.631178 0.320224 0.122646
0.716584 0.339273 0.128942
0.750888 0.339067 0.142770
0.765052 0.299135 0.555682
0.073349 0.444261 0.106559
0.076598 0.446687 0.108171
0.092394 0.454245 0.113371
0.155323 0.456876 0.118472
0.363251 0.456993 0.123979
0.556784 0.463920 0.128467
0.683110 0.475429 0.134859
0.743112 0.483927 0.145920
0.764365 0.492437 0.316100
0.075541 0.558978 0.107991
0.077769 0.559838 0.109418
0.090587 0.564898 0.115044
0.131827 0.567532 0.121056
0.286676 0.567478 0.127673
0.482401 0.567871 0.134744
0.631049 0.572638 0.142741
0.729110 0.579698 0.152617
0.762736 0.584547 0.188374
0.076833 0.646894 0.108605
0.078696 0.647205 0.110088
0.088794 0.649157 0.115803
0.121115 0.650665 0.123001
0.234180 0.650734 0.130934
0.426048 0.650304 0.139974
0.587353 0.651247 0.148938
0.705134 0.654380 0.159511
0.761068 0.658507 0.182514
0.075283 0.701842 0.099756
0.076385 0.701490 0.101229
0.084896 0.700091 0.110120
0.109684 0.699869 0.119368
0.188596 0.699005 0.129408
0.386528 0.697815 0.139977
0.540067 0.697769 0.149962
0.666189 0.699982 0.160862
0.760345 0.703325 0.178563
0.072696 0.724359 0.104982
0.072697 0.724361 0.104982
0.080611 0.742745 0.104982
0.080612 0.742745 0.104980
0.134470 0.742601 0.106920
0.322647 0.739472 0.120350
0.494584 0.738214 0.130406
0.621445 0.739519 0.137630
0.763750 0.743493 0.140209
0.063385 0.083665 0.153128
0.082327 0.117892 0.383367
0.315776 0.117649 0.349822
0.581391 0.120976 0.313732
0.664925 0.128744 0.286958
0.711244 0.148786 0.304681
0.737195 0.168007 0.359421
0.762256 0.138975 0.465613
0.765052 0.299125 0.555705
0.066838 0.094536 0.155568
0.080037 0.103499 0.205468
0.250676 0.111690 0.242126
0.550454 0.121507 0.239524
0.656177 0.132094 0.239335
0.709045 0.155513 0.266119
0.736364 0.173112 0.326383
0.762288 0.141511 0.467145
0.765052 0.299118 0.555688
0.071946 0.131365 0.148636
0.079787 0.133678 0.153468
0.158763 0.161975 0.180396
0.438674 0.163880 0.181414
0.618473 0.184981 0.192997
0.696202 0.214334 0.210307
0.731941 0.231570 0.236709
0.761543 0.184685 0.464846
0.765052 0.299117 0.555685
0.077040 0.279569 0.149612
0.082330 0.283234 0.152787
0.114786 0.291144 0.160452
0.287281 0.298341 0.168543
0.534405 0.319326 0.181126
0.661982 0.341186 0.195171
0.722384 0.359519 0.207113
0.751394 0.363548 0.269112
0.765052 0.299121 0.555687
0.080900 0.447088 0.149779
0.084656 0.448815 0.152580
0.107624 0.454121 0.160234
0.199454 0.457805 0.169033
0.424417 0.461210 0.179499
0.604036 0.472044 0.193126
0.703689 0.484225 0.202693
0.745650 0.491493 0.230371
0.764275 0.512038 0.465191
0.083412 0.559861 0.151012
0.086647 0.560531 0.153436
0.105165 0.563948 0.161426
0.169523 0.566409 0.171823
0.354698 0.567636 0.183739
0.532217 0.569804 0.195168
0.660655 0.575891 0.205001
0.736075 0.582864 0.225312
0.762876 0.589818 0.298985
0.083945 0.646812 0.146074
0.086512 0.647087 0.148064
0.100894 0.648542 0.156680
0.145810 0.649764 0.167783
0.289050 0.650138 0.182037
0.466981 0.650450 0.195245
0.611708 0.652039 0.207809
0.718459 0.655540 0.225893
0.761691 0.659797 0.254749
0.081202 0.698983 0.133941
0.082818 0.698977 0.136545
0.094567 0.698993 0.147947
0.126443 0.699055 0.162031
0.233785 0.698487 0.178225
0.415566 0.697769 0.193838
0.566349 0.698260 0.207767
0.685713 0.700690 0.222366
0.761512 0.704013 0.238654
0.072697 0.724362 0.104985
0.080610 0.742745 0.104984
0.080611 0.742746 0.104983
0.080621 0.742748 0.104984
0.154926 0.742665 0.129844
0.349292 0.739858 0.153053
0.509491 0.738827 0.168794
0.631585 0.740235 0.181202
0.764964 0.744031 0.187844
0.064578 0.098812 0.286376
0.073868 0.141160 0.484784
0.261090 0.164953 0.517575
0.556491 0.173954 0.509905
0.658958 0.191348 0.508464
0.709467 0.216312 0.515179
0.736130 0.238911 0.535797
0.758440 0.226836 0.577902
0.765052 0.309451 0.582578
0.067452 0.109829 0.299895
0.076793 0.131558 0.412365
0.214725 0.166747 0.486367
0.531974 0.178539 0.485179
0.651411 0.200290 0.489294
0.707536 0.226630 0.500759
0.735365 0.250327 0.526884
0.758019 0.237207 0.574772
0.765052 0.309566 0.582865
0.074632 0.162414 0.284498
0.082275 0.169550 0.304818
0.151906 0.190030 0.362523
0.446287 0.213645 0.397078
0.621795 0.246218 0.419593
0.697019 0.278944 0.445227
0.731616 0.303781 0.484023
0.754684 0.316044 0.548551
0.765052 0.309983 0.583912
0.081256 0.298045 0.269697
0.087257 0.302312 0.276379
0.126750 0.313664 0.298161
0.354806 0.345598 0.341061
0.562604 0.351184 0.349529
0.671323 0.373272 0.374884
0.724243 0.393049 0.414102
0.751226 0.409305 0.493131
0.765052 0.310130 0.584226
0.087047 0.454588 0.269147
0.092594 0.456092 0.273257
0.121928 0.461370 0.287278
0.250504 0.466534 0.305576
0.470134 0.472670 0.323029
0.626789 0.485650 0.342100
0.710787 0.499198 0.365545
0.746683 0.509447 0.418974
0.764104 0.532446 0.568376
0.091463 0.562644 0.266389
0.095840 0.563282 0.269822
0.119685 0.566256 0.282292
0.202274 0.568908 0.298349
0.402517 0.571279 0.315684
0.570511 0.574892 0.330189
0.681618 0.582200 0.347877
0.739731 0.589247 0.376381
0.762928 0.604275 0.512409
0.092685 0.647738 0.260815
0.096211 0.647987 0.263946
0.114883 0.649199 0.275945
0.178496 0.650373 0.292522
0.345179 0.651100 0.310219
0.506093 0.652064 0.325728
0.636370 0.654256 0.340266
0.727699 0.657970 0.358398
0.762144 0.663889 0.436751
0.087815 0.698644 0.244632
0.090434 0.698723 0.247791
0.105559 0.699032 0.262139
0.148522 0.699164 0.280166
0.281301 0.698913 0.299749
0.446052 0.698698 0.317958
0.590513 0.699620 0.332507
0.704195 0.702280 0.347080
0.762398 0.706098 0.387752
0.076233 0.735445 0.235390
0.080610 0.745900 0.235390
0.080611 0.745902 0.235389
0.094298 0.748447 0.189930
0.184232 0.742269 0.263457
0.380288 0.740351 0.287128
0.529362 0.739822 0.306167
0.647073 0.741365 0.319382
0.765509 0.745257 0.334238
0.065721 0.123095 0.463061
0.070377 0.164046 0.541922
0.184168 0.221222 0.599272
0.530879 0.238228 0.599760
0.650161 0.259438 0.600114
0.706899 0.283747 0.604314
0.734689 0.300919 0.612457
0.756162 0.289590 0.627326
0.765052 0.331764 0.642689
0.067947 0.136512 0.471694
0.073506 0.173371 0.531282
0.172871 0.231749 0.591250
0.510756 0.251056 0.593909
0.643374 0.273137 0.595286
0.705101 0.296158 0.600637
0.733972 0.313565 0.609909
0.755816 0.301830 0.626012
0.765052 0.331157 0.640928
0.075953 0.210069 0.469421
0.082402 0.226583 0.491445
0.145630 0.274232 0.548758
0.439987 0.298524 0.566334
0.617945 0.319658 0.573492
0.695183 0.345128 0.583882
0.730670 0.363919 0.598357
0.753635 0.368133 0.618182
0.765052 0.329251 0.635318
0.084324 0.337464 0.453115
0.091129 0.343692 0.460325
0.135248 0.362044 0.487755
0.357037 0.379798 0.517543
0.571074 0.397368 0.533921
0.673866 0.421039 0.551565
0.724363 0.442605 0.572519
0.750785 0.453201 0.602910
0.765365 0.421858 0.635368
0.092410 0.468791 0.440273
0.098758 0.470725 0.444469
0.132688 0.477161 0.458274
0.283674 0.485011 0.476495
0.503639 0.503505 0.503196
0.638259 0.509286 0.514944
0.713687 0.524484 0.536457
0.746931 0.534389 0.573221
0.763870 0.548117 0.628023
0.098793 0.569134 0.436843
0.104096 0.569824 0.439273
0.132821 0.572854 0.449143
0.238709 0.576144 0.461201
0.428103 0.579817 0.474953
0.592360 0.584727 0.488740
0.693157 0.593012 0.507064
0.741571 0.601587 0.534970
0.762854 0.618871 0.611313
0.100679 0.650191 0.434734
0.105090 0.650466 0.436447
0.127878 0.651627 0.443602
0.203343 0.652944 0.454218
0.379349 0.654109 0.464998
0.534491 0.655666 0.476468
0.654611 0.658407 0.488500
0.732863 0.662394 0.506417
0.762314 0.671046 0.579637
0.094440 0.699894 0.433257
0.097703 0.699982 0.434234
0.115799 0.700285 0.439686
0.171204 0.700566 0.448270
0.314507 0.700608 0.457664
0.472571 0.700851 0.467195
0.607230 0.702183 0.476976
0.714472 0.705147 0.487743
0.762867 0.710204 0.533274
0.077270 0.739918 0.521125
0.077850 0.741437 0.521125
0.079469 0.745016 0.521122
0.111601 0.744952 0.451823
0.211227 0.743080 0.455086
0.401410 0.741677 0.461011
0.543809 0.741430 0.467357
0.659555 0.743144 0.473653
0.765806 0.747929 0.494286
0.067234 0.176183 0.587753
0.069964 0.215962 0.622188
0.154695 0.286083 0.657250
0.500538 0.302279 0.658716
0.642329 0.320157 0.659706
0.704305 0.337230 0.661866
0.733235 0.353918 0.665826
0.754804 0.343374 0.672267
0.765052 0.346936 0.673910
0.068727 0.195162 0.592475
0.072026 0.232655 0.620978
0.148518 0.298094 0.654775
0.483444 0.315212 0.657015
0.636695 0.330838 0.658354
0.702664 0.352195 0.660729
0.732586 0.364676 0.665067
0.754491 0.356663 0.671848
0.765052 0.346936 0.673910
0.076893 0.287624 0.596863
0.081817 0.304224 0.611087
0.140753 0.346384 0.642082
0.426084 0.364307 0.649184
0.614301 0.380187 0.652259
0.693008 0.396847 0.655856
0.729703 0.410711 0.661545
0.752772 0.412244 0.669562
0.765052 0.346940 0.673909
0.086420 0.388534 0.583139
0.092659 0.394578 0.590973
0.140347 0.418836 0.615285
0.362268 0.438598 0.632400
0.575998 0.452236 0.639789
0.674491 0.465182 0.645785
0.724177 0.478611 0.653844
0.750339 0.485106 0.665031
0.765060 0.461000 0.673740
0.096775 0.495493 0.569230
0.103135 0.497777 0.572828
0.143745 0.507546 0.588072
0.302826 0.518922 0.605212
0.512760 0.528244 0.618764
0.644287 0.536656 0.628821
0.715099 0.547020 0.640294
0.747019 0.555270 0.655938
0.763647 0.563871 0.675061
0.104270 0.580000 0.560691
0.110216 0.580915 0.562508
0.144727 0.584516 0.570042
0.264757 0.589009 0.582312
0.449405 0.594239 0.595918
0.605836 0.603310 0.609206
0.699622 0.609445 0.620396
0.742563 0.618874 0.639825
0.762791 0.632599 0.670788
0.106865 0.654671 0.557402
0.111918 0.654963 0.558275
0.139233 0.656221 0.562356
0.229122 0.657835 0.569679
0.402869 0.659545 0.579578
0.553835 0.661715 0.590439
0.666549 0.665025 0.600242
0.735706 0.669583 0.615990
0.762410 0.678793 0.660444
0.099079 0.702877 0.558695
0.102624 0.702978 0.558858
0.123262 0.703315 0.560390
0.183363 0.703696 0.563819
0.342922 0.704018 0.569510
0.490864 0.704673 0.576685
0.619482 0.706394 0.584605
0.720765 0.709668 0.593811
0.763090 0.716578 0.638131
0.077652 0.741564 0.562325
0.078222 0.742927 0.564380
0.079573 0.746071 0.572179
0.114517 0.747077 0.571143
0.224181 0.745263 0.569661
0.409192 0.744121 0.571449
0.552068 0.744145 0.574637
0.666699 0.745930 0.578209
0.765911 0.752608 0.613137
0.068712 0.276409 0.678544
0.070777 0.303162 0.694458
0.124153 0.343078 0.705374
0.480333 0.358482 0.706293
0.637893 0.373471 0.707081
0.703002 0.388402 0.708182
0.732544 0.398043 0.710089
0.754046 0.390442 0.712325
0.765052 0.365660 0.708296
0.069767 0.293712 0.680347
0.072442 0.316482 0.693850
0.125229 0.355882 0.704848
0.467477 0.368976 0.705996
0.633312 0.384120 0.706863
0.701356 0.399209 0.708012
0.731956 0.409162 0.709981
0.753769 0.401501 0.712366
0.765052 0.365487 0.707977
0.077391 0.365411 0.683654
0.081401 0.375293 0.690943
0.130858 0.400836 0.701606
0.421866 0.414383 0.704206
0.614646 0.428965 0.705559
0.693046 0.443750 0.707007
0.729433 0.452008 0.709297
0.752360 0.451866 0.712224
0.765049 0.364623 0.706522
0.087941 0.449053 0.676523
0.093575 0.453798 0.681485
0.139681 0.469616 0.693540
0.369512 0.480826 0.699542
0.583259 0.491028 0.702272
0.677113 0.501821 0.704593
0.724682 0.510811 0.707544
0.750292 0.514460 0.711579
0.764537 0.505131 0.713594
0.099823 0.529636 0.663651
0.106036 0.531695 0.667470
0.149017 0.539923 0.679612
0.321774 0.547966 0.689804
0.527194 0.554718 0.695721
0.651254 0.561660 0.699595
0.716901 0.568324 0.703778
0.747432 0.573902 0.709520
0.763555 0.579395 0.715353
0.108583 0.597547 0.651637
0.114932 0.598717 0.653809
0.153538 0.603607 0.662499
0.285243 0.609933 0.674734
0.468630 0.616017 0.684189
0.614986 0.622197 0.690885
0.704292 0.628896 0.696873
0.743580 0.636176 0.704829
0.762855 0.645578 0.715260
0.110460 0.661688 0.643298
0.116053 0.662067 0.644370
0.146993 0.663599 0.648980
0.245915 0.665747 0.657219
0.414745 0.668220 0.667600
0.568459 0.671003 0.676940
0.674495 0.674512 0.684051
0.737740 0.679009 0.694992
0.762601 0.686043 0.713079
0.100202 0.708064 0.639736
0.104012 0.708165 0.640032
0.125997 0.708489 0.641772
0.188713 0.709015 0.645516
0.352789 0.709661 0.651507
0.502054 0.710732 0.658792
0.627420 0.712886 0.666570
0.724268 0.716489 0.675613
0.763289 0.723711 0.706050
0.077604 0.742652 0.619079
0.078743 0.745217 0.619088
0.080237 0.748534 0.619346
0.107518 0.751478 0.643333
0.219526 0.748992 0.643373
0.408758 0.747937 0.645801
0.552644 0.748102 0.648768
0.666999 0.749955 0.651486
0.766002 0.759081 0.696564
0.070821 0.375757 0.738519
0.073127 0.378759 0.739831
0.135406 0.393077 0.740536
0.503425 0.405160 0.740708
0.645672 0.419107 0.741030
0.705667 0.432832 0.741527
0.733656 0.440231 0.742288
0.754767 0.428712 0.744057
0.765084 0.395009 0.738378
0.072093 0.385542 0.738384
0.074689 0.388510 0.739622
0.138169 0.403257 0.740505
0.493288 0.415336 0.740702
0.642324 0.429340 0.741026
0.704683 0.443171 0.741527
0.733233 0.449001 0.742305
0.754527 0.439801 0.744068
0.765094 0.397794 0.738378
0.080295 0.438384 0.737839
0.083719 0.440597 0.738709
0.151821 0.450242 0.739955
0.456572 0.458151 0.740378
0.627401 0.467780 0.740780
0.699122 0.477612 0.741339
0.731230 0.483759 0.742206
0.753342 0.479385 0.743911
0.765208 0.428058 0.738378
0.091123 0.499846 0.736006
0.096631 0.501499 0.736916
0.160578 0.509253 0.738757
0.407515 0.516090 0.739646
0.601882 0.524205 0.740258
0.687023 0.530582 0.740957
0.727658 0.535303 0.741987
0.751665 0.535116 0.743722
0.764620 0.528530 0.744206
0.103364 0.561596 0.732358
0.109635 0.562873 0.733515
0.166370 0.568045 0.736346
0.358266 0.572511 0.738166
0.558449 0.577357 0.739312
0.666559 0.582871 0.740267
0.721631 0.587761 0.741467
0.749364 0.589986 0.743353
0.763888 0.592855 0.744913
0.112132 0.622889 0.726173
0.118555 0.624192 0.727623
0.166386 0.629260 0.731839
0.310140 0.633770 0.735282
0.497419 0.637881 0.737477
0.633684 0.642644 0.739018
0.711366 0.647048 0.740513
0.746255 0.649423 0.742664
0.763371 0.653107 0.745065
0.112435 0.672327 0.715723
0.117921 0.672875 0.717583
0.154135 0.675168 0.723026
0.261800 0.677868 0.728885
0.430811 0.680217 0.733453
0.587934 0.682519 0.736409
0.687727 0.685255 0.738577
0.741266 0.688206 0.741348
0.763185 0.692508 0.744810
0.096653 0.716547 0.703453
0.100380 0.716619 0.704195
0.122990 0.716808 0.707816
0.186525 0.717555 0.714633
0.355712 0.718760 0.722582
0.509676 0.720413 0.728463
0.634762 0.722743 0.732885
0.726186 0.724743 0.735361
0.763707 0.730306 0.743851
0.077065 0.743357 0.678057
0.080138 0.750443 0.678995
0.080583 0.751769 0.685416
0.098707 0.756061 0.696820
0.189768 0.754787 0.700170
0.397360 0.753660 0.704524
0.543155 0.753925 0.708966
0.658450 0.755710 0.711848
0.766096 0.765326 0.741380
0.120521 0.427965 0.767965
0.153143 0.429587 0.767966
0.435681 0.436028 0.767967
0.627147 0.446408 0.767996
0.689071 0.456482 0.768073
0.720067 0.464822 0.768244
0.741510 0.466250 0.768739
0.759150 0.443408 0.769801
0.765052 0.424367 0.767050
0.122099 0.436149 0.767845
0.154453 0.437809 0.767848
0.431136 0.444175 0.767856
0.625054 0.452846 0.767897
0.688144 0.463004 0.767985
0.719799 0.471413 0.768169
0.741377 0.472773 0.768668
0.759027 0.449029 0.769742
0.765052 0.434422 0.769812
0.132528 0.469581 0.767252
0.164932 0.470788 0.767267
0.416569 0.475501 0.767321
0.615267 0.483752 0.767432
0.683697 0.493371 0.767584
0.718507 0.501456 0.767835
0.740705 0.502870 0.768353
0.758401 0.480743 0.769419
0.765052 0.434446 0.769812
0.153056 0.530281 0.766387
0.179131 0.530890 0.766427
0.389175 0.533289 0.766564
0.595536 0.537696 0.766775
0.673971 0.543049 0.767014
0.715544 0.547805 0.767340
0.739294 0.549264 0.767900
0.757320 0.541021 0.768864
0.765520 0.541514 0.770460
0.159511 0.584476 0.765793
0.179589 0.584904 0.765856
0.337287 0.586669 0.766067
0.556552 0.590029 0.766324
0.657634 0.594406 0.766639
0.710514 0.598519 0.767021
0.737077 0.600392 0.767578
0.756317 0.596282 0.768512
0.765614 0.596566 0.770405
0.150102 0.645756 0.765542
0.165948 0.646039 0.765627
0.273568 0.646927 0.765905
0.486716 0.648494 0.766232
0.628537 0.650601 0.766572
0.701076 0.652812 0.766977
0.733451 0.654156 0.767511
0.755019 0.653114 0.768358
0.765544 0.656479 0.770046
0.127539 0.686722 0.765635
0.136288 0.686820 0.765743
0.192776 0.687279 0.766066
0.387502 0.688090 0.766460
0.570304 0.689377 0.766856
0.673538 0.691132 0.767271
0.726339 0.692636 0.767829
0.753127 0.692432 0.768565
0.765605 0.696081 0.770015
0.094350 0.729278 0.764273
0.097900 0.729458 0.764952
0.119654 0.729694 0.766200
0.212767 0.729474 0.766940
0.418924 0.729377 0.767518
0.597467 0.730073 0.768000
0.704151 0.731641 0.768501
0.748220 0.732479 0.769150
0.765837 0.734273 0.770251
0.076089 0.743407 0.721615
0.080611 0.754987 0.732140
0.080611 0.754987 0.732140
0.084339 0.756001 0.732164
0.135895 0.766415 0.754374
0.358550 0.767026 0.768372
0.532275 0.766764 0.769609
0.660689 0.768282 0.770241
0.766213 0.771270 0.770652
