LUTs/negative-ektar-100/Ektar100_Classic_Soft.cube
TITLE "Kodak Ektar 100 Classic Soft"
# Adobe RGB in/out. REPLACES AgX. Kodak Ektar 100 Classic Soft.
LUT_3D_SIZE 5
DOMAIN_MIN 0.0 0.0 0.0
DOMAIN_MAX 1.0 1.0 1.0
0.061862 0.068788 0.085817
0.323301 0.079289 0.090110
0.655824 0.100080 0.099864
0.737568 0.117631 0.117505
0.765052 0.299109 0.555686
0.065157 0.126721 0.089987
0.099133 0.129341 0.094819
0.554840 0.155196 0.103873
0.729785 0.192576 0.117686
0.765052 0.299117 0.555685
0.070511 0.447347 0.098136
0.086735 0.457936 0.104178
0.333750 0.457303 0.114033
0.674158 0.474263 0.126486
0.764389 0.487456 0.268497
0.075374 0.647496 0.104302
0.086419 0.649835 0.110365
0.219772 0.651295 0.124063
0.580217 0.651268 0.139813
0.760860 0.658296 0.170176
0.072696 0.716918 0.085817
0.080611 0.735986 0.085817
0.131627 0.742495 0.103831
0.491311 0.738040 0.125160
0.762517 0.743373 0.132979
0.063385 0.083665 0.153128
0.315776 0.117649 0.349822
0.664925 0.128744 0.286958
0.737195 0.168007 0.359421
0.765052 0.299125 0.555705
0.071946 0.131365 0.148636
0.158763 0.161975 0.180396
0.618473 0.184981 0.192997
0.731941 0.231570 0.236709
0.765052 0.299117 0.555685
0.080900 0.447088 0.149779
0.107624 0.454121 0.160234
0.424417 0.461210 0.179499
0.703689 0.484225 0.202693
0.764275 0.512038 0.465191
0.083945 0.646812 0.146074
0.100894 0.648542 0.156680
0.289050 0.650138 0.182037
0.611708 0.652039 0.207809
0.761691 0.659797 0.254749
0.072697 0.724362 0.104985
0.080611 0.742746 0.104983
0.154926 0.742665 0.129844
0.509491 0.738827 0.168794
0.764964 0.744031 0.187844
0.065721 0.123095 0.463061
0.184168 0.221222 0.599272
0.650161 0.259438 0.600114
0.734689 0.300919 0.612457
0.765052 0.331764 0.642689
0.075953 0.210069 0.469421
0.145630 0.274232 0.548758
0.617945 0.319658 0.573492
0.730670 0.363919 0.598357
0.765052 0.329251 0.635318
0.092410 0.468791 0.440273
0.132688 0.477161 0.458274
0.503639 0.503505 0.503196
0.713687 0.524484 0.536457
0.763870 0.548117 0.628023
0.100679 0.650191 0.434734
0.127878 0.651627 0.443602
0.379349 0.654109 0.464998
0.654611 0.658407 0.488500
0.762314 0.671046 0.579637
0.077270 0.739918 0.521125
0.079469 0.745016 0.521122
0.211227 0.743080 0.455086
0.543809 0.741430 0.467357
0.765806 0.747929 0.494286
0.068712 0.276409 0.678544
0.124153 0.343078 0.705374
0.637893 0.373471 0.707081
0.732544 0.398043 0.710089
0.765052 0.365660 0.708296
0.077391 0.365411 0.683654
0.130858 0.400836 0.701606
0.614646 0.428965 0.705559
0.729433 0.452008 0.709297
0.765049 0.364623 0.706522
0.099823 0.529636 0.663651
0.149017 0.539923 0.679612
0.527194 0.554718 0.695721
0.716901 0.568324 0.703778
0.763555 0.579395 0.715353
0.110460 0.661688 0.643298
0.146993 0.663599 0.648980
0.414745 0.668220 0.667600
0.674495 0.674512 0.684051
0.762601 0.686043 0.713079
0.077604 0.742652 0.619079
0.080237 0.748534 0.619346
0.219526 0.748992 0.643373
0.552644 0.748102 0.648768
0.766002 0.759081 0.696564
0.120521 0.427965 0.767965
0.435681 0.436028 0.767967
0.689071 0.456482 0.768073
0.741510 0.466250 0.768739
0.765052 0.424367 0.767050
0.132528 0.469581 0.767252
0.416569 0.475501 0.767321
0.683697 0.493371 0.767584
0.740705 0.502870 0.768353
0.765052 0.434446 0.769812
0.159511 0.584476 0.765793
0.337287 0.586669 0.766067
0.657634 0.594406 0.766639
0.737077 0.600392 0.767578
0.765614 0.596566 0.770405
0.127539 0.686722 0.765635
0.192776 0.687279 0.766066
0.570304 0.689377 0.766856
0.726339 0.692636 0.767829
0.765605 0.696081 0.770015
0.076089 0.743407 0.721615
0.080611 0.754987 0.732140
0.135895 0.766415 0.754374
0.532275 0.766764 0.769609
0.766213 0.771270 0.770652
