LUTs/negative-ultramax-400/Ultramax400_Modern_Soft.cube
TITLE "Kodak Ultramax 400 Modern Soft"
# Adobe RGB in/out. REPLACES AgX. Kodak Ultramax 400 Modern Soft.
LUT_3D_SIZE 5
DOMAIN_MIN 0.0 0.0 0.0
DOMAIN_MAX 1.0 1.0 1.0
0.061578 0.068299 0.085817
0.596831 0.091094 0.095104
0.798583 0.149722 0.112498
0.827940 0.192514 0.143164
0.825455 0.364748 0.666516
0.073723 0.323212 0.096429
0.114069 0.197089 0.099094
0.660722 0.279037 0.112843
0.806578 0.347603 0.136582
0.817382 0.344009 0.651994
0.094856 0.645964 0.111697
0.116253 0.613823 0.116530
0.390613 0.552186 0.122609
0.717652 0.560494 0.139676
0.798296 0.561826 0.328675
0.117160 0.742001 0.121524
0.134494 0.733465 0.128265
0.298881 0.709499 0.140675
0.592348 0.689386 0.152590
0.778083 0.689701 0.182842
0.118396 0.772654 0.107233
0.143658 0.781863 0.106874
0.220789 0.778214 0.124759
0.482877 0.764488 0.144171
0.767210 0.759541 0.152485
0.065107 0.089969 0.310743
0.603968 0.134935 0.607200
0.799872 0.193778 0.498463
0.822881 0.239939 0.526348
0.822438 0.358021 0.661086
0.080393 0.230565 0.219605
0.160406 0.160598 0.178891
0.710564 0.288750 0.267342
0.802914 0.359249 0.352856
0.814360 0.334728 0.646605
0.107936 0.611114 0.233525
0.150273 0.578026 0.217709
0.463123 0.528119 0.201383
0.736945 0.552939 0.235696
0.795529 0.565258 0.520943
0.130572 0.731577 0.207735
0.159959 0.722859 0.213014
0.356830 0.700117 0.220611
0.623691 0.683726 0.230764
0.776670 0.687734 0.276716
0.120058 0.774721 0.147058
0.145398 0.783634 0.145588
0.241933 0.776522 0.164672
0.498976 0.763003 0.199168
0.769786 0.759085 0.210186
0.071396 0.174348 0.686531
0.475979 0.318765 0.773823
0.812287 0.394744 0.769417
0.824931 0.372332 0.734188
0.821087 0.367935 0.729109
0.095818 0.409647 0.682012
0.319788 0.420974 0.714408
0.736789 0.421787 0.698009
0.804053 0.442146 0.696872
0.812516 0.344973 0.712654
0.119793 0.574684 0.558533
0.179557 0.551997 0.537313
0.503594 0.503408 0.502482
0.741896 0.557376 0.574297
0.792146 0.581169 0.669714
0.155518 0.714860 0.538925
0.189966 0.707356 0.529540
0.414833 0.687703 0.510644
0.662576 0.675905 0.505354
0.772955 0.687804 0.593048
0.130883 0.778911 0.572485
0.136459 0.779582 0.566963
0.286831 0.772171 0.495610
0.532067 0.759851 0.488169
0.769596 0.759518 0.503673
0.079185 0.397871 0.825259
0.318621 0.474067 0.843074
0.808723 0.526438 0.843966
0.835076 0.498520 0.813907
0.824583 0.390808 0.776971
0.104210 0.534399 0.829494
0.344779 0.562727 0.841077
0.772345 0.561198 0.825372
0.815358 0.533783 0.791612
0.815739 0.369257 0.765082
0.138453 0.608672 0.742615
0.226312 0.604530 0.744823
0.598366 0.594668 0.740915
0.758692 0.600905 0.740244
0.793542 0.609578 0.743439
0.163522 0.706481 0.698128
0.206902 0.701314 0.694812
0.439917 0.686392 0.688925
0.674138 0.673785 0.682681
0.771109 0.693346 0.720639
0.128175 0.774945 0.645437
0.134744 0.776589 0.641775
0.286016 0.770853 0.656939
0.537088 0.760240 0.651910
0.768826 0.763551 0.697011
0.341736 0.527215 0.883313
0.689431 0.537751 0.883335
0.839649 0.568155 0.883486
0.850220 0.544862 0.866845
0.829244 0.444297 0.837126
0.377986 0.587621 0.882990
0.670388 0.597089 0.883045
0.833635 0.619033 0.881199
0.834289 0.567054 0.854353
0.820680 0.429861 0.830368
0.324597 0.665959 0.847949
0.510840 0.662208 0.844421
0.751312 0.653388 0.834118
0.795008 0.637886 0.818024
0.799571 0.612270 0.804660
0.185539 0.714495 0.802131
0.283371 0.710699 0.798420
0.609960 0.701392 0.788500
0.746360 0.695313 0.780676
0.777235 0.697459 0.778821
0.120362 0.767467 0.733910
0.132552 0.774290 0.743449
0.210816 0.775915 0.762959
0.514918 0.768164 0.771959
0.768690 0.769791 0.770469
