LUTs/negative-ultramax-400/Ultramax400_Classic_Soft.cube
TITLE "Kodak Ultramax 400 Classic Soft"
# Adobe RGB in/out. REPLACES AgX. Kodak Ultramax 400 Classic Soft.
LUT_3D_SIZE 33
DOMAIN_MIN 0.0 0.0 0.0
DOMAIN_MAX 1.0 1.0 1.0
0.061578 0.068299 0.085817
0.065311 0.069141 0.086266
0.066775 0.069341 0.086353
0.074349 0.070410 0.086874
0.099560 0.072212 0.087450
0.116328 0.073138 0.087767
0.178140 0.075037 0.088727
0.288735 0.077735 0.089937
0.356315 0.079095 0.090490
0.422979 0.081275 0.091592
0.501071 0.084836 0.093087
0.546241 0.087259 0.093955
0.582513 0.089253 0.094710
0.607955 0.091994 0.096227
0.633669 0.096129 0.098113
0.652750 0.098864 0.099261
0.669582 0.101399 0.100338
0.685252 0.104584 0.102065
0.699658 0.108329 0.104253
0.709621 0.110306 0.105657
0.717413 0.113410 0.107187
0.724056 0.116930 0.108983
0.730444 0.119657 0.111571
0.736719 0.119937 0.114097
0.741456 0.120388 0.117585
0.745720 0.119809 0.122910
0.751166 0.112433 0.131634
0.754123 0.109212 0.168527
0.760509 0.095683 0.448930
0.760508 0.095659 0.448894
0.760508 0.095658 0.448892
0.760508 0.095659 0.448891
0.763826 0.231867 0.561246
0.062095 0.070873 0.086127
0.063585 0.070950 0.086316
0.066852 0.069951 0.086311
0.074850 0.070938 0.086990
0.096883 0.072845 0.087562
0.111714 0.073526 0.087900
0.168867 0.075533 0.088844
0.277831 0.078209 0.090026
0.347116 0.079456 0.090588
0.416974 0.081691 0.091663
0.495476 0.085184 0.093138
0.542381 0.087621 0.093994
0.579599 0.089564 0.094769
0.606347 0.092359 0.096276
0.632450 0.096517 0.098153
0.651805 0.099217 0.099295
0.668857 0.101752 0.100367
0.684705 0.104913 0.102100
0.699253 0.108641 0.104282
0.709407 0.110785 0.105680
0.717255 0.113869 0.107205
0.723940 0.117348 0.108999
0.730359 0.120103 0.111578
0.736659 0.120374 0.114091
0.741413 0.120816 0.117557
0.745690 0.120230 0.122821
0.751145 0.112831 0.131376
0.754111 0.109402 0.166868
0.760509 0.095683 0.448931
0.760508 0.095659 0.448894
0.760508 0.095658 0.448892
0.760508 0.095659 0.448891
0.763826 0.231870 0.561246
0.062225 0.071753 0.086234
0.062606 0.071945 0.086425
0.064206 0.071915 0.086509
0.069643 0.073106 0.087267
0.083689 0.075071 0.087833
0.099649 0.075401 0.088224
0.140752 0.077410 0.089244
0.233939 0.080112 0.090362
0.301536 0.081207 0.090954
0.394278 0.083276 0.091926
0.474504 0.086751 0.093324
0.527711 0.088975 0.094137
0.567583 0.090719 0.094983
0.600184 0.093713 0.096453
0.627798 0.097955 0.098300
0.648212 0.100516 0.099418
0.666106 0.103051 0.100470
0.682637 0.106122 0.102226
0.697727 0.109785 0.104386
0.708604 0.112542 0.105764
0.716663 0.115553 0.107270
0.723507 0.118933 0.109061
0.730045 0.121737 0.111608
0.736433 0.121973 0.114076
0.741254 0.122381 0.117465
0.745579 0.121769 0.122521
0.751065 0.114295 0.130501
0.754067 0.110175 0.162229
0.760509 0.095685 0.448934
0.760508 0.095660 0.448895
0.760508 0.095658 0.448892
0.760508 0.095660 0.448891
0.763827 0.231874 0.561245
0.062840 0.076174 0.086704
0.063077 0.076373 0.086974
0.064349 0.076693 0.087291
0.067120 0.076581 0.087521
0.075439 0.079638 0.088440
0.084584 0.078964 0.088718
0.107907 0.080936 0.089743
0.170999 0.083950 0.090955
0.233318 0.084490 0.091504
0.333602 0.086280 0.092382
0.431625 0.089973 0.093680
0.494222 0.092029 0.094413
0.542722 0.093772 0.095393
0.587111 0.096539 0.096791
0.618000 0.100777 0.098580
0.640686 0.103249 0.099652
0.660386 0.105568 0.100707
0.678373 0.108451 0.102466
0.694605 0.113229 0.104584
0.706970 0.115932 0.105926
0.715466 0.118711 0.107396
0.722637 0.122137 0.109183
0.729417 0.124809 0.111673
0.735985 0.124955 0.114066
0.740940 0.125253 0.117323
0.745358 0.124679 0.122030
0.750909 0.117124 0.129089
0.753978 0.112512 0.154534
0.760509 0.095689 0.448940
0.760508 0.095660 0.448895
0.760508 0.095658 0.448893
0.760508 0.095663 0.448891
0.763827 0.231877 0.561245
0.063843 0.085168 0.087494
0.064101 0.085399 0.087656
0.065059 0.086267 0.088027
0.067646 0.086554 0.088557
0.072354 0.086338 0.089218
0.077769 0.084536 0.089430
0.092309 0.086521 0.090260
0.123211 0.089389 0.091650
0.169300 0.089221 0.092147
0.249741 0.090555 0.092937
0.378276 0.094861 0.094183
0.445727 0.096736 0.095060
0.503650 0.098438 0.096011
0.556544 0.101425 0.097312
0.599906 0.105940 0.099021
0.626774 0.107827 0.100020
0.649892 0.109678 0.101155
0.670641 0.113622 0.102843
0.689017 0.119004 0.104898
0.704071 0.121407 0.106184
0.713367 0.124051 0.107601
0.721130 0.126909 0.109388
0.728338 0.129162 0.111797
0.735219 0.129207 0.114093
0.740406 0.129408 0.117170
0.744984 0.128780 0.121437
0.750643 0.121712 0.127394
0.753825 0.116523 0.145812
0.760509 0.095698 0.448952
0.760508 0.095661 0.448897
0.760508 0.095659 0.448894
0.760509 0.095692 0.448892
0.763827 0.231879 0.561244
0.064373 0.089907 0.087884
0.064513 0.090028 0.088065
0.065187 0.090870 0.088386
0.067084 0.091517 0.089024
0.069874 0.091561 0.089485
0.075160 0.091316 0.090106
0.085023 0.093966 0.091080
0.104546 0.097622 0.092518
0.127818 0.096102 0.092810
0.182765 0.097355 0.093508
0.291813 0.101669 0.094805
0.389488 0.103347 0.095914
0.452309 0.104674 0.096807
0.518404 0.107243 0.097999
0.577393 0.112000 0.099584
0.608455 0.115118 0.100507
0.633934 0.118268 0.101774
0.657041 0.123029 0.103389
0.679142 0.127719 0.105356
0.697620 0.129238 0.106565
0.709757 0.131096 0.107908
0.718584 0.134222 0.109711
0.726542 0.139237 0.112015
0.733956 0.138952 0.114208
0.739533 0.139075 0.117074
0.744376 0.137336 0.120876
0.750210 0.128264 0.125765
0.753568 0.122947 0.138311
0.760510 0.095715 0.448976
0.760508 0.095663 0.448900
0.760508 0.095660 0.448895
0.763825 0.220352 0.448892
0.763827 0.231879 0.561244
0.065407 0.101385 0.088969
0.065576 0.101507 0.089122
0.066370 0.102585 0.089602
0.067750 0.103664 0.090101
0.070424 0.104185 0.090707
0.074870 0.104124 0.091383
0.081378 0.103814 0.092112
0.095783 0.108046 0.093372
0.109882 0.105607 0.093591
0.143954 0.106159 0.094176
0.220846 0.110531 0.095872
0.312766 0.112265 0.096887
0.398246 0.112933 0.097610
0.466482 0.116373 0.098725
0.537459 0.122879 0.100264
0.584827 0.125808 0.101383
0.615389 0.127511 0.102538
0.643251 0.130832 0.104035
0.667772 0.139751 0.105922
0.687844 0.145075 0.107066
0.703924 0.150684 0.108343
0.714126 0.156229 0.110198
0.723460 0.159606 0.112378
0.731819 0.158845 0.114481
0.738081 0.158459 0.117121
0.743372 0.156841 0.120516
0.749486 0.143711 0.124575
0.753131 0.131924 0.132588
0.760511 0.095760 0.449033
0.760508 0.095667 0.448906
0.760508 0.095661 0.448898
0.763827 0.220446 0.448894
0.763827 0.231879 0.561244
0.066917 0.119364 0.090268
0.067033 0.119520 0.090368
0.067643 0.121302 0.090928
0.068857 0.123030 0.091626
0.071513 0.124399 0.092284
0.075559 0.124895 0.093006
0.081460 0.124671 0.093573
0.090895 0.124158 0.094161
0.101435 0.119017 0.094321
0.122482 0.119175 0.095125
0.178991 0.125721 0.096997
0.247860 0.126228 0.097884
0.332104 0.126027 0.098531
0.413677 0.128565 0.099558
0.492082 0.135022 0.101181
0.547507 0.139335 0.102312
0.591977 0.143598 0.103408
0.623093 0.151466 0.104843
0.652094 0.161149 0.106632
0.676478 0.163531 0.107673
0.696579 0.167443 0.108862
0.709826 0.173521 0.110813
0.719808 0.179581 0.112935
0.728706 0.181948 0.114968
0.735491 0.185276 0.117422
0.741606 0.183316 0.120552
0.748186 0.172074 0.124198
0.752333 0.160476 0.130023
0.760517 0.095942 0.449229
0.760509 0.095683 0.448929
0.760508 0.095667 0.448908
0.763827 0.220451 0.448898
0.763827 0.231879 0.561244
0.067547 0.130024 0.090990
0.067643 0.130117 0.091102
0.068129 0.131064 0.091535
0.069163 0.132735 0.092162
0.071324 0.135747 0.092792
0.074457 0.137736 0.093382
0.078828 0.138399 0.093988
0.086125 0.137612 0.094497
0.096262 0.136507 0.095404
0.111207 0.136092 0.096311
0.152324 0.150215 0.098130
0.197962 0.149799 0.098906
0.272247 0.147946 0.099494
0.360483 0.151529 0.100419
0.443718 0.161586 0.102345
0.505640 0.163900 0.103372
0.558212 0.166599 0.104370
0.601065 0.173009 0.105713
0.634270 0.182635 0.107419
0.660908 0.186043 0.108395
0.683500 0.193121 0.109741
0.703532 0.199143 0.111593
0.715577 0.205736 0.113705
0.725885 0.207276 0.115585
0.733600 0.210670 0.117874
0.739890 0.214512 0.120932
0.746501 0.210118 0.124524
0.750869 0.207075 0.129569
0.760695 0.100815 0.451473
0.760515 0.095870 0.449156
0.760510 0.095707 0.448969
0.763827 0.220454 0.448916
0.763827 0.231879 0.561244
0.068539 0.158080 0.092076
0.068618 0.158228 0.092160
0.068995 0.159555 0.092478
0.070070 0.163000 0.093015
0.071953 0.166118 0.093586
0.074694 0.168649 0.094140
0.078329 0.169759 0.094812
0.084519 0.169805 0.095743
0.093093 0.169157 0.096618
0.105243 0.168345 0.097468
0.133658 0.181495 0.099200
0.174922 0.180187 0.099944
0.224117 0.176617 0.100432
0.304141 0.179194 0.101639
0.402614 0.190504 0.103552
0.461554 0.192099 0.104480
0.520146 0.194103 0.105402
0.574328 0.201652 0.106657
0.613270 0.216076 0.108303
0.642888 0.220068 0.109295
0.670188 0.224345 0.110698
0.692915 0.233542 0.112477
0.709195 0.243962 0.114659
0.721258 0.245897 0.116398
0.730598 0.247133 0.118501
0.737938 0.249400 0.121489
0.745273 0.243398 0.124708
0.750103 0.238619 0.129085
0.755070 0.225720 0.135796
0.758574 0.212617 0.159246
0.762237 0.183677 0.405857
0.763827 0.220667 0.452091
0.763827 0.231880 0.561244
0.070290 0.208553 0.093539
0.070399 0.208765 0.093602
0.070861 0.210349 0.093840
0.072000 0.216394 0.094302
0.073626 0.221445 0.095025
0.076130 0.225287 0.095980
0.079822 0.228273 0.096935
0.085744 0.229334 0.097834
0.093848 0.229068 0.098661
0.105364 0.227921 0.099477
0.123749 0.226832 0.100276
0.155755 0.223543 0.101080
0.190310 0.216721 0.101755
0.263449 0.219192 0.102929
0.357489 0.234142 0.104780
0.419950 0.233826 0.105641
0.479031 0.233962 0.106456
0.538206 0.241037 0.107629
0.591168 0.256610 0.109336
0.622997 0.258506 0.110458
0.652666 0.264182 0.111792
0.678829 0.274050 0.113626
0.702406 0.280774 0.115683
0.716242 0.283077 0.117310
0.726538 0.288369 0.119302
0.734680 0.295371 0.122337
0.743258 0.288218 0.125219
0.748872 0.281889 0.129004
0.754288 0.268605 0.134042
0.758138 0.250410 0.147687
0.762080 0.196430 0.338151
0.763827 0.221328 0.460095
0.763827 0.221572 0.462965
0.071639 0.253943 0.094364
0.071729 0.254142 0.094415
0.072095 0.255488 0.094662
0.072988 0.260894 0.095358
0.074464 0.265897 0.096163
0.076645 0.271213 0.097066
0.080054 0.275232 0.098006
0.085145 0.276970 0.098849
0.092231 0.277507 0.099660
0.101921 0.277074 0.100426
0.116523 0.275932 0.101434
0.142175 0.275029 0.102519
0.175984 0.265998 0.103065
0.228275 0.268600 0.104229
0.314547 0.282548 0.106007
0.386728 0.280371 0.106781
0.441296 0.279388 0.107562
0.503208 0.285122 0.108675
0.562221 0.298397 0.110607
0.601607 0.299013 0.111666
0.633199 0.304494 0.113018
0.663429 0.311570 0.114866
0.689669 0.319583 0.116848
0.709182 0.322763 0.118389
0.722001 0.324703 0.120466
0.731784 0.328571 0.123362
0.740921 0.327847 0.126011
0.747006 0.328798 0.129413
0.752915 0.322243 0.133711
0.757367 0.304653 0.142795
0.761706 0.234194 0.235177
0.763827 0.221339 0.460135
0.763827 0.221809 0.465676
0.072719 0.293704 0.095367
0.072793 0.293857 0.095446
0.073090 0.294821 0.095739
0.073896 0.298471 0.096316
0.075267 0.303711 0.097074
0.077139 0.309031 0.097913
0.080083 0.313026 0.098752
0.084565 0.315688 0.099590
0.090754 0.316989 0.100373
0.099158 0.317092 0.101358
0.110530 0.316607 0.102400
0.129470 0.315585 0.103382
0.161920 0.314895 0.104397
0.201437 0.316011 0.105457
0.282955 0.327856 0.107233
0.351006 0.325186 0.107948
0.409969 0.323215 0.108645
0.469030 0.327243 0.110021
0.531641 0.339686 0.112036
0.579693 0.338888 0.112993
0.613191 0.343172 0.114375
0.645518 0.352027 0.116190
0.674769 0.360586 0.118117
0.701292 0.361490 0.119497
0.715994 0.366036 0.121851
0.727177 0.372680 0.124644
0.738155 0.369649 0.126995
0.745332 0.368482 0.130032
0.751700 0.365606 0.133956
0.756328 0.361398 0.141363
0.760238 0.356973 0.158676
0.763827 0.221457 0.460184
0.763827 0.222205 0.469587
0.074168 0.340181 0.096755
0.074247 0.340352 0.096824
0.074557 0.341326 0.097076
0.075255 0.344723 0.097568
0.076517 0.352024 0.098302
0.078113 0.356225 0.099054
0.081067 0.359739 0.099834
0.085226 0.362815 0.100665
0.090816 0.364787 0.101793
0.098324 0.365419 0.102834
0.108416 0.365325 0.103823
0.124758 0.364766 0.104820
0.152061 0.363752 0.105739
0.183447 0.363050 0.106693
0.253366 0.375042 0.108389
0.315844 0.371980 0.109158
0.381092 0.368633 0.110038
0.437194 0.371648 0.111411
0.501348 0.381618 0.113504
0.550107 0.380670 0.114575
0.593544 0.382708 0.115867
0.626830 0.388660 0.117562
0.658846 0.395464 0.119380
0.687573 0.397745 0.121111
0.708691 0.402685 0.123347
0.722480 0.407152 0.125931
0.734609 0.407847 0.128156
0.742636 0.410822 0.130949
0.750150 0.405987 0.134556
0.755480 0.399311 0.140590
0.759794 0.391311 0.151906
0.762750 0.386244 0.231002
0.764651 0.391157 0.473076
0.076065 0.395943 0.098452
0.076134 0.396082 0.098513
0.076404 0.396772 0.098735
0.076992 0.398890 0.099165
0.078213 0.404447 0.099863
0.080088 0.407764 0.100538
0.082970 0.412321 0.101638
0.086984 0.415819 0.102724
0.092358 0.418425 0.103828
0.099636 0.419938 0.104870
0.109400 0.420532 0.105893
0.124999 0.420221 0.106821
0.150906 0.419405 0.107759
0.183264 0.418461 0.108636
0.230876 0.417656 0.109758
0.288090 0.413574 0.110641
0.352728 0.410014 0.111531
0.412194 0.412528 0.112890
0.472834 0.422021 0.115115
0.523342 0.420092 0.116093
0.571064 0.421613 0.117361
0.608522 0.427199 0.119002
0.641706 0.433350 0.121114
0.672048 0.436174 0.122799
0.699632 0.439735 0.124876
0.716058 0.445795 0.127385
0.730332 0.446404 0.129447
0.740114 0.446817 0.131987
0.748263 0.447095 0.135588
0.754102 0.446984 0.140758
0.759052 0.438340 0.148733
0.762402 0.425286 0.183593
0.764628 0.401807 0.465209
0.077286 0.434225 0.099459
0.077346 0.434349 0.099512
0.077578 0.434941 0.099705
0.078124 0.436676 0.100078
0.079419 0.441053 0.100720
0.081324 0.444858 0.101683
0.084121 0.448926 0.102803
0.087571 0.451077 0.103786
0.092465 0.453279 0.104827
0.099137 0.455042 0.105892
0.107816 0.455708 0.106839
0.121169 0.455791 0.107774
0.142752 0.455577 0.108684
0.173598 0.454888 0.109786
0.209533 0.454291 0.110943
0.267763 0.453785 0.112126
0.325414 0.450598 0.112989
0.391190 0.452219 0.114544
0.447145 0.459454 0.116743
0.496787 0.457603 0.117679
0.545125 0.457883 0.118828
0.590858 0.461685 0.120740
0.624477 0.466058 0.122942
0.656044 0.467450 0.124509
0.685762 0.470563 0.126500
0.708678 0.475667 0.128900
0.725299 0.476182 0.130796
0.736443 0.478964 0.133247
0.746064 0.478930 0.136892
0.752923 0.476817 0.141341
0.758200 0.475265 0.148023
0.761742 0.475121 0.166232
0.764469 0.442888 0.404481
0.078590 0.465924 0.100385
0.078657 0.466006 0.100432
0.078928 0.466386 0.100612
0.079592 0.467454 0.101083
0.080813 0.470051 0.101836
0.082635 0.473822 0.102790
0.085006 0.476530 0.103745
0.088235 0.479453 0.104756
0.092826 0.482036 0.105770
0.098826 0.483878 0.106768
0.106702 0.485034 0.107745
0.118345 0.485490 0.108661
0.136538 0.485497 0.109750
0.164002 0.485159 0.110950
0.192761 0.484534 0.112094
0.244487 0.483996 0.113298
0.299510 0.483658 0.114638
0.364935 0.485068 0.116141
0.423589 0.491818 0.118311
0.472688 0.489553 0.119189
0.522508 0.489621 0.120603
0.570455 0.492850 0.122644
0.607799 0.497066 0.124800
0.639679 0.497979 0.126263
0.670762 0.501276 0.128184
0.699514 0.505640 0.130445
0.718878 0.507440 0.132255
0.732334 0.509418 0.134966
0.743453 0.510624 0.138370
0.751132 0.511701 0.142394
0.757279 0.508984 0.147933
0.761340 0.505607 0.160787
0.764083 0.506973 0.263299
0.080555 0.499623 0.101846
0.080629 0.499704 0.101906
0.080912 0.500061 0.102126
0.081493 0.500995 0.102545
0.082537 0.503142 0.103208
0.084489 0.507511 0.104165
0.086554 0.509391 0.104995
0.089816 0.512993 0.106026
0.094016 0.515470 0.106996
0.099575 0.517322 0.107939
0.106965 0.518840 0.108902
0.117864 0.519684 0.110140
0.134319 0.520084 0.111382
0.159594 0.519810 0.112501
0.183963 0.519479 0.113844
0.231030 0.518931 0.115136
0.285849 0.518410 0.116399
0.347172 0.518237 0.117705
0.407169 0.524397 0.119960
0.451308 0.522293 0.121082
0.499562 0.521776 0.122524
0.548067 0.524421 0.124541
0.592037 0.527130 0.126655
0.623614 0.527509 0.128039
0.655498 0.529806 0.129899
0.686235 0.532650 0.132057
0.711578 0.534004 0.133957
0.727290 0.535547 0.136812
0.740023 0.537639 0.140056
0.749387 0.537115 0.143632
0.756200 0.537280 0.148515
0.760663 0.538183 0.158566
0.763873 0.535447 0.206383
0.082799 0.533428 0.103642
0.082868 0.533491 0.103696
0.083126 0.533753 0.103895
0.083695 0.534381 0.104272
0.084785 0.535708 0.104867
0.086632 0.538352 0.105732
0.088661 0.540182 0.106569
0.091979 0.542520 0.107543
0.095872 0.544271 0.108482
0.101463 0.546073 0.109648
0.108692 0.547283 0.110919
0.119754 0.548112 0.112212
0.135412 0.548434 0.113537
0.159674 0.548500 0.114910
0.183436 0.548264 0.116209
0.227008 0.548055 0.117565
0.280029 0.547755 0.118832
0.336748 0.547371 0.120225
0.391444 0.547371 0.121944
0.431004 0.545615 0.123009
0.478882 0.545265 0.124432
0.528216 0.546923 0.126407
0.575109 0.549378 0.128467
0.608432 0.549612 0.129805
0.640290 0.551433 0.131583
0.672240 0.554257 0.133873
0.703360 0.555409 0.136012
0.721137 0.557566 0.138769
0.736419 0.558965 0.141726
0.747060 0.559915 0.145088
0.754954 0.560732 0.149639
0.760149 0.559979 0.157827
0.763603 0.561627 0.186443
0.084577 0.555043 0.104642
0.084650 0.555095 0.104692
0.084922 0.555306 0.104873
0.085470 0.555805 0.105217
0.086416 0.556843 0.105756
0.087984 0.558877 0.106537
0.090231 0.561060 0.107406
0.093001 0.562661 0.108267
0.096952 0.564723 0.109332
0.102082 0.566449 0.110648
0.108499 0.567498 0.111861
0.118400 0.568395 0.113179
0.132458 0.568941 0.114611
0.154610 0.569165 0.115983
0.181385 0.569177 0.117318
0.213379 0.568925 0.118581
0.261982 0.568718 0.119995
0.312646 0.568546 0.121652
0.367786 0.568287 0.123221
0.415733 0.568417 0.124884
0.460950 0.567759 0.126253
0.509332 0.569386 0.128220
0.555295 0.571501 0.130268
0.594255 0.571633 0.131536
0.625827 0.573196 0.133302
0.658007 0.575651 0.136059
0.690859 0.576801 0.138089
0.714065 0.579038 0.140748
0.731788 0.580656 0.143511
0.744230 0.582140 0.146633
0.753581 0.582795 0.150975
0.759407 0.584031 0.158134
0.763368 0.584699 0.177168
0.086505 0.577174 0.105678
0.086571 0.577221 0.105724
0.086817 0.577408 0.105892
0.087307 0.577835 0.106208
0.088142 0.578691 0.106703
0.089633 0.580318 0.107416
0.092073 0.582806 0.108327
0.094413 0.583944 0.109150
0.098568 0.586270 0.110525
0.102888 0.587324 0.111677
0.109155 0.588752 0.112996
0.118913 0.589843 0.114471
0.131782 0.590370 0.115876
0.152007 0.590620 0.117209
0.176934 0.590756 0.118556
0.204686 0.590689 0.119961
0.249244 0.590440 0.121596
0.295045 0.590223 0.123240
0.353169 0.590161 0.124874
0.402313 0.590036 0.126415
0.443737 0.590268 0.128023
0.490923 0.591308 0.129944
0.537474 0.593341 0.131961
0.580798 0.593491 0.133255
0.612083 0.594739 0.135530
0.644237 0.597011 0.138255
0.677477 0.598110 0.140174
0.706283 0.600016 0.142692
0.726138 0.602109 0.145354
0.741011 0.603360 0.148178
0.751809 0.605096 0.152569
0.758681 0.605868 0.158814
0.763101 0.607641 0.173028
0.088517 0.599935 0.106834
0.088578 0.599983 0.106877
0.088805 0.600173 0.107033
0.089335 0.600584 0.107328
0.090244 0.601360 0.107787
0.091698 0.602756 0.108445
0.094020 0.605208 0.109500
0.096424 0.606450 0.110544
0.100050 0.608195 0.111785
0.104632 0.609724 0.113072
0.110844 0.611205 0.114567
0.119689 0.612083 0.115960
0.132139 0.612865 0.117388
0.151717 0.613298 0.118764
0.175160 0.613436 0.120248
0.199943 0.613500 0.122022
0.241970 0.613358 0.123680
0.288052 0.613162 0.125314
0.343050 0.612941 0.126912
0.391775 0.612966 0.128523
0.429464 0.612973 0.130054
0.474882 0.613278 0.131610
0.521752 0.614831 0.133743
0.562800 0.615046 0.135390
0.599261 0.616063 0.137670
0.630859 0.618066 0.140380
0.664138 0.619277 0.142231
0.696021 0.621001 0.144667
0.719647 0.623109 0.147204
0.736989 0.624583 0.150044
0.749808 0.626363 0.154223
0.757806 0.627694 0.159852
0.762791 0.630160 0.171309
0.090816 0.623083 0.107878
0.090884 0.623130 0.107919
0.091137 0.623309 0.108066
0.091632 0.623685 0.108343
0.092459 0.624368 0.108775
0.093762 0.625546 0.109556
0.095927 0.627538 0.110722
0.098660 0.629209 0.111869
0.101783 0.630531 0.113060
0.106705 0.632356 0.114628
0.112351 0.633304 0.115968
0.121431 0.634439 0.117431
0.133779 0.635371 0.118915
0.151982 0.635726 0.120493
0.174010 0.635916 0.122222
0.196435 0.635988 0.123959
0.236487 0.635963 0.125691
0.283010 0.635828 0.127350
0.331750 0.635657 0.128954
0.379156 0.635484 0.130528
0.419420 0.635576 0.132097
0.462432 0.635742 0.133796
0.505849 0.636141 0.135857
0.546768 0.636306 0.137461
0.587340 0.637074 0.139693
0.618150 0.638681 0.142391
0.650999 0.639929 0.144187
0.683587 0.641449 0.146555
0.712565 0.643455 0.149079
0.732156 0.645146 0.152125
0.747428 0.646622 0.155886
0.756743 0.647802 0.161133
0.762552 0.648995 0.170760
0.092884 0.645560 0.108463
0.092946 0.645595 0.108501
0.093173 0.645730 0.108640
0.093617 0.646010 0.108902
0.094352 0.646432 0.109444
0.095570 0.646970 0.110248
0.097683 0.647872 0.111351
0.100504 0.648969 0.112621
0.103374 0.649524 0.113843
0.107944 0.650493 0.115412
0.113602 0.651055 0.116774
0.122580 0.651732 0.118281
0.133210 0.652092 0.119692
0.151009 0.652447 0.121587
0.172474 0.652632 0.123415
0.191810 0.652639 0.125093
0.228937 0.652612 0.126814
0.272844 0.652535 0.128474
0.317009 0.652451 0.130107
0.364949 0.652370 0.131670
0.409016 0.652342 0.133237
0.447715 0.652432 0.135282
0.489877 0.652664 0.137356
0.532439 0.653029 0.139411
0.573553 0.653300 0.141621
0.606288 0.654089 0.144285
0.638341 0.654903 0.146016
0.671019 0.655695 0.148346
0.704678 0.656881 0.151131
0.726544 0.658012 0.154231
0.744512 0.659139 0.157630
0.755587 0.660173 0.162275
0.762266 0.661684 0.170995
0.094880 0.658798 0.109174
0.094937 0.658820 0.109225
0.095149 0.658904 0.109407
0.095632 0.659071 0.109750
0.096427 0.659358 0.110285
0.097658 0.659826 0.111049
0.099543 0.660574 0.112096
0.102559 0.661769 0.113649
0.105273 0.662216 0.114801
0.109213 0.662944 0.116255
0.115594 0.663698 0.117786
0.123396 0.664148 0.119170
0.134534 0.664616 0.121004
0.151630 0.664965 0.122938
0.170800 0.665119 0.124702
0.188785 0.665205 0.126477
0.224657 0.665196 0.128220
0.266452 0.665104 0.129924
0.307245 0.665004 0.131539
0.356415 0.664920 0.133138
0.400834 0.664876 0.135207
0.435502 0.664914 0.137261
0.476615 0.665027 0.139271
0.519065 0.665349 0.141350
0.558632 0.665785 0.143410
0.595190 0.666306 0.146056
0.626452 0.667250 0.147718
0.658543 0.667814 0.150232
0.693940 0.668934 0.153095
0.720113 0.669995 0.155964
0.740992 0.671238 0.159357
0.754260 0.672309 0.163505
0.761942 0.673731 0.171529
0.097120 0.671324 0.109981
0.097182 0.671346 0.110029
0.097413 0.671430 0.110205
0.097860 0.671593 0.110536
0.098591 0.671863 0.111052
0.099713 0.672282 0.111789
0.101413 0.672919 0.112820
0.104334 0.673893 0.114423
0.107304 0.674557 0.115782
0.111029 0.675138 0.117145
0.118089 0.676021 0.118865
0.125047 0.676351 0.120368
0.137212 0.676865 0.122460
0.152058 0.677093 0.124249
0.171501 0.677330 0.126180
0.188194 0.677422 0.127975
0.221196 0.677428 0.129714
0.260577 0.677353 0.131430
0.299098 0.677225 0.133086
0.349309 0.677122 0.135245
0.392901 0.677051 0.137387
0.425671 0.677053 0.139477
0.466064 0.677124 0.141509
0.505980 0.677285 0.143501
0.545135 0.677675 0.145592
0.584928 0.678171 0.147655
0.615270 0.679280 0.149347
0.646671 0.679680 0.152113
0.681972 0.680683 0.154801
0.713021 0.681646 0.157632
0.736553 0.682843 0.160836
0.752665 0.684029 0.164697
0.761780 0.685423 0.172315
0.099345 0.686223 0.109692
0.099399 0.686236 0.109739
0.099598 0.686286 0.109913
0.099985 0.686381 0.110241
0.100617 0.686534 0.110755
0.101590 0.686765 0.111496
0.103240 0.687114 0.112525
0.105882 0.687653 0.114150
0.109098 0.688210 0.115852
0.112837 0.688532 0.117167
0.119017 0.689023 0.118833
0.126610 0.689388 0.120671
0.137164 0.689635 0.122648
0.152561 0.689830 0.124658
0.170658 0.689910 0.126607
0.184972 0.689934 0.128432
0.217570 0.689905 0.130283
0.255006 0.689797 0.132026
0.291740 0.689637 0.133872
0.341121 0.689491 0.136082
0.380863 0.689392 0.138240
0.416781 0.689357 0.140352
0.455039 0.689413 0.142416
0.493534 0.689578 0.144434
