LUTs/negative-ultramax-400/Ultramax400_Modern_Normal.cube
TITLE "Kodak Ultramax 400 Modern Normal"
# Adobe RGB in/out. REPLACES AgX. Kodak Ultramax 400 Modern Normal.
LUT_3D_SIZE 5
DOMAIN_MIN 0.0 0.0 0.0
DOMAIN_MAX 1.0 1.0 1.0
0.073661 0.072636 0.087722
0.634899 0.105846 0.092498
0.889633 0.183499 0.105145
0.918262 0.224828 0.145492
0.916474 0.363275 0.715229
0.086501 0.330024 0.092969
0.143458 0.228154 0.094280
0.727566 0.292184 0.105562
0.898788 0.348451 0.136639
0.910655 0.346030 0.698070
0.115526 0.692205 0.104330
0.146313 0.653410 0.109643
0.383289 0.571087 0.116873
0.796460 0.583986 0.140783
0.889305 0.586061 0.334573
0.147500 0.823268 0.115402
0.170314 0.813300 0.124639
0.312491 0.780415 0.142127
0.626386 0.753024 0.158671
0.869230 0.753451 0.197248
0.148981 0.848877 0.100522
0.179776 0.860957 0.100154
0.254143 0.856167 0.119807
0.487376 0.841590 0.146859
0.858293 0.837571 0.158538
0.077564 0.103798 0.318181
0.648593 0.171699 0.635828
0.891110 0.225750 0.506605
0.914621 0.261509 0.535694
0.914302 0.356762 0.708809
0.094835 0.254205 0.236407
0.196794 0.194562 0.192796
0.785621 0.300514 0.281771
0.894592 0.357952 0.357850
0.907701 0.339909 0.691711
0.135066 0.650118 0.250643
0.186538 0.610071 0.234601
0.463951 0.534265 0.218152
0.821752 0.572252 0.252893
0.886137 0.591424 0.529767
0.165316 0.810699 0.224726
0.196344 0.798714 0.230126
0.354030 0.767615 0.237365
0.677247 0.745350 0.247782
0.868132 0.750782 0.290061
0.150950 0.851586 0.151204
0.181560 0.863282 0.148950
0.269438 0.853948 0.175800
0.506594 0.840385 0.215692
0.861199 0.837201 0.227261
0.083872 0.208372 0.741365
0.479176 0.325897 0.851494
0.905326 0.392274 0.847687
0.916097 0.370613 0.800641
0.913328 0.366359 0.793636
0.116856 0.406660 0.735148
0.325338 0.417583 0.775923
0.821563 0.418366 0.757209
0.895897 0.437978 0.755637
0.905588 0.346680 0.774334
0.150636 0.606043 0.571924
0.215999 0.570795 0.547738
0.512127 0.506118 0.511298
0.827758 0.579133 0.591348
0.882265 0.613861 0.719013
0.191862 0.787748 0.549510
0.231298 0.777487 0.539199
0.411804 0.750740 0.519054
0.730105 0.734772 0.514029
0.864774 0.750878 0.614795
0.165731 0.857081 0.589125
0.172352 0.857961 0.582267
0.302019 0.848244 0.503097
0.545432 0.837824 0.493966
0.860984 0.837553 0.512431
0.093317 0.395294 0.894567
0.324593 0.475214 0.912897
0.901244 0.531723 0.914086
0.923384 0.500963 0.885082
0.915847 0.388473 0.854211
0.129219 0.543794 0.898167
0.342103 0.587468 0.910238
0.864086 0.585083 0.894663
0.908844 0.542857 0.866818
0.909280 0.367638 0.843525
0.174415 0.647152 0.812293
0.258127 0.642124 0.815351
0.637824 0.630174 0.809939
0.848157 0.637728 0.809011
0.883863 0.648252 0.813433
0.199924 0.776292 0.757375
0.244009 0.769244 0.752790
0.439412 0.748963 0.744664
0.742838 0.731910 0.736067
0.862691 0.758401 0.781984
0.162117 0.851880 0.690335
0.170574 0.854036 0.686017
0.301187 0.846750 0.703908
0.551555 0.838140 0.697970
0.860116 0.840829 0.755829
0.339092 0.532897 0.950906
0.759246 0.548904 0.950921
0.926659 0.595964 0.951023
0.934357 0.559795 0.939758
0.919199 0.440289 0.904984
0.372919 0.621652 0.950688
0.738813 0.633104 0.950726
0.922352 0.659656 0.949479
0.922820 0.594237 0.927939
0.913034 0.426147 0.898909
0.328370 0.721363 0.919393
0.520827 0.716319 0.914691
0.839190 0.704483 0.902094
0.885541 0.682327 0.888409
0.890765 0.651522 0.877596
0.227906 0.787249 0.875544
0.298488 0.782056 0.872531
0.658770 0.769351 0.864143
0.833175 0.761075 0.857406
0.868571 0.763995 0.855807
0.151310 0.844006 0.800258
0.167961 0.851021 0.813448
0.246891 0.853151 0.840563
0.525091 0.844571 0.849884
0.859963 0.845890 0.848597
