LUTs/negative-ultramax-400/Ultramax400_Modern_Normal.cube
TITLE "Kodak Ultramax 400 Modern Normal"
# Adobe RGB in/out. REPLACES AgX. Kodak Ultramax 400 Modern Normal.
LUT_3D_SIZE 9
DOMAIN_MIN 0.0 0.0 0.0
DOMAIN_MAX 1.0 1.0 1.0
0.073661 0.072636 0.087722
0.216157 0.085281 0.089943
0.634899 0.105846 0.092498
0.826545 0.140422 0.097317
0.889633 0.183499 0.105145
0.912014 0.218488 0.119404
0.918262 0.224828 0.145492
0.921578 0.140586 0.609406
0.916474 0.363275 0.715229
0.077676 0.118656 0.089802
0.088829 0.107318 0.090398
0.320155 0.125622 0.092605
0.727567 0.163517 0.097314
0.866303 0.207867 0.104821
0.903099 0.240312 0.118388
0.914927 0.246315 0.141847
0.919665 0.139315 0.602562
0.915110 0.359175 0.711177
0.086501 0.330024 0.092969
0.092579 0.297788 0.093596
0.143458 0.228154 0.094280
0.397154 0.246259 0.098270
0.727566 0.292184 0.105562
0.861786 0.334814 0.117911
0.898788 0.348451 0.136639
0.913679 0.147769 0.583495
0.910655 0.346030 0.698070
0.099221 0.549202 0.098156
0.104586 0.528288 0.099316
0.138941 0.473073 0.101144
0.257084 0.412560 0.102766
0.500790 0.414033 0.108594
0.753015 0.446737 0.120285
0.866822 0.472497 0.136632
0.894861 0.468352 0.162233
0.900592 0.319281 0.565515
0.115526 0.692205 0.104330
0.119336 0.681629 0.105776
0.146313 0.653410 0.109643
0.231353 0.612233 0.112797
0.383289 0.571087 0.116873
0.608058 0.564189 0.125866
0.796460 0.583986 0.140783
0.874535 0.595815 0.160283
0.889305 0.586061 0.334573
0.132420 0.766949 0.111435
0.135610 0.762020 0.112906
0.159309 0.750136 0.119135
0.223554 0.729159 0.125152
0.337967 0.706839 0.130489
0.509534 0.685880 0.137443
0.704681 0.678585 0.147692
0.841080 0.688466 0.164237
0.878250 0.692900 0.207679
0.147500 0.823268 0.115402
0.150052 0.821359 0.117226
0.170314 0.813300 0.124639
0.220798 0.798515 0.133538
0.312491 0.780415 0.142127
0.449984 0.763869 0.149979
0.626386 0.753024 0.158671
0.788542 0.748728 0.170628
0.869230 0.753451 0.197248
0.159567 0.855043 0.108445
0.160574 0.853189 0.109528
0.176442 0.846997 0.119521
0.215223 0.839669 0.131586
0.290948 0.830894 0.143958
0.406248 0.822115 0.154705
0.554941 0.811839 0.164240
0.730918 0.806146 0.175037
0.861479 0.804414 0.192326
0.148981 0.848877 0.100522
0.148461 0.847977 0.100433
0.179776 0.860957 0.100154
0.176332 0.857050 0.107802
0.254143 0.856167 0.119807
0.357705 0.847911 0.135249
0.487376 0.841590 0.146859
0.649439 0.838112 0.154951
0.858293 0.837571 0.158538
0.075509 0.084976 0.126048
0.201982 0.102471 0.316278
0.677416 0.117190 0.172677
0.843270 0.149613 0.151858
0.890523 0.188576 0.140569
0.910463 0.220601 0.145821
0.916771 0.227385 0.174364
0.920553 0.139919 0.605743
0.915767 0.361150 0.713129
0.080154 0.112438 0.108092
0.099463 0.104347 0.103925
0.435796 0.131203 0.120124
0.770582 0.171848 0.134120
0.870526 0.211664 0.135282
0.901177 0.241815 0.142715
0.913469 0.248477 0.166543
0.918642 0.138673 0.598953
0.914408 0.357075 0.709100
0.091586 0.299264 0.120222
0.100688 0.258986 0.114259
0.171754 0.205939 0.108433
0.476976 0.238803 0.117953
0.758911 0.290791 0.127745
0.865408 0.332908 0.138254
0.897151 0.347232 0.156056
0.912701 0.151040 0.581014
0.909973 0.344056 0.696080
0.105655 0.522320 0.124458
0.112613 0.500641 0.123985
0.154566 0.444206 0.121316
0.288328 0.391263 0.120400
0.542615 0.403931 0.126608
0.769391 0.441093 0.137581
0.867550 0.469047 0.153218
0.893519 0.466720 0.181229
0.899588 0.326220 0.676462
0.119978 0.676897 0.124993
0.125090 0.666506 0.126554
0.156970 0.637754 0.129927
0.248301 0.596708 0.132096
0.407948 0.558865 0.135708
0.631929 0.557044 0.141965
0.805574 0.579305 0.155845
0.874105 0.592477 0.176052
0.888422 0.586535 0.380041
0.135579 0.760094 0.126536
0.139271 0.755312 0.128300
0.166399 0.743274 0.135742
0.233310 0.722740 0.141892
0.351092 0.701485 0.146988
0.526540 0.680154 0.153657
0.716499 0.675028 0.162160
0.843689 0.685913 0.179073
0.877610 0.691841 0.224593
0.149590 0.820888 0.127033
0.152543 0.817872 0.128823
0.174599 0.809267 0.137825
0.226884 0.794594 0.147426
0.319898 0.776907 0.156301
0.459779 0.761042 0.164263
0.638682 0.750912 0.173803
0.795104 0.747384 0.184524
0.868948 0.752698 0.210638
0.160107 0.853468 0.113302
0.161473 0.851686 0.114828
0.178684 0.845686 0.128149
0.218817 0.838405 0.142726
0.295580 0.829733 0.155820
0.411750 0.821141 0.167172
0.561714 0.810607 0.177851
0.736738 0.805255 0.188486
0.861656 0.803873 0.204516
0.151846 0.853089 0.152090
0.151304 0.852190 0.151555
0.182827 0.864718 0.149776
0.178579 0.859871 0.147033
0.256232 0.855745 0.126219
0.360402 0.847548 0.144129
0.490641 0.841335 0.156885
0.654129 0.837963 0.165281
0.859937 0.837486 0.168848
0.077564 0.103798 0.318181
0.148690 0.152847 0.672279
0.648593 0.171699 0.635828
0.850178 0.200773 0.568601
0.891110 0.225750 0.506605
0.908612 0.253778 0.499138
0.914621 0.261509 0.535694
0.918796 0.147467 0.614823
0.914302 0.356762 0.708809
0.085334 0.151516 0.327152
0.130025 0.169751 0.443327
0.503863 0.176752 0.454240
0.787988 0.206133 0.432742
0.872836 0.239841 0.420636
0.899306 0.269944 0.439051
0.911300 0.277668 0.490117
0.916863 0.148986 0.609831
0.912932 0.352697 0.704751
0.094835 0.254205 0.236407
0.106485 0.227851 0.215617
0.196794 0.194562 0.192796
0.543648 0.240330 0.235885
0.785621 0.300514 0.281771
0.868485 0.343149 0.321186
0.894592 0.357952 0.357850
0.910502 0.225746 0.586308
0.907701 0.339909 0.691711
0.115088 0.478954 0.252151
0.124234 0.459515 0.240182
0.180045 0.399779 0.215350
0.328921 0.356271 0.200503
0.617407 0.390102 0.222329
0.799355 0.438387 0.256850
0.868658 0.468351 0.283933
0.890696 0.468970 0.360162
0.897212 0.322270 0.670349
0.135066 0.650118 0.250643
0.142787 0.639628 0.246407
0.186538 0.610071 0.234601
0.288921 0.564298 0.222645
0.463951 0.534265 0.218152
0.690877 0.544609 0.232652
0.821752 0.572252 0.252893
0.873198 0.587036 0.293346
0.886137 0.591424 0.529767
0.152357 0.746282 0.244693
0.159031 0.741562 0.243719
0.194672 0.728512 0.242019
0.269750 0.708609 0.237419
0.399674 0.684379 0.234115
0.579418 0.666877 0.235604
0.752142 0.667339 0.243055
0.849822 0.680277 0.270506
0.875858 0.690120 0.343088
0.165316 0.810699 0.224726
0.170249 0.807614 0.225640
0.196344 0.798714 0.230126
0.254488 0.784234 0.234438
0.354030 0.767615 0.237365
0.501517 0.753548 0.241217
0.677247 0.745350 0.247782
0.814616 0.743872 0.262413
0.868132 0.750782 0.290061
0.170361 0.846627 0.200288
0.173486 0.845245 0.202598
0.194814 0.840826 0.215182
0.239438 0.834110 0.225864
0.319006 0.825942 0.235027
0.439660 0.816252 0.242904
0.594519 0.806763 0.251054
0.760569 0.802486 0.260303
0.861918 0.802307 0.269854
0.150950 0.851586 0.151204
0.184205 0.866272 0.150682
0.181560 0.863282 0.148950
0.177455 0.858551 0.146371
0.269438 0.853948 0.175800
0.374386 0.846173 0.202154
0.506594 0.840385 0.215692
0.669695 0.837389 0.223867
0.861199 0.837201 0.227261
0.080212 0.142440 0.562829
0.106857 0.207756 0.767624
0.579044 0.244534 0.790465
0.847379 0.283367 0.784835
0.896841 0.302744 0.752930
0.910153 0.313904 0.723367
0.914245 0.313695 0.720235
0.916602 0.245907 0.747603
0.913325 0.357185 0.734630
0.087536 0.197497 0.578774
0.118121 0.236182 0.700889
0.521798 0.282353 0.768717
0.809567 0.298616 0.742616
0.878941 0.311390 0.708990
0.900863 0.325567 0.695311
0.910793 0.327374 0.701712
0.914413 0.260302 0.737488
0.911919 0.353041 0.730631
0.102425 0.297528 0.476828
0.119943 0.291558 0.476972
0.269147 0.284285 0.504841
0.602771 0.302889 0.528122
0.801200 0.341816 0.555157
0.870074 0.375702 0.579669
0.893392 0.390163 0.618210
0.904830 0.371051 0.687670
0.905902 0.340001 0.717817
0.119568 0.447047 0.424988
0.130927 0.430442 0.410737
0.192442 0.382724 0.372033
0.349999 0.346826 0.347296
0.650149 0.395050 0.403008
0.806269 0.447583 0.454362
0.867760 0.478079 0.506247
0.888213 0.484315 0.584993
0.895138 0.321923 0.697798
0.145030 0.623015 0.427812
0.154635 0.613972 0.419525
0.204957 0.582286 0.394879
0.312224 0.538289 0.366350
0.496486 0.511975 0.353057
0.715023 0.535725 0.381041
0.825793 0.569010 0.421593
0.871058 0.588242 0.479101
0.883754 0.601581 0.648045
0.167450 0.730855 0.417811
0.175734 0.726586 0.413330
0.215373 0.714247 0.400825
0.296637 0.693319 0.383475
0.433388 0.667421 0.369933
0.619703 0.653382 0.366580
0.772506 0.660343 0.382478
0.850208 0.675807 0.416627
0.873713 0.692115 0.554018
0.180946 0.798741 0.396790
0.187014 0.795868 0.394820
0.216787 0.787291 0.390398
0.280606 0.773572 0.383256
0.388003 0.758116 0.376088
0.540813 0.745647 0.372550
0.709252 0.739389 0.374786
0.824636 0.740463 0.387209
0.866779 0.749756 0.459306
0.181651 0.840824 0.366768
0.185837 0.839616 0.366380
0.210092 0.835759 0.368322
0.258907 0.829450 0.368404
0.343095 0.821871 0.368104
0.468785 0.810678 0.368268
0.629612 0.802524 0.370561
0.783038 0.799515 0.376241
0.861348 0.801057 0.405327
0.163211 0.857156 0.363164
0.182149 0.865200 0.361640
0.179644 0.862339 0.356565
0.206297 0.860785 0.291701
0.291186 0.850669 0.340980
0.395535 0.843969 0.346568
0.529740 0.838953 0.351275
0.692808 0.836495 0.355019
0.861282 0.836994 0.362184
0.083872 0.208372 0.741365
0.095847 0.255391 0.808125
0.479176 0.325897 0.851494
0.826503 0.360002 0.851740
0.905326 0.392274 0.847687
0.913992 0.383106 0.817831
0.916097 0.370613 0.800641
0.916597 0.318402 0.795625
0.913328 0.366359 0.793636
0.089649 0.256765 0.751102
0.107092 0.297639 0.799923
0.440442 0.358788 0.846500
0.810207 0.393475 0.848080
0.888523 0.397790 0.827190
0.907055 0.392707 0.803612
0.912582 0.382865 0.791440
0.914367 0.332159 0.789834
0.911878 0.361656 0.789059
0.116856 0.406660 0.735148
0.139679 0.410585 0.747465
0.325338 0.417583 0.775923
0.667484 0.412949 0.769999
0.821563 0.418366 0.757209
0.876619 0.434114 0.752431
0.895897 0.437978 0.755637
0.905018 0.418053 0.767938
0.905588 0.346680 0.774334
0.128009 0.468691 0.602355
0.141449 0.462229 0.597718
0.223993 0.442890 0.593971
0.426601 0.430689 0.599280
0.686478 0.450415 0.620904
0.816190 0.482661 0.653540
0.869442 0.505011 0.685360
0.887871 0.509411 0.717177
0.894912 0.447574 0.754626
0.150636 0.606043 0.571924
0.162668 0.597591 0.565373
0.215999 0.570795 0.547738
0.327027 0.532095 0.525232
0.512127 0.506118 0.511298
0.728640 0.542650 0.549197
0.827758 0.579133 0.591348
0.869919 0.600973 0.647193
0.882265 0.613861 0.719013
0.177393 0.717934 0.563292
0.186561 0.714326 0.558802
0.229002 0.703560 0.546510
0.313308 0.680273 0.529996
0.455027 0.655671 0.515943
0.641278 0.642909 0.511764
0.780803 0.657704 0.533213
0.848902 0.676642 0.571856
0.871902 0.697085 0.678911
0.191862 0.787748 0.549510
0.198776 0.785235 0.546773
0.231298 0.777487 0.539199
0.299031 0.764959 0.528792
0.411804 0.750740 0.519054
0.567604 0.739430 0.513157
0.730105 0.734772 0.514029
0.828433 0.738651 0.528703
0.864774 0.750878 0.614795
0.190148 0.835803 0.532239
0.195056 0.834702 0.530355
0.221705 0.831133 0.525650
0.274104 0.825341 0.518956
0.362934 0.816822 0.512629
0.493673 0.805994 0.507601
0.658596 0.799063 0.505933
0.798822 0.797400 0.509974
0.860360 0.801427 0.551491
0.165731 0.857081 0.589125
0.167934 0.857586 0.587548
0.172352 0.857961 0.582267
0.224154 0.854507 0.512345
0.302019 0.848244 0.503097
0.408704 0.842255 0.497208
0.545432 0.837824 0.493966
0.710839 0.835941 0.493479
0.860984 0.837553 0.512431
0.088386 0.296593 0.841316
0.095799 0.327508 0.862926
0.405160 0.403154 0.884104
0.802853 0.436165 0.885001
0.904393 0.472873 0.885557
0.918832 0.464173 0.869543
0.919407 0.438457 0.852314
0.918253 0.384936 0.839256
0.914276 0.374738 0.821413
0.092429 0.334418 0.845153
0.103313 0.360534 0.862186
0.389571 0.432977 0.882524
0.786713 0.464906 0.883907
0.898230 0.492212 0.882809
0.913223 0.470692 0.862084
0.915957 0.449492 0.847378
0.916014 0.398459 0.833987
0.912799 0.370137 0.818109
0.124677 0.485525 0.847970
0.146393 0.497344 0.856418
0.365580 0.536577 0.874659
0.699491 0.520730 0.863494
0.842994 0.506960 0.849518
0.886237 0.498992 0.834753
0.901526 0.490686 0.822961
0.907694 0.469402 0.816077
0.906858 0.355348 0.807294
0.142932 0.532532 0.774298
0.159172 0.530877 0.775903
0.266471 0.531436 0.784769
0.495669 0.526075 0.785675
0.731527 0.527038 0.782838
0.833180 0.535183 0.782307
0.874948 0.544884 0.784596
0.890160 0.542445 0.789174
0.895602 0.493564 0.791121
0.159751 0.614080 0.708196
0.172472 0.609923 0.705735
0.234847 0.597081 0.702147
0.364887 0.575769 0.697070
0.573095 0.566668 0.696836
0.750781 0.582098 0.709591
0.834937 0.606942 0.729525
0.871266 0.619544 0.752520
0.882268 0.629592 0.774116
0.183028 0.710750 0.686221
0.192956 0.708014 0.683470
0.237795 0.699277 0.675392
0.325805 0.678547 0.661139
0.472152 0.655763 0.646523
0.651943 0.640289 0.636539
0.786840 0.664291 0.673092
0.849111 0.684978 0.705129
0.871138 0.703843 0.747716
0.197884 0.779663 0.670603
0.205378 0.777512 0.667565
0.239834 0.770858 0.659284
0.309953 0.759834 0.648161
0.426855 0.746893 0.637823
0.584983 0.736049 0.631022
0.738904 0.732182 0.633009
0.829399 0.739570 0.658935
0.863038 0.753731 0.719565
0.194183 0.832030 0.651746
0.199555 0.831047 0.649357
0.227945 0.827818 0.642694
0.283103 0.822535 0.633618
0.375613 0.813128 0.625288
0.510722 0.803315 0.619593
0.672913 0.797303 0.617983
0.806747 0.796778 0.623030
0.859195 0.803451 0.685702
0.164990 0.854917 0.627929
0.166855 0.855334 0.628830
0.170346 0.855484 0.632852
0.225355 0.852826 0.624485
0.305679 0.846867 0.613780
0.414344 0.841387 0.606582
0.553295 0.837508 0.602317
0.720611 0.836106 0.600615
0.860503 0.838813 0.648314
0.093317 0.395294 0.894567
0.100139 0.413208 0.905179
0.324593 0.475214 0.912897
0.784423 0.501515 0.913576
0.901244 0.531723 0.914086
0.923766 0.536420 0.905185
0.923384 0.500963 0.885082
0.920780 0.450556 0.869812
0.915847 0.388473 0.854211
0.097635 0.424836 0.895809
0.106485 0.441389 0.904806
0.327301 0.496818 0.912503
0.771971 0.522991 0.913340
0.897892 0.552822 0.913908
0.918664 0.540590 0.898957
0.920091 0.508872 0.880818
0.918585 0.462702 0.866750
0.914367 0.383607 0.851879
0.129219 0.543794 0.898167
0.146428 0.552293 0.903008
0.342103 0.587468 0.910238
0.728481 0.609368 0.911804
0.864086 0.585083 0.894663
0.897130 0.563808 0.879326
0.908844 0.542857 0.866818
0.911210 0.514424 0.856592
0.909280 0.367638 0.843525
0.163488 0.616479 0.868512
0.182179 0.615820 0.869726
0.299021 0.617706 0.871070
0.553227 0.611128 0.865791
0.767160 0.603401 0.858032
0.853977 0.597522 0.850998
0.883050 0.591387 0.845444
0.894567 0.579652 0.839229
0.897491 0.553111 0.831715
0.174415 0.647152 0.812293
0.187786 0.645285 0.812806
0.258127 0.642124 0.815351
0.413942 0.634992 0.813826
0.637824 0.630174 0.809939
0.780896 0.632258 0.808078
0.848157 0.637728 0.809011
0.875271 0.642259 0.811621
0.883863 0.648252 0.813433
0.189866 0.714130 0.778605
0.199841 0.712254 0.777927
0.247516 0.706944 0.777009
0.346783 0.696635 0.774890
0.511627 0.682448 0.771029
0.691250 0.677793 0.769782
0.802689 0.687281 0.775862
0.853641 0.700615 0.785608
0.871913 0.711850 0.796032
0.199924 0.776292 0.757375
0.207887 0.774590 0.756010
0.244009 0.769244 0.752790
0.317073 0.760088 0.748802
0.439412 0.748963 0.744664
0.600904 0.738650 0.740026
0.742838 0.731910 0.736067
0.831248 0.744455 0.759419
0.862691 0.758401 0.781984
0.192787 0.830234 0.736842
0.198385 0.829354 0.735481
0.228016 0.826407 0.731915
0.285191 0.821647 0.727325
0.380921 0.812635 0.723602
0.520118 0.803594 0.721454
0.681272 0.798016 0.721814
0.809302 0.798092 0.727928
0.858279 0.806700 0.769899
0.162117 0.851880 0.690335
0.166294 0.853416 0.689285
0.170574 0.854036 0.686017
0.215758 0.852983 0.709903
0.301187 0.846750 0.703908
0.411234 0.841620 0.700184
0.551555 0.838140 0.697970
0.719444 0.837164 0.697065
0.860116 0.840829 0.755829
0.102729 0.491486 0.936745
0.110021 0.495075 0.937409
0.361612 0.527232 0.937813
0.805274 0.552656 0.937905
0.906659 0.580290 0.938065
0.929641 0.597485 0.936503
0.927737 0.551831 0.916028
0.923895 0.492127 0.898732
0.917650 0.421152 0.878597
0.107535 0.510729 0.936703
0.116138 0.514541 0.937329
0.367262 0.546854 0.937809
0.795779 0.571937 0.937913
0.904239 0.599315 0.938074
0.925141 0.600218 0.932530
0.924704 0.558169 0.912012
0.921786 0.501884 0.895885
0.916202 0.420754 0.876553
0.144079 0.609065 0.936539
0.162346 0.611655 0.936973
0.394997 0.630003 0.937600
0.759897 0.645753 0.937807
0.883976 0.643228 0.932163
0.910016 0.619604 0.914398
0.914563 0.591932 0.898951
0.914699 0.550092 0.886414
0.911478 0.452238 0.869745
0.192613 0.682716 0.923862
0.211998 0.680429 0.922819
0.364444 0.678433 0.918301
0.640044 0.667440 0.909565
0.814103 0.654593 0.899159
0.874745 0.642279 0.888918
0.893223 0.628919 0.879778
0.900588 0.610563 0.872131
0.900466 0.583938 0.863586
0.196289 0.694310 0.879893
0.210884 0.692883 0.879650
0.302032 0.691384 0.878055
0.483779 0.684722 0.873623
0.704889 0.677743 0.868102
0.817393 0.673238 0.862877
0.865701 0.669737 0.858680
0.881539 0.664106 0.855487
0.886705 0.664446 0.851731
0.200100 0.728628 0.850857
0.210758 0.727489 0.850953
0.269253 0.724989 0.850854
0.385653 0.719109 0.848112
0.571046 0.713061 0.843788
0.739945 0.710450 0.838885
0.823735 0.711399 0.837066
0.862691 0.713459 0.837644
0.874235 0.720342 0.837851
0.201347 0.779396 0.823553
0.209293 0.778139 0.823767
0.250072 0.774547 0.825279
0.328392 0.767643 0.825194
0.464469 0.758966 0.821848
0.642244 0.751776 0.817057
0.771044 0.750091 0.815070
0.839723 0.754682 0.818785
0.864644 0.764504 0.823792
0.185144 0.831574 0.799226
0.190729 0.830730 0.798933
0.221882 0.827777 0.799077
0.281514 0.823366 0.799913
0.381818 0.816484 0.801591
0.527267 0.808366 0.802440
0.691149 0.802914 0.802240
0.810083 0.799781 0.801104
0.858349 0.810854 0.815094
0.157171 0.848142 0.759557
0.169542 0.853602 0.759822
0.169833 0.852636 0.765159
0.203617 0.853320 0.772754
0.284935 0.848402 0.771792
0.396958 0.843365 0.771788
0.537621 0.840105 0.772323
0.704384 0.839322 0.772420
0.859909 0.843193 0.810464
0.339092 0.532897 0.950906
0.427406 0.536121 0.950909
0.759246 0.548904 0.950921
0.897456 0.570718 0.950958
0.926659 0.595964 0.951023
0.940354 0.614169 0.951124
0.934357 0.559795 0.939758
0.927943 0.465255 0.925597
0.919199 0.440289 0.904984
0.343688 0.548531 0.950873
0.428860 0.551802 0.950877
0.755051 0.564739 0.950890
0.895965 0.586736 0.950931
0.926232 0.610489 0.950999
0.936931 0.616191 0.948649
0.931674 0.564390 0.937770
0.925974 0.471063 0.922742
0.917779 0.443318 0.905755
0.372919 0.621652 0.950688
0.443700 0.623989 0.950696
0.738813 0.633104 0.950726
0.888870 0.648476 0.950790
0.922352 0.659656 0.949479
0.924789 0.631849 0.939979
0.922820 0.594237 0.927939
0.919412 0.513629 0.913237
0.913034 0.426147 0.898909
0.404629 0.714766 0.948457
0.448495 0.712834 0.947543
0.678588 0.706946 0.944476
0.846066 0.697171 0.939585
0.890580 0.681035 0.932595
0.904824 0.662356 0.920411
0.909152 0.638251 0.908907
0.909042 0.598594 0.898654
0.904047 0.583029 0.889692
0.328370 0.721363 0.919393
0.356683 0.720087 0.918308
0.520827 0.716319 0.914691
0.748619 0.710878 0.908945
0.839190 0.704483 0.902094
0.873512 0.695950 0.895049
0.885541 0.682327 0.888409
0.891156 0.661047 0.882462
0.890765 0.651522 0.877596
0.272137 0.744967 0.891088
0.290218 0.743771 0.890266
0.390903 0.740262 0.887547
0.611722 0.735338 0.883316
0.765824 0.730211 0.878551
0.831857 0.725811 0.874177
0.862455 0.721215 0.870596
0.874626 0.714006 0.867630
0.878186 0.717422 0.865438
0.227906 0.787249 0.875544
0.238990 0.785984 0.874858
0.298488 0.782056 0.872531
0.445454 0.775958 0.868712
0.658770 0.769351 0.864143
0.778113 0.764275 0.860070
0.833175 0.761075 0.857406
0.859493 0.757641 0.856120
0.868571 0.763995 0.855807
0.179825 0.833324 0.865184
0.185227 0.832639 0.865167
0.216450 0.830223 0.864174
0.299458 0.826058 0.861417
0.450514 0.821189 0.857769
0.661767 0.814564 0.854026
0.791021 0.810359 0.851052
0.843923 0.807962 0.849736
0.861597 0.811663 0.850124
0.151310 0.844006 0.800258
0.169340 0.852685 0.815559
0.167961 0.851021 0.813448
0.174629 0.849294 0.810047
0.246891 0.853151 0.840563
0.368383 0.847886 0.851217
0.525091 0.844571 0.849884
0.709610 0.843918 0.848811
0.859963 0.845890 0.848597
