LUTs/negative-ultramax-400/Ultramax400_Classic_Normal.cube
TITLE "Kodak Ultramax 400 Classic Normal"
# Adobe RGB in/out. REPLACES AgX. Kodak Ultramax 400 Classic Normal.
LUT_3D_SIZE 9
DOMAIN_MIN 0.0 0.0 0.0
DOMAIN_MAX 1.0 1.0 1.0
0.073661 0.072636 0.087722
0.121775 0.080307 0.089118
0.353520 0.089454 0.090531
0.607732 0.102647 0.092358
0.737948 0.121805 0.095197
0.796093 0.140166 0.100474
0.827224 0.149287 0.110814
0.850367 0.112625 0.447911
0.854402 0.255225 0.575230
0.076209 0.097998 0.089153
0.084968 0.099363 0.089962
0.205733 0.102604 0.091114
0.512194 0.116471 0.092821
0.712777 0.135961 0.095667
0.789901 0.154352 0.100898
0.825950 0.163497 0.110354
0.850367 0.112644 0.447931
0.854402 0.255234 0.575228
0.079827 0.164625 0.090707
0.083789 0.172312 0.091339
0.117440 0.172885 0.092605
0.290670 0.181679 0.094575
0.577436 0.200612 0.097863
0.752884 0.225271 0.102875
0.817697 0.238412 0.111158
0.850593 0.120810 0.450229
0.854402 0.255234 0.575228
0.085387 0.304744 0.092592
0.088478 0.313249 0.093196
0.109212 0.324247 0.095223
0.198316 0.322304 0.097881
0.405780 0.330027 0.101970
0.663109 0.345465 0.107255
0.793920 0.364521 0.115844
0.839661 0.364105 0.133145
0.854403 0.247619 0.471610
0.092549 0.466655 0.095232
0.095363 0.470992 0.096082
0.112381 0.483599 0.099022
0.172435 0.487243 0.102882
0.312903 0.485306 0.107547
0.533804 0.491586 0.114385
0.739214 0.503870 0.124526
0.829647 0.513732 0.139029
0.854714 0.509880 0.278181
0.103200 0.609044 0.098928
0.105699 0.610873 0.099978
0.120470 0.620018 0.103458
0.166933 0.624974 0.108917
0.274642 0.625058 0.115499
0.443308 0.624851 0.124303
0.661620 0.630259 0.135236
0.808655 0.639188 0.148592
0.853520 0.645900 0.186197
0.115564 0.711739 0.102452
0.117656 0.712490 0.103280
0.130882 0.716329 0.107727
0.170355 0.719556 0.114782
0.256924 0.720336 0.124577
0.394164 0.719906 0.134806
0.577951 0.721129 0.145825
0.764082 0.725369 0.159309
0.852110 0.731837 0.184511
0.128667 0.787470 0.101101
0.129917 0.786949 0.101828
0.141404 0.785035 0.107657
0.175214 0.785349 0.116827
0.246919 0.784894 0.128436
0.360592 0.783679 0.141103
0.519360 0.783736 0.153067
0.708814 0.786862 0.165583
0.851505 0.791982 0.185577
0.130285 0.807771 0.097428
0.130286 0.807774 0.097429
0.153164 0.828368 0.097441
0.153767 0.829286 0.103542
0.227573 0.834074 0.113292
0.330082 0.831756 0.128036
0.464338 0.830764 0.141300
0.634269 0.831758 0.151064
0.854887 0.834885 0.156847
0.074651 0.079918 0.098645
0.114200 0.087853 0.157373
0.393565 0.094303 0.110375
0.649811 0.107365 0.107331
0.746845 0.125631 0.105435
0.797754 0.142496 0.109344
0.827205 0.152114 0.124374
0.850367 0.112644 0.447934
0.854402 0.255234 0.575231
0.078126 0.097841 0.097955
0.099463 0.104347 0.103925
0.297448 0.107541 0.103261
0.586697 0.122941 0.105440
0.731852 0.139671 0.105735
0.792607 0.157294 0.109596
0.826022 0.166477 0.122580
0.850368 0.112674 0.447965
0.854402 0.255234 0.575228
0.082527 0.161030 0.098405
0.088779 0.166469 0.099968
0.142910 0.171302 0.102563
0.374896 0.186423 0.106029
0.639051 0.206069 0.108416
0.763356 0.228232 0.112112
0.818715 0.240798 0.122209
0.850658 0.123432 0.451234
0.854402 0.255234 0.575228
0.088353 0.298737 0.100412
0.092109 0.305485 0.101781
0.120032 0.316692 0.104622
0.232801 0.319577 0.109308
0.454953 0.331354 0.113390
0.688324 0.347570 0.118310
0.799233 0.365671 0.127274
0.839876 0.365467 0.146000
0.854402 0.255253 0.575224
0.095224 0.461140 0.102038
0.098489 0.465302 0.103260
0.118766 0.477008 0.107737
0.189300 0.482050 0.113556
0.340451 0.482998 0.121116
0.561039 0.491134 0.127286
0.750846 0.504033 0.136695
0.830894 0.513777 0.150973
0.854693 0.512255 0.319324
0.105300 0.605494 0.104192
0.108049 0.607392 0.105531
0.124551 0.616098 0.111028
0.176308 0.621342 0.118956
0.288891 0.622443 0.127720
0.463249 0.623475 0.137943
0.675302 0.629735 0.147832
0.812572 0.638885 0.160825
0.853572 0.646378 0.202071
0.117101 0.710352 0.107332
0.119350 0.711097 0.108735
0.133853 0.714796 0.114531
0.176209 0.717999 0.124480
0.265259 0.719007 0.135442
0.405295 0.718997 0.146754
0.591664 0.720593 0.158842
0.771542 0.725109 0.172153
0.852366 0.731858 0.197502
0.129355 0.786355 0.103571
0.130811 0.785926 0.104400
0.143273 0.784256 0.112866
0.178797 0.784569 0.124827
0.251922 0.784184 0.138318
0.367255 0.783150 0.151605
0.527204 0.783433 0.164473
0.716637 0.786684 0.178665
0.852095 0.791926 0.197612
0.132722 0.815294 0.133486
0.132724 0.815297 0.133487
0.155905 0.832421 0.133487
0.155907 0.832420 0.133481
0.229871 0.834031 0.118821
0.333103 0.831718 0.136254
0.467988 0.830769 0.150402
0.639279 0.831790 0.161008
0.856684 0.834897 0.166840
0.075885 0.088389 0.158114
0.099032 0.104237 0.382534
0.353218 0.110353 0.352462
0.642532 0.123720 0.317899
0.749078 0.140571 0.296296
0.799050 0.160621 0.311400
0.826972 0.172572 0.363303
0.850489 0.117614 0.462813
0.854402 0.255236 0.575253
0.079375 0.103750 0.161597
0.094191 0.110832 0.219157
0.296024 0.120140 0.255440
0.600213 0.135772 0.253475
0.738987 0.154438 0.253554
0.795383 0.174673 0.278147
0.826005 0.185479 0.330893
0.850536 0.119664 0.464850
0.854402 0.255235 0.575232
0.085839 0.163690 0.154233
0.094190 0.168740 0.159833
0.196794 0.194562 0.192796
0.454363 0.196971 0.193962
0.685618 0.219326 0.206310
0.776904 0.242596 0.224713
0.820721 0.254786 0.251356
0.850136 0.169627 0.463410
0.854402 0.255234 0.575228
0.093786 0.296494 0.157883
0.100422 0.301793 0.160986
0.142231 0.312474 0.170121
0.295753 0.320485 0.180715
0.552786 0.338211 0.193989
0.735592 0.358275 0.208875
0.808679 0.374204 0.221535
0.840537 0.374185 0.281760
0.854402 0.255237 0.575231
0.103962 0.457244 0.160919
0.109157 0.461060 0.163558
0.137911 0.470123 0.172371
0.233005 0.476657 0.182867
0.412713 0.481634 0.193303
0.645746 0.494012 0.207458
0.777985 0.508115 0.217431
0.834239 0.516321 0.245362
0.854615 0.521654 0.465547
0.115318 0.600627 0.166162
0.119322 0.602737 0.168723
0.142712 0.609972 0.177634
0.210425 0.615250 0.188656
0.337636 0.618265 0.199883
0.531079 0.621809 0.211183
0.721743 0.630054 0.221149
0.822362 0.639291 0.241174
0.853746 0.648863 0.308659
0.126118 0.707498 0.164451
0.129846 0.708207 0.166952
0.148433 0.711299 0.176408
0.201349 0.714258 0.188912
0.299306 0.715832 0.201704
0.449080 0.716969 0.214169
0.644203 0.719595 0.226498
0.796142 0.724710 0.244324
0.853127 0.732201 0.270834
0.136378 0.779826 0.158687
0.138840 0.779949 0.161193
0.155387 0.780533 0.174625
0.197770 0.781455 0.189578
0.276540 0.781573 0.204622
0.398941 0.781279 0.218393
0.561578 0.782407 0.231496
0.745123 0.786095 0.246008
0.853616 0.791852 0.260339
0.132725 0.815297 0.133493
0.155904 0.832420 0.133491
0.155905 0.832421 0.133489
0.155927 0.832423 0.133491
0.243140 0.833434 0.160493
0.347770 0.831367 0.188822
0.484960 0.830635 0.206181
0.660161 0.831790 0.218138
0.858326 0.834918 0.224875
0.077225 0.101434 0.294087
0.086860 0.122067 0.490360
0.304747 0.134410 0.526764
0.609550 0.146466 0.518717
0.742455 0.167289 0.517182
0.796357 0.188502 0.523656
0.825862 0.201554 0.546820
0.847087 0.172754 0.600836
0.854402 0.257855 0.608933
0.080128 0.118347 0.307002
0.090378 0.131923 0.415276
0.265652 0.146092 0.491872
0.575618 0.160381 0.490330
0.733839 0.182002 0.495324
0.793127 0.202892 0.509424
0.824965 0.215129 0.536672
0.846728 0.183909 0.596417
0.854402 0.257885 0.609295
0.089005 0.182217 0.293870
0.097956 0.188839 0.312080
0.191535 0.202630 0.368609
0.464691 0.217313 0.398898
0.690980 0.240944 0.421716
0.778146 0.266398 0.444857
0.820484 0.281633 0.488765
0.843747 0.273936 0.561200
0.854402 0.257991 0.610614
0.099076 0.302740 0.282448
0.107722 0.307952 0.288233
0.159456 0.319944 0.307212
0.349999 0.346826 0.347296
0.593657 0.350938 0.355994
0.747380 0.372108 0.379440
0.811284 0.389523 0.416877
0.840438 0.394394 0.499846
0.854402 0.258045 0.611011
0.112442 0.458384 0.285574
0.119142 0.461575 0.288664
0.156434 0.470165 0.299954
0.269650 0.477947 0.314426
0.467736 0.485614 0.329863
0.684061 0.500184 0.348857
0.790549 0.515122 0.371713
0.835603 0.524537 0.421524
0.854466 0.536020 0.585792
0.124987 0.598611 0.287819
0.131026 0.600583 0.290207
0.161636 0.607596 0.299429
0.241269 0.613041 0.311053
0.384764 0.617455 0.324291
0.584005 0.622809 0.338169
0.750674 0.632457 0.355583
0.827329 0.641811 0.381583
0.853836 0.655716 0.520512
0.137337 0.705717 0.289391
0.141901 0.706384 0.291441
0.167104 0.709127 0.299703
0.227979 0.712053 0.310812
0.334575 0.714138 0.323347
0.498003 0.716208 0.336475
0.685415 0.719725 0.350094
0.811386 0.725306 0.367483
0.853687 0.734096 0.438494
0.145209 0.776843 0.286952
0.148648 0.777116 0.288808
0.170543 0.778219 0.297854
0.217420 0.779306 0.308898
0.301902 0.779883 0.321557
0.430698 0.780309 0.334380
0.600160 0.782094 0.347172
0.770069 0.786196 0.360595
0.854740 0.792671 0.394684
0.141936 0.825054 0.308651
0.155900 0.833620 0.308651
0.155905 0.833622 0.308650
0.183003 0.836527 0.255668
0.265064 0.831948 0.310135
0.370146 0.830673 0.323894
0.511330 0.830406 0.336278
0.684425 0.831744 0.346507
0.858977 0.835164 0.358821
0.078774 0.122288 0.460187
0.083389 0.137586 0.552433
0.241277 0.162714 0.625662
0.574501 0.178072 0.626298
0.732795 0.197737 0.626635
0.792374 0.219179 0.632966
0.824323 0.232241 0.645878
0.845031 0.214479 0.670771
0.854402 0.265089 0.691190
0.080973 0.137983 0.471275
0.086947 0.151681 0.540430
0.219370 0.177542 0.612816
0.547971 0.193736 0.616858
0.723201 0.213182 0.618852
0.789363 0.233350 0.626998
0.823472 0.247385 0.641635
0.844735 0.227517 0.668448
0.854402 0.264862 0.689263
0.090711 0.207370 0.469055
0.098630 0.215220 0.496462
0.185125 0.235355 0.559345
0.457233 0.252767 0.580608
0.685806 0.272949 0.589557
0.776254 0.297946 0.602571
0.819489 0.313571 0.622879
0.842781 0.310499 0.654727
0.854402 0.264152 0.683132
0.104481 0.325223 0.450439
0.113373 0.329831 0.459126
0.172168 0.343263 0.492341
0.354898 0.357165 0.525154
0.606478 0.372747 0.543017
0.750756 0.394880 0.562299
0.811622 0.413279 0.587935
0.840051 0.419798 0.629587
0.855219 0.366685 0.683186
0.119241 0.465293 0.440138
0.127373 0.468264 0.443772
0.172149 0.477132 0.457808
0.293980 0.486486 0.479236
0.512127 0.506118 0.511298
0.701935 0.512123 0.522458
0.795708 0.527916 0.545798
0.836011 0.539312 0.588687
0.854265 0.552632 0.670061
0.134909 0.601686 0.439685
0.141604 0.603616 0.441569
0.179322 0.609659 0.449625
0.266123 0.615488 0.462372
0.420020 0.621094 0.478152
0.622673 0.627696 0.494529
0.765303 0.638125 0.515289
0.829810 0.648231 0.544381
0.853801 0.664404 0.642099
0.147548 0.705930 0.441390
0.153157 0.706608 0.442566
0.183867 0.709208 0.447808
0.250379 0.712204 0.456716
0.366107 0.714760 0.468279
0.536743 0.717531 0.481116
0.713683 0.721711 0.495194
0.818633 0.727513 0.515258
0.853926 0.738067 0.596851
0.153546 0.776212 0.445592
0.158358 0.776489 0.446068
0.183709 0.777539 0.449329
0.234653 0.778767 0.455094
0.323393 0.779667 0.463379
0.459897 0.780662 0.473211
0.635743 0.782989 0.483844
0.788977 0.787515 0.496189
0.855338 0.795000 0.544014
0.145268 0.827765 0.533211
0.147237 0.829017 0.533211
0.151854 0.831964 0.533208
0.201026 0.832747 0.466194
0.278412 0.831602 0.467511
0.387039 0.830701 0.472419
0.530954 0.830662 0.478512
0.703993 0.832165 0.485276
0.859324 0.836233 0.510036
0.080373 0.151302 0.602830
0.083375 0.163460 0.655794
0.199654 0.198311 0.704765
0.537149 0.213883 0.706628
0.721922 0.232488 0.707786
0.788333 0.253403 0.710390
0.822757 0.268785 0.715307
0.843821 0.256540 0.723596
0.854402 0.269374 0.725651
0.082308 0.166657 0.609382
0.085751 0.178305 0.653812
0.191531 0.212381 0.701490
0.516233 0.227878 0.704357
0.713669 0.248099 0.705970
0.785577 0.269203 0.708861
0.821974 0.284066 0.714261
0.843550 0.271586 0.723005
0.854402 0.269374 0.725651
0.092099 0.240666 0.616576
0.098288 0.248549 0.638514
0.179717 0.275166 0.685328
0.441114 0.291857 0.694196
0.680611 0.311199 0.698006
0.773953 0.329957 0.702437
0.818461 0.343795 0.709507
0.841997 0.343826 0.719760
0.854402 0.269378 0.725650
0.107896 0.351078 0.598312
0.116026 0.355698 0.608313
0.178862 0.373595 0.645243
0.361580 0.388965 0.671679
0.613670 0.404651 0.682449
0.751799 0.422091 0.689739
0.811559 0.439974 0.699586
0.839667 0.447223 0.713573
0.854996 0.408934 0.725754
0.125477 0.482080 0.581577
0.134161 0.484820 0.586113
0.185254 0.495355 0.605269
0.311063 0.506228 0.630248
0.525587 0.517105 0.650790
0.711474 0.529631 0.666174
0.798319 0.545340 0.682934
0.836228 0.556930 0.701929
0.854088 0.570944 0.726626
0.142387 0.609048 0.571997
0.150080 0.610632 0.574183
0.192228 0.616321 0.583396
0.284140 0.622697 0.598613
0.444218 0.629252 0.616653
0.651943 0.640289 0.636539
0.773493 0.647536 0.653444
0.831181 0.658113 0.682368
0.853793 0.674230 0.720349
0.156089 0.708620 0.569044
0.163463 0.709267 0.570045
0.196454 0.711797 0.574805
0.267193 0.714898 0.583591
0.390106 0.717840 0.595716
0.563086 0.721102 0.609125
0.732462 0.725761 0.623484
0.822590 0.731827 0.647104
0.854090 0.743107 0.707371
0.160547 0.777991 0.571338
0.165948 0.778258 0.571532
0.193054 0.779231 0.573296
0.247183 0.780426 0.577256
0.340438 0.781509 0.584021
0.482335 0.782881 0.592711
0.660390 0.785581 0.602426
0.800618 0.790377 0.614438
0.855633 0.798868 0.680996
0.146554 0.828769 0.573887
0.148273 0.829875 0.576089
0.152206 0.832394 0.584561
0.204689 0.833625 0.584564
0.285153 0.832403 0.583860
0.396560 0.831632 0.586404
0.541494 0.831766 0.590415
0.715492 0.833322 0.594832
0.859471 0.837990 0.646471
0.082619 0.194597 0.726691
0.084866 0.203059 0.749354
0.159537 0.233845 0.766107
0.512884 0.251345 0.767591
0.715572 0.271836 0.768577
0.786266 0.292126 0.769597
0.822032 0.305320 0.771393
0.843171 0.296975 0.773683
0.854402 0.276190 0.771748
0.084027 0.208544 0.729321
0.086722 0.216343 0.748550
0.160870 0.248196 0.765244
0.494887 0.265871 0.767075
0.708853 0.286386 0.768316
0.783977 0.306750 0.769394
0.821323 0.320216 0.771249
0.842931 0.311952 0.773663
0.854401 0.276115 0.771455
0.093245 0.280137 0.734332
0.098300 0.286019 0.744682
0.168158 0.310688 0.760309
0.436247 0.326637 0.764244
0.681265 0.343161 0.766220
0.774114 0.360846 0.768313
0.818254 0.374016 0.770478
0.841665 0.375505 0.773325
0.854397 0.275665 0.770124
0.110717 0.384479 0.724716
0.117987 0.388548 0.731674
0.179353 0.405699 0.748737
0.370081 0.420645 0.757390
0.625067 0.435954 0.761335
0.755066 0.452587 0.764668
0.812342 0.465569 0.768706
0.839714 0.471324 0.772527
0.854562 0.463997 0.775233
0.130697 0.504252 0.709056
0.138787 0.506901 0.713674
0.191845 0.517875 0.729424
0.324469 0.529218 0.743680
0.544860 0.540020 0.752021
0.722148 0.552001 0.757506
0.801531 0.563797 0.763441
0.836819 0.574416 0.770491
0.854056 0.588955 0.776188
0.149027 0.621279 0.694847
0.157420 0.622814 0.697502
0.201473 0.628899 0.708041
0.299396 0.636179 0.722939
0.468060 0.643149 0.736047
0.667472 0.650769 0.745365
0.780410 0.659297 0.753738
0.832570 0.668768 0.764945
0.853924 0.683934 0.775893
0.162398 0.713949 0.684751
0.170138 0.714613 0.686094
0.204663 0.717126 0.691810
0.278821 0.720320 0.701885
0.407072 0.723604 0.714412
0.583674 0.727184 0.726216
0.742838 0.731910 0.736067
0.825428 0.737807 0.751260
0.854368 0.748437 0.773883
0.163226 0.782617 0.679708
0.168827 0.782832 0.680138
0.197197 0.783567 0.682519
0.253538 0.784632 0.687359
0.350432 0.785743 0.694868
0.496941 0.787258 0.703831
0.672794 0.790176 0.713284
0.806872 0.795033 0.724570
0.855905 0.803629 0.767198
0.146385 0.829008 0.642870
0.149727 0.831133 0.642885
0.154416 0.833874 0.643304
0.198531 0.836310 0.682028
0.283656 0.834400 0.683231
0.396626 0.833573 0.686666
0.542510 0.833729 0.690537
0.716030 0.835303 0.693924
0.859615 0.840429 0.755099
0.085592 0.244633 0.804177
0.087980 0.247030 0.806085
0.177763 0.268764 0.807244
0.540184 0.286271 0.807511
0.726510 0.305612 0.807972
0.790482 0.324056 0.808657
0.823352 0.333854 0.809652
0.843926 0.323608 0.811838
0.854484 0.296843 0.804421
0.087111 0.257552 0.804058
0.089801 0.260131 0.805853
0.180545 0.282251 0.807234
0.528331 0.299732 0.807532
0.721610 0.319112 0.807996
0.788829 0.335858 0.808686
0.822848 0.346000 0.809705
0.843729 0.336430 0.811886
0.854511 0.300500 0.804421
0.097648 0.325960 0.803587
0.103039 0.328082 0.804832
0.194204 0.343250 0.806634
0.477774 0.357143 0.807229
0.699620 0.373219 0.807791
0.781091 0.389701 0.808558
0.820455 0.400925 0.809701
0.842719 0.397497 0.811833
0.854808 0.337197 0.804421
0.115821 0.420424 0.801279
0.122504 0.422665 0.802570
0.202415 0.435866 0.805183
0.412721 0.448128 0.806421
0.661798 0.462054 0.807267
0.766757 0.474613 0.808225
0.816101 0.484534 0.809601
0.841245 0.487042 0.811814
0.854716 0.483752 0.811893
0.136573 0.529943 0.796386
0.144965 0.531819 0.798018
0.209797 0.541110 0.802022
0.357469 0.550115 0.804579
0.588616 0.559914 0.806173
0.742271 0.570931 0.807494
0.808570 0.581130 0.809126
0.839087 0.587757 0.811604
0.854459 0.601628 0.813200
0.154835 0.637449 0.787917
0.164206 0.638821 0.789921
0.214552 0.644901 0.795858
0.319492 0.650929 0.800713
0.506777 0.656948 0.803801
0.695896 0.663868 0.805958
0.792571 0.671083 0.808034
0.835900 0.677614 0.810956
0.854532 0.691464 0.813829
0.166455 0.721897 0.775332
0.174053 0.722547 0.777069
0.212104 0.725294 0.783674
0.290248 0.728442 0.791833
0.427890 0.731426 0.798277
0.615587 0.734745 0.802448
0.759635 0.738928 0.805504
0.830130 0.743692 0.809383
0.855072 0.752905 0.813936
0.159950 0.791151 0.760203
0.165501 0.791198 0.761398
0.195252 0.791189 0.767121
0.253727 0.791724 0.774222
0.354736 0.792609 0.783079
0.507946 0.794158 0.791315
0.684687 0.796990 0.797576
0.810083 0.799781 0.801104
0.856412 0.808335 0.813101
0.144592 0.828406 0.724122
0.154159 0.834294 0.725354
0.155794 0.835236 0.733808
0.189671 0.838988 0.748915
0.270362 0.837922 0.754362
0.384145 0.836767 0.761391
0.530998 0.836788 0.768250
0.702408 0.838219 0.771074
0.859773 0.843085 0.810325
0.166675 0.272641 0.845175
0.212052 0.274853 0.845181
0.476861 0.283670 0.845203
0.707981 0.298876 0.845272
0.776211 0.316723 0.845391
0.811331 0.330146 0.845577
0.831844 0.332233 0.846035
0.847911 0.294561 0.846925
0.854402 0.307149 0.842358
0.168938 0.283411 0.845115
0.212866 0.285679 0.845122
0.470999 0.294689 0.845147
0.705006 0.310169 0.845222
0.775085 0.327126 0.845347
0.810967 0.340278 0.845542
0.831714 0.342349 0.846000
0.847834 0.304758 0.846894
0.854402 0.313475 0.845990
0.183331 0.336316 0.844775
0.221203 0.338252 0.844790
0.448685 0.345969 0.844844
0.690952 0.359565 0.844963
0.769682 0.375283 0.845126
0.809226 0.388646 0.845368
0.831051 0.391279 0.845829
0.847453 0.357462 0.846708
0.854402 0.313507 0.845990
0.203748 0.437686 0.844057
0.231270 0.439238 0.844110
0.408539 0.445360 0.844290
0.662308 0.456137 0.844590
0.758052 0.467464 0.844815
0.805311 0.476943 0.845107
0.829639 0.480281 0.845595
0.846860 0.466822 0.846394
0.855731 0.476980 0.847496
0.209912 0.544389 0.843552
0.229757 0.545364 0.843634
0.352644 0.549349 0.843909
0.601814 0.556444 0.844255
0.739062 0.565258 0.844663
0.797218 0.573638 0.844996
0.827370 0.577942 0.845476
0.846409 0.572112 0.846260
0.856278 0.578892 0.847839
0.204402 0.648392 0.843456
0.219170 0.648940 0.843570
0.302765 0.651318 0.843935
0.512201 0.655556 0.844372
0.699408 0.660782 0.844752
0.782810 0.666237 0.845103
0.823499 0.669806 0.845562
0.845735 0.668564 0.846278
0.856767 0.681812 0.847687
0.188663 0.729887 0.843776
0.198694 0.730113 0.843923
0.252492 0.731139 0.844359
0.391715 0.732795 0.844782
0.606850 0.735049 0.845118
0.751460 0.737945 0.845478
0.815404 0.740410 0.845964
0.844513 0.740469 0.846594
0.857540 0.749440 0.847810
0.157542 0.798441 0.841980
0.162868 0.798508 0.842926
0.192574 0.798580 0.844651
0.272209 0.798279 0.845291
0.422600 0.798226 0.845788
0.641933 0.799354 0.846204
0.782696 0.801781 0.846643
0.839903 0.803052 0.847212
0.858616 0.807798 0.848146
0.141489 0.827024 0.778963
0.155904 0.836007 0.794462
0.155905 0.836007 0.794462
0.164275 0.836981 0.794501
0.236021 0.844105 0.828758
0.358326 0.842287 0.846591
0.519545 0.841902 0.847674
0.708350 0.843216 0.848231
0.859963 0.845890 0.848597
