LUTs/negative-ultramax-400/Ultramax400_Modern_Punchy.cube
TITLE "Kodak Ultramax 400 Modern Punchy"
# Adobe RGB in/out. REPLACES AgX. Kodak Ultramax 400 Modern Punchy.
LUT_3D_SIZE 33
DOMAIN_MIN 0.0 0.0 0.0
DOMAIN_MAX 1.0 1.0 1.0
0.070208 0.083169 0.079619
0.084799 0.084809 0.079946
0.088981 0.085191 0.080178
0.117699 0.087174 0.080765
0.221952 0.090461 0.081612
0.287689 0.092512 0.082477
0.425072 0.096525 0.084078
0.571987 0.103302 0.085819
0.636306 0.107114 0.086601
0.702046 0.113212 0.088203
0.771110 0.123181 0.090560
0.804251 0.131544 0.092170
0.830871 0.138197 0.093992
0.855979 0.148472 0.096280
0.873606 0.163348 0.099578
0.885116 0.171446 0.101713
0.894650 0.178700 0.103699
0.901769 0.188147 0.106922
0.907004 0.202268 0.111767
0.911399 0.207850 0.114944
0.914724 0.213557 0.119033
0.917187 0.220356 0.124070
0.919446 0.224960 0.129522
0.921603 0.222360 0.134347
0.922673 0.220266 0.142778
0.923406 0.215440 0.157243
0.924938 0.192527 0.181832
0.924757 0.181352 0.271766
0.926898 0.138367 0.604914
0.924704 0.137091 0.598944
0.922518 0.135880 0.593074
0.920342 0.134686 0.587270
0.920397 0.359817 0.708061
0.071950 0.087402 0.079754
0.075404 0.086518 0.079816
0.085762 0.085469 0.079882
0.113723 0.087623 0.080719
0.199263 0.091154 0.081649
0.263709 0.093020 0.082489
0.395302 0.096879 0.084081
0.549013 0.103940 0.085821
0.617137 0.107787 0.086602
0.690318 0.113870 0.088198
0.764487 0.123847 0.090547
0.798899 0.132337 0.092147
0.826531 0.138912 0.093972
0.853632 0.149351 0.096262
0.871882 0.164213 0.099554
0.883720 0.172263 0.101691
0.893514 0.179477 0.103677
0.901104 0.189118 0.106886
0.906461 0.203244 0.111728
0.910948 0.208798 0.114891
0.914346 0.214486 0.118974
0.916868 0.221278 0.124001
0.919174 0.225882 0.129439
0.921369 0.223276 0.134240
0.922470 0.221172 0.142536
0.923229 0.216336 0.156851
0.924781 0.193381 0.180834
0.924619 0.181835 0.268134
0.926779 0.138302 0.604593
0.924595 0.137031 0.598652
0.922419 0.135825 0.592809
0.920250 0.134636 0.587028
0.920313 0.359594 0.707869
0.072315 0.088641 0.079849
0.073325 0.088431 0.080021
0.076945 0.087573 0.079921
0.091049 0.089178 0.080624
0.133822 0.093257 0.081558
0.195491 0.094881 0.082421
0.311192 0.099197 0.084093
0.470072 0.107494 0.085899
0.554468 0.110707 0.086652
0.648905 0.116604 0.088219
0.735196 0.127405 0.090524
0.779388 0.135469 0.092090
0.810656 0.142044 0.093919
0.842057 0.152730 0.096210
0.865561 0.167503 0.099484
0.878617 0.175348 0.101621
0.889374 0.182389 0.103608
0.898688 0.192745 0.106767
0.904494 0.206874 0.111596
0.909316 0.212314 0.114712
0.912981 0.217921 0.118772
0.915719 0.224680 0.123765
0.918197 0.229279 0.129150
0.920531 0.226646 0.133869
0.921745 0.224503 0.141699
0.922594 0.219633 0.155498
0.924219 0.196540 0.177448
0.924126 0.183671 0.255729
0.926356 0.138070 0.603445
0.924208 0.136817 0.597609
0.922064 0.135630 0.591860
0.919925 0.134460 0.586164
0.920013 0.358794 0.707183
0.074232 0.095879 0.080438
0.075086 0.095769 0.080615
0.077998 0.094986 0.080743
0.084156 0.093307 0.080766
0.102811 0.096638 0.081645
0.131343 0.097445 0.082435
0.208342 0.103776 0.084037
0.337338 0.112776 0.085900
0.440115 0.116023 0.086707
0.556619 0.121795 0.088303
0.673167 0.135358 0.090565
0.738220 0.143009 0.092097
0.780200 0.149789 0.093899
0.817318 0.159936 0.096170
0.852382 0.174361 0.099411
0.868785 0.181668 0.101536
0.881455 0.189077 0.103513
0.892405 0.200035 0.106594
0.900785 0.214101 0.111392
0.906260 0.219260 0.114425
0.910441 0.224666 0.118441
0.913591 0.231325 0.123369
0.916395 0.235888 0.128661
0.918989 0.233189 0.133239
0.920414 0.230961 0.140279
0.921432 0.226028 0.153222
0.923192 0.202743 0.171968
0.923226 0.188048 0.235609
0.925586 0.137651 0.601367
0.923504 0.136429 0.595718
0.921419 0.135276 0.590139
0.919332 0.134143 0.584594
0.919466 0.357336 0.705936
0.077786 0.118205 0.081313
0.078289 0.117925 0.081619
0.081483 0.116811 0.081970
0.087011 0.112772 0.082270
0.097087 0.108402 0.082567
0.108942 0.104328 0.082696
0.148962 0.111367 0.084104
0.234695 0.120899 0.085928
0.317737 0.123096 0.086790
0.435358 0.130349 0.088408
0.581067 0.145732 0.090704
0.668652 0.154112 0.092250
0.729935 0.160997 0.093987
0.779292 0.171828 0.096219
0.820748 0.187286 0.099428
0.851643 0.195056 0.101508
0.868595 0.202353 0.103451
0.882193 0.212614 0.106441
0.893571 0.226380 0.111180
0.901496 0.230917 0.114099
0.906533 0.235879 0.118043
0.910352 0.242280 0.122873
0.913674 0.246722 0.128033
0.916676 0.243873 0.132420
0.918429 0.241480 0.138429
0.919704 0.236450 0.150286
0.921667 0.213027 0.165306
0.921895 0.196718 0.212238
0.924460 0.137045 0.598338
0.922472 0.135861 0.592954
0.920472 0.134757 0.587619
0.918462 0.133734 0.582326
0.918661 0.355195 0.704105
0.080833 0.143650 0.082547
0.081341 0.142698 0.082720
0.083559 0.141228 0.082933
0.087424 0.135123 0.083380
0.094324 0.125652 0.083343
0.104044 0.119763 0.083679
0.125376 0.122443 0.084562
0.178331 0.134857 0.086250
0.236934 0.135701 0.086975
0.324640 0.142608 0.088536
0.465331 0.159956 0.090790
0.572065 0.168150 0.092442
0.658644 0.174527 0.094218
0.727950 0.184352 0.096391
0.783896 0.202580 0.099513
0.819037 0.211608 0.101548
0.848646 0.220471 0.103465
0.866664 0.232941 0.106424
0.881355 0.246273 0.111065
0.892935 0.249500 0.113851
0.900901 0.253532 0.117686
0.905776 0.259356 0.122379
0.909891 0.263474 0.127371
0.913500 0.260318 0.131536
0.915732 0.257599 0.136895
0.917374 0.252401 0.147101
0.919620 0.229065 0.158911
0.920117 0.211102 0.191703
0.922983 0.136268 0.594392
0.921117 0.135120 0.589339
0.919226 0.134077 0.584319
0.919534 0.344261 0.579348
0.917599 0.352386 0.701693
0.085571 0.201400 0.084508
0.086013 0.202001 0.084732
0.087595 0.198686 0.085190
0.091382 0.186707 0.085409
0.097968 0.172363 0.085506
0.105927 0.159268 0.085558
0.120386 0.149628 0.085816
0.150902 0.156131 0.086821
0.189946 0.154400 0.087574
0.255690 0.160887 0.088923
0.362801 0.178002 0.091047
0.469835 0.185260 0.092823
0.564352 0.190874 0.094413
0.657904 0.202892 0.096548
0.734447 0.222672 0.099727
0.779508 0.232611 0.101761
0.815752 0.238673 0.103562
0.848037 0.249368 0.106437
0.867292 0.265160 0.111002
0.880594 0.271057 0.113724
0.891109 0.278234 0.117490
0.899350 0.285535 0.122037
0.904729 0.288840 0.126829
0.909261 0.285087 0.130763
0.912206 0.281783 0.135714
0.914371 0.276375 0.144159
0.916999 0.253756 0.153684
0.917864 0.234253 0.175489
0.921178 0.135375 0.589618
0.919455 0.134220 0.584933
0.917694 0.133247 0.580342
0.918118 0.340741 0.575698
0.916289 0.348945 0.698724
0.090402 0.279643 0.086430
0.091003 0.280187 0.086618
0.093655 0.280941 0.087327
0.097017 0.265494 0.087682
0.102240 0.246162 0.087820
0.110977 0.226473 0.088068
0.123735 0.209085 0.088196
0.144190 0.196011 0.088545
0.164168 0.178706 0.088390
0.211851 0.182135 0.089483
0.294948 0.202762 0.091449
0.379139 0.209812 0.093337
0.472115 0.214096 0.094836
0.571778 0.225573 0.096881
0.669775 0.245091 0.100011
0.731360 0.253050 0.101938
0.777276 0.260114 0.103736
0.813840 0.272643 0.106698
0.847184 0.288634 0.111144
0.866629 0.292215 0.113740
0.880010 0.297877 0.117370
0.890385 0.306638 0.121805
0.898785 0.314857 0.126475
0.903975 0.316542 0.130253
0.907539 0.319443 0.134894
0.910502 0.313497 0.142005
0.913658 0.292564 0.150469
0.915055 0.271875 0.165225
0.919080 0.134635 0.584219
0.917515 0.133198 0.579903
0.915901 0.132288 0.575715
0.916454 0.336530 0.571437
0.914747 0.344933 0.695242
0.093688 0.322056 0.087625
0.094138 0.322467 0.087809
0.095693 0.318949 0.088288
0.098436 0.306592 0.088709
0.102624 0.289485 0.088982
0.109286 0.270490 0.089141
0.120326 0.252263 0.089372
0.135788 0.236184 0.089555
0.155852 0.223792 0.089879
0.187625 0.215504 0.090301
0.251534 0.233798 0.092339
0.316059 0.238871 0.094047
0.392148 0.241427 0.095431
0.491926 0.251433 0.097317
0.595106 0.270716 0.100475
0.670614 0.277593 0.102303
0.729934 0.284275 0.104017
0.777840 0.296198 0.107037
0.816424 0.312870 0.111389
0.846846 0.318855 0.113995
0.865101 0.327417 0.117579
0.878801 0.334205 0.121820
0.889728 0.341072 0.126297
0.898611 0.341195 0.129863
0.903072 0.343141 0.134248
0.906392 0.345211 0.140523
0.909786 0.337148 0.148922
0.911536 0.330508 0.161401
0.916841 0.145530 0.580071
0.915336 0.132434 0.574466
0.913877 0.131286 0.570570
0.914571 0.331812 0.566654
0.912997 0.340427 0.691304
0.098100 0.389923 0.089419
0.098305 0.387830 0.089498
0.099150 0.379311 0.089736
0.101384 0.368239 0.090142
0.104737 0.351488 0.090460
0.111416 0.331886 0.090679
0.120715 0.311561 0.090882
0.134307 0.292662 0.091074
0.151914 0.276896 0.091302
0.177727 0.264483 0.091678
0.225826 0.274217 0.093810
0.275245 0.271793 0.094953
0.334151 0.272036 0.096118
0.417585 0.280549 0.097920
0.526817 0.300120 0.101080
0.602750 0.306019 0.102782
0.673480 0.311652 0.104435
0.735220 0.322865 0.107557
0.782646 0.341797 0.111854
0.816764 0.347880 0.114464
0.847633 0.353576 0.117811
0.865581 0.364298 0.121993
0.878284 0.375681 0.126395
0.889259 0.376723 0.129772
0.897350 0.376463 0.133859
0.901922 0.376910 0.139323
0.906020 0.367723 0.146829
0.908283 0.359639 0.157503
0.910514 0.342254 0.173704
0.911656 0.324569 0.223009
0.912809 0.289062 0.523406
0.912500 0.326920 0.564257
0.911066 0.335516 0.686977
0.103579 0.474308 0.091736
0.103701 0.471808 0.091807
0.104344 0.464462 0.092109
0.106581 0.456769 0.092798
0.111043 0.442684 0.093369
0.117256 0.424513 0.093848
0.125994 0.405147 0.094267
0.139924 0.383599 0.094622
0.156219 0.362471 0.094952
0.181778 0.344214 0.095398
0.213529 0.329703 0.095962
0.251335 0.316502 0.096424
0.294760 0.306523 0.096974
0.362711 0.313893 0.098799
0.458520 0.334111 0.101827
0.540242 0.338500 0.103423
0.612799 0.342800 0.105023
0.683004 0.354021 0.108215
0.747088 0.373813 0.112466
0.785285 0.378078 0.115061
0.819011 0.385714 0.118347
0.848284 0.397615 0.122416
0.866437 0.404939 0.126579
0.879390 0.406969 0.129820
0.888680 0.411662 0.133763
0.895668 0.417643 0.138736
0.901588 0.408350 0.145471
0.904573 0.399597 0.154615
0.907287 0.381492 0.166944
0.908831 0.359364 0.196283
0.910330 0.298977 0.454828
0.910277 0.322425 0.567355
0.908988 0.319700 0.567170
0.106830 0.514459 0.093800
0.106961 0.512790 0.093859
0.107758 0.507660 0.094103
0.110290 0.501895 0.094679
0.113918 0.491937 0.095223
0.119443 0.479977 0.095778
0.127775 0.463670 0.096309
0.139772 0.443808 0.096665
0.154283 0.424489 0.097012
0.176116 0.406759 0.097371
0.203428 0.390382 0.097803
0.238317 0.375900 0.098505
0.272757 0.355558 0.098587
0.322355 0.352270 0.099837
0.404497 0.372670 0.102709
0.480983 0.375037 0.104149
0.555050 0.378377 0.106074
0.631597 0.389057 0.109168
0.699253 0.406474 0.113146
0.753089 0.409572 0.115828
0.788992 0.417009 0.119108
0.822860 0.425464 0.122958
0.851596 0.435532 0.127041
0.867644 0.439743 0.130186
0.879561 0.441825 0.133885
0.888341 0.445828 0.138518
0.896265 0.443580 0.144761
0.900354 0.442968 0.152963
0.903570 0.432610 0.163297
0.905680 0.410774 0.182057
0.907597 0.332768 0.338710
0.907940 0.317066 0.561452
0.906794 0.314930 0.564479
0.110418 0.547036 0.095257
0.110559 0.545597 0.095310
0.111216 0.541038 0.095523
0.113136 0.535219 0.096004
0.116437 0.527487 0.096600
0.121229 0.517252 0.097185
0.128335 0.504349 0.097677
0.139057 0.490178 0.098207
0.152064 0.475637 0.098675
0.170392 0.457169 0.099120
0.194483 0.440297 0.099609
0.223745 0.425320 0.100130
0.259331 0.413212 0.100822
0.301310 0.405406 0.101696
0.363640 0.412323 0.103724
0.429738 0.413164 0.105186
0.504735 0.414665 0.107275
0.577412 0.423152 0.110286
0.656726 0.438763 0.114398
0.708913 0.440920 0.116871
0.759295 0.446911 0.119892
0.795441 0.456275 0.123719
0.827766 0.467507 0.127742
0.854829 0.469275 0.130627
0.869173 0.475018 0.134244
0.879467 0.481141 0.138912
0.889312 0.477514 0.144503
0.895385 0.475316 0.151833
0.899916 0.469985 0.161019
0.902295 0.462681 0.175854
0.904074 0.454829 0.209428
0.905529 0.311720 0.555418
0.904521 0.310196 0.562835
0.114992 0.588680 0.097116
0.115118 0.587418 0.097165
0.115681 0.583329 0.097357
0.117222 0.577664 0.097774
0.120424 0.571981 0.098600
0.124352 0.562083 0.099309
0.131609 0.550325 0.099953
0.141379 0.537413 0.100583
0.153038 0.523499 0.101136
0.169603 0.509086 0.101584
0.191524 0.495334 0.102019
0.218338 0.482783 0.102551
0.250150 0.470412 0.103074
0.287191 0.458462 0.103753
0.341552 0.463477 0.106095
0.391248 0.452105 0.106941
0.455629 0.450425 0.108690
0.532458 0.457482 0.111452
0.607602 0.472598 0.115730
0.668845 0.474483 0.118193
0.721340 0.478564 0.121050
0.768042 0.485713 0.124664
0.803303 0.493249 0.128499
0.834596 0.496180 0.131324
0.857193 0.501153 0.134798
0.870655 0.505270 0.139342
0.881730 0.505515 0.144697
0.888765 0.507479 0.151472
0.895117 0.501933 0.159457
0.899026 0.494388 0.171202
0.901205 0.485349 0.193712
0.902372 0.478768 0.317749
0.902743 0.481119 0.560590
0.120739 0.630108 0.099962
0.120858 0.629343 0.100022
0.121370 0.626819 0.100250
0.122683 0.623112 0.100733
0.126097 0.619989 0.101614
0.130629 0.613259 0.102284
0.137699 0.606213 0.103041
0.146520 0.594984 0.103665
0.157281 0.581612 0.104274
0.174526 0.567618 0.104872
0.195546 0.553731 0.105630
0.220826 0.540338 0.106351
0.251022 0.528019 0.107225
0.285257 0.517163 0.108104
0.325012 0.507931 0.109192
0.369014 0.497116 0.109801
0.419344 0.487981 0.110549
0.489377 0.490379 0.112873
0.564437 0.501204 0.117289
0.626919 0.501791 0.119547
0.683591 0.505183 0.122344
0.737234 0.511895 0.125853
0.778331 0.518775 0.129486
0.811288 0.522328 0.132200
0.840918 0.526150 0.135454
0.860082 0.532449 0.140242
0.873635 0.533049 0.145260
0.882427 0.533044 0.151457
0.889506 0.532525 0.158760
0.894270 0.531215 0.168637
0.898043 0.521124 0.184928
0.899694 0.507846 0.242398
0.900393 0.484993 0.545803
0.124055 0.653044 0.101519
0.124162 0.652377 0.101573
0.124607 0.650146 0.101779
0.126063 0.646727 0.102206
0.129442 0.643367 0.102964
0.133883 0.638199 0.103720
0.140657 0.632587 0.104639
0.147967 0.624279 0.105401
0.157676 0.615662 0.106394
0.173588 0.606681 0.107423
0.192389 0.594241 0.108185
0.214948 0.580889 0.108986
0.242615 0.568449 0.109822
0.274089 0.556824 0.110691
0.309291 0.546709 0.111603
0.351815 0.538017 0.112686
0.396692 0.527424 0.113252
0.454385 0.523405 0.115131
0.528470 0.530379 0.119054
0.585692 0.530410 0.121190
0.649591 0.532700 0.123731
0.701762 0.538806 0.127148
0.754078 0.545313 0.130658
0.788209 0.548087 0.133196
0.820022 0.552507 0.136327
0.847129 0.558875 0.141386
0.865050 0.559577 0.146047
0.875204 0.562534 0.152019
0.883743 0.561881 0.158635
0.889563 0.558493 0.167019
0.893764 0.555436 0.180459
0.896224 0.553699 0.212212
0.897794 0.515187 0.479053
0.128051 0.674451 0.102904
0.128185 0.673880 0.102954
0.128732 0.671947 0.103140
0.130033 0.668888 0.103520
0.132804 0.665573 0.104180
0.137242 0.661841 0.105148
0.142399 0.655807 0.106317
0.149372 0.649035 0.107486
0.158448 0.641447 0.108573
0.172718 0.633045 0.109577
0.189894 0.624220 0.110526
0.210391 0.615233 0.111363
0.235908 0.606506 0.112157
0.264182 0.595895 0.113037
0.296708 0.585051 0.114020
0.334313 0.575549 0.115196
0.378795 0.567443 0.116566
0.430921 0.562379 0.118375
0.497888 0.564219 0.121578
0.550713 0.559131 0.122845
0.609914 0.561016 0.125327
0.669889 0.566318 0.128575
0.721549 0.572547 0.131986
0.765486 0.574787 0.134357
0.798610 0.579447 0.137376
0.828954 0.585008 0.142730
0.854711 0.587322 0.147211
0.867797 0.589494 0.152735
0.877780 0.590442 0.158914
0.884439 0.590903 0.166457
0.889535 0.586733 0.177455
0.892579 0.581517 0.199413
0.894283 0.581378 0.336432
0.133062 0.698602 0.104650
0.133187 0.698105 0.104704
0.133691 0.696406 0.104906
0.134846 0.693650 0.105391
0.137208 0.690463 0.106345
0.141763 0.687902 0.107832
0.145876 0.681888 0.108839
0.152757 0.676548 0.110214
0.161465 0.669632 0.111343
0.174552 0.661916 0.112344
0.190550 0.653826 0.113377
0.209791 0.645365 0.114500
0.233708 0.637001 0.115671
0.259815 0.628691 0.116643
0.290145 0.621043 0.117826
0.324159 0.613962 0.118963
0.365225 0.607646 0.120164
0.411847 0.601662 0.121570
0.473035 0.602528 0.124697
0.525975 0.594069 0.125438
0.575715 0.589839 0.126946
0.638439 0.594673 0.130111
0.691081 0.600346 0.133425
0.739917 0.602111 0.135656
0.777587 0.605853 0.139052
0.809879 0.609506 0.144377
0.840287 0.611277 0.148591
0.859354 0.613041 0.153786
0.871279 0.615195 0.159673
0.879532 0.614181 0.166370
0.885306 0.613719 0.175985
0.888804 0.613864 0.192684
0.891028 0.609724 0.262529
0.138846 0.725390 0.107843
0.138969 0.724962 0.107913
0.139451 0.723492 0.108176
0.140521 0.721061 0.108698
0.142620 0.718117 0.109576
0.146606 0.715558 0.110957
0.150846 0.710834 0.112116
0.157099 0.705873 0.113490
0.166410 0.699561 0.114981
0.179394 0.692962 0.116516
0.194644 0.685546 0.117836
0.213262 0.677802 0.119197
0.235265 0.669779 0.120360
0.260337 0.661925 0.121501
0.288737 0.654186 0.122572
0.321546 0.647060 0.123848
0.359600 0.640498 0.125054
0.402910 0.634498 0.126262
0.452296 0.629561 0.127730
0.503449 0.623222 0.128342
0.551831 0.618987 0.129569
0.604792 0.617618 0.131721
0.663787 0.621173 0.134914
0.710601 0.622160 0.137046
0.757251 0.624783 0.141031
0.790658 0.628368 0.146225
0.823334 0.629914 0.150147
0.849330 0.632386 0.155156
0.864820 0.633810 0.160510
0.874294 0.634522 0.166831
0.881096 0.634873 0.175438
0.885318 0.633267 0.188740
0.887839 0.634120 0.230343
0.142409 0.744767 0.109238
0.142520 0.744382 0.109305
0.142954 0.743050 0.109556
0.143897 0.740806 0.110049
0.145705 0.737976 0.110868
0.149043 0.735219 0.112135
0.153423 0.731600 0.113488
0.158718 0.726398 0.115002
0.168198 0.721137 0.116735
0.180066 0.715052 0.118361
0.193295 0.707965 0.119688
0.210033 0.700720 0.121062
0.230656 0.693256 0.122372
0.254104 0.685759 0.123592
0.280721 0.678468 0.124793
0.310669 0.671402 0.125923
0.345556 0.664955 0.127192
0.385692 0.659125 0.128462
0.430477 0.653646 0.129693
0.481788 0.649150 0.131151
0.532062 0.644278 0.132264
0.581297 0.642402 0.134331
0.636181 0.641442 0.136591
0.684073 0.641758 0.138923
0.731843 0.643994 0.143179
0.771752 0.647091 0.148172
0.805631 0.648599 0.151876
0.834413 0.651142 0.156690
0.857141 0.652821 0.161676
0.868813 0.654158 0.167589
0.876956 0.654382 0.175244
0.881789 0.655047 0.186742
0.884822 0.654885 0.214248
0.146051 0.764225 0.110719
0.146154 0.763883 0.110784
0.146552 0.762693 0.111026
0.147405 0.760663 0.111498
0.148998 0.758025 0.112272
0.151863 0.755267 0.113455
0.156431 0.752605 0.115400
0.161412 0.747450 0.116775
0.171298 0.743121 0.118772
0.180753 0.736803 0.120154
0.193847 0.730692 0.121756
0.209989 0.724112 0.123270
0.228757 0.716964 0.124632
0.250388 0.709731 0.125863
0.275273 0.702714 0.127158
0.303359 0.695894 0.128391
0.335059 0.689349 0.129567
0.372090 0.683352 0.130827
0.414378 0.678041 0.132150
0.460855 0.673161 0.133414
0.514340 0.669144 0.134857
0.560840 0.666433 0.136835
0.612237 0.665174 0.139779
0.661307 0.662224 0.141632
0.706094 0.663015 0.145380
0.753834 0.665746 0.150278
0.787973 0.667103 0.153753
0.818985 0.669185 0.158286
0.847583 0.671314 0.163068
0.863039 0.672373 0.168474
0.872651 0.673775 0.175599
0.878446 0.673962 0.185516
0.881928 0.675033 0.206392
0.149905 0.783886 0.112497
0.150004 0.783589 0.112561
0.150383 0.782553 0.112797
0.151178 0.780767 0.113255
0.152628 0.778398 0.114121
0.155162 0.775805 0.115533
0.160151 0.773606 0.117600
0.165566 0.769142 0.119060
0.173770 0.764668 0.120872
0.183599 0.759475 0.122567
0.196163 0.753928 0.124287
0.210074 0.747535 0.125754
0.228173 0.741049 0.127269
0.249072 0.734304 0.128677
0.272461 0.727477 0.129948
0.298805 0.720906 0.131321
0.328498 0.714504 0.132567
0.363367 0.708483 0.133832
0.402526 0.702892 0.135108
0.446991 0.698030 0.136474
0.495620 0.693591 0.137826
0.542745 0.689893 0.140089
0.590966 0.687920 0.143483
0.640893 0.684850 0.145172
0.684063 0.682945 0.148058
0.729674 0.683930 0.152390
0.770818 0.685322 0.155711
0.803151 0.687143 0.160065
0.834280 0.689239 0.164694
0.856441 0.690513 0.169669
0.868337 0.691952 0.176172
0.875148 0.692746 0.185022
0.879154 0.694569 0.201861
0.153583 0.799610 0.114111
0.153677 0.799474 0.114191
0.154035 0.798995 0.114484
0.154775 0.798161 0.115049
0.156098 0.797033 0.115961
0.158677 0.795746 0.117327
0.163765 0.793734 0.119303
0.169811 0.790304 0.121115
0.176766 0.785848 0.122795
0.187043 0.781575 0.124849
0.197367 0.775918 0.126372
0.211645 0.770308 0.128091
0.229291 0.764407 0.129823
0.248040 0.757898 0.131234
0.269957 0.751376 0.132582
0.294835 0.744982 0.133960
0.322966 0.738804 0.135361
0.356132 0.732872 0.136695
0.393072 0.727299 0.138152
0.434509 0.722136 0.140248
0.480712 0.717677 0.142444
0.528343 0.713692 0.144674
0.571854 0.710332 0.146972
0.618930 0.707056 0.148562
0.665990 0.704747 0.151349
0.708220 0.703619 0.155047
0.754274 0.703331 0.157614
0.787208 0.704892 0.161812
0.820560 0.706863 0.166410
0.848405 0.708364 0.171089
0.863768 0.709699 0.176882
0.871856 0.711113 0.185056
0.876605 0.712392 0.198981
0.156473 0.809229 0.114519
0.156559 0.809104 0.114597
0.156883 0.808664 0.114886
0.157684 0.807889 0.115440
0.159102 0.806819 0.116330
0.161630 0.805549 0.117655
0.166283 0.804252 0.119560
0.172745 0.802795 0.121753
0.178612 0.800484 0.123323
0.188100 0.798347 0.125482
0.197764 0.795618 0.127155
0.211780 0.790583 0.129066
0.226538 0.784681 0.130654
0.245158 0.778787 0.132343
0.266633 0.772688 0.133918
0.289507 0.766453 0.135275
0.315434 0.760417 0.136716
0.346320 0.754601 0.138304
0.381180 0.749113 0.140497
0.419952 0.743993 0.142617
0.463388 0.739336 0.144802
0.511305 0.735250 0.146981
0.553389 0.731760 0.149303
0.599011 0.728828 0.151680
0.648822 0.726033 0.154421
0.689760 0.724412 0.158054
0.734278 0.723073 0.160107
0.771495 0.722419 0.163520
0.806099 0.724212 0.167937
0.836987 0.725798 0.172661
0.858641 0.727251 0.177839
0.868653 0.728408 0.184992
0.874173 0.730242 0.197229
0.159615 0.817516 0.115132
0.159712 0.817408 0.115209
0.160078 0.817025 0.115494
0.160849 0.816348 0.116039
0.162346 0.815401 0.116910
0.164840 0.814252 0.118200
0.168963 0.813025 0.120043
0.175898 0.811919 0.122638
0.181005 0.809774 0.124132
0.189030 0.807677 0.126149
0.199322 0.805423 0.128260
0.211019 0.802740 0.130020
0.226224 0.800000 0.131894
0.243884 0.797117 0.133726
0.262820 0.792827 0.135282
0.285165 0.787009 0.136853
0.310371 0.781216 0.138763
0.339579 0.775524 0.141141
0.372325 0.770104 0.143373
0.408809 0.765029 0.145640
0.449231 0.760350 0.147832
0.494189 0.756146 0.150053
0.537611 0.752396 0.152273
0.580189 0.749322 0.154702
0.627912 0.746737 0.157175
0.672457 0.744563 0.160778
0.715450 0.743370 0.162698
0.757631 0.741723 0.165916
0.791462 0.741359 0.169433
0.824747 0.742777 0.173753
0.853122 0.744399 0.178878
0.865461 0.745597 0.185188
0.871858 0.747272 0.195984
0.162866 0.825179 0.115522
0.162972 0.825086 0.115600
0.163371 0.824756 0.115884
0.164174 0.824169 0.116427
0.165561 0.823338 0.117292
0.167837 0.822311 0.118569
0.171542 0.821175 0.120386
0.177673 0.820075 0.122935
0.183554 0.818398 0.124919
0.190480 0.816415 0.126838
0.201442 0.814553 0.129414
0.211551 0.812011 0.131068
0.227134 0.809567 0.133252
0.242089 0.806801 0.134942
0.261415 0.804042 0.136825
0.282555 0.801181 0.138934
0.305660 0.798304 0.141460
0.332834 0.795444 0.143971
0.364158 0.790132 0.146389
0.398876 0.785120 0.148764
0.437221 0.780451 0.151110
0.479763 0.776206 0.153431
0.524510 0.772375 0.155717
0.564029 0.768990 0.158008
0.608578 0.766282 0.160549
0.656341 0.764013 0.163116
0.697617 0.763056 0.165028
0.741174 0.761059 0.168271
0.778333 0.760313 0.171454
0.812027 0.759661 0.174915
0.844851 0.760988 0.179628
0.861941 0.762356 0.185436
0.869829 0.763968 0.195172
0.166015 0.835046 0.113434
0.166104 0.834956 0.113496
0.166439 0.834637 0.113779
0.167114 0.834061 0.114332
0.168285 0.833230 0.115219
0.170219 0.832165 0.116536
0.173399 0.830919 0.118429
0.178736 0.829588 0.121117
0.185337 0.828028 0.123833
0.191207 0.826026 0.125723
0.200433 0.824018 0.128258
0.211409 0.821755 0.130509
0.224436 0.819285 0.132595
0.240128 0.816712 0.134694
0.257982 0.814012 0.136677
0.277429 0.811276 0.138882
0.300502 0.808535 0.141778
0.325979 0.805791 0.144448
0.354964 0.803091 0.146965
0.387596 0.800514 0.149443
0.423899 0.798102 0.151876
0.464237 0.795879 0.154280
0.509184 0.792465 0.156658
0.548678 0.789094 0.159021
