LUTs/negative-ultramax-400/Ultramax400_Modern_ExtraPunchy.cube
TITLE "Kodak Ultramax 400 Modern ExtraPunchy"
# Adobe RGB in/out. REPLACES AgX. Kodak Ultramax 400 Modern ExtraPunchy.
LUT_3D_SIZE 5
DOMAIN_MIN 0.0 0.0 0.0
DOMAIN_MAX 1.0 1.0 1.0
0.069662 0.073299 0.081842
0.610131 0.095495 0.080294
0.847472 0.170150 0.090917
0.876784 0.214115 0.125345
0.874305 0.363681 0.685473
0.073725 0.325889 0.080617
0.122877 0.218104 0.081420
0.687111 0.287328 0.091212
0.855462 0.347104 0.117394
0.866250 0.344406 0.668598
0.093958 0.678963 0.090183
0.125759 0.646856 0.094313
0.376195 0.572064 0.099928
0.753366 0.582434 0.121113
0.847185 0.584099 0.334817
0.126960 0.813959 0.099064
0.147859 0.803034 0.107158
0.302123 0.772473 0.122320
0.604087 0.746960 0.136489
0.823043 0.747358 0.174141
0.128461 0.846150 0.086354
0.156344 0.860320 0.086062
0.234662 0.854697 0.102631
0.486123 0.837620 0.126574
0.811439 0.832921 0.136351
0.068408 0.093830 0.317928
0.619811 0.158728 0.617354
0.848761 0.215220 0.506472
0.871737 0.254572 0.532843
0.871296 0.356388 0.679677
0.079571 0.246722 0.223378
0.172438 0.180220 0.169088
0.742797 0.295319 0.276315
0.851800 0.357719 0.358842
0.863233 0.337404 0.662043
0.113897 0.644176 0.239864
0.162418 0.604419 0.221206
0.464651 0.542205 0.200362
0.779149 0.573003 0.242468
0.844419 0.588394 0.527310
0.143383 0.800620 0.208820
0.171980 0.789488 0.215839
0.347199 0.760557 0.224531
0.646915 0.739572 0.236559
0.821535 0.744869 0.286169
0.130461 0.849325 0.130117
0.157946 0.863051 0.128309
0.252979 0.852094 0.152695
0.502618 0.836210 0.197224
0.814188 0.832488 0.212106
0.072308 0.194603 0.706193
0.479058 0.321099 0.815998
0.861163 0.396341 0.810253
0.873783 0.371916 0.764602
0.869947 0.367140 0.757978
0.095094 0.410713 0.701276
0.316837 0.420822 0.736575
0.778983 0.421547 0.718694
0.852939 0.439640 0.717456
0.861391 0.345130 0.734661
0.130141 0.600216 0.566576
0.192038 0.571829 0.544071
0.507351 0.511990 0.510049
0.784430 0.578538 0.584421
0.841012 0.608373 0.688481
0.167420 0.779295 0.545722
0.207889 0.769749 0.536112
0.406166 0.744829 0.517302
0.689047 0.726922 0.512603
0.817570 0.744958 0.602032
0.143754 0.855770 0.582391
0.149685 0.856803 0.576126
0.290116 0.845409 0.503003
0.539675 0.833216 0.493892
0.813986 0.832900 0.511109
0.078522 0.399759 0.866809
0.316029 0.476935 0.886363
0.857603 0.540129 0.887632
0.883754 0.506124 0.856707
0.873436 0.392042 0.820107
0.108001 0.549970 0.870647
0.335101 0.585226 0.883524
0.816919 0.583314 0.866911
0.864229 0.549208 0.837472
0.864610 0.368575 0.804608
0.151535 0.641759 0.775476
0.239403 0.637657 0.778330
0.612203 0.625412 0.773279
0.802350 0.633311 0.772413
0.842433 0.642656 0.776540
0.175635 0.768637 0.718825
0.222696 0.762075 0.715212
0.437018 0.743172 0.708800
0.701123 0.723506 0.702003
0.815600 0.751973 0.743883
0.140520 0.849669 0.660626
0.148092 0.852197 0.656179
0.289165 0.843659 0.674619
0.545915 0.833586 0.668495
0.813164 0.836730 0.717607
0.331812 0.541089 0.926512
0.717097 0.554123 0.926534
0.887978 0.592023 0.926677
0.897930 0.562949 0.910720
0.878085 0.441768 0.877916
0.365916 0.616508 0.926206
0.697206 0.628476 0.926259
0.882422 0.652011 0.924507
0.883026 0.590644 0.898183
0.869541 0.428733 0.871438
0.320133 0.710941 0.891754
0.514779 0.704945 0.888211
0.794476 0.690764 0.874834
0.843898 0.670805 0.860249
0.848460 0.645319 0.848741
0.204295 0.778831 0.846559
0.286085 0.774000 0.843356
0.628015 0.762174 0.834779
0.789192 0.754465 0.824949
0.822138 0.757185 0.822524
0.130826 0.840447 0.764243
0.145751 0.848663 0.776554
0.226084 0.851160 0.801846
0.518961 0.841109 0.813566
0.813019 0.842652 0.811624
