LUTs/negative-ultramax-400/Ultramax400_Classic_Soft.cube
TITLE "Kodak Ultramax 400 Classic Soft"
# Adobe RGB in/out. REPLACES AgX. Kodak Ultramax 400 Classic Soft.
LUT_3D_SIZE 9
DOMAIN_MIN 0.0 0.0 0.0
DOMAIN_MAX 1.0 1.0 1.0
0.061578 0.068299 0.085817
0.099560 0.072212 0.087450
0.356315 0.079095 0.090490
0.582513 0.089253 0.094710
0.669582 0.101399 0.100338
0.717413 0.113410 0.107187
0.741456 0.120388 0.117585
0.760509 0.095683 0.448930
0.763826 0.231867 0.561246
0.063843 0.085168 0.087494
0.072354 0.086338 0.089218
0.169300 0.089221 0.092147
0.503650 0.098438 0.096011
0.649892 0.109678 0.101155
0.713367 0.124051 0.107601
0.740406 0.129408 0.117170
0.760509 0.095698 0.448952
0.763827 0.231879 0.561244
0.067547 0.130024 0.090990
0.071324 0.135747 0.092792
0.096262 0.136507 0.095404
0.272247 0.147946 0.099494
0.558212 0.166599 0.104370
0.683500 0.193121 0.109741
0.733600 0.210670 0.117874
0.760695 0.100815 0.451473
0.763827 0.231879 0.561244
0.072719 0.293704 0.095367
0.075267 0.303711 0.097074
0.090754 0.316989 0.100373
0.161920 0.314895 0.104397
0.409969 0.323215 0.108645
0.613191 0.343172 0.114375
0.715994 0.366036 0.121851
0.751700 0.365606 0.133956
0.763827 0.222205 0.469587
0.078590 0.465924 0.100385
0.080813 0.470051 0.101836
0.092826 0.482036 0.105770
0.136538 0.485497 0.109750
0.299510 0.483658 0.114638
0.522508 0.489621 0.120603
0.670762 0.501276 0.128184
0.743453 0.510624 0.138370
0.764083 0.506973 0.263299
0.086505 0.577174 0.105678
0.088142 0.578691 0.106703
0.098568 0.586270 0.110525
0.131782 0.590370 0.115876
0.249244 0.590440 0.121596
0.443737 0.590268 0.128023
0.612083 0.594739 0.135530
0.726138 0.602109 0.145354
0.763101 0.607641 0.173028
0.094880 0.658798 0.109174
0.096427 0.659358 0.110285
0.105273 0.662216 0.114801
0.134534 0.664616 0.121004
0.224657 0.665196 0.128220
0.400834 0.664876 0.135207
0.558632 0.665785 0.143410
0.693940 0.668934 0.153095
0.761942 0.673731 0.171529
0.103856 0.714657 0.107798
0.104656 0.714276 0.108506
0.112498 0.712878 0.114739
0.139226 0.713107 0.122575
0.210855 0.712775 0.130992
0.363462 0.711886 0.139914
0.509619 0.711929 0.148268
0.646982 0.714213 0.157810
0.761444 0.717951 0.172477
0.104891 0.729449 0.103750
0.104892 0.729451 0.103751
0.121768 0.748242 0.103769
0.122210 0.749367 0.110637
0.185106 0.755241 0.119499
0.327324 0.752397 0.130706
0.463451 0.751180 0.140061
0.596500 0.752399 0.146967
0.764225 0.756239 0.151146
0.062355 0.071852 0.105402
0.094001 0.077845 0.151562
0.400397 0.082467 0.117189
0.604596 0.092122 0.114444
0.677872 0.103662 0.112727
0.718497 0.115601 0.116261
0.741440 0.122433 0.128074
0.760509 0.095697 0.448955
0.763827 0.231878 0.561247
0.065816 0.085053 0.104502
0.083947 0.090250 0.111152
0.282352 0.092240 0.110259
0.565735 0.102073 0.112732
0.663904 0.112945 0.112999
0.715136 0.125950 0.116488
0.740465 0.131033 0.126776
0.760510 0.095721 0.448989
0.763827 0.231879 0.561245
0.069897 0.128055 0.105145
0.075502 0.131028 0.106693
0.113650 0.134409 0.109323
0.380388 0.152585 0.113266
0.599009 0.172042 0.115424
0.693264 0.197197 0.118602
0.734440 0.213641 0.126507
0.760748 0.102364 0.452341
0.763827 0.231879 0.561244
0.075169 0.286673 0.107126
0.078155 0.294573 0.108460
0.098235 0.307780 0.112091
0.191940 0.311195 0.116228
0.455149 0.324646 0.119599
0.631887 0.346293 0.123664
0.719462 0.367224 0.130160
0.751877 0.367013 0.143539
0.763827 0.231904 0.561241
0.080703 0.460675 0.108711
0.083241 0.464637 0.110258
0.097272 0.475772 0.114811
0.152991 0.480564 0.119766
0.343109 0.481465 0.125713
0.544847 0.489192 0.130169
0.681601 0.501431 0.136624
0.744480 0.510666 0.146908
0.764066 0.509225 0.312180
0.087881 0.574227 0.111512
0.089842 0.575804 0.112814
0.101298 0.583023 0.117775
0.140287 0.587365 0.124137
0.269659 0.588277 0.130480
0.462529 0.589130 0.137559
0.622249 0.594306 0.144856
0.729371 0.601860 0.154293
0.763144 0.608035 0.187116
0.096005 0.657765 0.114445
0.097716 0.658320 0.115711
0.107166 0.661075 0.120750
0.140191 0.663459 0.128150
0.236118 0.664208 0.135685
0.409577 0.664200 0.144094
0.569762 0.665387 0.152726
0.700897 0.668741 0.162236
0.762153 0.673747 0.183066
0.104297 0.713843 0.110676
0.105227 0.713529 0.111792
0.113928 0.712308 0.119175
0.142705 0.712537 0.128401
0.217715 0.712256 0.137839
0.371118 0.711500 0.147319
0.517015 0.711706 0.157058
0.652723 0.714083 0.166575
0.761930 0.717910 0.183164
0.106446 0.734912 0.134213
0.106448 0.734914 0.134214
0.123723 0.753212 0.134214
0.123724 0.753212 0.134210
0.188099 0.755189 0.124038
0.332157 0.752350 0.136294
0.466538 0.751186 0.146536
0.599128 0.752439 0.154437
0.765783 0.756253 0.158661
0.063455 0.078264 0.152150
0.083621 0.090194 0.380152
0.356010 0.094135 0.347285
0.600830 0.102534 0.310389
0.679954 0.113790 0.283799
0.719343 0.127830 0.302249
0.741248 0.136092 0.358498
0.760609 0.099067 0.462156
0.763827 0.231882 0.561265
0.067120 0.089944 0.154902
0.079880 0.094457 0.202354
0.280413 0.100451 0.238154
0.576680 0.109568 0.236257
0.670551 0.124113 0.236334
0.716950 0.138893 0.263260
0.740451 0.151660 0.324835
0.760648 0.100191 0.463879
0.763827 0.231880 0.561248
0.073114 0.129513 0.149070
0.079880 0.132262 0.153509
0.160406 0.160598 0.178891
0.454572 0.162983 0.179926
0.629888 0.185382 0.190871
0.704844 0.215890 0.207722
0.736094 0.231306 0.234212
0.760319 0.132742 0.462661
0.763827 0.231880 0.561244
0.079558 0.284055 0.151966
0.084671 0.290247 0.154420
0.113131 0.302797 0.160872
0.279982 0.312416 0.168151
0.538096 0.332257 0.179950
0.667388 0.359583 0.193141
0.726157 0.376045 0.204651
0.752421 0.376025 0.267330
0.763827 0.231883 0.561247
0.087005 0.457531 0.154367
0.090710 0.460599 0.156436
0.109824 0.469224 0.162382
0.192208 0.475439 0.170066
0.415566 0.480169 0.179341
0.602499 0.491924 0.191887
0.705554 0.505301 0.200704
0.747235 0.513076 0.228431
0.764002 0.518126 0.464468
0.094722 0.571124 0.158202
0.097695 0.572465 0.159932
0.113499 0.577944 0.165891
0.173975 0.582320 0.175214
0.339461 0.584817 0.185178
0.520262 0.587751 0.195182
0.656463 0.594569 0.204278
0.737447 0.602194 0.224394
0.763287 0.610081 0.298830
0.102219 0.655637 0.157042
0.104611 0.656166 0.158737
0.117933 0.658470 0.165076
0.164943 0.660675 0.175441
0.284173 0.661846 0.186792
0.449395 0.662693 0.197821
0.601701 0.664645 0.209449
0.717445 0.668445 0.227430
0.762779 0.674001 0.255055
0.108768 0.709068 0.152603
0.110516 0.709158 0.154583
0.123379 0.709585 0.163889
0.161376 0.710260 0.176032
0.251930 0.710346 0.189376
0.404430 0.710132 0.201616
0.545287 0.710956 0.214455
0.676268 0.713652 0.229054
0.763181 0.717856 0.243351
0.106448 0.734915 0.134218
0.123722 0.753212 0.134217
0.123723 0.753212 0.134216
0.123738 0.753215 0.134217
0.205727 0.754456 0.154031
0.350505 0.751919 0.175361
0.480847 0.751022 0.190756
0.610996 0.752439 0.201369
0.767239 0.756279 0.207879
0.064797 0.088190 0.281287
0.074004 0.101554 0.485223
0.289506 0.108783 0.518204
0.583477 0.118342 0.510290
0.673781 0.131475 0.508673
0.717585 0.154626 0.515368
0.740333 0.167536 0.536478
0.757811 0.136333 0.582033
0.763827 0.235237 0.588619
0.067885 0.099469 0.296769
0.076747 0.107342 0.413439
0.236662 0.118071 0.486459
0.556734 0.127698 0.485199
0.665755 0.148260 0.489277
0.715476 0.168869 0.500754
0.739594 0.181141 0.527238
0.757516 0.150123 0.578432
0.763827 0.235275 0.588913
0.075678 0.148470 0.281040
0.082875 0.154956 0.303099
0.155195 0.168609 0.364091
0.463749 0.183346 0.398058
0.633849 0.213825 0.420282
0.705660 0.246275 0.445582
0.735899 0.266318 0.483919
0.755063 0.256135 0.549551
0.763827 0.235411 0.589985
0.083654 0.291356 0.268106
0.089585 0.297472 0.274645
0.126179 0.311680 0.297030
0.352757 0.345189 0.341948
0.571376 0.351309 0.350936
0.678371 0.373878 0.376574
0.728308 0.391895 0.415053
0.752340 0.396938 0.492964
0.763827 0.235480 0.590307
0.092866 0.458416 0.271637
0.097558 0.461089 0.275133
0.124075 0.469264 0.288032
0.242229 0.476665 0.306032
0.466325 0.483950 0.323760
0.628736 0.497781 0.343560
0.713790 0.511941 0.367662
0.748359 0.520855 0.420073
0.763879 0.529278 0.569803
0.101544 0.569841 0.274176
0.105365 0.571096 0.276882
0.127814 0.575973 0.287383
0.203205 0.580490 0.301816
0.392415 0.584147 0.317951
0.563551 0.588579 0.332430
0.681440 0.596554 0.350512
0.741543 0.604272 0.379052
0.763361 0.615720 0.512180
0.109396 0.654309 0.275957
0.112878 0.654806 0.278282
0.131910 0.656852 0.287722
0.185633 0.659032 0.301515
0.334523 0.660585 0.316968
0.491792 0.662126 0.330661
0.629737 0.664742 0.344838
0.728393 0.668888 0.362826
0.763239 0.675405 0.438612
0.115408 0.706884 0.273195
0.118115 0.707084 0.275296
0.134715 0.707892 0.285575
0.180984 0.708688 0.299128
0.286717 0.709110 0.314992
0.431371 0.709422 0.328473
0.576637 0.710728 0.341820
0.699523 0.713726 0.355696
0.764105 0.718453 0.394094
0.112905 0.744185 0.298821
0.123720 0.754684 0.298821
0.123723 0.754687 0.298819
0.146809 0.758257 0.238375
0.235847 0.752632 0.300671
0.374620 0.751068 0.317538
0.502930 0.750741 0.330455
0.629005 0.752381 0.341133
0.767816 0.756581 0.353860
0.066553 0.101686 0.459934
0.070904 0.110990 0.541584
0.203217 0.128979 0.600378
0.555824 0.143476 0.600805
0.664782 0.163743 0.601032
0.714984 0.185233 0.605283
0.739065 0.202767 0.613913
0.756119 0.180486 0.630407
0.763827 0.244574 0.646163
0.068582 0.111362 0.469305
0.074072 0.122121 0.530661
0.182947 0.142757 0.591709
0.534150 0.159783 0.594442
0.657530 0.179180 0.595789
0.713014 0.204318 0.601276
0.738363 0.221909 0.611083
0.755876 0.196210 0.628875
0.763827 0.244279 0.644528
0.077007 0.173344 0.467431
0.083331 0.181233 0.490205
0.148887 0.206879 0.547866
0.457384 0.228732 0.565625
0.630027 0.254837 0.572835
0.704417 0.285749 0.583446
0.735078 0.304091 0.598504
0.754268 0.300469 0.619797
0.763827 0.243359 0.639325
0.087345 0.318039 0.451666
0.093468 0.323003 0.459035
0.136281 0.339914 0.486842
0.357708 0.358437 0.516735
0.581740 0.374538 0.533017
0.681517 0.397442 0.550548
0.728587 0.416510 0.571528
0.752021 0.423273 0.603015
0.764498 0.368271 0.639372
0.097633 0.464628 0.440412
0.103026 0.467456 0.444392
0.136263 0.475890 0.457918
0.277170 0.484779 0.476012
0.503594 0.503408 0.502482
0.641924 0.509099 0.514229
0.717162 0.523915 0.535549
0.748695 0.531450 0.572133
0.763714 0.540190 0.629939
0.107836 0.571797 0.439917
0.112651 0.573022 0.441980
0.143216 0.577685 0.450810
0.237316 0.582517 0.461783
0.421444 0.587160 0.475100
0.590401 0.592621 0.488629
0.695079 0.601233 0.506680
0.743587 0.609561 0.534259
0.763333 0.623022 0.611392
0.117197 0.654467 0.441783
0.121762 0.654973 0.443071
0.147654 0.656912 0.448817
0.215591 0.659145 0.456992
0.369728 0.661048 0.466776
0.524927 0.663110 0.477593
0.650557 0.666218 0.489171
0.734372 0.670525 0.506648
0.763435 0.678344 0.578786
0.122048 0.706422 0.446387
0.125355 0.706625 0.446909
0.147499 0.707394 0.450485
0.194383 0.708293 0.455617
0.316716 0.708951 0.462634
0.459689 0.709680 0.470937
0.597275 0.711382 0.479887
0.712762 0.714690 0.489982
0.764596 0.720152 0.533925
0.115454 0.747503 0.524084
0.116959 0.749038 0.524084
0.120807 0.752652 0.524082
0.164621 0.753612 0.465014
0.254590 0.752207 0.466127
0.395197 0.751102 0.470269
0.520160 0.751054 0.475403
0.643438 0.752898 0.481064
0.768124 0.757895 0.501250
0.068166 0.121846 0.583656
0.070887 0.129387 0.620505
0.163252 0.164313 0.657665
0.525261 0.179885 0.659241
0.656594 0.203111 0.660221
0.712340 0.229543 0.662424
0.737774 0.249385 0.666582
0.755124 0.233550 0.673585
0.763827 0.250154 0.675095
0.069690 0.131131 0.588984
0.073038 0.143791 0.619190
0.155191 0.178373 0.654891
0.507016 0.196708 0.657319
0.650546 0.222812 0.658684
0.710535 0.249931 0.661130
0.737128 0.269561 0.665698
0.754901 0.253049 0.673086
0.763827 0.250154 0.675095
0.078145 0.213477 0.594252
0.083113 0.223380 0.608997
0.143601 0.257755 0.641190
0.441586 0.278657 0.648712
0.626183 0.301294 0.651940
0.702903 0.323140 0.655694
0.734230 0.340700 0.661677
0.753623 0.340747 0.670345
0.763827 0.250160 0.675094
0.089722 0.351518 0.579977
0.095186 0.356922 0.588115
0.142769 0.375415 0.613490
0.364460 0.391318 0.631005
0.585658 0.407566 0.638746
0.682489 0.425652 0.644933
0.728535 0.444050 0.653279
0.751705 0.449722 0.665116
0.764315 0.412005 0.675170
0.101820 0.480593 0.566406
0.107361 0.483196 0.570062
0.149013 0.493199 0.585641
0.296710 0.503512 0.603459
0.515411 0.513819 0.617182
0.648935 0.525052 0.627375
0.718866 0.535414 0.639157
0.748874 0.542996 0.655264
0.763569 0.552094 0.675805
0.113250 0.577178 0.558593
0.119323 0.578492 0.560387
0.155880 0.583207 0.567872
0.262788 0.588487 0.580223
0.444629 0.593907 0.594304
0.605694 0.603018 0.607676
0.702600 0.608989 0.618946
0.744716 0.617736 0.638677
0.763325 0.631254 0.670842
0.123845 0.656474 0.556168
0.129183 0.656956 0.556991
0.160068 0.658841 0.560897
0.238803 0.661151 0.568029
0.397872 0.663340 0.577861
0.546518 0.665766 0.588775
0.664472 0.669225 0.598912
0.737636 0.673724 0.614729
0.763570 0.682070 0.659870
0.126997 0.707725 0.558052
0.131045 0.707920 0.558212
0.156698 0.708632 0.559660
0.211214 0.709507 0.562907
0.343096 0.710299 0.568376
0.478639 0.711303 0.575410
0.611167 0.713277 0.583327
0.720365 0.716779 0.592807
0.764852 0.722971 0.637512
0.116437 0.748734 0.560145
0.117799 0.750089 0.561950
0.121065 0.753179 0.568811
0.168263 0.754690 0.568813
0.264247 0.753191 0.568247
0.402578 0.752245 0.570296
0.528833 0.752408 0.573535
0.651883 0.754318 0.577140
0.768254 0.760056 0.614308
0.070004 0.160633 0.675853
0.072265 0.169036 0.692325
0.126239 0.205011 0.704432
0.504225 0.226924 0.705501
0.651942 0.253377 0.706305
0.710987 0.278970 0.707428
0.737176 0.294380 0.709409
0.754589 0.284616 0.711935
0.763826 0.259105 0.709800
0.071532 0.174520 0.677770
0.073896 0.182366 0.691742
0.127239 0.222934 0.703810
0.489181 0.245589 0.705130
0.647010 0.272312 0.706024
0.709487 0.296059 0.707205
0.736591 0.312050 0.709250
0.754392 0.302182 0.711913
0.763826 0.259007 0.709478
0.079127 0.264330 0.681419
0.083120 0.271888 0.688938
0.132699 0.300692 0.700249
0.436813 0.319561 0.703088
0.626667 0.339757 0.704514
0.703009 0.362238 0.706022
0.734059 0.375850 0.708400
0.753349 0.377390 0.711540
0.763822 0.258412 0.708010
0.091748 0.386674 0.674412
0.096679 0.390885 0.679484
0.143246 0.408651 0.691878
0.374541 0.424151 0.698140
0.591657 0.440044 0.700989
0.685534 0.453907 0.703394
0.729182 0.464891 0.706447
0.751744 0.470367 0.710660
0.763958 0.463395 0.713645
0.105155 0.501638 0.661295
0.110477 0.504150 0.665201
0.155502 0.514549 0.677845
0.318426 0.524778 0.688211
0.531597 0.531916 0.694256
0.656759 0.539778 0.698224
0.720960 0.547463 0.702509
0.749361 0.554336 0.708414
0.763542 0.563679 0.714700
0.118434 0.587313 0.649263
0.124729 0.588584 0.651513
0.165068 0.593615 0.660437
0.284261 0.599627 0.673030
0.466599 0.605375 0.682666
0.616436 0.611650 0.689434
0.707147 0.618731 0.695498
0.745861 0.626686 0.703594
0.763433 0.639201 0.714374
0.128385 0.660444 0.640700
0.134324 0.660939 0.641840
0.168237 0.662809 0.646689
0.255172 0.665184 0.655226
0.411014 0.667624 0.665825
0.563282 0.670281 0.675507
0.674138 0.673785 0.682681
0.739975 0.678151 0.693705
0.763799 0.686004 0.712156
0.129006 0.711110 0.636418
0.133199 0.711267 0.636783
0.160806 0.711805 0.638805
0.219950 0.712583 0.642913
0.353194 0.713395 0.649281
0.490902 0.714502 0.656874
0.620389 0.716633 0.664871
0.724665 0.720176 0.674306
0.765093 0.726437 0.705218
0.116308 0.749026 0.611907
0.119025 0.751632 0.611917
0.122685 0.754996 0.612197
0.162134 0.757990 0.638389
0.262091 0.755642 0.639410
0.402626 0.754626 0.642325
0.529668 0.754819 0.645609
0.652277 0.756752 0.648481
0.768382 0.763058 0.696483
0.072899 0.218445 0.736748
0.074878 0.221462 0.738128
0.141700 0.249357 0.738967
0.527756 0.272179 0.739160
0.659950 0.294723 0.739493
0.713747 0.316784 0.739988
0.738264 0.327343 0.740708
0.755210 0.316301 0.742287
0.763894 0.284463 0.736925
0.074200 0.234847 0.736662
0.076298 0.238163 0.737961
0.144408 0.267141 0.738960
0.517997 0.287835 0.739175
0.656365 0.310644 0.739510
0.712665 0.329584 0.740009
0.737849 0.343964 0.740746
0.755048 0.330234 0.742321
0.763916 0.288734 0.736925
0.082630 0.318832 0.736321
0.086400 0.321118 0.737222
0.157835 0.339895 0.738526
0.474798 0.358414 0.738956
0.640220 0.375026 0.739363
0.707593 0.392079 0.739917
0.735875 0.403704 0.740743
0.754217 0.400153 0.742283
0.764160 0.331105 0.736924
0.095045 0.423922 0.734650
0.100114 0.426248 0.735585
0.166007 0.439953 0.737476
0.415572 0.450429 0.738372
0.612215 0.461545 0.738983
0.696434 0.473495 0.739676
0.732284 0.482925 0.740671
0.753004 0.485306 0.742270
0.764085 0.482181 0.742327
0.108891 0.525259 0.731104
0.115222 0.526501 0.732287
0.173348 0.532634 0.735188
0.360305 0.538544 0.737039
0.567291 0.544939 0.738192
0.673610 0.552086 0.739148
0.726067 0.558660 0.740327
0.751228 0.562912 0.742118
0.763873 0.571760 0.743270
0.122992 0.600675 0.724955
0.129740 0.601807 0.726411
0.178105 0.606819 0.730721
0.310252 0.611782 0.734240
0.499129 0.616756 0.736476
0.637476 0.622572 0.738037
0.715112 0.628628 0.739538
0.748604 0.634027 0.741650
0.763933 0.645359 0.743725
0.131424 0.666356 0.713755
0.138102 0.666839 0.715673
0.175653 0.668878 0.721869
0.271633 0.671214 0.727799
0.428616 0.673426 0.732474
0.586670 0.675885 0.735496
0.689794 0.678981 0.737708
0.743851 0.682501 0.740513
0.764378 0.689299 0.743802
0.126550 0.717345 0.700172
0.130710 0.717379 0.701035
0.158875 0.717373 0.705163
0.220211 0.717762 0.712530
0.357544 0.718408 0.721436
0.500106 0.719539 0.727424
0.629199 0.721603 0.731967
0.727317 0.723636 0.734523
0.765543 0.729859 0.743199
0.114937 0.748289 0.673979
0.122497 0.755513 0.674878
0.123649 0.756670 0.681037
0.153356 0.761284 0.692007
0.243225 0.759972 0.695950
0.391658 0.758552 0.701029
0.520196 0.758577 0.705977
0.642272 0.760338 0.709057
0.768523 0.766331 0.741194
0.131589 0.254433 0.766513
0.175601 0.257343 0.766520
0.474028 0.269032 0.766545
0.646370 0.286836 0.766625
0.704388 0.307816 0.766762
0.728347 0.323343 0.766978
0.745263 0.325594 0.767506
0.758489 0.281802 0.768536
0.763827 0.296528 0.764246
0.133282 0.268687 0.766443
0.176416 0.271494 0.766451
0.469082 0.281951 0.766480
0.644183 0.300081 0.766567
0.703648 0.320089 0.766711
0.728046 0.335296 0.766937
0.745156 0.338499 0.767466
0.758425 0.293720 0.768500
0.763827 0.303979 0.767455
0.147129 0.330105 0.766050
0.183257 0.332303 0.766067
0.449007 0.343918 0.766130
0.633828 0.360916 0.766268
0.699163 0.377160 0.766456
0.726609 0.390987 0.766736
0.744609 0.393713 0.767269
0.758113 0.358744 0.768284
0.763827 0.304016 0.767455
0.167329 0.441843 0.765463
0.189929 0.443455 0.765501
0.412199 0.448267 0.765630
0.612595 0.456670 0.765845
0.688318 0.466695 0.766097
0.723421 0.475711 0.766434
0.743446 0.478883 0.766998
0.757624 0.466084 0.767922
0.764938 0.475746 0.769195
0.173462 0.534790 0.765101
0.187950 0.535430 0.765160
0.355430 0.538043 0.765357
0.577974 0.542679 0.765605
0.670620 0.548411 0.765921
0.718148 0.553834 0.766306
0.741576 0.556609 0.766860
0.757253 0.552849 0.767766
0.765424 0.557221 0.769593
0.167978 0.609693 0.765032
0.182746 0.610145 0.765114
0.287563 0.612102 0.765375
0.503656 0.615587 0.765689
0.640064 0.619979 0.766024
0.708721 0.624561 0.766429
0.738386 0.627557 0.766960
0.756699 0.626515 0.767787
0.765857 0.637465 0.769417
0.152363 0.672286 0.765262
0.162296 0.672453 0.765367
0.218503 0.673214 0.765679
0.399047 0.674441 0.766058
0.582040 0.676110 0.766447
0.682174 0.678253 0.766862
0.731708 0.680077 0.767424
0.755693 0.680120 0.768153
0.766543 0.686744 0.769559
0.124811 0.722660 0.763974
0.128738 0.722709 0.764653
0.156222 0.722761 0.765907
0.245816 0.722542 0.766647
0.423515 0.722504 0.767221
0.600517 0.723325 0.767702
0.708647 0.725092 0.768210
0.751899 0.726017 0.768867
0.767497 0.729469 0.769947
0.112563 0.746596 0.717765
0.123723 0.757618 0.729708
0.123723 0.757618 0.729708
0.129792 0.758814 0.729736
0.196195 0.767589 0.754482
0.361171 0.765348 0.768149
0.509773 0.764872 0.769401
0.646641 0.766492 0.770046
0.768690 0.769791 0.770469
