LUTs/negative-ultramax-400/Ultramax400_Modern_Punchy.cube
TITLE "Kodak Ultramax 400 Modern Punchy"
# Adobe RGB in/out. REPLACES AgX. Kodak Ultramax 400 Modern Punchy.
LUT_3D_SIZE 9
DOMAIN_MIN 0.0 0.0 0.0
DOMAIN_MAX 1.0 1.0 1.0
0.070208 0.083169 0.079619
0.221952 0.090461 0.081612
0.636306 0.107114 0.086601
0.830871 0.138197 0.093992
0.894650 0.178700 0.103699
0.914724 0.213557 0.119033
0.922673 0.220266 0.142778
0.926898 0.138367 0.604914
0.920397 0.359817 0.708061
0.077786 0.118205 0.081313
0.097087 0.108402 0.082567
0.317737 0.123096 0.086790
0.729935 0.160997 0.093987
0.868595 0.202353 0.103451
0.906533 0.235879 0.118043
0.918429 0.241480 0.138429
0.924460 0.137045 0.598338
0.918661 0.355195 0.704105
0.093688 0.322056 0.087625
0.102624 0.289485 0.088982
0.155852 0.223792 0.089879
0.392148 0.241427 0.095431
0.729934 0.284275 0.104017
0.865101 0.327417 0.117579
0.903072 0.343141 0.134248
0.916841 0.145530 0.580071
0.912997 0.340427 0.691304
0.110418 0.547036 0.095257
0.116437 0.527487 0.096600
0.152064 0.475637 0.098675
0.259331 0.413212 0.100822
0.504735 0.414665 0.107275
0.759295 0.446911 0.119892
0.869173 0.475018 0.134244
0.899916 0.469985 0.161019
0.904521 0.310196 0.562835
0.128051 0.674451 0.102904
0.132804 0.665573 0.104180
0.158448 0.641447 0.108573
0.235908 0.606506 0.112157
0.378795 0.567443 0.116566
0.609914 0.561016 0.125327
0.798610 0.579447 0.137376
0.877780 0.590442 0.158914
0.894283 0.581378 0.336432
0.146051 0.764225 0.110719
0.148998 0.758025 0.112272
0.171298 0.743121 0.118772
0.228757 0.716964 0.124632
0.335059 0.689349 0.129567
0.514340 0.669144 0.134857
0.706094 0.663015 0.145380
0.847583 0.671314 0.163068
0.881928 0.675033 0.206392
0.159615 0.817516 0.115132
0.162346 0.815401 0.116910
0.181005 0.809774 0.124132
0.226224 0.800000 0.131894
0.310371 0.781216 0.138763
0.449231 0.760350 0.147832
0.627912 0.746737 0.157175
0.791462 0.741359 0.169433
0.871858 0.747272 0.195984
0.171527 0.852789 0.107091
0.172420 0.850728 0.108430
0.186361 0.843844 0.119147
0.221091 0.835703 0.130405
0.289795 0.825968 0.140945
0.401895 0.816239 0.152906
0.557689 0.808811 0.163072
0.733428 0.805052 0.173829
0.864846 0.803907 0.191073
0.161134 0.845933 0.097854
0.160559 0.844932 0.097756
0.189262 0.859372 0.097467
0.186265 0.855023 0.106296
0.256667 0.854040 0.119426
0.354124 0.844859 0.133195
0.490029 0.837836 0.144414
0.650574 0.833975 0.153171
0.862199 0.833375 0.157033
0.073260 0.090207 0.125504
0.208840 0.104130 0.315970
0.677731 0.117166 0.171475
0.850105 0.147420 0.149848
0.895646 0.182856 0.137215
0.912754 0.215791 0.143171
0.920775 0.222977 0.173158
0.925591 0.137673 0.601394
0.919497 0.357421 0.706010
0.083324 0.112915 0.106655
0.110719 0.105798 0.102364
0.433829 0.128620 0.119735
0.775219 0.168497 0.132337
0.873304 0.206354 0.133220
0.904990 0.237282 0.139462
0.916574 0.243496 0.165360
0.923157 0.136377 0.594869
0.917768 0.352831 0.702076
0.101150 0.290887 0.119830
0.112205 0.253320 0.113749
0.182267 0.200324 0.107076
0.478653 0.234470 0.117620
0.764644 0.282979 0.127155
0.867899 0.325263 0.135469
0.901757 0.341775 0.154360
0.915597 0.148883 0.577720
0.912131 0.338216 0.689360
0.117595 0.521900 0.123956
0.124526 0.501570 0.123495
0.167029 0.444417 0.120897
0.287452 0.391557 0.120004
0.545555 0.404697 0.126049
0.774140 0.441348 0.134961
0.869985 0.470829 0.151308
0.898838 0.468007 0.180004
0.903714 0.317831 0.669227
0.133607 0.661596 0.124477
0.139235 0.652707 0.125996
0.169221 0.628199 0.129137
0.251364 0.591271 0.130795
0.403726 0.556053 0.133543
0.633391 0.554355 0.138569
0.806832 0.575093 0.154132
0.877299 0.587341 0.174842
0.893295 0.581818 0.381040
0.148969 0.755606 0.125979
0.152367 0.749605 0.127695
0.177565 0.734544 0.133569
0.237699 0.709000 0.138483
0.347739 0.682759 0.144568
0.529722 0.664334 0.151780
0.718401 0.660024 0.160940
0.850586 0.669171 0.177854
0.881213 0.674145 0.223977
0.161824 0.814880 0.126462
0.165043 0.812784 0.128203
0.184754 0.807114 0.135146
0.231814 0.797398 0.145094
0.317490 0.776783 0.154623
0.459891 0.756796 0.163093
0.640019 0.744092 0.172598
0.797387 0.739678 0.183290
0.871545 0.746328 0.209344
0.172006 0.851038 0.112691
0.173216 0.849056 0.114505
0.188313 0.842386 0.127548
0.224402 0.834301 0.139476
0.294096 0.824680 0.154106
0.407826 0.815160 0.165987
0.564353 0.807998 0.176635
0.740981 0.804463 0.187243
0.864993 0.803549 0.203236
0.164358 0.850616 0.150096
0.163763 0.849617 0.149523
0.191908 0.863560 0.147614
0.188222 0.858163 0.144623
0.258560 0.853571 0.125670
0.356726 0.844456 0.141149
0.493606 0.837553 0.155252
0.653985 0.833809 0.164102
0.863565 0.833281 0.167658
0.077604 0.105316 0.318093
0.160805 0.150736 0.665222
0.649744 0.168363 0.630282
0.855767 0.194895 0.565808
0.896302 0.221244 0.499995
0.910953 0.248448 0.493590
0.918039 0.255678 0.531381
0.923353 0.145220 0.610117
0.917633 0.352479 0.701792
0.091452 0.149371 0.328116
0.143831 0.166612 0.443694
0.508109 0.172897 0.454803
0.790961 0.200528 0.432358
0.875882 0.235439 0.419419
0.903488 0.263556 0.439113
0.913817 0.270760 0.485835
0.920893 0.146777 0.605322
0.915891 0.347907 0.697829
0.104833 0.248848 0.236538
0.118496 0.223471 0.214340
0.203974 0.188384 0.191542
0.546572 0.235895 0.236006
0.788822 0.292093 0.279182
0.871028 0.337196 0.321447
0.899700 0.353818 0.360294
0.912803 0.221239 0.582737
0.910223 0.333389 0.685092
0.127505 0.481177 0.251412
0.138435 0.459500 0.240256
0.189496 0.400598 0.214070
0.326327 0.351926 0.199231
0.619097 0.390235 0.221463
0.801223 0.438681 0.255783
0.871221 0.469984 0.281390
0.895840 0.470736 0.362460
0.901806 0.313452 0.663374
0.148496 0.638665 0.250009
0.155305 0.629787 0.246063
0.195117 0.604663 0.234697
0.287983 0.561118 0.221814
0.464437 0.533079 0.216907
0.691729 0.542747 0.232710
0.825368 0.568528 0.252103
0.876286 0.582283 0.291012
0.890741 0.586362 0.524770
0.164860 0.738300 0.244465
0.171052 0.732407 0.243557
0.202110 0.716161 0.241971
0.270770 0.691531 0.237569
0.394817 0.667883 0.234201
0.581767 0.653026 0.235719
0.758502 0.653425 0.242937
0.855492 0.664438 0.268453
0.879256 0.672702 0.346000
0.176610 0.808059 0.224125
0.180947 0.806022 0.225140
0.203552 0.800132 0.230131
0.256979 0.786049 0.234530
0.350576 0.765063 0.237514
0.505533 0.747394 0.241222
0.677555 0.737136 0.247344
0.817185 0.735290 0.260950
0.870634 0.743929 0.287653
0.181046 0.843432 0.199017
0.183782 0.841897 0.201321
0.202232 0.836989 0.213899
0.243296 0.829534 0.225389
0.316633 0.820478 0.235131
0.438019 0.811719 0.242796
0.596611 0.805460 0.250391
0.766147 0.802631 0.258990
0.865211 0.802512 0.267850
0.163363 0.848945 0.149145
0.193101 0.865292 0.148586
0.190810 0.861961 0.146728
0.187244 0.856693 0.143829
0.270490 0.851571 0.174590
0.370215 0.842927 0.200878
0.511108 0.836498 0.214416
0.669707 0.833173 0.223171
0.864613 0.832964 0.226942
0.083459 0.140443 0.560248
0.118900 0.202236 0.759195
0.581399 0.239819 0.793144
0.853604 0.276070 0.784638
0.901508 0.294245 0.744860
0.912360 0.305010 0.716007
0.917561 0.304808 0.712948
0.920560 0.241100 0.739662
0.916391 0.352955 0.727001
0.095196 0.191459 0.575597
0.131286 0.232021 0.694057
0.525050 0.275126 0.760460
0.811402 0.290261 0.734796
0.882699 0.302585 0.701969
0.904738 0.317106 0.688609
0.913172 0.319112 0.694861
0.917775 0.254550 0.729791
0.914603 0.348295 0.723098
0.114092 0.289243 0.474376
0.133563 0.283693 0.474501
0.270228 0.276924 0.498483
0.604720 0.294385 0.522937
0.802886 0.335628 0.552855
0.872801 0.373870 0.576446
0.898735 0.390303 0.613370
0.907921 0.368603 0.681145
0.908781 0.333496 0.710588
0.133094 0.447217 0.424067
0.144667 0.430849 0.409600
0.200198 0.381839 0.373564
0.346684 0.341319 0.350396
0.651138 0.395877 0.402423
0.807627 0.447745 0.454909
0.870219 0.480353 0.499688
0.893062 0.486223 0.581491
0.900139 0.313067 0.691039
0.157186 0.615686 0.427086
0.167098 0.607989 0.418232
0.211601 0.577867 0.394865
0.310115 0.536841 0.368251
0.500013 0.512205 0.355802
0.716863 0.534444 0.381974
0.830006 0.565508 0.420441
0.873899 0.583405 0.476339
0.888077 0.595796 0.641999
0.178489 0.719072 0.416403
0.185744 0.713769 0.412007
0.221229 0.698489 0.400395
0.295114 0.675384 0.384243
0.431219 0.653495 0.371601
0.621351 0.641423 0.368466
0.776961 0.647391 0.383313
0.855790 0.660679 0.415139
0.876862 0.674375 0.551757
0.190277 0.800150 0.396643
0.195527 0.798244 0.394810
0.222532 0.789923 0.390694
0.280532 0.772572 0.384040
0.383336 0.753123 0.377351
0.543781 0.737507 0.374047
0.710854 0.729696 0.376135
0.828679 0.731035 0.387724
0.869125 0.742646 0.459204
0.190889 0.836986 0.368642
0.194512 0.835645 0.368279
0.216354 0.831364 0.370096
0.260981 0.824366 0.370172
0.340015 0.815968 0.369891
0.469709 0.808045 0.370045
0.631106 0.802656 0.372188
0.786488 0.800663 0.377494
0.864738 0.801685 0.404579
0.174753 0.855141 0.365270
0.191321 0.864098 0.363843
0.189147 0.860910 0.359090
0.212842 0.859181 0.289329
0.290009 0.847925 0.343629
0.390589 0.840479 0.349713
0.532875 0.834909 0.354130
0.693738 0.832180 0.357641
0.864682 0.832734 0.364353
0.088950 0.202885 0.733574
0.105848 0.249957 0.811678
0.481058 0.317473 0.858609
0.830822 0.356126 0.859001
0.908319 0.392710 0.852537
0.917240 0.382273 0.821248
0.919917 0.368107 0.804298
0.920553 0.309348 0.799349
0.916395 0.363298 0.797388
0.098291 0.251243 0.743077
0.119154 0.289347 0.803589
0.438867 0.354759 0.850648
0.812134 0.394080 0.853163
0.893408 0.398635 0.830473
0.909705 0.393204 0.807227
0.915446 0.382000 0.794619
0.917716 0.324430 0.792188
0.914552 0.357992 0.791016
0.129708 0.407390 0.727507
0.152741 0.411263 0.739527
0.322885 0.418167 0.771238
0.667410 0.413595 0.762373
0.825152 0.418940 0.749035
0.880106 0.434469 0.744373
0.900749 0.438278 0.747501
0.908072 0.418631 0.759502
0.908529 0.341156 0.768857
0.141956 0.470397 0.598139
0.154214 0.462568 0.593682
0.229161 0.443120 0.590079
0.423870 0.431092 0.595183
0.687154 0.450535 0.615957
0.818989 0.484667 0.647268
0.872096 0.505672 0.678888
0.892680 0.509800 0.709963
0.899957 0.447736 0.746515
0.163007 0.600115 0.569008
0.174273 0.592091 0.562699
0.221806 0.567171 0.544841
0.324508 0.531049 0.519720
0.517050 0.506712 0.504233
0.731053 0.540917 0.546474
0.832263 0.574933 0.587557
0.872628 0.595232 0.641183
0.886413 0.607894 0.711756
0.187190 0.703049 0.560695
0.195136 0.698587 0.556368
0.233756 0.685311 0.543467
0.311157 0.664434 0.525025
0.454717 0.643357 0.509390
0.642566 0.632566 0.504750
0.784467 0.645112 0.528613
0.854781 0.661382 0.568943
0.874840 0.678539 0.671930
0.199700 0.790502 0.546824
0.205834 0.787317 0.543762
0.235858 0.777515 0.535294
0.297420 0.761721 0.523684
0.407884 0.743876 0.512846
0.570148 0.729747 0.506296
0.732580 0.723944 0.507263
0.833039 0.728776 0.523585
0.867411 0.744049 0.610091
0.198227 0.831412 0.527527
0.202439 0.830191 0.525426
0.227059 0.826233 0.520185
0.274691 0.819812 0.512737
0.359170 0.812093 0.505709
0.496929 0.804952 0.500848
0.658180 0.800363 0.499419
0.800742 0.799261 0.502881
0.863917 0.801930 0.549043
0.176976 0.855058 0.585419
0.178914 0.855619 0.583911
0.182790 0.856037 0.578908
0.229309 0.852194 0.505394
0.300296 0.845229 0.496987
0.404541 0.838575 0.491932
0.548329 0.833655 0.489146
0.712506 0.831566 0.488727
0.864435 0.833355 0.505490
0.096438 0.288375 0.844395
0.105788 0.319261 0.875958
0.400722 0.403930 0.897183
0.804377 0.436491 0.898098
0.907571 0.475448 0.898666
0.923399 0.464921 0.882356
0.924131 0.438751 0.859918
0.922662 0.384354 0.842365
0.917601 0.372777 0.824779
0.102401 0.326953 0.848504
0.115056 0.356726 0.875243
0.384846 0.433348 0.895570
0.789809 0.465809 0.896982
0.902624 0.493651 0.895861
0.916262 0.472825 0.875144
0.919739 0.449626 0.852045
0.919811 0.399296 0.837173
0.915722 0.367568 0.821522
0.138848 0.487362 0.852987
0.158527 0.498474 0.866484
0.361722 0.535241 0.887544
0.700692 0.520411 0.876507
0.849786 0.507501 0.855456
0.890852 0.500021 0.837928
0.905270 0.492216 0.826305
0.910217 0.471260 0.819519
0.909547 0.350888 0.810859
0.155424 0.531458 0.768802
0.171177 0.529910 0.771207
0.267815 0.530433 0.784539
0.499116 0.525416 0.785905
0.734062 0.526318 0.781628
0.838494 0.533938 0.780828
0.878240 0.543004 0.784278
0.895240 0.540725 0.791190
0.900512 0.494922 0.794136
0.171690 0.608081 0.701193
0.182894 0.604537 0.698790
0.239104 0.591617 0.695286
0.361054 0.571802 0.690327
0.575550 0.563326 0.690099
0.757267 0.577692 0.702556
0.840514 0.601208 0.722018
0.874130 0.612733 0.744460
0.886417 0.621275 0.768530
0.192082 0.694172 0.679730
0.200639 0.690798 0.677041
0.241796 0.680376 0.668203
0.323334 0.662984 0.654550
0.473384 0.643436 0.640540
0.652422 0.630347 0.630963
0.789924 0.650797 0.666000
0.854943 0.668386 0.698198
0.873988 0.685660 0.739772
0.204997 0.780265 0.663617
0.211991 0.777547 0.660707
0.243657 0.769149 0.652773
0.307930 0.755280 0.642111
0.424144 0.739064 0.632195
0.587238 0.725534 0.625670
0.743871 0.720721 0.627577
0.834148 0.729921 0.652438
0.866075 0.747623 0.712294
0.201691 0.827227 0.645548
0.206565 0.826137 0.643257
0.232787 0.822558 0.636868
0.282772 0.816704 0.628161
0.371397 0.809661 0.620166
0.515646 0.803180 0.614698
0.673051 0.799196 0.613152
0.808174 0.798848 0.617998
0.862949 0.803270 0.679222
0.176323 0.852650 0.622702
0.177966 0.853113 0.623567
0.181032 0.853280 0.627426
0.230411 0.850323 0.619395
0.303818 0.843699 0.609116
0.410625 0.837611 0.602201
0.556069 0.833305 0.598102
0.722685 0.831748 0.596466
0.864036 0.834753 0.642257
0.103373 0.396156 0.907425
0.111558 0.413851 0.917678
0.322170 0.477655 0.925132
0.787739 0.502391 0.925787
0.905043 0.530701 0.926279
0.929687 0.535094 0.917684
0.929200 0.501873 0.898181
0.925880 0.450674 0.882616
0.919599 0.388378 0.862952
0.108307 0.425320 0.908625
0.118496 0.441641 0.917318
0.324771 0.497979 0.924751
0.776476 0.522528 0.925559
0.902352 0.550415 0.926107
0.923185 0.538992 0.911667
0.925003 0.509295 0.893829
0.923084 0.463140 0.879656
0.917716 0.382843 0.859224
0.143082 0.541986 0.910904
0.158561 0.549922 0.915581
0.339057 0.582685 0.922564
0.730887 0.604064 0.924076
0.866882 0.580467 0.907518
0.901740 0.560661 0.892307
0.911139 0.541111 0.879722
0.913702 0.514502 0.866763
0.911489 0.364743 0.846571
0.174998 0.610124 0.881360
0.191347 0.609563 0.882533
0.297410 0.611169 0.883882
0.556002 0.605565 0.878728
0.772119 0.597486 0.869072
0.858698 0.592027 0.857816
0.887290 0.586328 0.848967
0.899680 0.575415 0.842339
0.902030 0.550685 0.834933
0.184593 0.636157 0.815787
0.196193 0.634577 0.816294
0.260275 0.631901 0.818803
0.410190 0.625857 0.817299
0.639177 0.621769 0.813466
0.784551 0.623538 0.811631
0.854206 0.628177 0.812551
0.878601 0.632016 0.815125
0.888199 0.637087 0.816911
0.197984 0.698345 0.775263
0.206833 0.696028 0.774244
0.250651 0.689479 0.772867
0.343578 0.678163 0.769690
0.516636 0.666262 0.763911
0.692117 0.662349 0.762050
0.804229 0.670320 0.771146
0.858439 0.681690 0.785805
0.874852 0.695529 0.799751
0.206911 0.776006 0.749197
0.214314 0.773857 0.747865
0.247461 0.767116 0.744723
0.314776 0.755598 0.740832
0.437750 0.741653 0.736794
0.602886 0.728775 0.732268
0.749125 0.720383 0.728404
0.836274 0.736018 0.751191
0.865808 0.753480 0.780342
0.200495 0.825236 0.729160
0.205467 0.824260 0.727832
0.232852 0.820993 0.724351
0.284643 0.815720 0.719871
0.376513 0.809336 0.716236
0.523660 0.803364 0.714139
0.681740 0.799669 0.714490
0.811099 0.799719 0.720459
0.862187 0.805418 0.762224
0.173786 0.849271 0.683748
0.177472 0.850980 0.682723
0.181233 0.851669 0.679530
0.221584 0.850499 0.702860
0.299495 0.843568 0.697006
0.407269 0.837870 0.693369
0.554356 0.834006 0.691207
0.721469 0.832923 0.690322
0.863714 0.836992 0.747689
0.114422 0.492968 0.938850
0.122201 0.496342 0.939409
0.357894 0.526499 0.939749
0.806560 0.550260 0.939827
0.909388 0.576010 0.939961
0.936263 0.591992 0.938646
0.934700 0.549490 0.928154
0.929852 0.493571 0.911450
0.921893 0.421687 0.891563
0.119634 0.511037 0.938815
0.128813 0.514612 0.939341
0.363344 0.544844 0.939746
0.797996 0.568234 0.939833
0.907447 0.593692 0.939968
0.931441 0.594531 0.936196
0.930884 0.555404 0.924277
0.927163 0.502737 0.908699
0.920051 0.421295 0.889477
0.156357 0.603789 0.938677
0.173988 0.606014 0.939042
0.390072 0.621623 0.939570
0.765537 0.634973 0.939744
0.888325 0.632836 0.936038
0.912186 0.612784 0.926580
0.917966 0.586834 0.911662
0.918139 0.547868 0.899541
0.914043 0.452331 0.882552
0.200345 0.666487 0.932462
0.218115 0.664565 0.932012
0.360627 0.662888 0.930056
0.641355 0.653511 0.921914
0.816597 0.642446 0.911863
0.878013 0.632032 0.901965
0.898599 0.620704 0.892768
0.904517 0.605083 0.884965
0.904419 0.579403 0.876597
0.203500 0.676214 0.892885
0.217086 0.675018 0.892637
0.300309 0.673762 0.891009
0.486092 0.668172 0.886487
0.706310 0.662308 0.880964
0.820368 0.658506 0.875910
0.868124 0.655491 0.870112
0.885602 0.650637 0.864994
0.891376 0.650930 0.858987
0.207076 0.716304 0.857592
0.216969 0.714890 0.857745
0.270323 0.711788 0.857587
0.381073 0.704502 0.853214
0.573534 0.697025 0.846831
0.745261 0.693802 0.842000
0.827644 0.694973 0.840207
0.865808 0.697516 0.840777
0.877444 0.706029 0.840981
0.208245 0.779928 0.826889
0.215615 0.778339 0.827099
0.252973 0.773803 0.828590
0.325819 0.765099 0.828506
0.465002 0.754189 0.825207
0.643514 0.745174 0.820485
0.775637 0.743065 0.818525
0.846021 0.748815 0.822188
0.867311 0.761148 0.827124
0.193912 0.826722 0.802901
0.198727 0.825786 0.802613
0.227222 0.822512 0.802754
0.281347 0.817624 0.803579
0.377378 0.811871 0.805234
0.530438 0.806519 0.806071
0.692011 0.802915 0.805874
0.811993 0.800840 0.804754
0.862246 0.808161 0.818550
0.169399 0.845116 0.751326
0.180327 0.851187 0.751584
0.180582 0.850112 0.756790
0.210359 0.850874 0.766491
0.284414 0.845404 0.765053
0.391959 0.839808 0.765046
0.540638 0.836187 0.765846
0.705785 0.835318 0.765991
0.863542 0.839617 0.813984
0.336147 0.531800 0.950755
0.424740 0.534815 0.950758
0.764947 0.546758 0.950768
0.902002 0.567099 0.950799
0.933378 0.590580 0.950853
0.945048 0.608156 0.950938
0.940132 0.556920 0.941385
0.934868 0.466231 0.933211
0.923866 0.440556 0.917489
0.340589 0.546410 0.950727
0.426314 0.549464 0.950731
0.761142 0.561529 0.950742
0.900804 0.582004 0.950776
0.932833 0.605020 0.950833
0.942243 0.609879 0.948860
0.937931 0.561204 0.939713
0.932505 0.473275 0.931978
0.922058 0.443542 0.918234
0.368801 0.614527 0.950572
0.442404 0.616514 0.950579
0.743749 0.624256 0.950604
0.893796 0.637276 0.950658
0.927883 0.646798 0.949557
0.930992 0.623191 0.941571
0.928481 0.588976 0.934221
0.924138 0.513757 0.925460
0.916021 0.426613 0.911621
0.400150 0.699131 0.948699
0.447613 0.696744 0.947930
0.678949 0.689481 0.945353
0.852590 0.678612 0.941240
0.895710 0.665075 0.936224
0.907916 0.649127 0.930970
0.911386 0.628620 0.921279
0.911298 0.593022 0.911374
0.907293 0.578558 0.902713
0.325798 0.707293 0.930529
0.353138 0.705713 0.930059
0.524246 0.701050 0.926863
0.755304 0.694330 0.921315
0.845407 0.686448 0.914698
0.876637 0.677589 0.907891
0.890074 0.666160 0.901473
0.896354 0.647998 0.895507
0.895916 0.639851 0.890541
0.272921 0.736657 0.904063
0.289143 0.735163 0.903268
0.386129 0.730784 0.900639
0.613513 0.724649 0.896379
0.770910 0.718271 0.891516
0.836973 0.712807 0.887053
0.865627 0.707109 0.883397
0.877881 0.698192 0.880507
0.881856 0.702415 0.878388
0.232751 0.789869 0.888447
0.242886 0.788267 0.887747
0.296897 0.783292 0.885372
0.444308 0.775584 0.881553
0.658360 0.767250 0.877135
0.782034 0.760861 0.872343
0.838489 0.756838 0.868069
0.863196 0.752526 0.866007
0.871124 0.760508 0.865506
0.189304 0.828662 0.878142
0.193984 0.827903 0.878125
0.222222 0.825223 0.877165
0.297831 0.820607 0.874499
0.449808 0.815213 0.868651
0.661472 0.810607 0.862655
0.793700 0.807835 0.857903
0.850856 0.806252 0.855803
0.864944 0.808695 0.856421
0.163769 0.840520 0.803919
0.180150 0.850167 0.819008
0.178939 0.848317 0.816926
0.184779 0.846397 0.813573
0.250082 0.850685 0.843653
0.364426 0.844832 0.858166
0.528295 0.841148 0.856039
0.711226 0.840422 0.854328
0.863587 0.842613 0.853986
