LUTs/negative-ultramax-400/Ultramax400_Modern_Normal.cube
TITLE "Kodak Ultramax 400 Modern Normal"
# Adobe RGB in/out. REPLACES AgX. Kodak Ultramax 400 Modern Normal.
LUT_3D_SIZE 33
DOMAIN_MIN 0.0 0.0 0.0
DOMAIN_MAX 1.0 1.0 1.0
0.073661 0.072636 0.087722
0.081065 0.076521 0.088749
0.083894 0.077419 0.088908
0.105750 0.080622 0.089435
0.216157 0.085281 0.089943
0.288593 0.088122 0.090343
0.427712 0.094788 0.091112
0.569473 0.101760 0.091968
0.634899 0.105846 0.092498
0.700792 0.112734 0.093209
0.766046 0.125745 0.094874
0.802712 0.134022 0.096102
0.826545 0.140422 0.097317
0.850453 0.150639 0.099007
0.870796 0.166125 0.101827
0.881104 0.175134 0.103436
0.889633 0.183499 0.105145
0.897166 0.194336 0.108309
0.903687 0.207786 0.112428
0.909168 0.213083 0.115209
0.912014 0.218488 0.119404
0.913951 0.224913 0.124575
0.915727 0.229255 0.130430
0.917422 0.226803 0.136770
0.918262 0.224828 0.145492
0.918838 0.220268 0.158734
0.920041 0.198516 0.183062
0.919898 0.186736 0.274084
0.921578 0.140586 0.609406
0.919856 0.139360 0.603193
0.918141 0.138195 0.597086
0.916431 0.137046 0.591050
0.916474 0.363275 0.715229
0.074670 0.081018 0.088372
0.076458 0.079718 0.088501
0.081764 0.078222 0.088635
0.102086 0.081403 0.089390
0.191353 0.086117 0.089959
0.261924 0.088775 0.090350
0.400125 0.095473 0.091113
0.546127 0.102308 0.091970
0.615412 0.106614 0.092499
0.689521 0.113389 0.093207
0.758739 0.126594 0.094863
0.796779 0.134785 0.096086
0.822765 0.141109 0.097304
0.847414 0.151497 0.098989
0.869250 0.167085 0.101810
0.879855 0.176046 0.103419
0.888618 0.184446 0.105117
0.896339 0.195263 0.108279
0.903010 0.208713 0.112391
0.908605 0.213982 0.115155
0.911716 0.219367 0.119343
0.913700 0.225783 0.124505
0.915513 0.230124 0.130321
0.917238 0.227667 0.136628
0.918103 0.225683 0.145290
0.918699 0.221116 0.158370
0.919917 0.199330 0.182061
0.919790 0.187327 0.270161
0.921485 0.140523 0.609071
0.919771 0.139302 0.602889
0.918063 0.138142 0.596810
0.916359 0.136999 0.590798
0.916408 0.363077 0.715032
0.074918 0.082857 0.088567
0.075554 0.082634 0.088804
0.077169 0.081316 0.088714
0.085133 0.083633 0.089298
0.120150 0.089069 0.089918
0.186972 0.091638 0.090308
0.313345 0.098223 0.091118
0.469118 0.106280 0.092025
0.551668 0.109956 0.092527
0.647738 0.116400 0.093216
0.732394 0.130031 0.094843
0.775188 0.137800 0.096048
0.808915 0.144182 0.097268
0.836278 0.154790 0.098939
0.862370 0.170742 0.101757
0.875286 0.179489 0.103367
0.884915 0.188004 0.105026
0.893333 0.198723 0.108183
0.900559 0.212158 0.112266
0.906569 0.217312 0.114983
0.910642 0.222614 0.119136
0.912796 0.228991 0.124261
0.914745 0.233322 0.129944
0.916579 0.230843 0.136138
0.917533 0.228824 0.144590
0.918200 0.224230 0.157113
0.919476 0.202339 0.178666
0.919403 0.189575 0.256793
0.921153 0.140301 0.607877
0.919467 0.139096 0.601804
0.917784 0.137955 0.595824
0.916103 0.136829 0.589900
0.916172 0.362368 0.714330
0.076000 0.093545 0.089117
0.076311 0.093334 0.089289
0.077807 0.091839 0.089414
0.080597 0.089131 0.089436
0.092733 0.095007 0.089958
0.118166 0.096369 0.090317
0.201451 0.102167 0.091097
0.340325 0.112300 0.092026
0.441591 0.115585 0.092558
0.553854 0.123758 0.093251
0.673024 0.137693 0.094879
0.734666 0.145251 0.096053
0.776085 0.151924 0.097255
0.814732 0.162342 0.098901
0.845797 0.178387 0.101701
0.866474 0.187123 0.103303
0.877827 0.195224 0.104902
0.887626 0.205664 0.108043
0.895942 0.219003 0.112073
0.902759 0.223878 0.114767
0.907973 0.228978 0.118796
0.911123 0.235437 0.123856
0.913328 0.240321 0.129307
0.915368 0.237432 0.135307
0.916487 0.235048 0.143400
0.917287 0.230261 0.154998
0.918669 0.208238 0.173171
0.918697 0.194241 0.235496
0.920549 0.139898 0.605715
0.918915 0.138723 0.599837
0.917277 0.137614 0.594033
0.915637 0.136524 0.588267
0.915742 0.361074 0.713053
0.077676 0.118656 0.089802
0.077984 0.118261 0.089946
0.079356 0.116691 0.090103
0.082668 0.112296 0.090237
0.088829 0.107318 0.090398
0.098048 0.102671 0.090476
0.135570 0.110712 0.091122
0.230028 0.122479 0.092046
0.320155 0.125622 0.092605
0.437207 0.132870 0.093295
0.578706 0.147966 0.095000
0.668679 0.156135 0.096155
0.727567 0.163517 0.097314
0.775083 0.175560 0.098948
0.817724 0.193514 0.101714
0.844841 0.200926 0.103282
0.866303 0.207867 0.104821
0.878488 0.217595 0.107919
0.888668 0.230592 0.111872
0.896827 0.235000 0.114523
0.903099 0.240312 0.118388
0.907861 0.247173 0.123346
0.911188 0.251933 0.128647
0.913549 0.248882 0.134229
0.914927 0.246315 0.141847
0.915930 0.240924 0.152267
0.917472 0.217987 0.166489
0.917651 0.202508 0.213537
0.919665 0.139315 0.602562
0.918104 0.138177 0.596962
0.916533 0.137115 0.591413
0.914953 0.136131 0.585874
0.915110 0.359175 0.711177
0.079071 0.145933 0.090385
0.079293 0.144906 0.090491
0.080256 0.143278 0.090620
0.082966 0.137467 0.090845
0.086938 0.128339 0.090831
0.094014 0.120862 0.090960
0.113376 0.124685 0.091296
0.167270 0.137211 0.092276
0.232474 0.138023 0.092697
0.327165 0.144807 0.093361
0.464771 0.162364 0.095074
0.569553 0.171462 0.096284
0.659044 0.178572 0.097467
0.725663 0.190410 0.099113
0.780172 0.208083 0.101778
0.816232 0.216643 0.103312
0.842004 0.225021 0.104839
0.863803 0.237167 0.107905
0.877737 0.251454 0.111763
0.888099 0.254902 0.114336
0.896086 0.259213 0.118022
0.902157 0.265446 0.122839
0.907287 0.269856 0.127967
0.911050 0.266475 0.133068
0.912806 0.263565 0.140144
0.914098 0.258003 0.149298
0.915864 0.233120 0.160280
0.916254 0.216164 0.192957
0.918506 0.138568 0.598457
0.917040 0.137464 0.593202
0.915554 0.136461 0.587978
0.915796 0.349449 0.582732
0.914275 0.356679 0.708707
0.081625 0.206961 0.091276
0.081946 0.207533 0.091361
0.083084 0.204381 0.091534
0.085299 0.192960 0.091674
0.089430 0.176156 0.091744
0.095912 0.161601 0.091781
0.108228 0.151767 0.091966
0.137677 0.158131 0.092622
0.180563 0.156416 0.092947
0.253066 0.163395 0.093565
0.366698 0.182648 0.095298
0.468901 0.191524 0.096538
0.561712 0.196939 0.097596
0.658330 0.208379 0.099266
0.731830 0.227098 0.101940
0.775321 0.236814 0.103472
0.813365 0.243306 0.104966
0.841474 0.254761 0.107916
0.864619 0.271663 0.111704
0.877056 0.277986 0.114240
0.886467 0.285692 0.117820
0.894156 0.293539 0.122487
0.900852 0.297094 0.127410
0.906501 0.293057 0.132054
0.910032 0.289505 0.138577
0.911736 0.283695 0.146646
0.913803 0.259452 0.155428
0.914483 0.238571 0.176702
0.917088 0.137710 0.593491
0.915734 0.136598 0.588620
0.914350 0.135662 0.583780
0.914683 0.346310 0.578881
0.913245 0.353620 0.705668
0.084808 0.287204 0.092402
0.085110 0.287790 0.092508
0.086478 0.288600 0.092844
0.088782 0.272021 0.092992
0.092321 0.251335 0.093050
0.099672 0.230680 0.093153
0.111730 0.214254 0.093207
0.130412 0.201836 0.093366
0.151662 0.183506 0.093287
0.205226 0.187693 0.093934
0.296464 0.208255 0.095649
0.383646 0.214943 0.096881
0.470990 0.218998 0.097877
0.569261 0.229832 0.099588
0.669760 0.250189 0.102154
0.728935 0.258698 0.103605
0.772855 0.266257 0.105194
0.811696 0.279689 0.108127
0.840734 0.296873 0.111838
0.863758 0.300640 0.114253
0.876533 0.306509 0.117697
0.885819 0.315592 0.122249
0.893454 0.323539 0.127046
0.899913 0.325058 0.131386
0.904353 0.327672 0.137492
0.908049 0.322311 0.144846
0.911175 0.301002 0.152437
0.912274 0.278864 0.166408
0.915439 0.136997 0.587872
0.914209 0.135614 0.583317
0.912939 0.134738 0.578899
0.913375 0.342583 0.574446
0.912032 0.350048 0.702102
0.086501 0.330024 0.092969
0.086810 0.330394 0.093046
0.087877 0.327228 0.093245
0.089748 0.315544 0.093452
0.092579 0.297788 0.093596
0.098307 0.277378 0.093679
0.108173 0.257856 0.093836
0.121720 0.240639 0.093997
0.143458 0.228154 0.094280
0.177893 0.220329 0.094648
0.248488 0.238084 0.096215
0.318408 0.243518 0.097353
0.397154 0.246259 0.098270
0.489108 0.256968 0.100009
0.592987 0.277621 0.102504
0.670567 0.285003 0.103879
0.727566 0.292184 0.105562
0.773478 0.304769 0.108401
0.813951 0.321745 0.112070
0.840440 0.327142 0.114444
0.861786 0.334814 0.117911
0.875450 0.340604 0.122265
0.885231 0.346606 0.126863
0.893238 0.346715 0.130876
0.898788 0.348451 0.136639
0.902924 0.350295 0.143605
0.907156 0.343109 0.150996
0.909339 0.337454 0.162587
0.913679 0.147769 0.583495
0.912495 0.134879 0.577593
0.911347 0.133773 0.573546
0.911893 0.338566 0.569479
0.910655 0.346030 0.698070
0.089519 0.389829 0.093878
0.089658 0.387991 0.093947
0.090233 0.380499 0.094155
0.091744 0.370730 0.094509
0.094735 0.355882 0.094787
0.100025 0.338629 0.094977
0.108532 0.320563 0.095155
0.120537 0.301104 0.095322
0.138778 0.284254 0.095521
0.166584 0.270937 0.095789
0.220364 0.281378 0.097196
0.274721 0.278777 0.097954
0.337027 0.279037 0.098850
0.420789 0.288179 0.100572
0.523591 0.308835 0.102960
0.600766 0.314950 0.104238
0.673325 0.320645 0.106090
0.732412 0.330752 0.108822
0.778790 0.347252 0.112510
0.814248 0.352672 0.114797
0.841124 0.357737 0.118150
0.862397 0.367244 0.122442
0.874987 0.377300 0.126964
0.884812 0.378218 0.130757
0.892047 0.377989 0.136125
0.897357 0.378383 0.142598
0.902461 0.370274 0.149044
0.905281 0.363117 0.158974
0.908064 0.347660 0.174911
0.909489 0.332284 0.223722
0.910507 0.297332 0.528543
0.910263 0.334390 0.566990
0.908753 0.341721 0.693640
0.093531 0.471913 0.095816
0.093657 0.469854 0.095859
0.094326 0.463794 0.096061
0.096443 0.456742 0.096522
0.099725 0.442448 0.096903
0.105341 0.424017 0.097221
0.113873 0.404387 0.097500
0.125828 0.384273 0.097735
0.143909 0.365626 0.097954
0.171197 0.349407 0.098249
0.207039 0.336767 0.098699
0.248269 0.325022 0.099145
0.296269 0.315473 0.099678
0.366605 0.322669 0.101239
0.458521 0.340524 0.103522
0.537220 0.344310 0.104785
0.610995 0.348147 0.106745
0.682487 0.358132 0.109354
0.741314 0.375652 0.113089
0.781708 0.379412 0.115329
0.816209 0.386132 0.118700
0.841689 0.396756 0.122877
0.863508 0.404177 0.127154
0.875978 0.406233 0.130820
0.884293 0.410989 0.135998
0.890543 0.417052 0.142104
0.896942 0.407633 0.147777
0.900658 0.398764 0.156293
0.904039 0.382419 0.168132
0.905965 0.362873 0.197548
0.907834 0.307649 0.454269
0.907768 0.330356 0.570207
0.906160 0.327904 0.570015
0.096645 0.514378 0.097189
0.096752 0.512598 0.097229
0.097278 0.507129 0.097391
0.099117 0.500987 0.097773
0.102265 0.490389 0.098133
0.107358 0.477679 0.098521
0.115304 0.463139 0.099035
0.125665 0.443588 0.099379
0.141535 0.423993 0.099714
0.164755 0.406021 0.100061
0.196211 0.390232 0.100478
0.233986 0.377493 0.101016
0.271955 0.359497 0.101078
0.324786 0.356577 0.102023
0.408663 0.374643 0.104183
0.479107 0.376732 0.105735
0.552260 0.379675 0.107621
0.630108 0.389068 0.110122
0.698108 0.405732 0.113733
0.746181 0.408871 0.116115
0.785809 0.416409 0.119480
0.819565 0.424982 0.123433
0.844781 0.435192 0.127628
0.865077 0.439464 0.131299
0.876131 0.441576 0.136159
0.883990 0.445638 0.141921
0.891077 0.443357 0.147148
0.895406 0.442736 0.154758
0.899408 0.432228 0.164474
0.902036 0.410089 0.183287
0.904426 0.339380 0.336602
0.904854 0.325530 0.564079
0.903425 0.323605 0.567221
0.099221 0.549202 0.098156
0.099334 0.547661 0.098191
0.099864 0.542779 0.098331
0.101545 0.536553 0.098739
0.104586 0.528288 0.099316
0.109006 0.517358 0.099881
0.115754 0.503601 0.100357
0.124900 0.488519 0.100790
0.138941 0.473073 0.101144
0.158288 0.457148 0.101481
0.185804 0.440026 0.101851
0.218103 0.424835 0.102244
0.257084 0.412560 0.102766
0.303072 0.404649 0.103423
0.367568 0.411660 0.105179
0.432022 0.412512 0.106901
0.500790 0.414033 0.108594
0.574989 0.422637 0.111025
0.657196 0.438470 0.114747
0.707388 0.440658 0.117185
0.753015 0.446737 0.120285
0.792948 0.456241 0.124215
0.823841 0.466308 0.128349
0.848964 0.467767 0.131875
0.866822 0.472497 0.136632
0.876046 0.478916 0.142253
0.884859 0.475065 0.146933
0.890290 0.472742 0.153706
0.894861 0.468352 0.162233
0.897821 0.462322 0.177068
0.900036 0.454773 0.210721
0.901848 0.320707 0.557816
0.900592 0.319281 0.565515
0.103255 0.593919 0.099815
0.103371 0.592561 0.099862
0.103890 0.588160 0.100047
0.105310 0.582068 0.100450
0.108264 0.575961 0.101087
0.112419 0.565333 0.101624
0.118379 0.552726 0.102111
0.127389 0.538900 0.102586
0.140012 0.524028 0.103002
0.157400 0.508648 0.103339
0.182383 0.494003 0.103666
0.212239 0.480660 0.104065
0.246965 0.468704 0.104457
0.288036 0.458461 0.105216
0.344685 0.462980 0.107638
0.396219 0.452008 0.108324
0.455865 0.450303 0.109737
0.529317 0.457466 0.112129
0.605704 0.470505 0.116015
0.668865 0.472057 0.118542
0.719320 0.476180 0.121474
0.762659 0.483772 0.125185
0.801661 0.491785 0.129127
0.829788 0.494903 0.132789
0.852026 0.500197 0.137365
0.868151 0.504583 0.142614
0.878073 0.504843 0.147095
0.884369 0.506937 0.153371
0.890050 0.501027 0.160786
0.893754 0.492996 0.172402
0.896464 0.483385 0.194971
0.897917 0.476396 0.317873
0.898378 0.478893 0.563184
0.108554 0.640006 0.102118
0.108664 0.639104 0.102162
0.109136 0.636126 0.102335
0.110557 0.631756 0.102699
0.113955 0.628078 0.103361
0.117595 0.620162 0.103864
0.123448 0.611888 0.104432
0.132928 0.600707 0.105101
0.145127 0.586314 0.105899
0.162955 0.571275 0.106576
0.187036 0.556376 0.107262
0.214936 0.542030 0.107846
0.247925 0.528856 0.108554
0.285876 0.517264 0.109264
0.327552 0.507417 0.110142
0.373141 0.495899 0.110633
0.422416 0.486183 0.111275
0.486780 0.488732 0.113474
0.561799 0.500251 0.117614
0.625374 0.500876 0.119931
0.683052 0.504489 0.122803
0.733924 0.511644 0.126407
0.774020 0.518984 0.130383
0.809468 0.522777 0.133940
0.835288 0.526859 0.138233
0.855746 0.533591 0.143369
0.870822 0.534233 0.147580
0.878697 0.534227 0.153356
0.885032 0.533673 0.160140
0.889293 0.532272 0.169830
0.892666 0.521492 0.186166
0.894585 0.507327 0.242477
0.895454 0.483008 0.548598
0.112087 0.666898 0.103290
0.112206 0.666125 0.103331
0.112703 0.663537 0.103486
0.113928 0.659574 0.103806
0.116642 0.655682 0.104374
0.120198 0.649567 0.105173
0.126614 0.642934 0.106317
0.134493 0.633131 0.107075
0.145528 0.622987 0.107881
0.161893 0.612438 0.108714
0.183382 0.599906 0.109330
0.208572 0.585537 0.109976
0.238692 0.572168 0.110650
0.273435 0.559692 0.111409
0.311368 0.548851 0.112273
0.355313 0.539546 0.113298
0.401416 0.528220 0.113833
0.454723 0.523927 0.115401
0.525268 0.531378 0.119425
0.583410 0.531411 0.121618
0.648437 0.533859 0.124228
0.700520 0.540390 0.127738
0.747269 0.547356 0.131916
0.784943 0.550327 0.135251
0.817090 0.555064 0.139390
0.840686 0.561892 0.144328
0.861724 0.562645 0.148314
0.872228 0.565818 0.153880
0.879876 0.565117 0.160024
0.885083 0.561482 0.168207
0.888841 0.558204 0.181685
0.891040 0.556342 0.213511
0.892443 0.515155 0.482245
0.115526 0.692205 0.104330
0.115634 0.691525 0.104367
0.116073 0.689221 0.104506
0.117117 0.685575 0.104912
0.119336 0.681629 0.105776
0.122960 0.677188 0.106870
0.128485 0.670105 0.107819
0.136015 0.662249 0.108765
0.146313 0.653410 0.109643
0.160911 0.643475 0.110452
0.180504 0.633062 0.111252
0.203651 0.622482 0.112045
0.231353 0.612233 0.112797
0.262448 0.601688 0.113630
0.298292 0.590013 0.114463
0.337194 0.579795 0.115467
0.383289 0.571087 0.116873
0.433114 0.565651 0.118728
0.494548 0.567625 0.122016
0.547854 0.562167 0.123317
0.608058 0.564189 0.125866
0.669870 0.569879 0.129204
0.719521 0.576569 0.133658
0.759841 0.578976 0.136783
0.796460 0.583986 0.140783
0.824876 0.589967 0.145452
0.848812 0.592457 0.149400
0.865276 0.594794 0.154546
0.874535 0.595815 0.160283
0.880498 0.596312 0.167643
0.885058 0.591823 0.178673
0.887782 0.586211 0.200685
0.889305 0.586061 0.334573
0.119542 0.714338 0.106329
0.119642 0.713936 0.106389
0.120044 0.712560 0.106615
0.120968 0.710327 0.107068
0.122924 0.707742 0.107841
0.127801 0.705664 0.109045
0.132232 0.700776 0.109857
0.139696 0.694707 0.110965
0.149273 0.686461 0.112026
0.162983 0.677278 0.112974
0.181260 0.667805 0.113952
0.203005 0.657996 0.114824
0.228950 0.648150 0.115955
0.257619 0.638334 0.116951
0.291339 0.629319 0.118165
0.326664 0.620988 0.119332
0.369212 0.613570 0.120565
0.415477 0.607316 0.122008
0.471833 0.608028 0.125219
0.522736 0.599721 0.125981
0.573263 0.595167 0.127530
0.637072 0.600372 0.131201
0.690254 0.606233 0.135553
0.735939 0.607685 0.138501
0.773198 0.611467 0.142370
0.808237 0.615753 0.146828
0.834739 0.617834 0.150687
0.854827 0.619905 0.155523
0.868710 0.622438 0.160986
0.876105 0.621246 0.167556
0.881275 0.620702 0.177199
0.884404 0.620873 0.193941
0.886394 0.616010 0.264115
0.124675 0.735934 0.109053
0.124806 0.735590 0.109110
0.125321 0.734409 0.109322
0.126468 0.732455 0.109744
0.128722 0.730087 0.110451
0.133021 0.728027 0.111661
0.137616 0.724220 0.112759
0.144942 0.720217 0.114059
0.153935 0.715114 0.115247
0.168480 0.709769 0.116821
0.185991 0.703750 0.118176
0.206750 0.696204 0.119572
0.230650 0.686636 0.120766
0.258196 0.677289 0.121937
0.289764 0.668223 0.123036
0.323944 0.659960 0.124347
0.363380 0.652287 0.125586
0.407191 0.645191 0.126828
0.452803 0.639362 0.128336
0.499618 0.631886 0.128965
0.548990 0.626899 0.130492
0.602844 0.625287 0.133310
0.663995 0.629472 0.137518
0.709010 0.630635 0.140345
0.750763 0.633725 0.144030
0.787653 0.637954 0.148481
0.819979 0.639777 0.152137
0.842598 0.642697 0.156796
0.861447 0.644378 0.161762
0.871412 0.645220 0.168019
0.877506 0.645635 0.176650
0.881286 0.643737 0.189987
0.883542 0.644745 0.230329
0.128496 0.751451 0.110179
0.128615 0.751144 0.110233
0.129081 0.750079 0.110435
0.130097 0.748286 0.110832
0.132046 0.746022 0.111576
0.135659 0.743816 0.112776
0.140482 0.740916 0.114056
0.146588 0.736743 0.115269
0.155821 0.732516 0.117046
0.169244 0.727619 0.118714
0.184429 0.721906 0.120076
0.203265 0.716052 0.121486
0.225621 0.710008 0.122832
0.251318 0.703924 0.124084
0.280816 0.697000 0.125318
0.312801 0.688571 0.126479
0.348830 0.680892 0.127783
0.390449 0.673960 0.129089
0.432704 0.667596 0.130653
0.479843 0.662382 0.132562
0.528915 0.656738 0.134024
0.578940 0.654541 0.136748
0.634772 0.653405 0.139740
0.683516 0.653779 0.142262
0.729398 0.656409 0.145827
0.766754 0.659996 0.150296
0.804243 0.661744 0.153747
0.829629 0.664692 0.158220
0.851959 0.666639 0.162842
0.866499 0.668191 0.168779
0.873798 0.668451 0.176456
0.878126 0.669223 0.187984
0.880841 0.669034 0.215527
0.132420 0.766949 0.111435
0.132531 0.766677 0.111497
0.132962 0.765732 0.111726
0.133884 0.764118 0.112173
0.135610 0.762020 0.112906
0.138723 0.759824 0.114025
0.144170 0.757704 0.115676
0.149226 0.753593 0.117087
0.159309 0.750136 0.119135
0.170027 0.745084 0.120554
0.185068 0.740188 0.122199
0.203218 0.734907 0.123754
0.223554 0.729159 0.125152
0.247227 0.723330 0.126417
0.274751 0.717664 0.127748
0.305201 0.712145 0.129015
0.337967 0.706839 0.130489
0.376332 0.701967 0.132137
0.417821 0.696489 0.133874
0.460665 0.690668 0.135539
0.509534 0.685880 0.137443
0.558143 0.682652 0.140064
0.610423 0.681153 0.142981
0.661608 0.677644 0.144534
0.704681 0.678585 0.147692
0.747000 0.681834 0.152259
0.784681 0.683450 0.155493
0.816186 0.685929 0.159701
0.841080 0.688466 0.164237
0.859304 0.689728 0.169666
0.869940 0.691400 0.176812
0.875133 0.691623 0.186756
0.878250 0.692900 0.207679
0.136594 0.782525 0.113119
0.136702 0.782291 0.113179
0.137113 0.781472 0.113403
0.137977 0.780059 0.113836
0.139555 0.778185 0.114539
0.142612 0.776132 0.115813
0.148046 0.774391 0.117933
0.153075 0.770852 0.119431
0.162099 0.767301 0.121292
0.173278 0.763173 0.123032
0.187750 0.758758 0.124798
0.203310 0.753661 0.126305
0.222918 0.748480 0.127862
0.245780 0.743083 0.129328
0.271627 0.737609 0.130987
0.300470 0.732331 0.132786
0.331180 0.727178 0.134423
0.367285 0.722323 0.136089
0.406835 0.717808 0.137776
0.447923 0.713875 0.139586
0.492479 0.710279 0.141340
0.539762 0.707280 0.143241
0.588775 0.705679 0.146082
0.639573 0.703185 0.147498
0.683507 0.701636 0.150190
0.727318 0.702437 0.154224
0.765723 0.703569 0.157312
0.801494 0.705048 0.161350
0.829513 0.706749 0.165875
0.851052 0.707783 0.170865
0.865977 0.708951 0.177387
0.872177 0.709594 0.186260
0.875767 0.711072 0.203139
0.140678 0.797928 0.114532
0.140793 0.797722 0.114592
0.141230 0.797000 0.114812
0.142136 0.795744 0.115317
0.143760 0.794045 0.116252
0.146546 0.792109 0.117653
0.151306 0.790296 0.119681
0.157634 0.787592 0.121541
0.165492 0.784075 0.123266
0.177224 0.780699 0.125376
0.189148 0.776222 0.126940
0.205004 0.771776 0.128708
0.224135 0.767093 0.130823
0.244646 0.761918 0.132671
0.268847 0.756725 0.134443
0.296347 0.751623 0.136258
0.325422 0.746684 0.138110
0.359786 0.741935 0.139878
0.398051 0.737466 0.141614
0.436424 0.733319 0.143374
0.478859 0.729733 0.145213
0.525140 0.726523 0.147076
0.569338 0.723815 0.149177
0.617238 0.721172 0.150660
0.666116 0.719307 0.153256
0.706723 0.718395 0.156695
0.747485 0.718163 0.159077
0.783835 0.719424 0.162967
0.817560 0.721015 0.167596
0.841794 0.722228 0.172289
0.860181 0.723304 0.178098
0.869228 0.724445 0.186294
0.873484 0.725476 0.200252
0.144222 0.812472 0.114838
0.144327 0.812283 0.114897
0.144723 0.811616 0.115149
0.145536 0.810442 0.115718
0.146978 0.808820 0.116631
0.149419 0.806898 0.117990
0.153805 0.804935 0.119944
0.160941 0.802734 0.122196
0.167590 0.799245 0.123808
0.178439 0.796023 0.126026
0.189610 0.791916 0.127745
0.205150 0.787812 0.129835
0.221138 0.783153 0.131911
0.241481 0.778493 0.134128
0.265162 0.773664 0.136203
0.290625 0.768718 0.137996
0.317757 0.763923 0.139906
0.349621 0.759294 0.141742
0.385765 0.754919 0.143583
0.422979 0.750833 0.145358
0.462989 0.747110 0.147183
0.506772 0.743840 0.149186
0.550572 0.741044 0.151350
0.596961 0.738693 0.153565
0.647654 0.736450 0.156113
0.688985 0.735148 0.159486
0.731703 0.734072 0.161388
0.766471 0.733546 0.164698
0.804763 0.734987 0.169128
0.831869 0.736261 0.173866
0.853903 0.737428 0.179058
0.866356 0.738356 0.186230
0.871304 0.739827 0.198496
0.147500 0.823268 0.115402
0.147599 0.823170 0.115481
0.147971 0.822825 0.115773
0.148729 0.822214 0.116332
0.150052 0.821359 0.117226
0.152336 0.820105 0.118549
0.156680 0.818238 0.120440
0.164508 0.816558 0.123105
0.170314 0.813300 0.124639
0.179509 0.810120 0.126712
0.191422 0.806707 0.128881
0.204329 0.802650 0.131081
0.220798 0.798515 0.133538
0.240083 0.794172 0.135950
0.260940 0.789582 0.138005
0.285773 0.784992 0.140088
0.312491 0.780415 0.142127
0.342643 0.775910 0.144123
0.376575 0.771615 0.145990
0.412662 0.767587 0.147934
0.449984 0.763869 0.149979
0.491173 0.760524 0.152049
0.534548 0.757537 0.154116
0.577813 0.755086 0.156374
0.626386 0.753024 0.158671
0.672341 0.751288 0.162010
0.713666 0.750335 0.163840
0.751183 0.749019 0.167101
0.788542 0.748728 0.170628
0.821210 0.749861 0.174961
0.846754 0.751157 0.180100
0.862240 0.752113 0.186427
0.869230 0.753451 0.197248
0.150511 0.830183 0.115802
0.150605 0.830099 0.115882
0.150958 0.829802 0.116173
0.151667 0.829272 0.116730
0.153070 0.828522 0.117618
0.155416 0.827596 0.118928
0.159584 0.826571 0.120793
0.166523 0.825578 0.123409
0.173226 0.824064 0.125447
0.181179 0.822274 0.127419
0.193892 0.820562 0.130289
0.204902 0.816697 0.132453
0.221787 0.812986 0.135325
0.238115 0.808792 0.137556
0.259387 0.804619 0.140051
0.282861 0.800296 0.142271
0.307593 0.795958 0.144390
0.335664 0.791654 0.146489
0.368105 0.787456 0.148633
0.403446 0.783500 0.150848
0.438925 0.779810 0.153033
0.477992 0.776450 0.155193
0.521147 0.773415 0.157317
0.561384 0.770731 0.159443
0.606698 0.768582 0.161798
0.656825 0.766780 0.164288
0.696537 0.766020 0.166210
0.736882 0.764433 0.169463
0.774022 0.763840 0.172655
0.810113 0.763321 0.176126
0.838706 0.764376 0.180852
0.857982 0.765464 0.186674
0.867410 0.766744 0.196434
0.153532 0.839077 0.114005
0.153623 0.838996 0.114064
0.153964 0.838708 0.114281
0.154653 0.838190 0.114698
0.155919 0.837440 0.115491
0.158093 0.836481 0.116842
0.161680 0.835358 0.118784
0.167731 0.834159 0.121542
0.175267 0.832752 0.124332
0.182017 0.830947 0.126273
0.192716 0.829136 0.128879
0.204749 0.827094 0.131721
0.218854 0.824865 0.134460
0.235968 0.822543 0.137228
0.255595 0.819739 0.139854
0.277150 0.815579 0.142227
0.302233 0.811421 0.144656
0.328558 0.807264 0.146888
0.358576 0.803181 0.149171
0.392426 0.799290 0.151481
0.426628 0.795654 0.153746
0.463768 0.792309 0.155982
0.504842 0.789296 0.158191
0.545787 0.786637 0.160382
