LUTs/negative-ultramax-400/Ultramax400_Modern_ExtraSoft.cube
TITLE "Kodak Ultramax 400 Modern ExtraSoft"
# Adobe RGB in/out. REPLACES AgX. Kodak Ultramax 400 Modern ExtraSoft.
LUT_3D_SIZE 33
DOMAIN_MIN 0.0 0.0 0.0
DOMAIN_MAX 1.0 1.0 1.0
0.057043 0.063015 0.079077
0.063227 0.064799 0.080584
0.065389 0.065258 0.080806
0.081569 0.067406 0.081837
0.170100 0.070710 0.082996
0.264188 0.072897 0.083739
0.428970 0.077662 0.085905
0.546337 0.082942 0.087832
0.591533 0.086505 0.088962
0.650090 0.091609 0.090490
0.698056 0.099600 0.093099
0.725340 0.106326 0.095045
0.747185 0.111535 0.096777
0.769148 0.119175 0.098949
0.787021 0.131334 0.102082
0.796496 0.139926 0.104228
0.804336 0.148002 0.106222
0.811262 0.158010 0.108638
0.817258 0.173444 0.111725
0.822299 0.179685 0.114130
0.826118 0.186119 0.117274
0.828948 0.194536 0.121112
0.831546 0.200599 0.125229
0.834029 0.197168 0.129715
0.835261 0.194419 0.136022
0.836105 0.188253 0.145923
0.837871 0.162675 0.164526
0.837662 0.150983 0.257408
0.840130 0.111669 0.590108
0.837600 0.110670 0.586278
0.835083 0.109722 0.582500
0.832577 0.108787 0.578473
0.832641 0.368351 0.661942
0.057668 0.067690 0.080058
0.059045 0.066729 0.080237
0.063774 0.065654 0.080424
0.078954 0.067964 0.081723
0.144559 0.071340 0.083028
0.227971 0.073388 0.083753
0.402431 0.078171 0.085909
0.529859 0.083540 0.087836
0.578242 0.087075 0.088963
0.638980 0.092093 0.090486
0.692590 0.100290 0.093084
0.720941 0.106947 0.095023
0.743628 0.112095 0.096758
0.766495 0.119843 0.098931
0.785600 0.132082 0.102059
0.795347 0.140830 0.104205
0.803403 0.148874 0.106200
0.810502 0.158943 0.108616
0.816636 0.174531 0.111697
0.821781 0.180751 0.114090
0.825683 0.187172 0.117228
0.828581 0.195746 0.121060
0.831233 0.201820 0.125166
0.833760 0.198374 0.129612
0.835028 0.195607 0.135877
0.835901 0.189292 0.145607
0.837690 0.163612 0.163792
0.837503 0.151528 0.253137
0.839993 0.111618 0.589902
0.837475 0.110623 0.586091
0.834969 0.109679 0.582328
0.832472 0.108748 0.578231
0.832544 0.368100 0.661819
0.057856 0.069000 0.080330
0.058233 0.068842 0.080660
0.059786 0.067902 0.080535
0.066129 0.069463 0.081486
0.090568 0.073610 0.082951
0.140794 0.075316 0.083682
0.298457 0.080212 0.085922
0.468666 0.086827 0.087953
0.533787 0.089553 0.089024
0.600260 0.094100 0.090505
0.672806 0.103082 0.093058
0.704880 0.109400 0.094969
0.730602 0.114268 0.096708
0.756345 0.122410 0.098882
0.780025 0.135587 0.101989
0.791147 0.144256 0.104136
0.799999 0.152153 0.106130
0.807738 0.162913 0.108543
0.814382 0.178591 0.111603
0.819909 0.184714 0.113951
0.824116 0.191355 0.117074
0.827261 0.200229 0.120881
0.830110 0.206341 0.124949
0.832795 0.202834 0.129254
0.834192 0.199995 0.135374
0.835170 0.193590 0.144517
0.837042 0.167092 0.161298
0.836935 0.153603 0.239052
0.839504 0.111436 0.589167
0.837029 0.110456 0.585420
0.834560 0.109526 0.581717
0.832097 0.108610 0.577364
0.832199 0.367200 0.661382
0.058619 0.076737 0.081087
0.058936 0.076580 0.081463
0.060347 0.075465 0.081783
0.062861 0.073657 0.081840
0.072645 0.077825 0.083025
0.089285 0.078836 0.083694
0.153283 0.083370 0.085861
0.332462 0.091288 0.087955
0.442293 0.093674 0.089090
0.535333 0.097987 0.090580
0.622739 0.109313 0.093105
0.674517 0.114974 0.094975
0.705549 0.120176 0.096689
0.736071 0.128386 0.098844
0.765083 0.143157 0.101915
0.783049 0.151339 0.104050
0.793483 0.158898 0.106035
0.802491 0.170961 0.108436
0.810137 0.186736 0.111457
0.816405 0.193101 0.113730
0.821201 0.200210 0.116820
0.824817 0.209080 0.120581
0.828038 0.215229 0.124582
0.831021 0.211585 0.128648
0.832660 0.208592 0.134518
0.833832 0.202014 0.142681
0.835858 0.173973 0.157243
0.835898 0.157922 0.216583
0.838617 0.111109 0.587835
0.836218 0.110152 0.584203
0.833817 0.109249 0.580605
0.831415 0.108362 0.575790
0.831569 0.365558 0.660586
0.060234 0.095275 0.082730
0.060502 0.095069 0.083003
0.061491 0.094252 0.083300
0.064482 0.091285 0.083554
0.069442 0.087597 0.083876
0.076319 0.083970 0.084097
0.102362 0.090113 0.085934
0.187060 0.097246 0.087998
0.307064 0.099500 0.089190
0.438086 0.105390 0.090675
0.552803 0.117091 0.093263
0.618466 0.123459 0.095121
0.669823 0.129302 0.096773
0.704801 0.140349 0.098891
0.738886 0.157247 0.101933
0.764249 0.165455 0.104022
0.782892 0.173538 0.105973
0.794091 0.185052 0.108342
0.803449 0.202480 0.111305
0.810951 0.208533 0.113478
0.816718 0.215217 0.116515
0.821098 0.223942 0.120204
0.824912 0.230055 0.124108
0.828361 0.226131 0.127860
0.830376 0.222845 0.133397
0.831844 0.215992 0.140487
0.834103 0.185520 0.152280
0.834365 0.167288 0.192992
0.837319 0.110634 0.585889
0.835030 0.109708 0.582423
0.832727 0.108843 0.578823
0.830414 0.108042 0.573482
0.830644 0.363150 0.659417
0.061272 0.115505 0.083841
0.061438 0.114712 0.084139
0.062521 0.113713 0.084503
0.064715 0.109130 0.085143
0.067881 0.101707 0.085103
0.073330 0.096415 0.085469
0.086495 0.098739 0.086434
0.124017 0.108921 0.088488
0.190108 0.109582 0.089387
0.315707 0.114651 0.090792
0.464506 0.128403 0.093361
0.546393 0.136296 0.095304
0.608996 0.143342 0.096992
0.668696 0.154375 0.099053
0.708594 0.173792 0.102017
0.737482 0.183916 0.104062
0.761736 0.194687 0.105986
0.781301 0.211251 0.108331
0.793401 0.229437 0.111223
0.802926 0.233737 0.113286
0.810269 0.239068 0.116241
0.815852 0.246831 0.119828
0.820570 0.252362 0.123609
0.824711 0.248119 0.127010
0.827276 0.244481 0.132166
0.829164 0.237569 0.138603
0.831747 0.206055 0.147264
0.832318 0.183345 0.173568
0.835618 0.110026 0.583349
0.833469 0.109127 0.580089
0.831293 0.108311 0.575511
0.831648 0.350870 0.570452
0.829422 0.359991 0.657407
0.063666 0.172478 0.086374
0.063917 0.173147 0.086619
0.064808 0.169465 0.087120
0.066259 0.156735 0.087359
0.069938 0.140940 0.087465
0.074564 0.127809 0.087523
0.083333 0.120054 0.087828
0.103886 0.125104 0.089226
0.135309 0.123678 0.089925
0.216350 0.129207 0.091233
0.366953 0.147220 0.093654
0.468459 0.155405 0.095666
0.540879 0.160863 0.097176
0.608295 0.174139 0.099203
0.672382 0.197579 0.102232
0.704979 0.210808 0.104276
0.734786 0.219012 0.106084
0.761238 0.233562 0.108339
0.781818 0.254638 0.111178
0.792775 0.262640 0.113188
0.801425 0.272477 0.116090
0.808495 0.282590 0.119567
0.814652 0.287202 0.123200
0.819847 0.281966 0.126266
0.823226 0.277379 0.131029
0.825712 0.269919 0.136850
0.828733 0.239365 0.143054
0.829727 0.213020 0.159852
0.833540 0.109327 0.580269
0.831557 0.108423 0.576130
0.829532 0.107661 0.571463
0.830019 0.346925 0.566738
0.827916 0.356126 0.654845
0.065921 0.274419 0.088756
0.066111 0.275172 0.088982
0.067502 0.276214 0.089703
0.069403 0.255089 0.090022
0.072328 0.229284 0.090146
0.077404 0.202604 0.090369
0.085530 0.181074 0.090484
0.098625 0.166508 0.090802
0.113042 0.148008 0.090658
0.157133 0.151866 0.091871
0.275579 0.173994 0.094300
0.387922 0.181892 0.096154
0.470458 0.186730 0.097578
0.546188 0.201410 0.099519
0.619529 0.227809 0.102517
0.670632 0.238429 0.104454
0.703140 0.247845 0.106258
0.733217 0.264806 0.108500
0.760540 0.286915 0.111280
0.781272 0.291822 0.113201
0.792294 0.299509 0.115998
0.800830 0.309409 0.119391
0.807849 0.318546 0.122933
0.813788 0.320421 0.125778
0.817872 0.323654 0.130240
0.821271 0.317031 0.135558
0.824893 0.292294 0.140594
0.826498 0.263756 0.152220
0.831125 0.108747 0.575409
0.829325 0.107622 0.571016
0.827470 0.106909 0.566755
0.828106 0.342214 0.562453
0.826144 0.351624 0.651839
0.067521 0.326567 0.089971
0.067776 0.327026 0.090137
0.068656 0.323103 0.090566
0.070201 0.309358 0.090988
0.072542 0.288105 0.091300
0.076503 0.261867 0.091481
0.083294 0.237387 0.091744
0.092089 0.215631 0.091953
0.107787 0.199055 0.092322
0.133031 0.188326 0.092803
0.210426 0.212406 0.095206
0.304851 0.219282 0.096829
0.399605 0.222774 0.098143
0.487778 0.236288 0.099932
0.562751 0.262176 0.102984
0.620323 0.271594 0.104820
0.669823 0.280837 0.106541
0.703605 0.297224 0.108709
0.735337 0.316334 0.111455
0.760264 0.322997 0.113397
0.779475 0.332518 0.116159
0.791299 0.339739 0.119402
0.800290 0.347296 0.122799
0.807651 0.347434 0.125485
0.812754 0.349614 0.129619
0.816557 0.351935 0.134665
0.820449 0.342903 0.139682
0.822457 0.335806 0.149263
0.828551 0.116937 0.571187
0.826821 0.107024 0.565487
0.825145 0.106125 0.561584
0.825942 0.337192 0.557661
0.824134 0.346574 0.648437
0.070012 0.399777 0.091797
0.070127 0.398184 0.091888
0.070601 0.390366 0.092159
0.071850 0.377848 0.092622
0.073715 0.358982 0.092984
0.077638 0.337271 0.093234
0.083549 0.314879 0.093467
0.090943 0.292428 0.093686
0.104682 0.270635 0.094048
0.123438 0.253723 0.094576
0.175186 0.266958 0.096604
0.245121 0.263645 0.097689
0.328208 0.263975 0.098795
0.422317 0.275672 0.100484
0.513773 0.302182 0.103592
0.568142 0.308721 0.105301
0.623035 0.314979 0.106945
0.672820 0.327470 0.109029
0.707565 0.348108 0.111787
0.735616 0.354930 0.113760
0.760908 0.361329 0.116337
0.780050 0.373402 0.119533
0.790873 0.386258 0.122872
0.799904 0.387436 0.125417
0.806555 0.387142 0.129245
0.811438 0.387648 0.133939
0.816131 0.377266 0.138442
0.818725 0.368151 0.146131
0.821284 0.348621 0.158530
0.822595 0.329371 0.203430
0.823919 0.287512 0.518144
0.823563 0.331989 0.555259
0.821918 0.341135 0.644697
0.073073 0.472028 0.094632
0.073140 0.469894 0.094699
0.073497 0.463613 0.094986
0.075000 0.457019 0.095642
0.077439 0.444907 0.096185
0.081277 0.429199 0.096640
0.086786 0.412353 0.097038
0.095299 0.394958 0.097375
0.108078 0.371342 0.097689
0.127340 0.350817 0.098112
0.159258 0.334949 0.098647
0.210144 0.320376 0.099085
0.275281 0.309282 0.099607
0.366829 0.317472 0.101300
0.458521 0.339639 0.104342
0.523523 0.344416 0.105945
0.575203 0.349232 0.107446
0.632053 0.361829 0.109433
0.679519 0.384145 0.112224
0.709738 0.388970 0.114221
0.737461 0.396572 0.116748
0.761440 0.405770 0.119856
0.781096 0.412172 0.123012
0.791784 0.413943 0.125453
0.799427 0.418033 0.129152
0.805173 0.423236 0.133583
0.811056 0.415147 0.137634
0.814473 0.407504 0.143805
0.817583 0.392836 0.153504
0.819354 0.367841 0.177893
0.821073 0.300915 0.454140
0.821012 0.326978 0.558363
0.819533 0.323940 0.558178
0.075166 0.516024 0.096594
0.075254 0.514277 0.096651
0.075686 0.508590 0.096882
0.077038 0.502206 0.097430
0.079082 0.491198 0.097945
0.082714 0.478008 0.098472
0.087621 0.462934 0.098976
0.095181 0.445875 0.099313
0.106550 0.429179 0.099643
0.121895 0.413760 0.099983
0.148748 0.400126 0.100392
0.192001 0.386506 0.101005
0.241378 0.363558 0.101087
0.312863 0.359861 0.102343
0.410653 0.382853 0.105227
0.478221 0.385529 0.106674
0.534205 0.389308 0.108115
0.588264 0.399118 0.110016
0.647444 0.413511 0.112708
0.683175 0.416212 0.114812
0.712790 0.422685 0.117331
0.740618 0.430024 0.120268
0.764196 0.438736 0.123360
0.782109 0.442371 0.125728
0.791924 0.444166 0.129269
0.799149 0.447615 0.133451
0.805664 0.445679 0.137210
0.809644 0.445152 0.142472
0.813324 0.436210 0.150776
0.815741 0.417259 0.164691
0.817938 0.338210 0.330426
0.818332 0.321004 0.552450
0.817018 0.318627 0.555482
0.077107 0.541931 0.097978
0.077181 0.540793 0.098029
0.077531 0.537185 0.098230
0.078568 0.532570 0.098686
0.080739 0.526423 0.099252
0.083886 0.518258 0.099806
0.087883 0.504923 0.100273
0.094625 0.489256 0.100706
0.104801 0.473230 0.101175
0.116547 0.457362 0.101623
0.139793 0.442849 0.102114
0.172447 0.429899 0.102637
0.221595 0.419382 0.103333
0.285585 0.412579 0.104211
0.368104 0.418609 0.106247
0.433109 0.419340 0.107565
0.498931 0.420646 0.108855
0.550203 0.428019 0.110699
0.607181 0.441526 0.113709
0.656598 0.443386 0.115615
0.688303 0.448548 0.117931
0.718097 0.456595 0.120846
0.744640 0.466217 0.123889
0.767848 0.467730 0.126135
0.783369 0.472633 0.129615
0.791847 0.479291 0.133690
0.799948 0.475297 0.137056
0.804940 0.472888 0.141559
0.809142 0.468336 0.148956
0.811865 0.462088 0.160121
0.813902 0.455354 0.190329
0.815568 0.315055 0.546406
0.814413 0.313361 0.553835
0.079789 0.574599 0.099741
0.079872 0.573617 0.099787
0.080243 0.570428 0.099969
0.081255 0.566004 0.100364
0.083358 0.561557 0.101100
0.085934 0.553791 0.101812
0.089408 0.544529 0.102460
0.096433 0.534311 0.103093
0.105568 0.523246 0.103648
0.116096 0.510169 0.104098
0.136863 0.494951 0.104535
0.165412 0.481100 0.105069
0.208469 0.468701 0.105594
0.263413 0.458471 0.106275
0.338107 0.462769 0.108128
0.398799 0.453014 0.108650
0.455978 0.451570 0.109724
0.517877 0.457631 0.111500
0.571555 0.470568 0.114736
0.618649 0.472177 0.116630
0.664933 0.476453 0.118815
0.695524 0.484329 0.121563
0.724561 0.492648 0.124460
0.750236 0.495886 0.126805
0.770520 0.501385 0.130148
0.784590 0.505943 0.133951
0.793710 0.506213 0.137172
0.799497 0.508390 0.141267
0.804720 0.502248 0.147702
0.808125 0.493905 0.156674
0.810617 0.483928 0.175465
0.811953 0.476677 0.307491
0.812377 0.479267 0.551587
0.083565 0.614605 0.102469
0.083643 0.614051 0.102529
0.083979 0.611833 0.102758
0.084840 0.607717 0.103243
0.086834 0.604253 0.104128
0.088953 0.596794 0.104801
0.093571 0.588997 0.105561
0.100448 0.579504 0.106187
0.108860 0.569089 0.106799
0.120379 0.558138 0.107317
0.140849 0.547216 0.107840
0.168634 0.536630 0.108286
0.209701 0.526847 0.108825
0.260415 0.518187 0.109365
0.316170 0.508890 0.110031
0.375503 0.496921 0.110403
0.423881 0.486832 0.110859
0.485554 0.489478 0.112514
0.540940 0.501442 0.115936
0.585034 0.502091 0.117667
0.632609 0.505846 0.119801
0.673959 0.513284 0.122463
0.704009 0.519475 0.125202
0.731122 0.522312 0.127649
0.755413 0.525359 0.130779
0.773789 0.530370 0.134495
0.787045 0.530847 0.137508
0.794283 0.530843 0.141255
0.800107 0.530431 0.147143
0.804024 0.529390 0.154766
0.807125 0.521351 0.167180
0.808889 0.508796 0.224122
0.809688 0.483536 0.537509
0.085740 0.631008 0.104032
0.085809 0.630541 0.104087
0.086101 0.628974 0.104294
0.086818 0.626570 0.104723
0.088400 0.624187 0.105484
0.090615 0.620459 0.106243
0.095870 0.616401 0.107119
0.101582 0.609012 0.107698
0.109118 0.599456 0.108313
0.119486 0.589515 0.108947
0.137718 0.578926 0.109415
0.161065 0.568524 0.109905
0.197933 0.558790 0.110416
0.243378 0.549653 0.110956
0.295969 0.541672 0.111608
0.351962 0.534790 0.112381
0.403675 0.526373 0.112783
0.454883 0.523171 0.114275
0.514976 0.528724 0.117289
0.556087 0.528749 0.118922
0.600734 0.530569 0.120856
0.649822 0.535416 0.123441
0.683993 0.540569 0.126165
0.712146 0.542761 0.128607
0.738290 0.546251 0.131619
0.760495 0.551268 0.135185
0.779417 0.551820 0.137976
0.788337 0.554145 0.141709
0.795366 0.553632 0.147042
0.800154 0.550967 0.153560
0.803608 0.548560 0.163517
0.805630 0.547191 0.192967
0.806920 0.516607 0.479485
0.087751 0.646213 0.105424
0.087813 0.645807 0.105474
0.088069 0.644431 0.105661
0.088676 0.642249 0.106042
0.089962 0.639883 0.106705
0.093216 0.637216 0.107541
0.097228 0.632946 0.108265
0.102684 0.628193 0.108986
0.109621 0.622803 0.109653
0.118660 0.616732 0.110266
0.135258 0.608948 0.110845
0.155294 0.598980 0.111436
0.188709 0.589322 0.112003
0.228664 0.580211 0.112631
0.278371 0.571772 0.113417
0.328423 0.564351 0.114325
0.387613 0.558000 0.115381
0.434157 0.554023 0.116769
0.492973 0.555469 0.119217
0.531085 0.551470 0.120182
0.573179 0.552952 0.122065
0.619637 0.557117 0.124516
0.665052 0.562001 0.127442
0.693415 0.563754 0.129724
0.720704 0.567398 0.132628
0.745614 0.571738 0.135993
0.767715 0.573542 0.138668
0.782235 0.575233 0.142288
0.790458 0.575971 0.147266
0.795938 0.576330 0.153140
0.800131 0.573083 0.161304
0.802634 0.569014 0.180851
0.804034 0.568905 0.327925
0.090081 0.663327 0.107128
0.090139 0.662976 0.107174
0.090466 0.661777 0.107346
0.091360 0.659831 0.107692
0.093190 0.657577 0.108282
0.096731 0.655764 0.109198
0.099944 0.651500 0.109815
0.105346 0.647705 0.110655
0.111517 0.642780 0.111422
0.120403 0.637269 0.112136
0.135904 0.631557 0.112891
0.154625 0.625611 0.113788
0.185723 0.619593 0.114691
0.222297 0.613578 0.115439
0.268019 0.605422 0.116348
0.315108 0.597573 0.117220
0.370283 0.590582 0.118139
0.417209 0.584687 0.119212
0.471264 0.585358 0.121588
0.513159 0.578792 0.122149
0.548995 0.575502 0.123289
0.593013 0.579262 0.125671
0.639702 0.583666 0.128827
0.675476 0.585034 0.130974
0.703396 0.588600 0.133775
0.729964 0.592640 0.136980
0.754897 0.594600 0.139486
0.772965 0.596552 0.143137
0.785104 0.598939 0.147876
0.791900 0.597815 0.153075
0.796652 0.597303 0.160218
0.799529 0.597464 0.174495
0.801358 0.592881 0.246729
0.094462 0.682132 0.109205
0.094557 0.681833 0.109248
0.094932 0.680805 0.109409
0.095764 0.679105 0.109729
0.097400 0.677045 0.110266
0.100516 0.675251 0.111146
0.103843 0.671936 0.111974
0.108742 0.668449 0.113001
0.114304 0.664003 0.114159
0.125040 0.659344 0.115342
0.139953 0.654094 0.116356
0.158920 0.648597 0.117399
0.187834 0.642885 0.118289
0.223054 0.637276 0.119159
0.265821 0.631810 0.119974
0.311859 0.626804 0.120944
0.362568 0.622118 0.121858
0.409235 0.617784 0.122772
0.453043 0.614209 0.123880
0.497813 0.607839 0.124341
0.531890 0.603142 0.125264
0.569579 0.601623 0.127187
0.613861 0.605566 0.130260
0.658198 0.606661 0.132311
0.686614 0.609572 0.134971
0.714162 0.613344 0.138083
0.741007 0.614464 0.140405
0.762290 0.616256 0.144242
0.779156 0.617286 0.148548
0.787588 0.617801 0.153420
0.793188 0.618055 0.159814
0.796662 0.616893 0.170773
0.798736 0.617510 0.210813
0.097236 0.694852 0.110059
0.097322 0.694652 0.110100
0.097660 0.693958 0.110253
0.098397 0.692789 0.110554
0.099810 0.690905 0.111082
0.102426 0.688987 0.111988
0.105871 0.686466 0.112999
0.109798 0.682836 0.114175
0.115308 0.679159 0.115510
0.125687 0.674896 0.116759
0.138614 0.669921 0.117775
0.154849 0.664820 0.118824
0.181612 0.659552 0.119823
0.214082 0.654246 0.120749
0.253439 0.649071 0.121660
0.297771 0.644042 0.122516
0.343495 0.639442 0.123474
0.393813 0.635272 0.124431
0.433763 0.631431 0.125357
0.478925 0.628274 0.126639
0.517589 0.624845 0.127710
0.552967 0.623492 0.129699
0.591446 0.622800 0.131873
0.633065 0.623028 0.133697
0.670906 0.624640 0.136263
0.698585 0.626826 0.139238
0.726475 0.627886 0.141594
0.750087 0.629673 0.145477
0.770462 0.630852 0.149483
0.783072 0.631790 0.153985
0.789780 0.631947 0.159670
0.793759 0.632414 0.168889
0.796254 0.632300 0.194874
0.100081 0.704914 0.110975
0.100161 0.704738 0.111022
0.100473 0.704126 0.111195
0.101141 0.703081 0.111533
0.102391 0.701720 0.112086
0.104643 0.700296 0.112967
0.108245 0.698919 0.114482
0.111487 0.696246 0.115541
0.117314 0.693995 0.117073
0.126349 0.690090 0.118131
0.139161 0.685833 0.119353
0.154808 0.681239 0.120505
0.179075 0.676236 0.121538
0.208805 0.671161 0.122470
0.245162 0.666225 0.123448
0.288241 0.661416 0.124378
0.329419 0.656789 0.125263
0.379756 0.652539 0.126327
0.419463 0.648767 0.127600
0.460574 0.645295 0.128817
0.505066 0.642432 0.130205
0.538363 0.640498 0.132108
0.574809 0.639598 0.134215
0.611515 0.637490 0.135334
0.653926 0.638055 0.137579
0.683791 0.640007 0.140482
0.711951 0.640976 0.143110
0.737439 0.642462 0.146762
0.760866 0.643979 0.150599
0.777138 0.644734 0.154645
0.786234 0.645732 0.159933
0.791007 0.645866 0.167734
0.793873 0.646628 0.187454
0.103103 0.714967 0.112246
0.103181 0.714816 0.112291
0.103479 0.714289 0.112460
0.104104 0.713379 0.112786
0.105245 0.712172 0.113495
0.107243 0.710848 0.114585
0.110731 0.709725 0.116175
0.113830 0.707438 0.117294
0.119658 0.705142 0.118680
0.129105 0.702468 0.119971
0.141462 0.699603 0.121277
0.154896 0.696290 0.122388
0.178297 0.692916 0.123532
0.206949 0.688350 0.124594
0.240935 0.683590 0.125549
0.281713 0.678997 0.126803
0.320699 0.674512 0.128002
0.367729 0.670284 0.129218
0.408893 0.666351 0.130447
0.448366 0.662923 0.131761
0.490997 0.659789 0.133031
0.525334 0.657174 0.134403
0.559823 0.655777 0.136445
0.594715 0.653602 0.137455
0.633056 0.652250 0.139171
0.669675 0.652949 0.142009
0.697814 0.653936 0.144689
0.724437 0.655226 0.148191
0.749978 0.656711 0.151822
0.769670 0.657612 0.155534
0.782680 0.658630 0.160357
0.788291 0.659192 0.167268
0.791589 0.660480 0.183166
0.105997 0.724849 0.113487
0.106071 0.724718 0.113549
0.106353 0.724256 0.113775
0.106937 0.723452 0.114212
0.107982 0.722363 0.114915
0.109771 0.721123 0.115965
0.112815 0.719960 0.117481
0.116212 0.718224 0.118865
0.122517 0.715964 0.120144
0.132461 0.713791 0.121703
0.142663 0.710906 0.122855
0.156874 0.708036 0.124152
0.179787 0.705007 0.125455
0.205499 0.701654 0.126719
0.237196 0.698283 0.128016
0.275401 0.694964 0.129342
0.313624 0.691481 0.130690
0.357833 0.687352 0.131973
0.400434 0.683465 0.133229
0.437335 0.679857 0.134499
0.477984 0.676736 0.135822
0.514884 0.673942 0.137158
0.546242 0.671584 0.138526
0.579497 0.669281 0.139469
0.615946 0.667657 0.141167
0.655941 0.666863 0.144154
0.684154 0.666660 0.146221
0.711322 0.667759 0.149592
0.738732 0.669145 0.153105
0.761539 0.670201 0.156590
0.777964 0.671139 0.160881
0.785580 0.672132 0.167300
0.789491 0.673030 0.180442
0.108279 0.734130 0.113802
0.108346 0.734009 0.113863
0.108600 0.733585 0.114085
0.109123 0.732837 0.114513
0.110047 0.731804 0.115199
0.111610 0.730579 0.116217
0.114233 0.729327 0.117677
0.118685 0.727922 0.119351
0.124288 0.725692 0.120546
0.133496 0.723630 0.122182
0.143060 0.720999 0.123446
0.157044 0.718365 0.124886
0.176127 0.715370 0.126161
0.201470 0.712370 0.127786
0.232269 0.709255 0.129302
0.267022 0.706059 0.130607
0.304027 0.702954 0.131993
0.344525 0.699951 0.133321
0.389759 0.697109 0.134649
0.424421 0.694449 0.135926
0.462800 0.691851 0.137234
0.503387 0.689008 0.138532
0.533011 0.686577 0.139907
0.565507 0.684533 0.141436
0.600203 0.682582 0.143649
0.638452 0.681449 0.146575
0.672286 0.680513 0.148224
0.698373 0.680055 0.150943
0.726859 0.681309 0.154245
0.752195 0.682417 0.157758
0.772159 0.683432 0.161587
0.782941 0.684239 0.167240
0.787488 0.685519 0.178787
0.110382 0.742132 0.114275
0.110445 0.742027 0.114335
0.110684 0.741658 0.114554
0.111169 0.741004 0.114974
0.112015 0.740090 0.115645
0.113421 0.738980 0.116635
0.115737 0.737795 0.118046
0.121687 0.736728 0.120025
0.126593 0.734656 0.121160
0.134409 0.732632 0.122687
0.144619 0.730457 0.124279
0.156085 0.727868 0.125602
0.175713 0.725225 0.127354
0.199699 0.722445 0.129117
0.226669 0.719501 0.130614
0.260272 0.716553 0.132125
0.297381 0.713608 0.133600
0.335460 0.710705 0.135038
0.380081 0.707932 0.136380
0.414500 0.705327 0.137734
0.450341 0.702919 0.139037
0.489750 0.700750 0.140349
0.521617 0.698810 0.141915
0.552179 0.697217 0.143876
0.585721 0.695876 0.145868
0.622067 0.694745 0.148763
0.661568 0.694125 0.150302
0.686929 0.693267 0.152736
0.714823 0.693078 0.155359
0.742165 0.693816 0.158567
0.765918 0.694660 0.162353
0.779902 0.695283 0.167425
0.785581 0.696154 0.177611
0.112308 0.749536 0.114577
0.112368 0.749446 0.114636
0.112593 0.749127 0.114855
0.113046 0.748559 0.115273
0.113827 0.747757 0.115939
0.115106 0.746764 0.116918
0.117545 0.745667 0.118308
0.123386 0.744604 0.120250
0.129061 0.742984 0.121756
0.135835 0.741068 0.123207
0.146747 0.739270 0.125148
0.156754 0.736816 0.126559
0.176917 0.734457 0.128661
0.197203 0.731786 0.130287
0.224620 0.729125 0.132098
0.256250 0.726364 0.133703
0.291232 0.723589 0.135230
0.326454 0.720831 0.136737
0.368817 0.718137 0.138180
0.405630 0.715594 0.139588
0.439735 0.713218 0.140974
0.477154 0.711053 0.142850
0.512092 0.709095 0.144694
0.540648 0.707361 0.146538
0.572241 0.705971 0.148579
0.606817 0.704805 0.150637
0.645894 0.704313 0.152072
0.676186 0.703284 0.154494
0.704011 0.702900 0.156861
0.731728 0.702564 0.159427
0.758631 0.703248 0.162905
0.775894 0.703953 0.167658
0.783910 0.704782 0.176844
0.114082 0.759076 0.112946
0.114132 0.758989 0.113007
0.114321 0.758680 0.113230
0.114700 0.758124 0.113658
0.115357 0.757319 0.114343
0.116441 0.756290 0.115357
0.119306 0.755085 0.116811
0.124407 0.753798 0.118866
0.130796 0.752290 0.120933
0.136551 0.750354 0.122365
0.145733 0.748414 0.124278
0.156576 0.746227 0.126021
0.173355 0.743841 0.128029
0.194491 0.741356 0.130048
0.219647 0.738748 0.131956
0.248425 0.736106 0.133672
0.284428 0.733460 0.135421
0.317375 0.730812 0.137023
0.356243 0.728207 0.138523
0.395523 0.725720 0.139989
0.427928 0.723394 0.141593
0.463546 0.721251 0.143535
0.502211 0.719318 0.145452
0.529618 0.717611 0.147352
