LUTs/negative-ultramax-400/Ultramax400_Modern_ExtraPunchy.cube
TITLE "Kodak Ultramax 400 Modern ExtraPunchy"
# Adobe RGB in/out. REPLACES AgX. Kodak Ultramax 400 Modern ExtraPunchy.
LUT_3D_SIZE 33
DOMAIN_MIN 0.0 0.0 0.0
DOMAIN_MAX 1.0 1.0 1.0
0.069662 0.073299 0.081842
0.070652 0.072266 0.080438
0.072318 0.072293 0.079506
0.086521 0.073814 0.078171
0.192200 0.077762 0.078326
0.275220 0.080136 0.078575
0.423912 0.085117 0.079151
0.563447 0.091895 0.079933
0.610131 0.095495 0.080294
0.666601 0.101070 0.080824
0.723721 0.110742 0.081661
0.759465 0.118660 0.082695
0.783365 0.125898 0.083614
0.804364 0.137083 0.085154
0.825196 0.153228 0.087386
0.839407 0.162123 0.089082
0.847472 0.170150 0.090917
0.854046 0.180015 0.093145
0.859734 0.193915 0.096754
0.864512 0.200149 0.098950
0.868129 0.206552 0.102254
0.870810 0.214216 0.107098
0.873269 0.219428 0.112367
0.875619 0.216482 0.117511
0.876784 0.214115 0.125345
0.877583 0.208670 0.136555
0.879253 0.183817 0.159356
0.879055 0.173098 0.267232
0.881390 0.126084 0.598114
0.878997 0.124690 0.593586
0.876616 0.123369 0.589123
0.874245 0.122069 0.584149
0.874305 0.363681 0.685473
0.068115 0.074159 0.081842
0.067974 0.073222 0.081693
0.071061 0.072403 0.081026
0.084391 0.074493 0.078246
0.166903 0.078442 0.078335
0.243942 0.080642 0.078580
0.393193 0.085636 0.079152
0.540383 0.092489 0.079934
0.596330 0.096118 0.080294
0.657922 0.101599 0.080822
0.716603 0.111341 0.081656
0.753678 0.119519 0.082684
0.780040 0.126680 0.083604
0.801698 0.138030 0.085140
0.823071 0.154175 0.087372
0.837680 0.163025 0.089061
0.846585 0.171013 0.090897
0.853325 0.180858 0.093125
0.859144 0.195003 0.096724
0.864021 0.201211 0.098918
0.867718 0.207597 0.102197
0.870462 0.215259 0.107032
0.872973 0.220474 0.112286
0.875364 0.217519 0.117384
0.876564 0.215139 0.125163
0.877390 0.209680 0.136176
0.879082 0.184557 0.158392
0.878905 0.173635 0.262616
0.881260 0.126013 0.597870
0.878879 0.124625 0.593364
0.876508 0.123309 0.588921
0.874146 0.122015 0.583919
0.874214 0.363459 0.685316
0.067874 0.075755 0.081360
0.067457 0.075561 0.080113
0.068266 0.074417 0.080642
0.072955 0.076419 0.078400
0.098322 0.080870 0.078313
0.162808 0.082724 0.078552
0.303106 0.088077 0.079157
0.470369 0.095847 0.079972
0.546030 0.098825 0.080313
0.619209 0.104101 0.080830
0.690961 0.114194 0.081648
0.732628 0.122921 0.082658
0.766398 0.129986 0.083576
0.791918 0.141678 0.085100
0.815296 0.157783 0.087331
0.831376 0.166434 0.088997
0.843352 0.174252 0.090833
0.850702 0.184005 0.093057
0.857006 0.199058 0.096623
0.862247 0.205155 0.098810
0.866233 0.211467 0.102004
0.869212 0.219110 0.106803
0.871909 0.224332 0.112006
0.874451 0.221340 0.116945
0.875773 0.218910 0.124533
0.876698 0.213399 0.134868
0.878469 0.187546 0.155302
0.878368 0.175682 0.246994
0.880798 0.125759 0.597001
0.878457 0.124391 0.592572
0.876122 0.123097 0.588199
0.873791 0.121823 0.583099
0.873887 0.362665 0.684758
0.067736 0.084175 0.078704
0.067913 0.084014 0.078414
0.068544 0.082877 0.078206
0.070378 0.080919 0.078169
0.078117 0.085284 0.078334
0.096223 0.086314 0.078558
0.177196 0.092337 0.079133
0.333158 0.100720 0.079972
0.439465 0.103517 0.080334
0.548258 0.109339 0.080860
0.642593 0.122800 0.081662
0.693171 0.131157 0.082661
0.733502 0.138502 0.083565
0.772971 0.149503 0.085070
0.800278 0.165342 0.087287
0.819261 0.173450 0.088918
0.834881 0.180822 0.090745
0.845719 0.191429 0.092959
0.852978 0.207164 0.096467
0.858925 0.212978 0.098637
0.863471 0.219094 0.101686
0.866897 0.226661 0.106423
0.869948 0.231866 0.111534
0.872772 0.228786 0.116200
0.874324 0.226247 0.123464
0.875432 0.220639 0.133157
0.877350 0.194445 0.150306
0.877388 0.179928 0.222281
0.879959 0.125302 0.595425
0.877690 0.123967 0.591134
0.875419 0.122711 0.586872
0.873145 0.121479 0.581608
0.873291 0.361215 0.683742
0.068471 0.105714 0.078248
0.068678 0.105432 0.078328
0.069493 0.104309 0.078415
0.071588 0.100717 0.078501
0.075109 0.096689 0.078611
0.081802 0.092851 0.078662
0.114458 0.099437 0.079162
0.206489 0.108432 0.079986
0.310959 0.110655 0.080366
0.434545 0.117367 0.080898
0.570111 0.134137 0.081719
0.638147 0.143174 0.082731
0.687111 0.150660 0.083612
0.732525 0.162544 0.085108
0.775605 0.179266 0.087297
0.799439 0.186008 0.088893
0.819026 0.194010 0.090688
0.835793 0.205492 0.092872
0.846629 0.221038 0.096305
0.853751 0.226197 0.098440
0.859221 0.231856 0.101305
0.863373 0.239186 0.105945
0.866987 0.244285 0.110925
0.870254 0.241016 0.115233
0.872162 0.238269 0.122069
0.873551 0.232509 0.130969
0.875689 0.205957 0.144241
0.875937 0.187744 0.194485
0.878732 0.124640 0.593125
0.876566 0.123349 0.589032
0.874387 0.122146 0.584480
0.872198 0.121035 0.579422
0.872415 0.359088 0.682123
0.069345 0.131905 0.078603
0.069460 0.130779 0.078672
0.070123 0.128999 0.078756
0.071768 0.122545 0.078904
0.073909 0.112663 0.078895
0.079004 0.107284 0.078979
0.092350 0.109994 0.079359
0.145132 0.122255 0.080143
0.209249 0.123175 0.080429
0.318823 0.130670 0.080943
0.465578 0.149525 0.081790
0.563504 0.158494 0.082819
0.628295 0.165525 0.083735
0.685658 0.176442 0.085239
0.737485 0.194263 0.087348
0.774292 0.204362 0.088930
0.796947 0.214346 0.090701
0.816652 0.228503 0.092862
0.834757 0.243771 0.096217
0.846133 0.247470 0.098289
0.853104 0.252101 0.100963
0.858400 0.258812 0.105470
0.862873 0.263571 0.110285
0.866797 0.259922 0.114320
0.869226 0.256785 0.120539
0.871014 0.250801 0.128588
0.873459 0.224089 0.138169
0.874000 0.203794 0.169250
0.877123 0.123792 0.590126
0.875089 0.122542 0.586114
0.873030 0.121408 0.581344
0.873366 0.348218 0.576551
0.871259 0.356296 0.679572
0.070980 0.192948 0.079336
0.071168 0.193618 0.079432
0.071844 0.189928 0.079629
0.073053 0.178762 0.079733
0.075553 0.163134 0.079780
0.080315 0.148775 0.079806
0.088321 0.138328 0.079932
0.116806 0.145363 0.080378
0.157051 0.143486 0.080599
0.233383 0.150540 0.081081
0.359751 0.169375 0.082003
0.470182 0.177456 0.082992
0.556270 0.182382 0.083838
0.627566 0.194611 0.085359
0.690413 0.216836 0.087475
0.732757 0.228127 0.089127
0.771768 0.235052 0.090790
0.796483 0.247318 0.092869
0.817424 0.265524 0.096170
0.833817 0.272365 0.098213
0.844707 0.280725 0.100775
0.851420 0.288628 0.105140
0.857262 0.292039 0.109761
0.862188 0.288166 0.113570
0.865390 0.284757 0.119133
0.867745 0.278556 0.126383
0.870606 0.252359 0.133501
0.871547 0.230000 0.153516
0.875156 0.122820 0.586378
0.873279 0.121563 0.581930
0.871362 0.120506 0.577509
0.871824 0.344718 0.573030
0.869832 0.352875 0.676435
0.072765 0.282369 0.080228
0.072942 0.283005 0.080300
0.073716 0.283886 0.080529
0.075073 0.265910 0.080637
0.077706 0.243644 0.080687
0.082908 0.221144 0.080776
0.091117 0.201533 0.080822
0.109177 0.186960 0.080946
0.131184 0.170156 0.080891
0.181038 0.173969 0.081280
0.283779 0.194465 0.082337
0.376549 0.202348 0.083265
0.471988 0.207158 0.084063
0.563293 0.220122 0.085615
0.639253 0.242415 0.087645
0.688155 0.251547 0.089290
0.730354 0.259687 0.090951
0.769848 0.274210 0.093018
0.795832 0.291827 0.096278
0.816609 0.295440 0.098222
0.833096 0.301067 0.100659
0.844141 0.309785 0.104917
0.850807 0.318367 0.109419
0.856442 0.320126 0.113076
0.860315 0.323158 0.118159
0.863537 0.316946 0.124764
0.866969 0.295787 0.131106
0.868489 0.273316 0.144168
0.872870 0.122014 0.581247
0.871167 0.120452 0.577085
0.869410 0.119466 0.573046
0.870013 0.340529 0.568919
0.868154 0.348887 0.672757
0.073725 0.325889 0.080617
0.073855 0.326319 0.080683
0.074402 0.322642 0.080854
0.075789 0.309737 0.081005
0.077982 0.292705 0.081102
0.081989 0.271706 0.081159
0.088272 0.250643 0.081241
0.100355 0.232205 0.081306
0.122877 0.218104 0.081420
0.154655 0.208742 0.081569
0.227967 0.229480 0.082772
0.308942 0.235279 0.083644
0.389943 0.238208 0.084503
0.487613 0.249688 0.085948
0.580364 0.271970 0.087938
0.640079 0.279977 0.089627
0.687111 0.287328 0.091212
0.730962 0.299399 0.093210
0.772284 0.316291 0.096465
0.795574 0.322543 0.098377
0.814744 0.331461 0.100860
0.831603 0.338216 0.104932
0.843628 0.345047 0.109247
0.850619 0.345169 0.112698
0.855462 0.347104 0.117394
0.859069 0.349163 0.123648
0.862759 0.341144 0.129950
0.864661 0.334538 0.140581
0.870433 0.133920 0.577248
0.868795 0.119624 0.571841
0.867208 0.118381 0.568083
0.867963 0.335835 0.564304
0.866250 0.344406 0.668598
0.075619 0.393575 0.081257
0.075722 0.391498 0.081285
0.076147 0.383043 0.081370
0.077263 0.372048 0.081513
0.079503 0.355404 0.081625
0.083146 0.335909 0.081702
0.088595 0.314924 0.081867
0.098822 0.295885 0.082026
0.118039 0.279164 0.082215
0.144517 0.264739 0.082470
0.196520 0.276042 0.083517
0.259375 0.273222 0.084136
0.329560 0.273503 0.085030
0.416179 0.283428 0.086394
0.517434 0.303296 0.088497
0.585921 0.309155 0.090069
0.642901 0.315019 0.091584
0.690979 0.326735 0.093535
0.736138 0.345768 0.096820
0.772546 0.351816 0.098660
0.796175 0.357479 0.101083
0.815321 0.368133 0.105097
0.830964 0.379438 0.109341
0.843262 0.380473 0.112610
0.849579 0.380214 0.116933
0.854213 0.380659 0.122743
0.858665 0.371536 0.128385
0.861124 0.363504 0.136806
0.863550 0.346223 0.151888
0.864792 0.328516 0.207521
0.866046 0.292268 0.526168
0.865709 0.330967 0.561990
0.864150 0.339521 0.664031
0.078670 0.473207 0.082496
0.078757 0.470884 0.082529
0.079220 0.464052 0.082667
0.080681 0.456889 0.082981
0.082943 0.443755 0.083282
0.086284 0.426767 0.083537
0.092722 0.408607 0.083761
0.104670 0.387299 0.083950
0.123332 0.366318 0.084136
0.148650 0.348172 0.084478
0.182883 0.333737 0.084910
0.227708 0.320084 0.085264
0.283556 0.309665 0.085686
0.359658 0.317359 0.086921
0.458519 0.338123 0.089188
0.531309 0.342489 0.090662
0.593198 0.346766 0.092046
0.652280 0.357921 0.094039
0.699640 0.377583 0.097286
0.738982 0.381818 0.099021
0.774272 0.389398 0.101596
0.796671 0.401415 0.105505
0.816373 0.408412 0.109520
0.832331 0.410318 0.112656
0.842809 0.414722 0.116819
0.848266 0.420331 0.122300
0.853851 0.411614 0.127368
0.857093 0.403391 0.134193
0.860041 0.385207 0.145732
0.861720 0.363231 0.174510
0.863350 0.302160 0.454277
0.863292 0.326274 0.564980
0.861890 0.323427 0.564802
0.080820 0.521406 0.083512
0.080893 0.519375 0.083544
0.081255 0.513142 0.083674
0.082535 0.506151 0.083980
0.084495 0.494113 0.084343
0.087536 0.479721 0.084769
0.093792 0.463315 0.085176
0.104511 0.444804 0.085449
0.120942 0.426745 0.085715
0.142880 0.410121 0.085989
0.171844 0.394030 0.086320
0.211001 0.379656 0.086745
0.256022 0.359449 0.086794
0.316238 0.356181 0.087541
0.402672 0.376448 0.090002
0.478999 0.378799 0.091334
0.546633 0.382115 0.092662
0.606732 0.392715 0.094768
0.664537 0.409853 0.097804
0.704377 0.412761 0.099483
0.742980 0.419737 0.102325
0.777225 0.427658 0.106026
0.799386 0.437074 0.109966
0.817857 0.441009 0.113011
0.832541 0.442953 0.116963
0.842544 0.446689 0.122135
0.848732 0.444591 0.126835
0.852510 0.444020 0.132965
0.856002 0.434342 0.142414
0.858295 0.413889 0.159581
0.860378 0.336786 0.336909
0.860751 0.320674 0.559283
0.859506 0.318443 0.562205
0.082604 0.554365 0.084370
0.082681 0.553113 0.084411
0.083037 0.549144 0.084574
0.084075 0.544072 0.084942
0.085847 0.537305 0.085399
0.089024 0.524808 0.085847
0.094146 0.509125 0.086223
0.103762 0.491992 0.086566
0.118222 0.474516 0.086846
0.137095 0.457262 0.087113
0.161758 0.441526 0.087405
0.194197 0.427522 0.087716
0.238159 0.416177 0.088259
0.291320 0.408850 0.089066
0.360612 0.415343 0.090941
0.428735 0.416131 0.092155
0.497646 0.417539 0.093346
0.567432 0.425492 0.095623
0.626407 0.440094 0.098621
0.671667 0.442107 0.100182
0.711030 0.447700 0.103078
0.749941 0.456429 0.106760
0.780987 0.466884 0.110644
0.803058 0.468529 0.113438
0.819737 0.473866 0.117388
0.832425 0.481119 0.122433
0.843303 0.476767 0.126641
0.848045 0.474143 0.132123
0.852035 0.469189 0.140211
0.854618 0.462395 0.153848
0.856550 0.455082 0.190923
0.858131 0.315090 0.553456
0.857035 0.313499 0.560618
0.085073 0.590389 0.085794
0.085140 0.589303 0.085832
0.085442 0.585781 0.085978
0.086266 0.580895 0.086297
0.088353 0.575988 0.086801
0.091633 0.567424 0.087226
0.096406 0.557224 0.087611
0.106202 0.545986 0.088038
0.119413 0.532429 0.088548
0.136302 0.514872 0.088963
0.158685 0.498215 0.089365
0.188190 0.483091 0.089856
0.226172 0.469586 0.090339
0.274634 0.458466 0.090967
0.337923 0.463135 0.092674
0.389016 0.452543 0.093156
0.455525 0.450977 0.094403
0.523262 0.457554 0.096513
0.589438 0.471618 0.099424
0.638337 0.473369 0.101448
0.680809 0.478026 0.104191
0.720422 0.486614 0.107670
0.758440 0.495697 0.111377
0.786215 0.499237 0.114114
0.805744 0.505251 0.118045
0.821562 0.510242 0.122757
0.835221 0.510538 0.126787
0.842875 0.512922 0.131854
0.847836 0.506196 0.138697
0.851069 0.497071 0.149608
0.853434 0.486176 0.171348
0.854701 0.478270 0.317610
0.855104 0.481093 0.558450
0.088615 0.635694 0.087616
0.088715 0.634750 0.087651
0.089142 0.631635 0.087788
0.090237 0.627066 0.088177
0.092783 0.623222 0.088990
0.095731 0.614952 0.089609
0.102343 0.606315 0.090309
0.111661 0.595810 0.090886
0.124560 0.584301 0.091449
0.141269 0.572216 0.091927
0.162865 0.560182 0.092409
0.190949 0.548535 0.092820
0.227303 0.537786 0.093318
0.272372 0.524700 0.093954
0.319243 0.513470 0.094787
0.366136 0.500368 0.095252
0.417995 0.489345 0.095824
0.485610 0.492234 0.097596
0.556359 0.505314 0.100582
0.603374 0.506024 0.102747
0.652853 0.510135 0.105436
0.692450 0.518287 0.108818
0.731490 0.526664 0.112332
0.767084 0.530999 0.114974
0.791049 0.535669 0.118824
0.809030 0.541656 0.123436
0.825232 0.542179 0.127209
0.836082 0.542175 0.131842
0.843454 0.541722 0.138022
0.847175 0.540578 0.147272
0.850120 0.529530 0.162452
0.851794 0.513367 0.230452
0.852552 0.485749 0.544873
0.091385 0.658025 0.088902
0.091474 0.657383 0.088952
0.091846 0.655235 0.089143
0.092763 0.651943 0.089537
0.094910 0.648706 0.090238
0.098385 0.643727 0.090937
0.105442 0.638318 0.091744
0.113261 0.628504 0.092278
0.124966 0.617903 0.092845
0.140320 0.606889 0.093432
0.159582 0.595171 0.094016
0.184446 0.583678 0.094629
0.216475 0.572935 0.095268
0.257815 0.562866 0.095932
0.300832 0.554080 0.096628
0.348470 0.546512 0.097454
0.394625 0.537228 0.097885
0.454237 0.532314 0.099063
0.519141 0.539848 0.102274
0.573496 0.539875 0.104326
0.619702 0.541874 0.106772
0.666391 0.547200 0.110070
0.705436 0.552866 0.113468
0.742136 0.555279 0.116149
0.775047 0.559119 0.119862
0.795790 0.564644 0.124298
0.814685 0.565253 0.127799
0.827165 0.567815 0.132261
0.837709 0.567249 0.137901
0.843499 0.564314 0.145800
0.846780 0.561662 0.158050
0.848700 0.560154 0.194452
0.849925 0.522293 0.482196
0.093958 0.678963 0.090183
0.094042 0.678401 0.090228
0.094420 0.676500 0.090401
0.095319 0.673489 0.090752
0.097274 0.670227 0.091363
0.101866 0.666554 0.092134
0.107279 0.660685 0.092801
0.114953 0.654166 0.093481
0.125759 0.646856 0.094313
0.139441 0.638760 0.095081
0.156998 0.628432 0.095806
0.179437 0.617375 0.096445
0.207952 0.606674 0.097051
0.244569 0.596593 0.097721
0.285861 0.587264 0.098392
0.329742 0.579070 0.099102
0.376195 0.572064 0.099928
0.429957 0.567681 0.101623
0.492289 0.569274 0.104698
0.542143 0.564867 0.105918
0.591112 0.566500 0.108310
0.639365 0.571091 0.111450
0.680963 0.576477 0.114757
0.717676 0.578412 0.117523
0.753366 0.582434 0.121113
0.781896 0.587228 0.125309
0.802924 0.589220 0.128671
0.818045 0.591089 0.132795
0.830342 0.591904 0.138171
0.838569 0.592301 0.145288
0.843477 0.588713 0.155309
0.845855 0.584219 0.178380
0.847185 0.584099 0.334817
0.097539 0.702593 0.091753
0.097668 0.702115 0.091795
0.098186 0.700483 0.091954
0.099379 0.697834 0.092273
0.101831 0.694712 0.092817
0.106606 0.692194 0.093746
0.110973 0.686279 0.094516
0.119068 0.681026 0.095568
0.128758 0.674221 0.096430
0.141295 0.666627 0.097193
0.157677 0.658778 0.097980
0.178781 0.650631 0.098682
0.205374 0.642573 0.099389
0.238797 0.633945 0.099974
0.278110 0.624519 0.101096
0.318278 0.615815 0.102187
0.362241 0.608070 0.103340
0.410256 0.601544 0.104691
0.472717 0.602287 0.107702
0.516564 0.595024 0.108418
0.566186 0.591386 0.109874
0.611671 0.595543 0.112938
0.658487 0.600414 0.116420
0.694410 0.601929 0.119064
0.730689 0.605875 0.122538
0.765557 0.610349 0.126546
0.790567 0.612521 0.129703
0.808202 0.614684 0.133577
0.822330 0.617329 0.138906
0.832505 0.616084 0.145209
0.839642 0.615516 0.153968
0.842906 0.615695 0.170238
0.844643 0.610617 0.255531
0.103541 0.728309 0.093754
0.103669 0.727899 0.093808
0.104174 0.726488 0.094009
0.105298 0.724156 0.094409
0.107512 0.721332 0.095080
0.111753 0.718875 0.096135
0.116739 0.714341 0.097020
0.124375 0.709577 0.098066
0.133201 0.703514 0.098973
0.146215 0.697170 0.099897
0.161926 0.689876 0.101106
0.182589 0.682259 0.102411
0.207141 0.674366 0.103528
0.239485 0.666637 0.104624
0.276453 0.659125 0.105655
0.315324 0.652264 0.106884
0.356462 0.645942 0.108047
0.401036 0.640160 0.109214
0.452073 0.635020 0.110632
0.496641 0.627202 0.111224
0.543301 0.621990 0.112413
0.587402 0.620306 0.114499
0.633357 0.624679 0.118183
0.672911 0.625894 0.120720
0.708837 0.629125 0.124031
0.744778 0.633547 0.127933
0.777589 0.635455 0.130865
0.797469 0.638125 0.134596
0.814423 0.639497 0.139718
0.826044 0.640183 0.145629
0.834437 0.640522 0.153469
0.839658 0.638973 0.166273
0.842152 0.639796 0.216088
0.107289 0.745493 0.094821
0.107407 0.745206 0.094873
0.107865 0.744213 0.095065
0.108866 0.742541 0.095442
0.110790 0.740377 0.096067
0.114557 0.737735 0.097034
0.119884 0.734265 0.098065
0.126037 0.729277 0.098986
0.134891 0.724229 0.100052
0.146900 0.718390 0.101609
0.160523 0.711586 0.102883
0.179045 0.704627 0.104202
0.201935 0.697456 0.105463
0.231312 0.690087 0.106637
0.266800 0.682915 0.107795
0.302480 0.675963 0.108886
0.342049 0.669618 0.110112
0.383294 0.663880 0.111340
0.429498 0.658604 0.112532
0.479634 0.654276 0.113946
0.522853 0.649584 0.115050
0.570280 0.647777 0.117492
0.610041 0.646852 0.120177
0.653287 0.647157 0.122442
0.688508 0.649310 0.125646
0.724410 0.652293 0.129390
0.760958 0.653746 0.132155
0.786075 0.656194 0.136020
0.805686 0.657810 0.140848
0.819294 0.659098 0.146319
0.829327 0.659314 0.153292
0.835294 0.659954 0.164269
0.839043 0.659798 0.197013
0.111159 0.759937 0.095953
0.111269 0.759684 0.096003
0.111695 0.758803 0.096188
0.112608 0.757300 0.096548
0.114502 0.755345 0.097138
0.117977 0.753299 0.098039
0.123595 0.751323 0.099225
0.128710 0.747490 0.100090
0.138008 0.744267 0.102003
0.147602 0.739253 0.103330
0.161096 0.733394 0.104869
0.178998 0.727083 0.106327
0.199803 0.720225 0.107640
0.226480 0.713282 0.108828
0.259412 0.706543 0.110079
0.293756 0.699990 0.111271
0.330585 0.693617 0.112411
0.369298 0.687719 0.113632
0.412868 0.682495 0.114916
0.460939 0.677694 0.116407
0.505134 0.673741 0.118115
0.552631 0.671074 0.120468
0.592792 0.669834 0.123087
0.630916 0.666931 0.124483
0.669589 0.667710 0.127299
0.705174 0.670397 0.130963
0.741881 0.671733 0.133553
0.774251 0.673782 0.137564
0.796136 0.675877 0.142200
0.812395 0.676918 0.147124
0.824019 0.678298 0.153616
0.831165 0.678482 0.163041
0.835465 0.679535 0.187096
0.115598 0.774437 0.097310
0.115718 0.774219 0.097359
0.116177 0.773457 0.097538
0.117143 0.772143 0.097887
0.118911 0.770398 0.098453
0.122025 0.768488 0.099306
0.127513 0.766867 0.100880
0.132442 0.763572 0.102279
0.140503 0.760265 0.104020
0.150515 0.756419 0.105650
0.163507 0.752305 0.107307
0.179090 0.747554 0.108722
0.199148 0.742722 0.110186
0.224777 0.736858 0.111549
0.255624 0.730311 0.112780
0.288347 0.724008 0.114112
0.323189 0.717864 0.115407
0.360332 0.712083 0.116901
0.400640 0.706714 0.118414
0.446581 0.702043 0.120038
0.490512 0.697777 0.121613
0.533898 0.694152 0.123321
0.577347 0.692212 0.125875
0.613441 0.689193 0.127143
0.653280 0.687319 0.129305
0.686921 0.688288 0.132537
0.723406 0.689657 0.135074
0.758276 0.691447 0.139287
0.785974 0.693509 0.143685
0.804890 0.694762 0.148212
0.818708 0.696177 0.154138
0.827096 0.696957 0.162545
0.832039 0.698717 0.181424
0.120081 0.788758 0.098447
0.120197 0.788567 0.098495
0.120636 0.787896 0.098672
0.121547 0.786729 0.099014
0.123182 0.785149 0.099564
0.125995 0.783350 0.100618
0.130822 0.781664 0.102513
0.136511 0.779150 0.104253
0.143540 0.775878 0.105870
0.154054 0.772737 0.107850
0.164764 0.768571 0.109319
0.180813 0.764433 0.110982
0.200402 0.760072 0.112658
0.223444 0.755250 0.114027
0.252265 0.750410 0.115425
0.283645 0.745653 0.117053
0.316929 0.741047 0.118714
0.352902 0.735484 0.120301
0.390895 0.730140 0.121859
0.433667 0.725187 0.123441
0.478785 0.720909 0.125094
0.519010 0.717084 0.126769
0.563349 0.713858 0.128492
0.597624 0.710713 0.129681
0.635526 0.708496 0.131762
0.671156 0.707412 0.134515
0.705646 0.707136 0.136913
0.741056 0.708635 0.140980
0.775461 0.710527 0.145246
0.796763 0.711969 0.149505
0.813226 0.713251 0.154786
0.823041 0.714609 0.162580
0.828894 0.715836 0.177844
0.123648 0.802266 0.098694
0.123753 0.802090 0.098741
0.124153 0.801471 0.098915
0.124974 0.800381 0.099250
0.126431 0.798876 0.099786
0.128906 0.797091 0.100933
0.133087 0.795268 0.102760
0.139468 0.793223 0.104867
0.145418 0.789982 0.106378
0.155144 0.786988 0.108460
0.165179 0.783170 0.110076
0.180960 0.779354 0.111926
0.197316 0.775021 0.113464
0.219733 0.770685 0.115143
0.247826 0.766190 0.117003
0.277359 0.761585 0.118611
0.308191 0.757118 0.120325
0.342833 0.752805 0.121974
0.378650 0.748727 0.123628
0.418623 0.744916 0.125224
0.463564 0.741444 0.126866
0.502771 0.737764 0.128499
0.544913 0.734418 0.130235
0.583205 0.731607 0.132009
0.619149 0.728927 0.134049
0.657508 0.727371 0.137339
0.690290 0.726087 0.139327
0.724134 0.725459 0.142617
0.761465 0.727179 0.146636
0.788044 0.728700 0.150938
0.807391 0.730094 0.155659
0.819098 0.731204 0.162516
0.825894 0.732963 0.175677
0.126960 0.813959 0.099064
0.127060 0.813806 0.099111
0.127438 0.813266 0.099282
0.128205 0.812309 0.099611
0.129548 0.810971 0.100219
0.131788 0.809349 0.101455
0.135659 0.807616 0.103223
0.142659 0.806058 0.105719
0.147859 0.803034 0.107158
0.156105 0.800082 0.109104
0.166973 0.796914 0.111145
0.180126 0.793146 0.112849
0.196966 0.789304 0.114668
0.218099 0.785268 0.116776
0.242763 0.781000 0.118620
0.272271 0.776731 0.120489
0.302123 0.772473 0.122320
0.335691 0.768281 0.124114
0.369540 0.764282 0.125793
0.407120 0.760532 0.127494
0.448900 0.757068 0.129135
0.489389 0.753951 0.130795
0.528588 0.751167 0.132451
0.569468 0.748883 0.134258
0.604087 0.746960 0.136489
0.641893 0.745340 0.139977
0.676481 0.744452 0.141840
0.709246 0.743225 0.144796
0.745645 0.742953 0.147997
0.778672 0.744010 0.151933
0.801118 0.745218 0.156607
0.815173 0.746111 0.162712
0.823043 0.747358 0.174141
0.130015 0.824293 0.099299
0.130110 0.824195 0.099346
0.130468 0.823848 0.099517
0.131190 0.823229 0.099844
0.132437 0.822204 0.100585
0.134529 0.820748 0.101809
0.138254 0.819138 0.103553
0.144463 0.817580 0.106004
0.150468 0.815207 0.107916
0.157604 0.812403 0.109770
0.169483 0.809773 0.112262
0.180709 0.806187 0.113865
0.197984 0.802743 0.116216
0.215802 0.798850 0.118216
0.240906 0.794974 0.120456
0.269300 0.790959 0.122449
0.296497 0.786928 0.124353
0.328074 0.782927 0.126241
0.361145 0.779023 0.128055
0.396877 0.775344 0.129832
0.436472 0.771910 0.131584
0.478036 0.768784 0.133313
0.515052 0.765959 0.135080
0.555936 0.763460 0.137294
0.590145 0.761458 0.139755
0.626028 0.759780 0.142246
0.663327 0.759072 0.143989
0.695327 0.757593 0.146939
0.731492 0.757041 0.149837
0.767884 0.756557 0.152992
0.794052 0.757541 0.157291
0.811146 0.758554 0.162960
0.820545 0.759747 0.173141
0.132846 0.834681 0.098023
0.132926 0.834587 0.098071
0.133227 0.834250 0.098246
0.133836 0.833644 0.098581
0.134978 0.832768 0.099117
0.136921 0.831647 0.099910
0.140128 0.830335 0.101674
0.145545 0.828934 0.104255
0.152299 0.827292 0.106870
0.158356 0.825184 0.108693
0.168287 0.823071 0.111143
0.180553 0.819960 0.113324
0.194968 0.816463 0.115440
0.213302 0.812823 0.117922
0.236387 0.809010 0.120279
0.262329 0.805150 0.122410
0.290360 0.801290 0.124593
0.320337 0.797431 0.126600
0.351703 0.793639 0.128487
0.385255 0.790024 0.130339
0.422701 0.786645 0.132155
0.464444 0.783536 0.133944
0.501118 0.780734 0.135989
0.540037 0.778262 0.138275
