LUTs/negative-ultramax-400/Ultramax400_Modern_ExtraSoft.cube
TITLE "Kodak Ultramax 400 Modern ExtraSoft"
# Adobe RGB in/out. REPLACES AgX. Kodak Ultramax 400 Modern ExtraSoft.
LUT_3D_SIZE 9
DOMAIN_MIN 0.0 0.0 0.0
DOMAIN_MAX 1.0 1.0 1.0
0.057043 0.063015 0.079077
0.170100 0.070710 0.082996
0.591533 0.086505 0.088962
0.747185 0.111535 0.096777
0.804336 0.148002 0.106222
0.826118 0.186119 0.117274
0.835261 0.194419 0.136022
0.840130 0.111669 0.590108
0.832641 0.368351 0.661942
0.060234 0.095275 0.082730
0.069442 0.087597 0.083876
0.307064 0.099500 0.089190
0.669823 0.129302 0.096773
0.782892 0.173538 0.105973
0.816718 0.215217 0.116515
0.830376 0.222845 0.133397
0.837319 0.110634 0.585889
0.830644 0.363150 0.659417
0.067521 0.326567 0.089971
0.072542 0.288105 0.091300
0.107787 0.199055 0.092322
0.399605 0.222774 0.098143
0.669823 0.280837 0.106541
0.779475 0.332518 0.116159
0.812754 0.349614 0.129619
0.828551 0.116937 0.571187
0.824134 0.346574 0.648437
0.077107 0.541931 0.097978
0.080739 0.526423 0.099252
0.104801 0.473230 0.101175
0.221595 0.419382 0.103333
0.498931 0.420646 0.108855
0.688303 0.448548 0.117931
0.783369 0.472633 0.129615
0.809142 0.468336 0.148956
0.814413 0.313361 0.553835
0.087751 0.646213 0.105424
0.089962 0.639883 0.106705
0.109621 0.622803 0.109653
0.188709 0.589322 0.112003
0.387613 0.558000 0.115381
0.573179 0.552952 0.122065
0.720704 0.567398 0.132628
0.790458 0.575971 0.147266
0.804034 0.568905 0.327925
0.100081 0.704914 0.110975
0.102391 0.701720 0.112086
0.117314 0.693995 0.117073
0.179075 0.676236 0.121538
0.329419 0.656789 0.125263
0.505066 0.642432 0.130205
0.653926 0.638055 0.137579
0.760866 0.643979 0.150599
0.793873 0.646628 0.187454
0.110382 0.742132 0.114275
0.112015 0.740090 0.115645
0.126593 0.734656 0.121160
0.175713 0.725225 0.127354
0.297381 0.713608 0.133600
0.450341 0.702919 0.139037
0.585721 0.695876 0.145868
0.714823 0.693078 0.155359
0.785581 0.696154 0.177611
0.117531 0.774997 0.108742
0.118377 0.773357 0.109565
0.131795 0.767588 0.117361
0.168978 0.759712 0.125922
0.267473 0.750298 0.134920
0.408328 0.740899 0.142426
0.536102 0.733727 0.150602
0.671805 0.730099 0.158623
0.779186 0.728994 0.172974
0.111330 0.769541 0.100434
0.110997 0.768642 0.100348
0.134636 0.780231 0.100073
0.131702 0.776774 0.108252
0.217752 0.775992 0.117574
0.355099 0.768571 0.128606
0.486123 0.761775 0.137003
0.601413 0.758040 0.142640
0.776186 0.757460 0.145753
0.058199 0.070479 0.122199
0.153744 0.083751 0.305554
0.627061 0.094513 0.156877
0.762877 0.118375 0.140228
0.805155 0.152680 0.132473
0.823854 0.188652 0.136258
0.833076 0.197980 0.158126
0.838623 0.111125 0.587852
0.831606 0.365654 0.660634
0.062386 0.091390 0.108473
0.077267 0.085390 0.104881
0.436732 0.104034 0.117810
0.701444 0.136677 0.127780
0.786772 0.178007 0.128630
0.814950 0.217120 0.134023
0.828244 0.225612 0.152320
0.835818 0.110111 0.583657
0.829617 0.360492 0.657738
0.071720 0.290027 0.117884
0.078057 0.238786 0.113207
0.127813 0.171282 0.108733
0.476183 0.213312 0.116190
0.692719 0.279038 0.123447
0.782319 0.330147 0.130794
0.811249 0.348083 0.143599
0.827121 0.119488 0.568795
0.823139 0.344098 0.646757
0.081501 0.521970 0.121026
0.086048 0.501847 0.120676
0.114652 0.446400 0.118698
0.263819 0.401019 0.118016
0.527364 0.411960 0.122611
0.700554 0.443755 0.130305
0.784038 0.469057 0.141134
0.807909 0.466645 0.163182
0.813489 0.321857 0.630579
0.090401 0.637041 0.121421
0.094764 0.630772 0.122571
0.115882 0.613221 0.124939
0.210186 0.576616 0.126296
0.409964 0.549046 0.128941
0.589507 0.547708 0.133482
0.727461 0.563993 0.143416
0.790062 0.573556 0.159373
0.803222 0.569249 0.382533
0.102368 0.700471 0.122558
0.105039 0.697364 0.123854
0.123282 0.688517 0.128966
0.191154 0.670648 0.133430
0.346443 0.652118 0.137095
0.515888 0.638998 0.141516
0.663255 0.635916 0.148893
0.763242 0.642452 0.161598
0.793284 0.645996 0.204402
0.111719 0.739586 0.122923
0.113536 0.737563 0.124237
0.130228 0.732089 0.130483
0.183168 0.722715 0.137409
0.306738 0.711348 0.143812
0.459727 0.701086 0.150619
0.594109 0.694501 0.157711
0.719698 0.692089 0.165636
0.785323 0.695663 0.190250
0.117985 0.773604 0.112384
0.119133 0.772027 0.113792
0.133705 0.766178 0.123743
0.173310 0.758355 0.134032
0.274233 0.749053 0.143395
0.413623 0.739856 0.152789
0.540880 0.732942 0.160699
0.676077 0.729531 0.169361
0.779353 0.728649 0.184467
0.113149 0.773268 0.140375
0.112814 0.772473 0.140036
0.137243 0.783558 0.138908
0.133616 0.779270 0.137127
0.220480 0.775619 0.122324
0.358643 0.768180 0.135043
0.489242 0.761501 0.144319
0.604587 0.757880 0.151379
0.777734 0.757369 0.154037
0.060137 0.084981 0.307866
0.111144 0.120896 0.628098
0.600840 0.136530 0.606240
0.768908 0.165278 0.556813
0.805694 0.195700 0.497792
0.821788 0.232351 0.492203
0.829928 0.241920 0.525051
0.836044 0.116701 0.593436
0.829461 0.360095 0.657492
0.066286 0.119859 0.318812
0.098345 0.134612 0.442873
0.501613 0.141532 0.454111
0.714411 0.171508 0.431981
0.788896 0.214622 0.419535
0.813230 0.252472 0.438473
0.825076 0.262235 0.485424
0.833211 0.117886 0.590370
0.827459 0.354961 0.654072
0.073768 0.232878 0.217613
0.082093 0.198631 0.194960
0.149252 0.158219 0.173417
0.528098 0.215239 0.217023
0.712651 0.291658 0.265805
0.784897 0.342956 0.311523
0.808895 0.361600 0.356843
0.823911 0.195694 0.573900
0.820950 0.338870 0.643068
0.087495 0.479331 0.234200
0.094142 0.459362 0.221739
0.134866 0.408380 0.194707
0.317809 0.359474 0.180679
0.579613 0.400014 0.201876
0.722852 0.441455 0.239112
0.785057 0.468335 0.268173
0.805314 0.468977 0.359743
0.811305 0.316981 0.626952
0.101997 0.620795 0.232626
0.107356 0.614373 0.228210
0.140422 0.587284 0.215574
0.264645 0.553032 0.202228
0.463721 0.530871 0.197359
0.640316 0.538538 0.213378
0.742674 0.558851 0.234974
0.789228 0.569612 0.278519
0.801123 0.572794 0.519326
0.113433 0.691131 0.226427
0.117089 0.687028 0.225414
0.147419 0.675674 0.223647
0.238408 0.658333 0.218756
0.401997 0.641533 0.215026
0.553301 0.630996 0.216706
0.687648 0.631275 0.224724
0.768597 0.639072 0.253512
0.791673 0.644968 0.338445
0.122368 0.733001 0.204551
0.126537 0.731035 0.205572
0.148863 0.725352 0.210599
0.218201 0.716066 0.215390
0.350282 0.705345 0.218695
0.499625 0.696217 0.222813
0.626894 0.690321 0.229642
0.735962 0.689036 0.244942
0.784572 0.694416 0.274903
0.126632 0.767189 0.180477
0.129282 0.765704 0.182656
0.147543 0.760955 0.194547
0.198879 0.753745 0.205823
0.305608 0.744993 0.216055
0.440441 0.736534 0.224566
0.563813 0.730492 0.233055
0.693960 0.727763 0.242728
0.779600 0.727649 0.252804
0.112588 0.771938 0.139814
0.138423 0.784933 0.139483
0.136160 0.782288 0.138382
0.132658 0.778102 0.136653
0.237990 0.774028 0.159186
0.377162 0.766701 0.182237
0.503278 0.760480 0.195031
0.619465 0.757264 0.203592
0.778922 0.757062 0.207386
0.062463 0.113179 0.551244
0.082358 0.173408 0.694183
0.553039 0.220575 0.715208
0.766464 0.269499 0.709967
0.810963 0.294572 0.685216
0.823403 0.307602 0.666999
0.829378 0.307378 0.665055
0.832828 0.222325 0.681951
0.828034 0.360631 0.673968
0.068375 0.161503 0.566634
0.089259 0.210015 0.650815
0.512485 0.268204 0.694972
0.731215 0.289182 0.678888
0.794507 0.304913 0.657646
0.814662 0.321049 0.646108
0.824335 0.323284 0.651509
0.829625 0.240420 0.675730
0.825979 0.355396 0.671498
0.079197 0.287767 0.475384
0.090367 0.280028 0.475494
0.237598 0.270674 0.496473
0.569528 0.294762 0.517738
0.724219 0.341254 0.543841
0.786358 0.384209 0.567498
0.807792 0.400066 0.595511
0.818310 0.378259 0.639655
0.819296 0.338985 0.663552
0.090096 0.448811 0.424008
0.098998 0.434687 0.410081
0.145497 0.393228 0.374704
0.345017 0.347572 0.343669
0.601894 0.404295 0.403166
0.728115 0.449265 0.454236
0.784231 0.478422 0.497524
0.803030 0.484893 0.572632
0.809398 0.316553 0.648208
0.108798 0.599482 0.426911
0.114691 0.590961 0.418393
0.156818 0.566163 0.395877
0.297046 0.533858 0.367526
0.494823 0.513628 0.350848
0.662376 0.531956 0.383434
0.746476 0.556482 0.420519
0.787262 0.570487 0.477106
0.798932 0.580134 0.613616
0.124169 0.677713 0.416632
0.131193 0.673997 0.412399
0.169159 0.663248 0.401210
0.275842 0.646878 0.385626
0.434420 0.631325 0.372048
0.581183 0.622786 0.367816
0.702880 0.627037 0.384728
0.768934 0.636384 0.415415
0.789702 0.646159 0.542741
0.135635 0.725370 0.397593
0.140830 0.723531 0.395825
0.170859 0.718031 0.391853
0.253150 0.709195 0.385429
0.391697 0.699187 0.378968
0.526083 0.690579 0.375358
0.658437 0.685138 0.377793
0.745389 0.686072 0.388986
0.783329 0.693748 0.459330
0.136237 0.760952 0.368053
0.139821 0.759655 0.367563
0.162862 0.755515 0.370014
0.223989 0.748750 0.370117
0.336045 0.740637 0.369738
0.468348 0.732988 0.369946
0.587925 0.727788 0.372842
0.710729 0.725865 0.379107
0.779063 0.726850 0.405243
0.120594 0.776868 0.363514
0.136663 0.783985 0.361598
0.134524 0.781453 0.355234
0.158387 0.780079 0.276707
0.267806 0.771127 0.335835
0.398208 0.764332 0.342764
0.518180 0.758943 0.348624
0.642219 0.756304 0.353300
0.779000 0.756840 0.362282
0.065376 0.174131 0.678118
0.074511 0.234339 0.731651
0.478286 0.321458 0.771191
0.747145 0.364197 0.771448
0.818766 0.401894 0.767216
0.829009 0.393720 0.740693
0.832089 0.377699 0.724682
0.832820 0.312419 0.720010
0.828037 0.372274 0.718159
0.070119 0.236037 0.684097
0.082525 0.287911 0.724013
0.441190 0.362659 0.765977
0.731816 0.402933 0.767626
0.803315 0.406663 0.749415
0.820356 0.402269 0.727448
0.826947 0.393411 0.716114
0.829557 0.329217 0.714620
0.825920 0.366296 0.713898
0.088524 0.414310 0.674287
0.105334 0.417685 0.681866
0.313523 0.423691 0.701675
0.617290 0.419716 0.696164
0.742497 0.424363 0.687833
0.792373 0.437817 0.684911
0.810095 0.441107 0.686872
0.818483 0.424095 0.694375
0.819007 0.347390 0.700196
0.096882 0.468688 0.585761
0.106495 0.461991 0.582892
0.179613 0.445283 0.580567
0.427902 0.434897 0.583859
0.635983 0.451665 0.597159
0.737443 0.483176 0.616917
0.785777 0.506388 0.637703
0.802716 0.510962 0.663154
0.809190 0.449258 0.686254
0.112388 0.583487 0.560019
0.120138 0.577254 0.553699
0.169911 0.557787 0.536679
0.315542 0.529258 0.514947
0.506640 0.507539 0.501485
0.670458 0.537089 0.538088
0.748325 0.563869 0.578761
0.786215 0.579696 0.613103
0.797563 0.590856 0.664296
0.132605 0.666461 0.551691
0.140441 0.663316 0.547358
0.185787 0.653928 0.535494
0.298410 0.639070 0.519547
0.455175 0.624180 0.505973
0.595875 0.616386 0.501935
0.709064 0.625433 0.522655
0.767794 0.636887 0.559954
0.788037 0.649122 0.632249
0.144997 0.718324 0.538389
0.150966 0.716710 0.535748
0.188641 0.711722 0.528435
0.279503 0.703625 0.518385
0.413676 0.694388 0.508978
0.545024 0.685174 0.503281
0.671324 0.681122 0.504123
0.748961 0.684496 0.518299
0.781917 0.694478 0.593419
0.143523 0.755562 0.521714
0.147751 0.754381 0.519894
0.176817 0.750554 0.515350
0.244284 0.744350 0.508884
0.361980 0.736895 0.502770
0.492138 0.730002 0.498536
0.608556 0.725575 0.497290
0.722456 0.724512 0.500307
0.778132 0.727086 0.540302
0.122719 0.776801 0.576617
0.124578 0.777248 0.575096
0.128320 0.777580 0.570004
0.179810 0.774523 0.502496
0.284098 0.768929 0.495169
0.410692 0.762490 0.490755
0.529366 0.757731 0.488321
0.659882 0.755710 0.487955
0.778720 0.757440 0.502579
0.069076 0.286552 0.761873
0.074471 0.323450 0.783146
0.407280 0.411290 0.805307
0.725444 0.439564 0.806249
0.817909 0.473023 0.806834
0.836097 0.464005 0.790063
0.836940 0.441515 0.772048
0.835248 0.395534 0.760538
0.829424 0.382974 0.744031
0.072417 0.332025 0.764571
0.079831 0.364872 0.782371
0.393054 0.436848 0.803647
0.713463 0.464765 0.805100
0.812241 0.493091 0.803947
0.827885 0.470762 0.782264
0.831884 0.450883 0.766893
0.831967 0.407241 0.755751
0.827265 0.377091 0.740953
0.094463 0.486149 0.767511
0.109672 0.498422 0.776337
0.365473 0.532588 0.795393
0.648807 0.520782 0.783740
0.762636 0.508414 0.769128
0.801214 0.500133 0.756465
0.815272 0.491506 0.745474
0.820944 0.469425 0.739059
0.820175 0.358308 0.730878
0.107450 0.529583 0.700162
0.117200 0.528351 0.701655
0.234016 0.528768 0.709906
0.494043 0.524774 0.710748
0.672164 0.525492 0.708108
0.753428 0.531553 0.707614
0.790837 0.538742 0.709745
0.804821 0.536937 0.714005
0.809825 0.494495 0.715817
0.117686 0.591063 0.656976
0.128421 0.587145 0.654902
0.193081 0.576886 0.651877
0.364558 0.561417 0.647593
0.548877 0.554768 0.647396
0.686628 0.566026 0.658151
0.755083 0.584335 0.670813
0.787453 0.596212 0.684965
0.797566 0.605679 0.699993
0.137415 0.660200 0.638431
0.145940 0.657814 0.636105
0.196797 0.650426 0.629945
0.314081 0.638033 0.621465
0.471570 0.624238 0.612700
0.603109 0.614779 0.606670
0.713558 0.629431 0.628581
0.767976 0.641892 0.654391
0.787335 0.654175 0.682020
0.150194 0.713124 0.627103
0.157311 0.711737 0.625297
0.199382 0.707442 0.620357
0.294191 0.700302 0.613686
0.428145 0.691662 0.607448
0.557183 0.682233 0.603324
0.677707 0.678867 0.604531
0.749870 0.685295 0.620148
0.780654 0.696336 0.664638
0.146997 0.751515 0.615840
0.151640 0.750462 0.614405
0.184478 0.747003 0.610391
0.256583 0.741347 0.604900
0.378797 0.734547 0.599835
0.505788 0.728292 0.596357
0.622630 0.724449 0.595372
0.728564 0.724113 0.598457
0.777036 0.728379 0.637992
0.122094 0.774886 0.601443
0.123667 0.775255 0.601992
0.126619 0.775388 0.604435
0.181284 0.773035 0.599345
0.288838 0.767448 0.592796
0.416119 0.761557 0.588369
0.534938 0.757392 0.585737
0.665699 0.755887 0.584685
0.778267 0.758793 0.613777
0.072958 0.404507 0.816309
0.077713 0.419938 0.827489
0.312634 0.475451 0.835122
0.711759 0.502755 0.835618
0.815012 0.528981 0.835990
0.843346 0.532472 0.827495
0.842785 0.502182 0.806335
0.838956 0.451785 0.790330
0.831722 0.398602 0.774031
0.075980 0.429899 0.817616
0.082093 0.444008 0.827095
0.315870 0.497875 0.834834
0.702480 0.522471 0.835446
0.811930 0.544600 0.835860
0.835851 0.535564 0.820931
0.837945 0.510402 0.801855
0.835734 0.462481 0.787150
0.829556 0.394366 0.771594
0.097760 0.537936 0.820100
0.109695 0.544211 0.825199
0.334762 0.569926 0.832825
0.670364 0.586622 0.834323
0.781480 0.568195 0.816410
0.811229 0.552673 0.800289
0.822001 0.537243 0.787221
0.824944 0.516058 0.776519
0.822403 0.373904 0.763302
0.120828 0.593324 0.788996
0.136689 0.592702 0.790244
0.279488 0.594480 0.791629
0.534890 0.588281 0.786145
0.698888 0.581446 0.778025
0.772223 0.577204 0.770673
0.798285 0.572767 0.764875
0.808873 0.564246 0.760521
0.811561 0.544813 0.753633
0.130072 0.618983 0.735533
0.141493 0.617841 0.736012
0.222964 0.615904 0.738383
0.415732 0.610765 0.736962
0.593525 0.606227 0.733341
0.709134 0.608190 0.731607
0.767144 0.613205 0.732476
0.791134 0.615987 0.734908
0.799032 0.619656 0.736595
0.143280 0.663146 0.704170
0.151888 0.661510 0.703539
0.209176 0.656880 0.702685
0.340831 0.648854 0.700714
0.506337 0.640375 0.697121
0.640683 0.637579 0.695962
0.725323 0.643271 0.701617
0.771930 0.651360 0.710687
0.788047 0.661158 0.720389
0.151960 0.710951 0.687935
0.160256 0.709853 0.687100
0.204686 0.706399 0.685130
0.303161 0.700467 0.682687
0.440202 0.693230 0.680147
0.568237 0.684495 0.677294
0.680665 0.678631 0.674854
0.751611 0.689543 0.689183
0.780327 0.699372 0.707313
0.145795 0.749591 0.675332
0.150628 0.748648 0.674493
0.184566 0.745491 0.672291
0.259467 0.740397 0.669452
0.385559 0.734233 0.667145
0.511471 0.728470 0.665812
0.630856 0.724906 0.666035
0.730966 0.724954 0.669825
0.776173 0.730452 0.696071
0.119674 0.772198 0.641906
0.123194 0.773558 0.641020
0.126813 0.774106 0.638258
0.169620 0.773175 0.658414
0.282815 0.767321 0.653361
0.413127 0.761807 0.650220
0.533707 0.758070 0.648353
0.665006 0.757022 0.647589
0.777903 0.760958 0.686990
0.079414 0.492337 0.853933
0.084524 0.496065 0.854883
0.360237 0.525636 0.855459
0.727238 0.544478 0.855592
0.819992 0.564711 0.855821
0.850461 0.577177 0.853587
0.848424 0.543870 0.837408
0.843537 0.493002 0.820694
0.834363 0.426748 0.799525
0.082840 0.512333 0.853874
0.088107 0.516146 0.854768
0.367699 0.540198 0.855454
0.720199 0.558621 0.855602
0.817766 0.578499 0.855833
0.845372 0.579151 0.849434
0.844728 0.548534 0.834475
0.840435 0.503138 0.817697
0.832242 0.426407 0.797379
0.108187 0.586335 0.853640
0.119866 0.588777 0.854259
0.397744 0.606065 0.855156
0.693457 0.618128 0.855452
0.799136 0.616581 0.849167
0.823203 0.596268 0.836218
0.829844 0.573161 0.820926
0.830043 0.542588 0.807735
0.825335 0.453209 0.790263
0.145644 0.640536 0.843123
0.165125 0.639163 0.842363
0.363973 0.637964 0.839068
0.595036 0.631336 0.832115
0.735480 0.623524 0.821144
0.790650 0.615999 0.810367
0.807637 0.605045 0.800764
0.814409 0.587748 0.792742
0.814297 0.567363 0.783837
0.148816 0.647468 0.800884
0.163801 0.646617 0.800629
0.284119 0.645723 0.798955
0.482686 0.641738 0.794306
0.654131 0.637549 0.788566
0.738574 0.634837 0.783094
0.782505 0.632725 0.778702
0.796896 0.629319 0.775364
0.801645 0.629525 0.771439
0.152112 0.675774 0.770526
0.163651 0.674783 0.770626
0.237740 0.672606 0.770523
0.389662 0.667484 0.767660
0.547440 0.662214 0.763473
0.678490 0.659938 0.760298
0.744540 0.660766 0.758621
0.780327 0.662561 0.759161
0.790182 0.668559 0.759354
0.153193 0.712952 0.746025
0.161916 0.712142 0.746225
0.212470 0.709825 0.747634
0.317176 0.705363 0.747555
0.464217 0.699738 0.744436
0.596531 0.695064 0.739972
0.701788 0.693966 0.738120
0.759589 0.696954 0.741582
0.781835 0.703331 0.746248
0.139226 0.751027 0.723363
0.144022 0.750122 0.723091
0.177033 0.746958 0.723225
0.254397 0.742236 0.724003
0.386338 0.736681 0.725566
0.516409 0.731515 0.726356
0.640584 0.728037 0.726170
0.731701 0.726035 0.725113
0.776239 0.733099 0.738144
0.115982 0.768820 0.689267
0.125939 0.773723 0.689429
0.126185 0.772867 0.692683
0.155254 0.773473 0.698726
0.259112 0.769099 0.697832
0.399436 0.763682 0.697827
0.523809 0.760180 0.698325
0.653633 0.759339 0.698415
0.777708 0.763498 0.733829
0.330870 0.529855 0.874251
0.428675 0.532250 0.874255
0.692970 0.541712 0.874273
0.811529 0.557730 0.874326
0.847271 0.576078 0.874419
0.861932 0.591147 0.874565
0.855507 0.549729 0.858241
0.848644 0.465126 0.844387
0.836636 0.443072 0.827282
0.336814 0.541436 0.874203
0.430072 0.543849 0.874209
0.689829 0.553356 0.874229
0.810158 0.569395 0.874287
0.846814 0.587678 0.874385
0.858264 0.593053 0.871002
0.852635 0.553100 0.855398
0.846539 0.471146 0.842306
0.834553 0.445646 0.828095
0.375209 0.598198 0.873937
0.444316 0.600400 0.873949
0.677638 0.608987 0.873991
0.803634 0.619792 0.874085
0.841266 0.626620 0.872196
0.844853 0.607805 0.858558
0.841955 0.574830 0.846093
0.836949 0.515349 0.835371
0.827609 0.431020 0.820881
0.406769 0.663700 0.870725
0.448914 0.662016 0.869410
0.628214 0.656882 0.865004
0.765318 0.649173 0.857995
0.805207 0.639527 0.849482
0.818304 0.628258 0.840607
0.822285 0.613527 0.831420
0.822183 0.577978 0.820612
0.817590 0.566703 0.811180
0.317149 0.669448 0.839865
0.353758 0.668337 0.839072
0.511898 0.665053 0.836432
0.685006 0.660311 0.831460
0.759087 0.654734 0.824236
0.789517 0.648446 0.816816
0.800574 0.640303 0.809831
0.805737 0.627464 0.803582
0.805377 0.621652 0.798474
0.241624 0.689988 0.812649
0.266453 0.688948 0.811784
0.394206 0.685897 0.808925
0.575703 0.681614 0.804480
0.697890 0.677152 0.799476
0.752183 0.673322 0.794887
0.780105 0.669319 0.791132
0.790541 0.663038 0.788072
0.793814 0.666015 0.785776
0.184430 0.718003 0.796320
0.198310 0.717191 0.795601
0.278671 0.714665 0.793161
0.445998 0.710735 0.789205
0.608726 0.706468 0.784420
0.707061 0.703182 0.780156
0.753425 0.701107 0.777371
0.777316 0.698878 0.776025
0.784976 0.703001 0.775698
0.134678 0.752903 0.785510
0.139298 0.752168 0.785492
0.170454 0.749578 0.784452
0.280158 0.745118 0.781567
0.450850 0.739907 0.777750
0.611672 0.735461 0.773836
0.716665 0.732785 0.770730
0.763447 0.731257 0.769355
0.779297 0.733615 0.769760
0.112818 0.764372 0.724324
0.125768 0.772911 0.738576
0.124602 0.771439 0.736610
0.130253 0.769910 0.733441
0.208373 0.773324 0.761385
0.369184 0.768544 0.770902
0.514850 0.764979 0.769510
0.658790 0.764276 0.768389
0.777758 0.766397 0.768165
