LUTs/negative-ultramax-400/Ultramax400_Modern_ExtraSoft.cube
TITLE "Kodak Ultramax 400 Modern ExtraSoft"
# Adobe RGB in/out. REPLACES AgX. Kodak Ultramax 400 Modern ExtraSoft.
LUT_3D_SIZE 5
DOMAIN_MIN 0.0 0.0 0.0
DOMAIN_MAX 1.0 1.0 1.0
0.057043 0.063015 0.079077
0.591533 0.086505 0.088962
0.804336 0.148002 0.106222
0.835261 0.194419 0.136022
0.832641 0.368351 0.661942
0.067521 0.326567 0.089971
0.107787 0.199055 0.092322
0.669823 0.280837 0.106541
0.812754 0.349614 0.129619
0.824134 0.346574 0.648437
0.087751 0.646213 0.105424
0.109621 0.622803 0.109653
0.387613 0.558000 0.115381
0.720704 0.567398 0.132628
0.804034 0.568905 0.327925
0.110382 0.742132 0.114275
0.126593 0.734656 0.121160
0.297381 0.713608 0.133600
0.585721 0.695876 0.145868
0.785581 0.696154 0.177611
0.111330 0.769541 0.100434
0.134636 0.780231 0.100073
0.217752 0.775992 0.117574
0.486123 0.761775 0.137003
0.776186 0.757460 0.145753
0.060137 0.084981 0.307866
0.600840 0.136530 0.606240
0.805694 0.195700 0.497792
0.829928 0.241920 0.525051
0.829461 0.360095 0.657492
0.073768 0.232878 0.217613
0.149252 0.158219 0.173417
0.712651 0.291658 0.265805
0.808895 0.361600 0.356843
0.820950 0.338870 0.643068
0.101997 0.620795 0.232626
0.140422 0.587284 0.215574
0.463721 0.530871 0.197359
0.742674 0.558851 0.234974
0.801123 0.572794 0.519326
0.122368 0.733001 0.204551
0.148863 0.725352 0.210599
0.350282 0.705345 0.218695
0.626894 0.690321 0.229642
0.784572 0.694416 0.274903
0.112588 0.771938 0.139814
0.136160 0.782288 0.138382
0.237990 0.774028 0.159186
0.503278 0.760480 0.195031
0.778922 0.757062 0.207386
0.065376 0.174131 0.678118
0.478286 0.321458 0.771191
0.818766 0.401894 0.767216
0.832089 0.377699 0.724682
0.828037 0.372274 0.718159
0.088524 0.414310 0.674287
0.313523 0.423691 0.701675
0.742497 0.424363 0.687833
0.810095 0.441107 0.686872
0.819007 0.347390 0.700196
0.112388 0.583487 0.560019
0.169911 0.557787 0.536679
0.506640 0.507539 0.501485
0.748325 0.563869 0.578761
0.797563 0.590856 0.664296
0.144997 0.718324 0.538389
0.188641 0.711722 0.528435
0.413676 0.694388 0.508978
0.671324 0.681122 0.504123
0.781917 0.694478 0.593419
0.122719 0.776801 0.576617
0.128320 0.777580 0.570004
0.284098 0.768929 0.495169
0.529366 0.757731 0.488321
0.778720 0.757440 0.502579
0.072958 0.404507 0.816309
0.312634 0.475451 0.835122
0.815012 0.528981 0.835990
0.842785 0.502182 0.806335
0.831722 0.398602 0.774031
0.097760 0.537936 0.820100
0.334762 0.569926 0.832825
0.781480 0.568195 0.816410
0.822001 0.537243 0.787221
0.822403 0.373904 0.763302
0.130072 0.618983 0.735533
0.222964 0.615904 0.738383
0.593525 0.606227 0.733341
0.767144 0.613205 0.732476
0.799032 0.619656 0.736595
0.151960 0.710951 0.687935
0.204686 0.706399 0.685130
0.440202 0.693230 0.680147
0.680665 0.678631 0.674854
0.780327 0.699372 0.707313
0.119674 0.772198 0.641906
0.126813 0.774106 0.638258
0.282815 0.767321 0.653361
0.533707 0.758070 0.648353
0.777903 0.760958 0.686990
0.330870 0.529855 0.874251
0.692970 0.541712 0.874273
0.847271 0.576078 0.874419
0.855507 0.549729 0.858241
0.836636 0.443072 0.827282
0.375209 0.598198 0.873937
0.677638 0.608987 0.873991
0.841266 0.626620 0.872196
0.841955 0.574830 0.846093
0.827609 0.431020 0.820881
0.317149 0.669448 0.839865
0.511898 0.665053 0.836432
0.759087 0.654734 0.824236
0.800574 0.640303 0.809831
0.805377 0.621652 0.798474
0.184430 0.718003 0.796320
0.278671 0.714665 0.793161
0.608726 0.706468 0.784420
0.753425 0.701107 0.777371
0.784976 0.703001 0.775698
0.112818 0.764372 0.724324
0.124602 0.771439 0.736610
0.208373 0.773324 0.761385
0.514850 0.764979 0.769510
0.777758 0.766397 0.768165
