LUTs/negative-ultramax-400/Ultramax400_Modern_ExtraPunchy.cube
TITLE "Kodak Ultramax 400 Modern ExtraPunchy"
# Adobe RGB in/out. REPLACES AgX. Kodak Ultramax 400 Modern ExtraPunchy.
LUT_3D_SIZE 9
DOMAIN_MIN 0.0 0.0 0.0
DOMAIN_MAX 1.0 1.0 1.0
0.069662 0.073299 0.081842
0.192200 0.077762 0.078326
0.610131 0.095495 0.080294
0.783365 0.125898 0.083614
0.847472 0.170150 0.090917
0.868129 0.206552 0.102254
0.876784 0.214115 0.125345
0.881390 0.126084 0.598114
0.874305 0.363681 0.685473
0.068471 0.105714 0.078248
0.075109 0.096689 0.078611
0.310959 0.110655 0.080366
0.687111 0.150660 0.083612
0.819026 0.194010 0.090688
0.859221 0.231856 0.101305
0.872162 0.238269 0.122069
0.878732 0.124640 0.593125
0.872415 0.359088 0.682123
0.073725 0.325889 0.080617
0.077982 0.292705 0.081102
0.122877 0.218104 0.081420
0.389943 0.238208 0.084503
0.687111 0.287328 0.091212
0.814744 0.331461 0.100860
0.855462 0.347104 0.117394
0.870433 0.133920 0.577248
0.866250 0.344406 0.668598
0.082604 0.554365 0.084370
0.085847 0.537305 0.085399
0.118222 0.474516 0.086846
0.238159 0.416177 0.088259
0.497646 0.417539 0.093346
0.711030 0.447700 0.103078
0.819737 0.473866 0.117388
0.852035 0.469189 0.140211
0.857035 0.313499 0.560618
0.093958 0.678963 0.090183
0.097274 0.670227 0.091363
0.125759 0.646856 0.094313
0.207952 0.606674 0.097051
0.376195 0.572064 0.099928
0.591112 0.566500 0.108310
0.753366 0.582434 0.121113
0.830342 0.591904 0.138171
0.847185 0.584099 0.334817
0.111159 0.759937 0.095953
0.114502 0.755345 0.097138
0.138008 0.744267 0.102003
0.199803 0.720225 0.107640
0.330585 0.693617 0.112411
0.505134 0.673741 0.118115
0.669589 0.667710 0.127299
0.796136 0.675877 0.142200
0.835465 0.679535 0.187096
0.126960 0.813959 0.099064
0.129548 0.810971 0.100219
0.147859 0.803034 0.107158
0.196966 0.789304 0.114668
0.302123 0.772473 0.122320
0.448900 0.757068 0.129135
0.604087 0.746960 0.136489
0.745645 0.742953 0.147997
0.823043 0.747358 0.174141
0.138239 0.853378 0.093241
0.139140 0.851204 0.094204
0.153352 0.843949 0.102363
0.191243 0.835373 0.113223
0.277698 0.825123 0.123966
0.399989 0.812155 0.132922
0.549367 0.801678 0.142203
0.689668 0.796392 0.152002
0.814453 0.794784 0.168617
0.128461 0.846150 0.086354
0.127933 0.845096 0.086284
0.156344 0.860320 0.086062
0.153254 0.855734 0.092789
0.234662 0.854697 0.102631
0.350840 0.845019 0.116148
0.486123 0.837620 0.126574
0.620408 0.833553 0.133119
0.811439 0.832921 0.136351
0.067494 0.077513 0.108481
0.177741 0.092667 0.315969
0.647089 0.104667 0.149857
0.798060 0.135951 0.130642
0.848249 0.174773 0.120921
0.865985 0.209066 0.125641
0.874717 0.217181 0.151390
0.879965 0.125325 0.595445
0.873325 0.361300 0.683802
0.070022 0.100832 0.092993
0.082768 0.094277 0.089683
0.432963 0.115502 0.102927
0.728140 0.158875 0.115136
0.824824 0.198476 0.116177
0.857545 0.233460 0.122848
0.870143 0.240582 0.144290
0.877312 0.123911 0.590489
0.871442 0.356739 0.679978
0.077147 0.294121 0.103019
0.083572 0.251857 0.098228
0.149150 0.191750 0.093233
0.477160 0.230247 0.100899
0.716771 0.285991 0.110076
0.818170 0.329242 0.118842
0.854034 0.345746 0.134003
0.869079 0.137525 0.574980
0.865308 0.342206 0.666546
0.086466 0.530477 0.106988
0.091779 0.505757 0.106544
0.133759 0.445372 0.104043
0.274941 0.395197 0.103186
0.536805 0.408184 0.109007
0.726979 0.442508 0.118239
0.820737 0.469973 0.131731
0.850864 0.467349 0.157634
0.856159 0.321473 0.646834
0.098100 0.666313 0.107490
0.103948 0.657700 0.108956
0.135918 0.633338 0.111994
0.227747 0.592618 0.113601
0.401877 0.562197 0.116560
0.608025 0.560723 0.122174
0.762258 0.578676 0.133834
0.829749 0.589236 0.152925
0.846414 0.584478 0.381791
0.114467 0.753551 0.108939
0.118592 0.749093 0.110599
0.144352 0.737087 0.116590
0.210218 0.712580 0.122109
0.344289 0.687136 0.126690
0.520435 0.669007 0.132083
0.678650 0.664765 0.140134
0.798427 0.673768 0.155673
0.834581 0.678662 0.208648
0.129079 0.810235 0.109407
0.131971 0.807277 0.111090
0.151700 0.799290 0.118458
0.203239 0.785660 0.127085
0.310662 0.769209 0.134199
0.459940 0.754434 0.142224
0.612811 0.744990 0.150880
0.752044 0.741699 0.160813
0.822657 0.746655 0.190817
0.138722 0.851532 0.097457
0.139944 0.849442 0.098685
0.155364 0.842413 0.110456
0.194930 0.833896 0.122858
0.282772 0.823767 0.133815
0.406106 0.810630 0.144861
0.556272 0.800534 0.154561
0.695187 0.795565 0.164770
0.814621 0.794281 0.183140
0.131355 0.851087 0.130827
0.130821 0.850033 0.130399
0.159084 0.864738 0.128973
0.155271 0.859045 0.126731
0.237145 0.854203 0.108641
0.353512 0.844594 0.124119
0.488932 0.837322 0.134666
0.623709 0.833379 0.143146
0.812994 0.832822 0.146382
0.068408 0.093830 0.317928
0.128166 0.139524 0.643819
0.619811 0.158728 0.617354
0.804123 0.185869 0.563487
0.848761 0.215220 0.506472
0.864027 0.246263 0.499053
0.871737 0.254572 0.532843
0.877525 0.133588 0.602052
0.871296 0.356388 0.679677
0.073074 0.138051 0.327168
0.108795 0.156805 0.443357
0.500279 0.163724 0.454249
0.745105 0.191977 0.432792
0.828002 0.231353 0.420709
0.855914 0.263666 0.439090
0.867142 0.272020 0.490051
0.874845 0.135260 0.598423
0.869399 0.351844 0.675489
0.079571 0.246722 0.223378
0.086945 0.217740 0.197128
0.172438 0.180220 0.169088
0.537857 0.231875 0.222750
0.742797 0.295319 0.276315
0.822020 0.341191 0.321022
0.851800 0.357719 0.358842
0.866039 0.215214 0.579818
0.863233 0.337404 0.662043
0.093630 0.481163 0.241609
0.103111 0.459434 0.227819
0.156586 0.404333 0.196788
0.320732 0.355838 0.178154
0.597744 0.393884 0.205724
0.756190 0.440017 0.247061
0.822258 0.469188 0.278878
0.848400 0.469887 0.361231
0.854087 0.316898 0.642428
0.113897 0.644176 0.239864
0.122202 0.635298 0.234974
0.162418 0.604419 0.221206
0.275565 0.566588 0.206131
0.464651 0.542205 0.200362
0.658968 0.550633 0.218868
0.779149 0.573003 0.242468
0.828500 0.584879 0.290090
0.844419 0.588394 0.527310
0.131807 0.740671 0.233000
0.137760 0.735038 0.231880
0.170276 0.719454 0.229926
0.253354 0.695763 0.224596
0.392693 0.672501 0.220622
0.570624 0.658008 0.222411
0.710179 0.658391 0.231117
0.803811 0.669110 0.263022
0.832165 0.677242 0.343600
0.143383 0.800620 0.208820
0.147800 0.797755 0.210003
0.171980 0.789488 0.215839
0.235070 0.776026 0.221010
0.347199 0.760557 0.224531
0.498269 0.747449 0.229006
0.646915 0.739572 0.236559
0.772869 0.737802 0.253542
0.821535 0.744869 0.286169
0.147901 0.843515 0.177890
0.150702 0.841897 0.180752
0.170422 0.836727 0.196573
0.217345 0.828877 0.210293
0.309632 0.818151 0.221718
0.437297 0.805774 0.230943
0.581460 0.796965 0.240340
0.718386 0.792993 0.251080
0.814869 0.792826 0.262256
0.130461 0.849325 0.130117
0.160322 0.866566 0.129699
0.157946 0.863051 0.128309
0.154262 0.857495 0.126135
0.252979 0.852094 0.152695
0.367370 0.842983 0.180201
0.502618 0.836210 0.197224
0.639186 0.832708 0.207709
0.814188 0.832488 0.212106
0.070080 0.128198 0.558120
0.087160 0.193879 0.726887
0.570355 0.236365 0.754137
0.801666 0.278200 0.747327
0.853763 0.297458 0.715322
0.865557 0.308153 0.691938
0.871217 0.307952 0.689451
0.874482 0.237832 0.711121
0.869944 0.356862 0.700866
0.074159 0.182890 0.572932
0.096184 0.227455 0.671505
0.515609 0.277100 0.727905
0.767207 0.293498 0.707182
0.836418 0.305744 0.679865
0.857272 0.320716 0.665754
0.866441 0.322812 0.672354
0.871450 0.253273 0.703128
0.867998 0.352229 0.697699
0.084589 0.292455 0.476790
0.098055 0.286727 0.476935
0.252627 0.279196 0.504743
0.587350 0.297597 0.525775
0.757989 0.339632 0.550981
0.824204 0.377640 0.573751
0.850753 0.393952 0.604510
0.860730 0.372409 0.657881
0.861666 0.337511 0.687530
0.097572 0.447985 0.425053
0.109684 0.432696 0.411524
0.168009 0.385552 0.373505
0.343206 0.345292 0.347943
0.620908 0.399482 0.404800
0.763119 0.448478 0.454371
0.821025 0.480172 0.506146
0.846232 0.487229 0.578616
0.852277 0.316497 0.668318
0.124463 0.617932 0.427871
0.133821 0.608490 0.419600
0.180764 0.581070 0.397159
0.301817 0.545487 0.367628
0.493953 0.518664 0.353892
0.677520 0.543397 0.382827
0.782702 0.570391 0.421664
0.825557 0.585846 0.479058
0.842338 0.596507 0.626265
0.145293 0.722247 0.417889
0.152718 0.717159 0.413776
0.191397 0.702484 0.402898
0.283975 0.679881 0.385346
0.430265 0.658459 0.371333
0.599368 0.646834 0.367866
0.730015 0.652582 0.384314
0.804150 0.665410 0.416707
0.829210 0.678888 0.549921
0.157394 0.789514 0.399140
0.162845 0.786844 0.397098
0.192846 0.778870 0.392516
0.266542 0.766104 0.385120
0.380869 0.751707 0.377700
0.534970 0.739927 0.374040
0.673097 0.732439 0.376353
0.781686 0.733723 0.389213
0.819678 0.743912 0.459305
0.158027 0.836724 0.368060
0.161788 0.835312 0.367658
0.185996 0.830804 0.369667
0.240334 0.823437 0.369752
0.336184 0.811772 0.369441
0.470081 0.800600 0.369611
0.606380 0.793029 0.371983
0.740279 0.790233 0.377859
0.814330 0.791666 0.406820
0.141499 0.855858 0.364334
0.158475 0.865306 0.362758
0.156226 0.861943 0.357515
0.182127 0.860118 0.288125
0.277949 0.848250 0.341425
0.388337 0.840404 0.347191
0.523693 0.834537 0.352051
0.660456 0.831663 0.355918
0.814267 0.832247 0.363321
0.072308 0.194603 0.706193
0.080270 0.247994 0.771586
0.479058 0.321099 0.815998
0.783327 0.360014 0.816369
0.861163 0.396341 0.810253
0.870867 0.385983 0.780644
0.873783 0.371916 0.764602
0.874475 0.312614 0.759918
0.869947 0.367140 0.757978
0.075715 0.249470 0.713881
0.087296 0.292562 0.763931
0.438174 0.358655 0.808465
0.768000 0.397699 0.810845
0.846502 0.402487 0.789374
0.862670 0.396830 0.767375
0.868915 0.385711 0.755317
0.871386 0.328371 0.753372
0.867942 0.361867 0.752435
0.095094 0.410713 0.701276
0.119050 0.414348 0.711011
0.316837 0.420822 0.736575
0.636924 0.416536 0.729446
0.778983 0.421547 0.718694
0.833214 0.436081 0.714929
0.852939 0.439640 0.717456
0.860894 0.421257 0.727134
0.861391 0.345130 0.734661
0.106811 0.469572 0.592974
0.120856 0.462290 0.589585
0.200256 0.444162 0.586816
0.422670 0.432923 0.590727
0.655574 0.451080 0.606463
0.774255 0.485356 0.630260
0.823335 0.510729 0.655502
0.845933 0.515741 0.687022
0.852080 0.448469 0.716659
0.130141 0.600216 0.566576
0.141013 0.593323 0.560486
0.192038 0.571829 0.544071
0.318672 0.540434 0.523076
0.507351 0.511990 0.510049
0.687930 0.549040 0.545431
0.784430 0.578538 0.584421
0.823991 0.596023 0.625645
0.841012 0.608373 0.688481
0.154206 0.706864 0.558551
0.162438 0.702578 0.554374
0.205428 0.689646 0.542927
0.303063 0.669106 0.527524
0.454580 0.648697 0.514394
0.614647 0.638298 0.510485
0.738100 0.650388 0.530528
0.803003 0.666101 0.566513
0.826717 0.682985 0.648865
0.167420 0.779295 0.545722
0.174461 0.776958 0.543173
0.207889 0.769749 0.536112
0.286704 0.758084 0.526400
0.406166 0.744829 0.517302
0.562094 0.732488 0.511788
0.689047 0.726922 0.512603
0.785024 0.731557 0.526318
0.817570 0.744958 0.602032
0.165681 0.830854 0.529619
0.170668 0.829568 0.527859
0.197899 0.825402 0.523466
0.258626 0.817209 0.517211
0.356021 0.806303 0.511294
0.491538 0.796251 0.507193
0.627838 0.789813 0.505833
0.755670 0.788268 0.508909
0.813395 0.792009 0.547568
0.143754 0.855770 0.582391
0.145726 0.856362 0.580951
0.149685 0.856803 0.576126
0.200422 0.852750 0.511028
0.290116 0.845409 0.503003
0.402718 0.838398 0.497127
0.539675 0.833216 0.493892
0.674314 0.831016 0.493406
0.813986 0.832900 0.511109
0.074780 0.291559 0.802548
0.080237 0.322967 0.833338
0.398780 0.407464 0.855666
0.759602 0.437970 0.856620
0.860350 0.474291 0.857213
0.877576 0.464479 0.840215
0.878373 0.440082 0.817236
0.876772 0.388048 0.800627
0.871260 0.376555 0.783986
0.077822 0.331000 0.806437
0.085107 0.360609 0.832211
0.382423 0.435033 0.853984
0.743861 0.465305 0.855456
0.854975 0.496181 0.854288
0.869803 0.471829 0.832056
0.873589 0.450232 0.809787
0.873667 0.403108 0.795714
0.869216 0.371382 0.780903
0.103543 0.488600 0.810679
0.125840 0.502009 0.823449
0.358642 0.544092 0.845618
0.665600 0.528660 0.834126
0.797817 0.512949 0.813014
0.844506 0.503882 0.796429
0.857850 0.494450 0.785430
0.863227 0.470374 0.779007
0.862498 0.354807 0.770811
0.122348 0.540791 0.734617
0.137886 0.539438 0.736550
0.249402 0.539895 0.747247
0.493251 0.534772 0.748342
0.690132 0.535874 0.744914
0.789196 0.542955 0.744273
0.830910 0.550856 0.747039
0.847932 0.548872 0.752574
0.852682 0.497716 0.754930
0.138403 0.608602 0.679044
0.149792 0.604264 0.676505
0.212000 0.592916 0.672803
0.357956 0.575834 0.667567
0.566065 0.568502 0.667326
0.708855 0.580920 0.680484
0.790740 0.601154 0.696822
0.825842 0.614307 0.714999
0.841017 0.624805 0.734398
0.159264 0.698336 0.656389
0.168531 0.695042 0.653556
0.215429 0.684791 0.646063
0.317345 0.667678 0.635770
0.472993 0.648773 0.625157
0.622171 0.635990 0.617873
0.743986 0.655862 0.644406
0.803187 0.672996 0.675879
0.825666 0.689989 0.711209
0.173550 0.771773 0.642610
0.181193 0.769772 0.640417
0.217808 0.763577 0.634426
0.299206 0.753308 0.626350
0.422953 0.741241 0.618812
0.574626 0.728448 0.613837
0.697295 0.723830 0.615292
0.785873 0.732655 0.634173
0.815928 0.747619 0.688919
0.169779 0.826448 0.628956
0.175257 0.825301 0.627219
0.204335 0.821098 0.622367
0.269597 0.812811 0.615737
0.368586 0.802875 0.609636
0.506150 0.793763 0.605513
0.642479 0.788177 0.604345
0.763711 0.787689 0.608002
0.812293 0.793889 0.655854
0.143091 0.853231 0.611570
0.144761 0.853720 0.612231
0.147887 0.853896 0.615177
0.201660 0.850778 0.609055
0.294303 0.843796 0.601295
0.408994 0.837383 0.596057
0.547689 0.832847 0.592946
0.681797 0.831208 0.591703
0.813530 0.834373 0.626460
0.078522 0.399759 0.866809
0.083222 0.416776 0.878125
0.316029 0.476935 0.886363
0.741629 0.506751 0.887088
0.857603 0.540129 0.887632
0.884245 0.543964 0.878131
0.883754 0.506124 0.856707
0.880280 0.451210 0.840485
0.873436 0.392042 0.820107
0.081501 0.427523 0.868133
0.086946 0.442781 0.877727
0.318971 0.501412 0.885942
0.729493 0.531243 0.886836
0.854680 0.557302 0.887442
0.877343 0.547363 0.871488
0.879323 0.515127 0.852169
0.877232 0.462822 0.837403
0.871385 0.386548 0.816580
0.108001 0.549970 0.870647
0.125875 0.556874 0.875809
0.335101 0.585226 0.883524
0.687808 0.603685 0.885195
0.816919 0.583314 0.866911
0.854015 0.566193 0.850582
0.864229 0.549208 0.837472
0.867017 0.521458 0.823713
0.864610 0.368575 0.804608
0.141746 0.611107 0.839177
0.158502 0.610419 0.840399
0.286693 0.612388 0.841803
0.547619 0.605522 0.836437
0.724806 0.597959 0.825898
0.807456 0.593268 0.815248
0.841723 0.588364 0.806874
0.851779 0.578955 0.800602
0.854330 0.557536 0.793595
0.151535 0.641759 0.775476
0.163540 0.640236 0.775955
0.239403 0.637657 0.778330
0.408545 0.630449 0.776907
0.612203 0.625412 0.773279
0.738191 0.627591 0.771543
0.802350 0.633311 0.772413
0.831356 0.637768 0.774849
0.842433 0.642656 0.776540
0.165409 0.702346 0.739808
0.175550 0.700119 0.738990
0.226821 0.693745 0.737883
0.340021 0.682615 0.735331
0.506924 0.670905 0.730684
0.659255 0.667054 0.729185
0.759442 0.674898 0.736501
0.807162 0.686084 0.748262
0.826732 0.699640 0.760299
0.175635 0.768637 0.718825
0.183747 0.767052 0.717749
0.222696 0.762075 0.715212
0.307401 0.753545 0.712067
0.437018 0.743172 0.708800
0.586019 0.731556 0.705135
0.701123 0.723506 0.702003
0.787499 0.738501 0.720434
0.815600 0.751973 0.743883
0.168360 0.824353 0.702617
0.174062 0.823326 0.701540
0.204408 0.818881 0.698716
0.271697 0.811421 0.695078
0.373848 0.802417 0.692125
0.514174 0.794022 0.690420
0.651038 0.788840 0.690705
0.766878 0.788910 0.695556
0.811426 0.796907 0.729325
0.140520 0.849669 0.660626
0.144258 0.851471 0.659545
0.148092 0.852197 0.656179
0.191791 0.850963 0.680807
0.289165 0.843659 0.674619
0.405532 0.837655 0.670778
0.545915 0.833586 0.668495
0.680904 0.832445 0.667562
0.813164 0.836730 0.717607
0.084766 0.495358 0.906275
0.089835 0.499432 0.907255
0.354711 0.536096 0.907850
0.761964 0.557168 0.907986
0.862325 0.579468 0.908223
0.891831 0.593238 0.905918
0.889371 0.556498 0.889218
0.884412 0.496085 0.871249
0.875935 0.424120 0.849807
0.087695 0.517243 0.906214
0.094476 0.521592 0.907136
0.360309 0.552458 0.907844
0.752702 0.572749 0.907997
0.860215 0.594700 0.908235
0.886020 0.595420 0.901632
0.885456 0.561633 0.885418
0.881678 0.507171 0.868214
0.873928 0.423753 0.847632
0.123503 0.603368 0.905972
0.140724 0.606071 0.906611
0.387804 0.625234 0.907537
0.717731 0.640619 0.907842
0.842531 0.638558 0.901357
0.865368 0.614369 0.887965
0.871658 0.588800 0.871483
0.871846 0.555088 0.858126
0.867388 0.452754 0.840418
0.168182 0.671126 0.895118
0.187943 0.669235 0.894333
0.357517 0.667584 0.890931
0.613775 0.658475 0.882806
0.772418 0.647819 0.871704
0.830631 0.637784 0.860791
0.850606 0.624102 0.851063
0.857031 0.604932 0.842931
0.856925 0.582396 0.834219
0.171924 0.680698 0.851185
0.186805 0.679521 0.850926
0.290131 0.678285 0.849229
0.483026 0.672784 0.844517
0.669748 0.667013 0.838765
0.775314 0.663282 0.833262
0.818447 0.660380 0.826881
0.840008 0.655708 0.822039
0.844915 0.655990 0.816355
0.175814 0.719592 0.815036
0.186676 0.718234 0.815181
0.252754 0.715256 0.815031
0.378539 0.708260 0.810894
0.564584 0.701077 0.804854
0.698308 0.697980 0.800282
0.780893 0.699106 0.798585
0.815600 0.701549 0.799124
0.829928 0.709727 0.799317
0.177090 0.771525 0.785982
0.185181 0.770355 0.786181
0.229838 0.767012 0.787592
0.320156 0.760584 0.787513
0.465237 0.752499 0.784391
0.615330 0.745796 0.779922
0.728590 0.744225 0.778067
0.794945 0.748506 0.781534
0.817448 0.757659 0.786205
0.161165 0.825916 0.763280
0.166270 0.824931 0.763007
0.198082 0.821033 0.763141
0.267652 0.814113 0.763922
0.374737 0.805989 0.765488
0.521175 0.798454 0.766281
0.659177 0.793391 0.766094
0.767848 0.790480 0.765034
0.811492 0.800764 0.778090
0.136097 0.845290 0.720543
0.147167 0.851689 0.720751
0.147427 0.850555 0.724949
0.179402 0.851358 0.732759
0.271445 0.845594 0.731602
0.389749 0.839696 0.731596
0.531718 0.835883 0.732240
0.669361 0.834968 0.732357
0.812968 0.839496 0.773769
0.331812 0.541089 0.926512
0.423570 0.543720 0.926517
0.717097 0.554123 0.926534
0.854300 0.571767 0.926586
0.887978 0.592023 0.926677
0.905703 0.608695 0.926819
0.897930 0.562949 0.910720
0.889636 0.465698 0.896422
0.878085 0.441768 0.877916
0.336833 0.553820 0.926466
0.425196 0.556475 0.926471
0.713012 0.566945 0.926491
0.852999 0.584639 0.926548
0.887427 0.604855 0.926643
0.901264 0.610806 0.923340
0.894458 0.566663 0.907786
0.887095 0.472247 0.894275
0.876114 0.444556 0.878739
0.365916 0.616508 0.926206
0.441833 0.618949 0.926218
0.697206 0.628476 0.926259
0.846805 0.642838 0.926350
0.882422 0.652011 0.924507
0.885565 0.627164 0.911047
0.883026 0.590644 0.898183
0.878381 0.520551 0.886726
0.869541 0.428733 0.871438
0.398190 0.703101 0.923070
0.447224 0.700807 0.921786
0.648289 0.693747 0.917482
0.800514 0.683056 0.910466
0.848299 0.669736 0.901681
0.860725 0.654254 0.892521
0.864498 0.633858 0.882103
0.864402 0.594124 0.871165
0.860048 0.581667 0.861615
0.320133 0.710941 0.891754
0.349828 0.709423 0.890936
0.514779 0.704945 0.888211
0.706751 0.698487 0.882143
0.794476 0.690764 0.874834
0.828933 0.682051 0.867323
0.843898 0.670805 0.860249
0.848802 0.653167 0.853918
0.848460 0.645319 0.848741
0.256242 0.739113 0.863103
0.276930 0.737681 0.862227
0.383744 0.733482 0.859331
0.593714 0.727598 0.854828
0.723505 0.721479 0.849757
0.788033 0.716235 0.845106
0.815377 0.710764 0.841299
0.830467 0.702199 0.838289
0.835377 0.706256 0.836083
0.204295 0.778831 0.846559
0.216822 0.777655 0.845830
0.286085 0.774000 0.843356
0.443804 0.768325 0.839378
0.628015 0.762174 0.834779
0.735479 0.757446 0.828992
0.789192 0.754465 0.824949
0.812575 0.751264 0.822998
0.822138 0.757185 0.822524
0.156388 0.827959 0.835827
0.161239 0.827159 0.835810
0.192501 0.824339 0.834810
0.287191 0.818333 0.831042
0.449496 0.810705 0.825500
0.631079 0.804208 0.819826
0.748062 0.800305 0.815330
0.798632 0.798078 0.813343
0.814565 0.801515 0.813928
0.130826 0.840447 0.764243
0.146986 0.850614 0.778524
0.145751 0.848663 0.776554
0.151726 0.846639 0.773380
0.226084 0.851160 0.801846
0.361420 0.844990 0.815579
0.518961 0.841109 0.813566
0.673372 0.840344 0.811948
0.813019 0.842652 0.811624
