LUTs/negative-ultramax-400/Ultramax400_Classic_Normal.cube
TITLE "Kodak Ultramax 400 Classic Normal"
# Adobe RGB in/out. REPLACES AgX. Kodak Ultramax 400 Classic Normal.
LUT_3D_SIZE 33
DOMAIN_MIN 0.0 0.0 0.0
DOMAIN_MAX 1.0 1.0 1.0
0.073661 0.072636 0.087722
0.077754 0.074802 0.088295
0.079009 0.075495 0.088387
0.087303 0.077685 0.088775
0.121775 0.080307 0.089118
0.146412 0.081681 0.089364
0.214587 0.084335 0.089762
0.303960 0.087713 0.090250
0.353520 0.089454 0.090531
0.421932 0.092680 0.090919
0.509102 0.097543 0.091442
0.562746 0.100393 0.091913
0.607732 0.102647 0.092358
0.656080 0.107176 0.092897
0.690736 0.113197 0.093631
0.716674 0.117244 0.094403
0.737948 0.121805 0.095197
0.754763 0.127198 0.096244
0.770214 0.133625 0.097781
0.784181 0.136855 0.098906
0.796093 0.140166 0.100474
0.806134 0.144353 0.102310
0.813871 0.148279 0.104236
0.821478 0.148665 0.106947
0.827224 0.149287 0.110814
0.832400 0.148488 0.117283
0.839012 0.139126 0.129359
0.842604 0.135154 0.181137
0.850367 0.112625 0.447911
0.850366 0.112595 0.447879
0.850366 0.112593 0.447877
0.850366 0.112594 0.447876
0.854402 0.255225 0.575230
0.074252 0.078560 0.088207
0.075998 0.078711 0.088342
0.079091 0.076648 0.088337
0.087944 0.078687 0.088836
0.118255 0.081245 0.089206
0.140380 0.082258 0.089418
0.205297 0.084940 0.089812
0.294397 0.088319 0.090286
0.344416 0.089916 0.090565
0.414461 0.093245 0.090944
0.502406 0.098021 0.091460
0.558022 0.100798 0.091939
0.603825 0.103074 0.092379
0.653213 0.107716 0.092914
0.689085 0.113695 0.093649
0.715386 0.117886 0.094428
0.737169 0.122400 0.095218
0.754176 0.127760 0.096268
0.769779 0.134165 0.097801
0.783855 0.137367 0.098929
0.795851 0.140655 0.100492
0.805994 0.144980 0.102322
0.813769 0.148895 0.104242
0.821405 0.149268 0.106941
0.827172 0.149878 0.110783
0.832363 0.149069 0.117162
0.838986 0.139550 0.128973
0.842590 0.135482 0.179106
0.850367 0.112626 0.447912
0.850366 0.112595 0.447879
0.850366 0.112593 0.447877
0.850366 0.112595 0.447876
0.854402 0.255227 0.575230
0.074449 0.079815 0.088275
0.074937 0.080013 0.088468
0.076594 0.079982 0.088534
0.082257 0.081633 0.088983
0.099122 0.084377 0.089391
0.121892 0.084779 0.089549
0.176788 0.087297 0.089973
0.263684 0.091100 0.090467
0.314179 0.092588 0.090695
0.386289 0.095407 0.091037
0.477425 0.099825 0.091524
0.540128 0.102311 0.092033
0.588975 0.105264 0.092455
0.641297 0.109725 0.092977
0.682792 0.115596 0.093715
0.710489 0.120260 0.094519
0.734216 0.124594 0.095295
0.751958 0.129826 0.096357
0.768143 0.136147 0.097874
0.782631 0.139242 0.099016
0.794944 0.142444 0.100559
0.805443 0.147281 0.102367
0.813388 0.151151 0.104263
0.821132 0.151477 0.106924
0.826979 0.152041 0.110681
0.832228 0.151195 0.116753
0.838890 0.141108 0.127750
0.842536 0.136716 0.172142
0.850367 0.112628 0.447915
0.850366 0.112596 0.447879
0.850366 0.112593 0.447877
0.850366 0.112596 0.447876
0.854402 0.255230 0.575229
0.075210 0.085723 0.088684
0.075534 0.085967 0.088827
0.076745 0.086358 0.088996
0.079375 0.086221 0.089174
0.088698 0.090215 0.089636
0.100306 0.089285 0.089757
0.135020 0.092219 0.090173
0.207441 0.096329 0.090695
0.263234 0.097068 0.090888
0.334003 0.099298 0.091196
0.430957 0.103806 0.091732
0.500906 0.107228 0.092214
0.558440 0.109814 0.092601
0.616422 0.113723 0.093096
0.669577 0.120740 0.093900
0.700253 0.124931 0.094692
0.727107 0.128879 0.095439
0.747383 0.133835 0.096526
0.764795 0.139974 0.098012
0.780141 0.142948 0.099181
0.793112 0.146975 0.100688
0.804107 0.151704 0.102459
0.812628 0.155480 0.104311
0.820588 0.155712 0.106913
0.826598 0.156185 0.110523
0.831960 0.155274 0.116087
0.838699 0.144631 0.125782
0.842428 0.139209 0.161130
0.850367 0.112634 0.447920
0.850366 0.112596 0.447880
0.850366 0.112594 0.447877
0.850366 0.112600 0.447876
0.854402 0.255233 0.575228
0.076209 0.097998 0.089153
0.076482 0.098312 0.089280
0.077517 0.099284 0.089469
0.079920 0.099604 0.089683
0.084968 0.099363 0.089962
0.091691 0.097131 0.090047
0.111582 0.099567 0.090411
0.155136 0.102834 0.090940
0.205733 0.102604 0.091114
0.274994 0.104942 0.091390
0.373159 0.111434 0.092063
0.445338 0.113976 0.092482
0.512194 0.116471 0.092821
0.575385 0.121848 0.093280
0.640764 0.129515 0.094226
0.681409 0.132759 0.094963
0.712777 0.135961 0.095667
0.739084 0.140391 0.096791
0.758802 0.147379 0.098232
0.775729 0.150695 0.099446
0.789901 0.154352 0.100898
0.801792 0.158948 0.102612
0.811321 0.163047 0.104404
0.819660 0.163131 0.106943
0.825950 0.163497 0.110354
0.831506 0.162350 0.115283
0.838377 0.151117 0.123433
0.842242 0.143780 0.149293
0.850367 0.112644 0.447931
0.850366 0.112597 0.447881
0.850366 0.112594 0.447878
0.850367 0.112637 0.447876
0.854402 0.255234 0.575228
0.076770 0.103679 0.089412
0.076918 0.103913 0.089485
0.077643 0.105517 0.089614
0.079337 0.106470 0.089884
0.082507 0.106536 0.090069
0.088342 0.106174 0.090327
0.100947 0.110102 0.090739
0.129744 0.115112 0.091244
0.161641 0.113163 0.091346
0.219189 0.114770 0.091619
0.307100 0.122260 0.092391
0.382368 0.125096 0.092786
0.452054 0.127352 0.093102
0.528824 0.131752 0.093581
0.601095 0.138664 0.094642
0.656750 0.141983 0.095321
0.691096 0.146365 0.096039
0.722533 0.152938 0.097174
0.748207 0.160418 0.098598
0.768028 0.163188 0.099836
0.784390 0.166592 0.101214
0.797887 0.171160 0.102853
0.809144 0.174929 0.104566
0.818129 0.174716 0.107071
0.824891 0.174808 0.110247
0.830768 0.173507 0.114656
0.837850 0.161410 0.121188
0.841930 0.152824 0.138950
0.850368 0.112667 0.447953
0.850366 0.112600 0.447884
0.850366 0.112595 0.447879
0.854400 0.246150 0.447877
0.854402 0.255234 0.575228
0.077825 0.121781 0.089862
0.077949 0.121986 0.089923
0.078580 0.123805 0.090116
0.080010 0.125634 0.090324
0.082978 0.126519 0.090607
0.087970 0.126415 0.090846
0.096074 0.125888 0.091102
0.116810 0.133135 0.091541
0.137989 0.128944 0.091674
0.180080 0.129889 0.092058
0.254185 0.137095 0.092771
0.321013 0.138946 0.093130
0.390617 0.139658 0.093408
0.467922 0.143569 0.094007
0.552009 0.152730 0.095143
0.612098 0.157067 0.095782
0.666064 0.160041 0.096577
0.703738 0.166108 0.097628
0.736004 0.175313 0.099178
0.757544 0.179249 0.100350
0.775505 0.184482 0.101660
0.791063 0.190133 0.103215
0.805371 0.193557 0.104989
0.815538 0.192786 0.107372
0.823130 0.192396 0.110299
0.829549 0.190755 0.114299
0.836972 0.178246 0.119555
0.841399 0.168117 0.131060
0.850370 0.112724 0.448005
0.850366 0.112605 0.447890
0.850366 0.112598 0.447882
0.854402 0.246224 0.447878
0.854402 0.255234 0.575228
0.079159 0.147875 0.090416
0.079283 0.148090 0.090470
0.079917 0.150549 0.090686
0.081379 0.152939 0.090931
0.084005 0.154834 0.091162
0.088853 0.155617 0.091414
0.096176 0.155260 0.091662
0.109404 0.154501 0.092049
0.124795 0.147397 0.092154
0.154139 0.147615 0.092506
0.215435 0.156929 0.093169
0.273661 0.157736 0.093530
0.333069 0.157416 0.093864
0.410371 0.161960 0.094623
0.498350 0.171765 0.095680
0.564296 0.175002 0.096417
0.625678 0.178162 0.097188
0.676440 0.185281 0.098194
0.715780 0.195118 0.099906
0.745349 0.197523 0.100973
0.766912 0.201461 0.102193
0.784495 0.207547 0.103673
0.799763 0.213581 0.105664
0.811766 0.215929 0.107911
0.819989 0.219221 0.110633
0.827406 0.217283 0.114334
0.835393 0.206101 0.119040
0.840429 0.194438 0.127082
0.850377 0.112957 0.448184
0.850367 0.112625 0.447910
0.850366 0.112605 0.447891
0.854402 0.246228 0.447882
0.854402 0.255234 0.575228
0.079827 0.164625 0.090707
0.079917 0.164796 0.090747
0.080340 0.166533 0.090899
0.081728 0.169616 0.091119
0.083789 0.172312 0.091339
0.087441 0.173807 0.091544
0.092864 0.174304 0.091935
0.102621 0.173714 0.092269
0.117440 0.172885 0.092605
0.139740 0.172572 0.092927
0.188624 0.184003 0.093639
0.237350 0.183577 0.094141
0.290670 0.181679 0.094575
0.357644 0.185345 0.095257
0.443288 0.195561 0.096441
0.514581 0.197896 0.097163
0.577436 0.200612 0.097863
0.642983 0.207036 0.098964
0.691550 0.216608 0.100712
0.727821 0.219978 0.101714
0.752884 0.225271 0.102875
0.774909 0.229638 0.104252
0.793282 0.234430 0.106514
0.808349 0.235676 0.108595
0.817697 0.238412 0.111158
0.825324 0.241495 0.114711
0.833347 0.237968 0.119486
0.838652 0.235514 0.126451
0.850593 0.120810 0.450229
0.850374 0.112865 0.448118
0.850368 0.112657 0.447947
0.854402 0.246230 0.447898
0.854402 0.255234 0.575228
0.080910 0.192012 0.091089
0.081027 0.192162 0.091118
0.081543 0.193506 0.091230
0.082675 0.196988 0.091417
0.084510 0.200128 0.091670
0.087744 0.202671 0.092035
0.092285 0.203784 0.092394
0.100220 0.203830 0.092726
0.112793 0.203180 0.093035
0.130834 0.202365 0.093344
0.169440 0.215480 0.094359
0.211373 0.214183 0.094907
0.256537 0.210634 0.095266
0.315774 0.213196 0.095944
0.396610 0.223358 0.097289
0.462098 0.224525 0.097940
0.530937 0.225987 0.098645
0.597304 0.231442 0.099930
0.663215 0.242745 0.101620
0.703245 0.245924 0.102542
0.738598 0.249312 0.103587
0.762982 0.256534 0.105118
0.783532 0.264618 0.107570
0.801989 0.266108 0.109496
0.814059 0.267058 0.111979
0.822957 0.268796 0.115354
0.831856 0.264182 0.119737
0.837720 0.260485 0.125777
0.843755 0.250397 0.135590
0.848015 0.239976 0.167706
0.852469 0.217640 0.407197
0.854402 0.246399 0.450939
0.854402 0.255235 0.575228
0.082864 0.236707 0.091639
0.082957 0.236878 0.091681
0.083353 0.238154 0.091837
0.084563 0.242999 0.092141
0.086377 0.247017 0.092470
0.089586 0.250055 0.092810
0.094117 0.252407 0.093147
0.102042 0.253239 0.093507
0.113962 0.253031 0.093960
0.131024 0.252129 0.094563
0.155944 0.251273 0.095151
0.192101 0.248677 0.095629
0.231561 0.243260 0.096026
0.284599 0.245227 0.096852
0.354682 0.257002 0.098150
0.418160 0.256755 0.098890
0.482801 0.256861 0.099725
0.552921 0.262359 0.100927
0.624136 0.274297 0.102573
0.676311 0.275736 0.103408
0.716560 0.280025 0.104400
0.747872 0.287887 0.106427
0.773198 0.293678 0.108704
0.794300 0.295655 0.110508
0.809140 0.300189 0.113032
0.819006 0.306164 0.116504
0.829411 0.300060 0.120438
0.836226 0.294635 0.125665
0.842805 0.283350 0.133259
0.847484 0.269569 0.152171
0.852277 0.227677 0.343642
0.854402 0.246924 0.460377
0.854402 0.247117 0.463770
0.084150 0.272268 0.092182
0.084252 0.272419 0.092215
0.084672 0.273444 0.092340
0.085695 0.277544 0.092589
0.087450 0.281317 0.092874
0.090247 0.285436 0.093193
0.094409 0.288907 0.093584
0.101132 0.290405 0.094099
0.111461 0.290867 0.094698
0.125655 0.290494 0.095262
0.146666 0.289510 0.095808
0.178252 0.288731 0.096564
0.212435 0.281392 0.096947
0.259564 0.283346 0.097764
0.322088 0.295201 0.099265
0.380105 0.293331 0.100058
0.440818 0.292486 0.100859
0.511664 0.297409 0.102001
0.582368 0.308739 0.103520
0.644021 0.309262 0.104306
0.690099 0.313912 0.105756
0.731273 0.319863 0.107798
0.759501 0.326656 0.109996
0.783512 0.329608 0.111833
0.803129 0.331407 0.114249
0.815495 0.334965 0.117898
0.826575 0.334321 0.121527
0.833960 0.335165 0.126232
0.841137 0.329126 0.132820
0.846547 0.314047 0.144992
0.851823 0.257042 0.252355
0.854402 0.246933 0.460425
0.854402 0.247305 0.466977
0.085387 0.304744 0.092592
0.085471 0.304875 0.092620
0.085812 0.305696 0.092724
0.086723 0.308802 0.092929
0.088478 0.313249 0.093196
0.090881 0.317750 0.093543
0.094446 0.320933 0.094028
0.100282 0.323038 0.094646
0.109212 0.324247 0.095223
0.121246 0.324343 0.095770
0.138859 0.323892 0.096480
0.163845 0.322942 0.097170
0.198316 0.322304 0.097881
0.239951 0.323339 0.098701
0.298063 0.334330 0.100522
0.348267 0.331855 0.101254
0.405780 0.330027 0.101970
0.470937 0.333762 0.103083
0.544914 0.343115 0.104581
0.603943 0.342600 0.105728
0.663109 0.345465 0.107255
0.706822 0.351419 0.109265
0.743515 0.359246 0.111476
0.771966 0.360121 0.113290
0.793920 0.364521 0.115844
0.809914 0.370950 0.119650
0.823219 0.368018 0.122883
0.831928 0.366888 0.127095
0.839661 0.364105 0.133145
0.845285 0.360032 0.143055
0.850038 0.355747 0.166862
0.854402 0.247026 0.460484
0.854403 0.247619 0.471610
0.087070 0.343444 0.093084
0.087171 0.343559 0.093108
0.087569 0.344218 0.093197
0.088463 0.346512 0.093389
0.090083 0.351417 0.093715
0.092067 0.355022 0.094251
0.095682 0.358426 0.094826
0.101255 0.361403 0.095418
0.109291 0.363312 0.096052
0.120148 0.363924 0.096785
0.135823 0.363833 0.097480
0.157463 0.363292 0.098177
0.188357 0.362311 0.098990
0.225134 0.361632 0.099968
0.277551 0.373234 0.101707
0.322869 0.370273 0.102440
0.375475 0.367035 0.103096
0.436635 0.369951 0.104117
0.509435 0.379592 0.106293
0.567483 0.378676 0.107477
0.628654 0.380646 0.108908
0.681485 0.386398 0.110789
0.725000 0.392970 0.113135
0.757253 0.395172 0.114888
0.782763 0.399941 0.117878
0.803865 0.404252 0.121416
0.818920 0.404923 0.124488
0.828655 0.407793 0.128375
0.837778 0.403128 0.133942
0.844254 0.396684 0.142013
0.849498 0.388959 0.157807
0.853093 0.384064 0.248028
0.855406 0.388810 0.475749
0.089502 0.393433 0.093806
0.089591 0.393567 0.093851
0.089938 0.394233 0.094015
0.090693 0.396278 0.094333
0.092168 0.401642 0.094847
0.094452 0.404842 0.095344
0.098076 0.409239 0.095943
0.103930 0.412613 0.096708
0.111658 0.415125 0.097483
0.121876 0.416584 0.098213
0.137342 0.417157 0.099148
0.157826 0.416857 0.100099
0.187182 0.416070 0.101061
0.221354 0.415160 0.101961
0.261460 0.414384 0.102887
0.303303 0.410447 0.103545
0.349970 0.407014 0.104207
0.408534 0.409439 0.105615
0.475444 0.418592 0.108074
0.534817 0.416732 0.109158
0.593272 0.418199 0.110565
0.656840 0.423582 0.112638
0.701638 0.429508 0.114892
0.740594 0.432228 0.117131
0.770186 0.435657 0.119967
0.794019 0.442201 0.123421
0.813736 0.442979 0.126281
0.825596 0.443507 0.129987
0.835487 0.443862 0.135313
0.842579 0.443720 0.142239
0.848596 0.434314 0.153785
0.852669 0.421739 0.198096
0.855376 0.399094 0.466424
0.091070 0.430351 0.094549
0.091148 0.430470 0.094588
0.091445 0.431040 0.094731
0.092078 0.432711 0.095006
0.093611 0.436926 0.095446
0.096005 0.441005 0.095975
0.099693 0.446203 0.096763
0.104825 0.448958 0.097453
0.111822 0.451782 0.098182
0.121218 0.454045 0.099147
0.134877 0.454900 0.100117
0.152347 0.455008 0.101076
0.178846 0.454732 0.102010
0.210048 0.453847 0.102908
0.245948 0.453080 0.103770
0.287585 0.452430 0.104663
0.328884 0.448344 0.105724
0.383761 0.450422 0.107442
0.446784 0.459721 0.109879
0.503973 0.457338 0.110919
0.561379 0.457698 0.112410
0.623544 0.462201 0.114520
0.678308 0.466795 0.117327
0.721171 0.468258 0.119465
0.755310 0.471530 0.122200
0.782744 0.476897 0.125519
0.807640 0.477439 0.128162
0.821143 0.480366 0.132206
0.832817 0.480330 0.137051
0.841147 0.478108 0.143025
0.847560 0.476475 0.152689
0.851867 0.476324 0.178148
0.855184 0.438692 0.405733
0.092549 0.466655 0.095232
0.092617 0.466741 0.095266
0.092995 0.467140 0.095391
0.093828 0.468262 0.095630
0.095363 0.470992 0.096082
0.097654 0.474957 0.096754
0.100922 0.477806 0.097425
0.105841 0.480881 0.098133
0.112381 0.483599 0.099022
0.120809 0.485537 0.100044
0.133124 0.486755 0.101046
0.148920 0.487235 0.101987
0.172435 0.487243 0.102882
0.200405 0.486886 0.103775
0.233424 0.486229 0.104624
0.271263 0.485662 0.106065
0.312903 0.485306 0.107547
0.362051 0.486791 0.109211
0.422693 0.493900 0.111731
0.475271 0.491514 0.112885
0.533804 0.491586 0.114385
0.592519 0.494987 0.116922
0.655871 0.499431 0.119864
0.698886 0.500393 0.121874
0.739214 0.503870 0.124526
0.770059 0.508472 0.127672
0.798337 0.510372 0.130465
0.816162 0.512459 0.134486
0.829647 0.513732 0.139029
0.838971 0.514869 0.144448
0.846440 0.512001 0.152550
0.851378 0.508437 0.169993
0.854714 0.509880 0.278181
0.095038 0.502126 0.096090
0.095132 0.502212 0.096132
0.095486 0.502588 0.096287
0.096218 0.503574 0.096581
0.097531 0.505837 0.097048
0.100181 0.510447 0.097719
0.103274 0.512431 0.098300
0.108016 0.516233 0.099284
0.114222 0.518849 0.100279
0.121795 0.520804 0.101245
0.133537 0.522408 0.102234
0.148350 0.523300 0.103172
0.170133 0.523722 0.104096
0.195977 0.523433 0.105149
0.226692 0.523083 0.106668
0.261573 0.522504 0.108098
0.301016 0.521953 0.109497
0.344472 0.521771 0.110948
0.402320 0.528642 0.113748
0.451033 0.526056 0.114859
0.507295 0.525509 0.116758
0.564983 0.528678 0.119509
0.625793 0.532770 0.122413
0.677144 0.533342 0.124326
0.720426 0.536819 0.126910
0.755818 0.541134 0.130112
0.787168 0.543194 0.133146
0.810051 0.545543 0.136945
0.825486 0.548732 0.141293
0.836852 0.547933 0.146127
0.845128 0.548185 0.153448
0.850555 0.549563 0.166700
0.854459 0.545390 0.223328
0.097862 0.542317 0.097352
0.097948 0.542414 0.097390
0.098309 0.542812 0.097530
0.099130 0.543767 0.097794
0.100587 0.545788 0.098210
0.103392 0.549822 0.098983
0.106494 0.552619 0.099841
0.111072 0.556200 0.100839
0.116927 0.558888 0.101803
0.124844 0.561656 0.102805
0.136259 0.563519 0.103752
0.150590 0.564796 0.104773
0.171267 0.565292 0.106329
0.196057 0.565394 0.107847
0.224899 0.565030 0.109286
0.258637 0.564709 0.110792
0.295783 0.564247 0.112415
0.335956 0.563654 0.114011
0.383969 0.563655 0.115970
0.430324 0.560952 0.117417
0.482624 0.560415 0.119361
0.540744 0.562964 0.122071
0.598270 0.566749 0.124919
0.656720 0.567109 0.126779
0.699715 0.569922 0.129269
0.740801 0.574294 0.133035
0.774647 0.576080 0.135877
0.801803 0.579429 0.139565
0.821115 0.581605 0.143546
0.834026 0.583084 0.148187
0.843614 0.584357 0.154950
0.849929 0.583184 0.165607
0.854131 0.585751 0.201311
0.100298 0.575511 0.098053
0.100394 0.575592 0.098088
0.100795 0.575920 0.098215
0.101625 0.576694 0.098456
0.103063 0.578305 0.099008
0.105458 0.581467 0.099808
0.108546 0.584868 0.100699
0.112650 0.587366 0.101582
0.118345 0.590588 0.102570
0.125906 0.593289 0.103550
0.135953 0.594934 0.104451
0.148985 0.596341 0.105933
0.167836 0.597197 0.107516
0.190942 0.597550 0.109035
0.217818 0.597568 0.110518
0.248767 0.597173 0.112085
0.283579 0.596848 0.113783
0.320941 0.596577 0.115574
0.364502 0.596172 0.117707
0.412921 0.596374 0.119979
0.461385 0.595342 0.121859
0.519015 0.597896 0.124576
0.573851 0.601220 0.127424
0.630001 0.601429 0.129197
0.680130 0.603890 0.132278
0.723853 0.607208 0.135940
0.760778 0.608594 0.138653
0.790970 0.611290 0.142226
0.815501 0.613243 0.145963
0.830590 0.615033 0.150550
0.841947 0.615823 0.156632
0.849027 0.617315 0.166062
0.853845 0.618121 0.190856
0.103200 0.609044 0.098928
0.103300 0.609100 0.098975
0.103675 0.609326 0.099147
0.104422 0.609841 0.099471
0.105699 0.610873 0.099978
0.107783 0.612834 0.100709
0.111217 0.615837 0.101644
0.114839 0.617210 0.102434
0.120470 0.620018 0.103458
0.127159 0.621292 0.104315
0.136989 0.623017 0.105732
0.149594 0.624336 0.107361
0.166933 0.624974 0.108917
0.188302 0.625276 0.110396
0.213383 0.625441 0.112052
0.242369 0.625360 0.113749
0.274642 0.625058 0.115499
0.309966 0.624796 0.117732
0.350407 0.624720 0.119965
0.396196 0.624570 0.122082
0.443308 0.624851 0.124303
0.496965 0.626109 0.126972
0.552027 0.628568 0.129941
0.605311 0.628749 0.132217
0.661620 0.630259 0.135236
0.705079 0.633010 0.138876
0.746421 0.634341 0.141452
0.779094 0.636650 0.144852
0.808655 0.639188 0.148592
0.826684 0.640704 0.152927
0.839793 0.642811 0.158645
0.848144 0.643748 0.167067
0.853520 0.645900 0.186197
0.106274 0.636552 0.100112
0.106367 0.636611 0.100156
0.106715 0.636841 0.100316
0.107403 0.637339 0.100619
0.108561 0.638279 0.101090
0.110640 0.639972 0.101765
0.114228 0.642947 0.102696
0.117651 0.644454 0.103472
0.122420 0.646572 0.104395
0.129879 0.648429 0.105815
0.139280 0.650229 0.107467
0.150513 0.651295 0.109010
0.167410 0.652245 0.110596
0.188006 0.652772 0.112326
0.211611 0.652940 0.114034
0.238835 0.653018 0.116075
0.269465 0.652845 0.118332
0.303264 0.652607 0.120568
0.340393 0.652338 0.122767
0.384241 0.652369 0.124996
0.428754 0.652377 0.127126
0.477873 0.652748 0.129317
0.532886 0.654636 0.132862
0.583080 0.654898 0.135050
0.639532 0.656124 0.138091
0.686932 0.658505 0.141729
0.732103 0.659946 0.144228
0.766314 0.661997 0.147543
0.799517 0.664507 0.151428
0.821806 0.666263 0.155459
0.837363 0.668384 0.160737
0.847081 0.669969 0.168604
0.853142 0.672908 0.184264
0.109292 0.664476 0.101183
0.109388 0.664532 0.101225
0.109776 0.664746 0.101376
0.110539 0.665194 0.101660
0.111813 0.666006 0.102103
0.113828 0.667409 0.102737
0.116999 0.669783 0.103605
0.120591 0.671775 0.104457
0.125411 0.673351 0.105802
0.133129 0.675575 0.107535
0.141212 0.676732 0.109019
0.152705 0.678118 0.110643
0.169571 0.679255 0.112523
0.188276 0.679688 0.114276
0.210461 0.679920 0.116348
0.236201 0.680008 0.118714
0.265525 0.679978 0.121087
0.298119 0.679814 0.123372
0.332848 0.679604 0.125594
0.373883 0.679392 0.127787
0.417501 0.679505 0.130183
0.463135 0.679708 0.132932
0.514832 0.680195 0.135671
0.563391 0.680397 0.137812
0.616856 0.681335 0.140805
0.669779 0.683299 0.144444
0.714286 0.684824 0.146881
0.752977 0.686682 0.150431
0.788677 0.689135 0.154245
0.815946 0.691204 0.158083
0.834473 0.693248 0.162845
0.845789 0.695556 0.170508
0.852852 0.697895 0.183647
0.112470 0.691710 0.101783
0.112565 0.691754 0.101822
0.112916 0.691919 0.101965
0.113604 0.692261 0.102235
0.114743 0.692877 0.102654
0.116530 0.693929 0.103252
0.119306 0.695694 0.104072
0.123147 0.697844 0.105305
0.127916 0.698934 0.106667
0.135079 0.700608 0.108403
0.142847 0.701360 0.109914
0.154273 0.702266 0.111691
0.168841 0.702748 0.113483
0.187287 0.703223 0.115487
0.208921 0.703472 0.117970
0.232702 0.703480 0.120266
0.260048 0.703444 0.122633
0.291079 0.703342 0.124929
0.323569 0.703228 0.127199
0.362064 0.703120 0.129423
0.404601 0.703083 0.132193
0.447367 0.703204 0.134906
0.495717 0.703514 0.137672
0.545885 0.704003 0.140426
0.596347 0.704366 0.143404
0.653098 0.705424 0.147013
0.697070 0.706514 0.149605
0.739490 0.707576 0.153187
0.776652 0.709166 0.156829
0.809148 0.710684 0.160746
0.830933 0.712196 0.165317
0.844384 0.713585 0.172211
0.852504 0.715614 0.183911
0.115564 0.711739 0.102452
0.115652 0.711768 0.102490
0.115978 0.711880 0.102626
0.116612 0.712104 0.102882
0.117656 0.712490 0.103280
0.119273 0.713118 0.103848
0.121753 0.714123 0.104626
0.126647 0.715728 0.106453
0.130882 0.716329 0.107727
0.137081 0.717308 0.109337
0.145451 0.718321 0.111043
0.155413 0.718927 0.112859
0.170355 0.719556 0.114782
0.187919 0.720025 0.117321
0.207241 0.720233 0.119729
0.230396 0.720348 0.122168
0.256924 0.720336 0.124577
0.286679 0.720213 0.126944
0.317666 0.720077 0.129202
0.353619 0.719965 0.132044
0.394164 0.719906 0.134806
0.434909 0.719957 0.137545
0.479931 0.720108 0.140238
0.529626 0.720541 0.143038
0.577951 0.721129 0.145825
0.631778 0.721829 0.149666
0.680974 0.723101 0.152219
0.724586 0.723860 0.155695
0.764082 0.725369 0.159309
0.800232 0.726799 0.162945
0.826661 0.728475 0.167871
0.842771 0.729918 0.174050
0.852110 0.731837 0.184511
0.118566 0.728589 0.103053
0.118648 0.728620 0.103089
0.118951 0.728733 0.103220
0.119539 0.728953 0.103467
0.120500 0.729317 0.103850
0.121977 0.729881 0.104398
0.124755 0.730741 0.105537
0.129414 0.732056 0.107308
0.134071 0.732952 0.108813
0.139529 0.733736 0.110326
0.148617 0.734928 0.112458
0.157898 0.735374 0.114152
0.173132 0.736069 0.116671
0.188353 0.736377 0.119110
0.207945 0.736697 0.121759
0.229944 0.736822 0.124237
0.254437 0.736830 0.126652
0.282601 0.736729 0.129049
0.312633 0.736555 0.131952
0.346586 0.736416 0.134857
0.385162 0.736321 0.137713
0.424888 0.736323 0.140516
0.467427 0.736418 0.143252
0.514989 0.736637 0.145949
0.561392 0.737164 0.148956
0.612290 0.737834 0.152122
0.665904 0.739333 0.154582
0.708391 0.739874 0.158068
0.751244 0.741231 0.161469
0.789373 0.742534 0.165320
0.821277 0.744155 0.170066
0.840833 0.745760 0.175837
0.851912 0.747649 0.185395
0.121492 0.748733 0.102838
0.121564 0.748751 0.102874
0.121826 0.748819 0.103003
0.122335 0.748947 0.103247
0.123347 0.749155 0.103630
0.125069 0.749468 0.104181
0.127706 0.749941 0.105180
0.131836 0.750673 0.107007
0.136900 0.751428 0.108890
0.141847 0.751865 0.110349
0.149717 0.752531 0.112416
0.160031 0.753026 0.114452
0.173082 0.753362 0.116927
0.188865 0.753626 0.119670
0.207098 0.753735 0.122347
0.227470 0.753767 0.124871
0.251817 0.753728 0.127445
0.278704 0.753581 0.130057
0.307026 0.753365 0.133034
0.338661 0.753167 0.135971
0.375287 0.753032 0.138856
0.414222 0.752984 0.141692
0.454840 0.753060 0.144478
0.500084 0.753283 0.147216
