LUTs/negative-ultramax-400/Ultramax400_Modern_Punchy.cube
TITLE "Kodak Ultramax 400 Modern Punchy"
# Adobe RGB in/out. REPLACES AgX. Kodak Ultramax 400 Modern Punchy.
LUT_3D_SIZE 5
DOMAIN_MIN 0.0 0.0 0.0
DOMAIN_MAX 1.0 1.0 1.0
0.070208 0.083169 0.079619
0.636306 0.107114 0.086601
0.894650 0.178700 0.103699
0.922673 0.220266 0.142778
0.920397 0.359817 0.708061
0.093688 0.322056 0.087625
0.155852 0.223792 0.089879
0.729934 0.284275 0.104017
0.903072 0.343141 0.134248
0.912997 0.340427 0.691304
0.128051 0.674451 0.102904
0.158448 0.641447 0.108573
0.378795 0.567443 0.116566
0.798610 0.579447 0.137376
0.894283 0.581378 0.336432
0.159615 0.817516 0.115132
0.181005 0.809774 0.124132
0.310371 0.781216 0.138763
0.627912 0.746737 0.157175
0.871858 0.747272 0.195984
0.161134 0.845933 0.097854
0.189262 0.859372 0.097467
0.256667 0.854040 0.119426
0.490029 0.837836 0.144414
0.862199 0.833375 0.157033
0.077604 0.105316 0.318093
0.649744 0.168363 0.630282
0.896302 0.221244 0.499995
0.918039 0.255678 0.531381
0.917633 0.352479 0.701792
0.104833 0.248848 0.236538
0.203974 0.188384 0.191542
0.788822 0.292093 0.279182
0.899700 0.353818 0.360294
0.910223 0.333389 0.685092
0.148496 0.638665 0.250009
0.195117 0.604663 0.234697
0.464437 0.533079 0.216907
0.825368 0.568528 0.252103
0.890741 0.586362 0.524770
0.176610 0.808059 0.224125
0.203552 0.800132 0.230131
0.350576 0.765063 0.237514
0.677555 0.737136 0.247344
0.870634 0.743929 0.287653
0.163363 0.848945 0.149145
0.190810 0.861961 0.146728
0.270490 0.851571 0.174590
0.511108 0.836498 0.214416
0.864613 0.832964 0.226942
0.088950 0.202885 0.733574
0.481058 0.317473 0.858609
0.908319 0.392710 0.852537
0.919917 0.368107 0.804298
0.916395 0.363298 0.797388
0.129708 0.407390 0.727507
0.322885 0.418167 0.771238
0.825152 0.418940 0.749035
0.900749 0.438278 0.747501
0.908529 0.341156 0.768857
0.163007 0.600115 0.569008
0.221806 0.567171 0.544841
0.517050 0.506712 0.504233
0.832263 0.574933 0.587557
0.886413 0.607894 0.711756
0.199700 0.790502 0.546824
0.235858 0.777515 0.535294
0.407884 0.743876 0.512846
0.732580 0.723944 0.507263
0.867411 0.744049 0.610091
0.176976 0.855058 0.585419
0.182790 0.856037 0.578908
0.300296 0.845229 0.496987
0.548329 0.833655 0.489146
0.864435 0.833355 0.505490
0.103373 0.396156 0.907425
0.322170 0.477655 0.925132
0.905043 0.530701 0.926279
0.929200 0.501873 0.898181
0.919599 0.388378 0.862952
0.143082 0.541986 0.910904
0.339057 0.582685 0.922564
0.866882 0.580467 0.907518
0.911139 0.541111 0.879722
0.911489 0.364743 0.846571
0.184593 0.636157 0.815787
0.260275 0.631901 0.818803
0.639177 0.621769 0.813466
0.854206 0.628177 0.812551
0.888199 0.637087 0.816911
0.206911 0.776006 0.749197
0.247461 0.767116 0.744723
0.437750 0.741653 0.736794
0.749125 0.720383 0.728404
0.865808 0.753480 0.780342
0.173786 0.849271 0.683748
0.181233 0.851669 0.679530
0.299495 0.843568 0.697006
0.554356 0.834006 0.691207
0.863714 0.836992 0.747689
0.336147 0.531800 0.950755
0.764947 0.546758 0.950768
0.933378 0.590580 0.950853
0.940132 0.556920 0.941385
0.923866 0.440556 0.917489
0.368801 0.614527 0.950572
0.743749 0.624256 0.950604
0.927883 0.646798 0.949557
0.928481 0.588976 0.934221
0.916021 0.426613 0.911621
0.325798 0.707293 0.930529
0.524246 0.701050 0.926863
0.845407 0.686448 0.914698
0.890074 0.666160 0.901473
0.895916 0.639851 0.890541
0.232751 0.789869 0.888447
0.296897 0.783292 0.885372
0.658360 0.767250 0.877135
0.838489 0.756838 0.868069
0.871124 0.760508 0.865506
0.163769 0.840520 0.803919
0.178939 0.848317 0.816926
0.250082 0.850685 0.843653
0.528295 0.841148 0.856039
0.863587 0.842613 0.853986
