LUTs/negative-ultramax-400/Ultramax400_Modern_Soft.cube
TITLE "Kodak Ultramax 400 Modern Soft"
# Adobe RGB in/out. REPLACES AgX. Kodak Ultramax 400 Modern Soft.
LUT_3D_SIZE 9
DOMAIN_MIN 0.0 0.0 0.0
DOMAIN_MAX 1.0 1.0 1.0
0.061578 0.068299 0.085817
0.179715 0.075812 0.089170
0.596831 0.091094 0.095104
0.740897 0.113650 0.103592
0.798583 0.149722 0.112498
0.819265 0.184534 0.124464
0.827940 0.192514 0.143164
0.832558 0.113804 0.589003
0.825455 0.364748 0.666516
0.065222 0.099639 0.088820
0.075541 0.092090 0.090235
0.311346 0.103657 0.095403
0.660723 0.129419 0.103587
0.774319 0.173841 0.112248
0.810343 0.213036 0.123721
0.823306 0.220561 0.140467
0.829892 0.112611 0.583438
0.823560 0.360513 0.663090
0.073723 0.323212 0.096429
0.078620 0.285565 0.098033
0.114069 0.197089 0.099094
0.403010 0.220490 0.104953
0.660722 0.279037 0.112843
0.770307 0.328400 0.123371
0.806578 0.347603 0.136582
0.821574 0.119287 0.567952
0.817382 0.344009 0.651994
0.083763 0.537946 0.104789
0.087414 0.524161 0.106057
0.110591 0.472030 0.107840
0.224880 0.415765 0.109595
0.494125 0.417292 0.115584
0.683623 0.449343 0.125107
0.774986 0.471483 0.136578
0.803148 0.467539 0.155403
0.808154 0.310845 0.553267
0.094856 0.645964 0.111697
0.097706 0.637314 0.113037
0.116253 0.613823 0.116530
0.190038 0.579819 0.119123
0.390613 0.552186 0.122609
0.582685 0.547718 0.129149
0.717652 0.560494 0.139676
0.784922 0.568060 0.153865
0.798296 0.561826 0.328675
0.106254 0.699628 0.118086
0.108281 0.696007 0.119206
0.126068 0.687258 0.124268
0.183371 0.671746 0.128635
0.339996 0.655145 0.132269
0.501431 0.640793 0.137185
0.643944 0.634822 0.144764
0.752868 0.642908 0.156897
0.788638 0.646444 0.192082
0.117160 0.742001 0.121524
0.119300 0.739668 0.122868
0.134494 0.733465 0.128265
0.183237 0.722714 0.134253
0.298881 0.709499 0.140675
0.450281 0.697366 0.146260
0.592348 0.689386 0.152590
0.712477 0.686219 0.161213
0.778083 0.689701 0.182842
0.126262 0.777357 0.115450
0.127018 0.775944 0.116427
0.140416 0.771159 0.124549
0.178778 0.762122 0.132882
0.272652 0.751339 0.142032
0.410348 0.740592 0.149445
0.539860 0.732405 0.156900
0.663170 0.728268 0.164164
0.770034 0.727008 0.178474
0.118396 0.772654 0.107233
0.117957 0.771967 0.107147
0.143658 0.781863 0.106874
0.140310 0.778887 0.114869
0.220789 0.778214 0.124759
0.360544 0.771917 0.135540
0.482877 0.764488 0.144171
0.604405 0.760205 0.149641
0.767210 0.759541 0.152485
0.063059 0.075562 0.129280
0.165577 0.089118 0.308354
0.623816 0.098834 0.162587
0.754671 0.120624 0.147484
0.799360 0.154698 0.139517
0.817117 0.186756 0.143407
0.825867 0.196028 0.163715
0.831129 0.113177 0.586025
0.824472 0.362553 0.664740
0.067915 0.095537 0.115131
0.083947 0.090250 0.111152
0.436372 0.106924 0.124990
0.700002 0.135132 0.134691
0.779752 0.177652 0.135565
0.808664 0.214912 0.141111
0.821283 0.223289 0.158460
0.828469 0.112009 0.580500
0.822585 0.358345 0.661333
0.077688 0.287289 0.125061
0.084851 0.236689 0.120476
0.135882 0.171911 0.115439
0.474125 0.211156 0.123402
0.689119 0.277418 0.130498
0.773517 0.326322 0.137791
0.805149 0.345792 0.150518
0.820217 0.121657 0.565952
0.816438 0.341086 0.650308
0.088113 0.518757 0.128135
0.092977 0.498214 0.127793
0.122795 0.447364 0.125858
0.268841 0.393696 0.125191
0.529754 0.406819 0.129683
0.698891 0.444927 0.137288
0.775923 0.468201 0.148366
0.801977 0.465987 0.168608
0.807277 0.319113 0.634064
0.098194 0.633440 0.128520
0.101602 0.624788 0.129643
0.124431 0.600926 0.131953
0.212742 0.568629 0.133166
0.411721 0.544257 0.135885
0.595270 0.543070 0.140554
0.723593 0.557486 0.150350
0.784367 0.565930 0.164840
0.797524 0.562129 0.377269
0.108261 0.694591 0.129631
0.110837 0.691072 0.130895
0.131383 0.682193 0.135910
0.192611 0.666983 0.140500
0.353861 0.651148 0.144266
0.516356 0.636107 0.148651
0.652621 0.631908 0.155346
0.755015 0.640820 0.166846
0.788079 0.645666 0.207607
0.118910 0.739093 0.129987
0.121313 0.736782 0.131269
0.138631 0.730536 0.137471
0.184212 0.719856 0.144589
0.310921 0.706931 0.150712
0.459589 0.695288 0.156915
0.598816 0.687830 0.163340
0.716767 0.685228 0.171540
0.777721 0.689146 0.194700
0.126668 0.776157 0.119510
0.127692 0.774797 0.121050
0.142595 0.769539 0.130787
0.182390 0.760567 0.141119
0.279707 0.749915 0.150331
0.414790 0.739401 0.158885
0.545398 0.731509 0.166035
0.668455 0.727620 0.175063
0.770191 0.726615 0.189283
0.120801 0.775867 0.147634
0.120357 0.775182 0.147287
0.146636 0.784726 0.146128
0.142493 0.781036 0.144300
0.223693 0.777893 0.129403
0.363269 0.771639 0.142158
0.485619 0.764174 0.151175
0.606818 0.760022 0.157606
0.768667 0.759436 0.160016
0.065107 0.089969 0.310743
0.118150 0.122963 0.631399
0.603968 0.134935 0.607200
0.760354 0.166759 0.555804
0.799872 0.193778 0.498463
0.815155 0.230020 0.492387
0.822881 0.239939 0.526348
0.828683 0.119068 0.593066
0.822438 0.358021 0.661086
0.072673 0.122001 0.320933
0.104725 0.132809 0.443905
0.496694 0.141689 0.454893
0.712115 0.172106 0.432321
0.782730 0.212448 0.419113
0.807031 0.250899 0.439223
0.818276 0.261058 0.485024
0.825996 0.120170 0.589348
0.820538 0.353823 0.657652
0.080393 0.230565 0.219605
0.088655 0.196671 0.199101
0.160406 0.160598 0.178891
0.530602 0.213057 0.219057
0.710564 0.288750 0.267342
0.777125 0.339740 0.314524
0.802914 0.359249 0.352856
0.817171 0.193772 0.570218
0.814360 0.334728 0.646605
0.094573 0.477622 0.234980
0.101119 0.459295 0.223438
0.143921 0.402516 0.198865
0.325474 0.357513 0.185727
0.587630 0.392495 0.205418
0.719542 0.442571 0.239516
0.777348 0.467538 0.269781
0.799512 0.468128 0.355248
0.805202 0.314850 0.630129
0.107936 0.611114 0.233525
0.113556 0.602472 0.229438
0.150273 0.578026 0.217709
0.269702 0.547789 0.205723
0.463123 0.528119 0.201383
0.633773 0.534934 0.215666
0.736945 0.552939 0.235696
0.783196 0.562450 0.280445
0.795529 0.565258 0.520943
0.121176 0.684414 0.227786
0.125860 0.680928 0.226847
0.158299 0.671267 0.225208
0.242368 0.656466 0.220667
0.405024 0.639565 0.217199
0.559824 0.625099 0.218762
0.682808 0.625487 0.226207
0.760061 0.636208 0.254688
0.786480 0.644260 0.337571
0.130572 0.731577 0.207735
0.134431 0.729335 0.208619
0.159959 0.722859 0.213014
0.221266 0.712292 0.217538
0.356830 0.700117 0.220611
0.494733 0.689773 0.224435
0.623691 0.683726 0.230764
0.731058 0.682634 0.245658
0.776670 0.687734 0.276716
0.134539 0.770701 0.185537
0.137554 0.768995 0.187583
0.158441 0.763547 0.198716
0.200750 0.755286 0.208836
0.309450 0.745271 0.218156
0.440161 0.735607 0.226061
0.572074 0.728716 0.233921
0.690664 0.725606 0.243311
0.770424 0.725475 0.253959
0.120058 0.774721 0.147058
0.147985 0.785909 0.146719
0.145398 0.783634 0.145588
0.141400 0.780031 0.143812
0.241933 0.776522 0.164672
0.379768 0.770140 0.187190
0.498976 0.763003 0.199168
0.618088 0.759316 0.206905
0.769786 0.759085 0.210186
0.067982 0.115548 0.551030
0.088907 0.173730 0.705525
0.559520 0.218321 0.726807
0.758051 0.268628 0.722714
0.804878 0.291360 0.694914
0.816689 0.304484 0.673392
0.822359 0.304237 0.670746
0.825632 0.220047 0.691056
0.821083 0.358458 0.681636
0.074532 0.163505 0.564146
0.096781 0.207903 0.654383
0.511650 0.267277 0.706459
0.726891 0.286531 0.687439
0.789241 0.301519 0.661240
0.808390 0.318409 0.649656
0.817574 0.320356 0.655079
0.822593 0.238383 0.683714
0.819133 0.354179 0.678725
0.085996 0.285261 0.473985
0.098167 0.278309 0.474107
0.241526 0.269853 0.497029
0.578747 0.291530 0.519443
0.720744 0.337674 0.544061
0.779171 0.377594 0.564868
0.801866 0.392557 0.595355
0.811854 0.372785 0.643177
0.812790 0.334869 0.668704
0.097882 0.449585 0.423851
0.105301 0.434320 0.409180
0.156091 0.384858 0.368030
0.352757 0.345189 0.341948
0.604771 0.397618 0.401921
0.724167 0.450004 0.454997
0.776193 0.476790 0.498172
0.797342 0.482716 0.569159
0.803391 0.314376 0.651765
0.115272 0.588750 0.426934
0.122846 0.581261 0.417912
0.168529 0.559403 0.394278
0.298476 0.530775 0.361653
0.490521 0.508959 0.347900
0.651539 0.529084 0.378425
0.740276 0.550843 0.420148
0.780439 0.563222 0.475898
0.793447 0.571730 0.615356
0.132169 0.673003 0.416062
0.139730 0.669838 0.411614
0.178928 0.660666 0.399869
0.281388 0.646659 0.381240
0.434010 0.625556 0.365613
0.588839 0.613800 0.361891
0.701796 0.619611 0.380086
0.760379 0.632546 0.414783
0.783861 0.645890 0.543025
0.144799 0.722879 0.396076
0.150740 0.720785 0.394222
0.180348 0.714527 0.389265
0.257718 0.704487 0.380987
0.396334 0.693136 0.372704
0.528274 0.683945 0.368626
0.647304 0.679322 0.371202
0.739323 0.680115 0.385566
0.774930 0.686977 0.459187
0.145487 0.763545 0.362086
0.149585 0.762057 0.361683
0.173642 0.757313 0.363761
0.227377 0.749568 0.363855
0.345781 0.740293 0.363510
0.467212 0.731561 0.363699
0.594050 0.725633 0.366336
0.708871 0.723443 0.372881
0.769919 0.724566 0.404100
0.128995 0.778968 0.358354
0.145973 0.785094 0.356777
0.143529 0.782916 0.351527
0.169861 0.781733 0.278576
0.273000 0.774021 0.335368
0.401832 0.767421 0.341195
0.519159 0.761241 0.346058
0.635198 0.758217 0.349929
0.769860 0.758831 0.357340
0.071396 0.174348 0.686531
0.081199 0.232079 0.739604
0.475979 0.318765 0.773823
0.740862 0.361367 0.774107
0.812287 0.394744 0.769417
0.822009 0.385253 0.746612
0.824931 0.372332 0.734188
0.825625 0.309803 0.730551
0.821087 0.367935 0.729109
0.076180 0.233839 0.693591
0.089091 0.285391 0.733668
0.440927 0.360113 0.768045
0.727419 0.395987 0.769871
0.797613 0.400456 0.753353
0.813796 0.395192 0.736339
0.820052 0.385004 0.727514
0.822529 0.325514 0.726348
0.819078 0.363076 0.725785
0.095818 0.409647 0.682012
0.111155 0.413717 0.690956
0.319788 0.420974 0.714408
0.616445 0.416168 0.707872
0.736789 0.421787 0.698009
0.787196 0.438133 0.694553
0.804053 0.442146 0.696872
0.812018 0.421463 0.705752
0.812516 0.344973 0.712654
0.103434 0.467862 0.583270
0.112533 0.461711 0.579493
0.183392 0.446335 0.576438
0.427352 0.434576 0.580766
0.630524 0.452214 0.597173
0.732357 0.481144 0.619010
0.778357 0.502358 0.641217
0.797044 0.506529 0.668163
0.803193 0.449997 0.696141
0.119793 0.574684 0.558533
0.128588 0.569192 0.553151
0.179557 0.551997 0.537313
0.322463 0.526684 0.516807
0.503594 0.503408 0.502482
0.661507 0.533647 0.538641
0.741896 0.557376 0.574297
0.778971 0.571344 0.614789
0.792146 0.581169 0.669714
0.141340 0.663410 0.551439
0.150295 0.660725 0.547373
0.186965 0.652698 0.536196
0.300127 0.636205 0.521152
0.455223 0.615682 0.507369
0.600174 0.605177 0.502972
0.707404 0.617392 0.524086
0.759304 0.633231 0.558478
0.781525 0.648582 0.635742
0.155518 0.714860 0.538925
0.162377 0.713024 0.536436
0.189966 0.707356 0.529540
0.283903 0.698167 0.520054
0.414833 0.687703 0.510644
0.550205 0.679352 0.504437
0.662576 0.675905 0.505354
0.742453 0.678776 0.519973
0.772955 0.687804 0.593048
0.153827 0.757366 0.523198
0.158681 0.756013 0.521480
0.183282 0.751632 0.517188
0.248485 0.744536 0.510541
0.365892 0.736020 0.503881
0.488163 0.728157 0.499273
0.609831 0.723113 0.497917
0.719194 0.721902 0.501200
0.769042 0.724834 0.540727
0.130883 0.778911 0.572485
0.132531 0.779295 0.571216
0.136459 0.779582 0.566963
0.183400 0.776949 0.503583
0.286831 0.772171 0.495610
0.412332 0.765308 0.490813
0.532067 0.759851 0.488169
0.648469 0.757536 0.487771
0.769596 0.759518 0.503673
0.075195 0.284171 0.763499
0.081160 0.320500 0.787086
0.409467 0.406014 0.812697
0.721821 0.440263 0.813806
0.811473 0.471840 0.814494
0.828733 0.463562 0.794784
0.829533 0.442644 0.774772
0.827928 0.387147 0.762021
0.822403 0.376597 0.749195
0.078471 0.327952 0.766487
0.086580 0.361916 0.786226
0.397481 0.436952 0.810744
0.711279 0.464260 0.812454
0.806091 0.490216 0.811096
0.820942 0.469765 0.786107
0.824736 0.451494 0.769059
0.824815 0.401149 0.758240
0.820354 0.371839 0.746813
0.101369 0.483866 0.769744
0.116314 0.495087 0.779529
0.369090 0.529646 0.801041
0.640125 0.517252 0.787745
0.754443 0.504206 0.771536
0.795616 0.496650 0.758790
0.808970 0.488767 0.750310
0.814354 0.468539 0.745347
0.813624 0.356561 0.739003
0.113667 0.526973 0.712613
0.125966 0.525878 0.714385
0.237799 0.526248 0.722666
0.489836 0.522311 0.723324
0.663615 0.523222 0.721261
0.746363 0.528726 0.720874
0.785455 0.535115 0.722540
0.799043 0.533512 0.725868
0.803796 0.491499 0.727282
0.126400 0.581351 0.660568
0.136574 0.577904 0.658486
0.194640 0.568867 0.655448
0.368252 0.555209 0.651147
0.554680 0.549326 0.650949
0.681541 0.559283 0.661748
0.747810 0.575430 0.677919
0.780706 0.585877 0.694617
0.792149 0.594188 0.712413
0.146833 0.658062 0.641948
0.156600 0.656022 0.639613
0.198555 0.649699 0.633428
0.320527 0.634791 0.624047
0.470056 0.615760 0.614343
0.605694 0.603018 0.607676
0.711363 0.622928 0.631935
0.759476 0.640055 0.657972
0.780541 0.652909 0.691138
0.161489 0.708948 0.630296
0.168947 0.707374 0.628293
0.201280 0.702497 0.622819
0.295025 0.694400 0.615433
0.427601 0.684865 0.608535
0.564344 0.676851 0.603979
0.670473 0.673986 0.605312
0.743248 0.679455 0.622587
0.771416 0.689907 0.670180
0.157815 0.752732 0.617818
0.163154 0.751527 0.616229
0.185589 0.747569 0.611789
0.261296 0.741105 0.605719
0.381259 0.733340 0.600126
0.502423 0.726208 0.596288
0.620477 0.721831 0.595202
0.724562 0.721448 0.598606
0.768010 0.726308 0.641507
0.130328 0.777261 0.601902
0.131724 0.777579 0.602507
0.134524 0.777694 0.605206
0.183458 0.775666 0.599585
0.290419 0.770998 0.592361
0.416880 0.764238 0.586708
0.538513 0.759463 0.583238
0.655634 0.757738 0.581853
0.769170 0.761069 0.615535
0.079185 0.397871 0.825259
0.084458 0.416437 0.837274
0.318621 0.474067 0.843074
0.709779 0.499043 0.843584
0.808723 0.526438 0.843966
0.835608 0.529543 0.837278
0.835076 0.498520 0.813907
0.831445 0.452324 0.795098
0.824583 0.390808 0.776971
0.082620 0.428500 0.826720
0.088655 0.445159 0.836993
0.322899 0.494587 0.842778
0.701297 0.519392 0.843407
0.805796 0.540314 0.843833
0.828500 0.532291 0.830423
0.830486 0.506018 0.808636
0.828389 0.462162 0.791533
0.822528 0.385772 0.774269
0.104210 0.534399 0.829494
0.116341 0.539969 0.835195
0.344779 0.562727 0.841077
0.661390 0.577443 0.842253
0.772345 0.561198 0.825372
0.805130 0.547470 0.806795
0.815358 0.533783 0.791612
0.818151 0.511280 0.779731
0.815739 0.369257 0.765082
0.129202 0.583339 0.793584
0.146003 0.582792 0.794997
0.283893 0.584355 0.796623
0.538457 0.578903 0.790417
0.696810 0.572886 0.781402
0.763477 0.569148 0.773248
0.792832 0.565234 0.766823
0.802892 0.557709 0.762002
0.805445 0.540503 0.756607
0.138453 0.608672 0.742615
0.151500 0.607134 0.742986
0.226312 0.604530 0.744823
0.416556 0.598647 0.743723
0.598366 0.594668 0.740915
0.707466 0.596390 0.739570
0.758692 0.600905 0.740244
0.785872 0.604641 0.742130
0.793542 0.609578 0.743439
0.153548 0.660579 0.717370
0.163439 0.659182 0.716621
0.211669 0.655224 0.715607
0.349507 0.648352 0.713267
0.503178 0.637985 0.709007
0.634048 0.634173 0.707633
0.721714 0.641939 0.714340
0.763201 0.650499 0.723276
0.781540 0.658881 0.730847
0.163522 0.706481 0.698128
0.171443 0.705233 0.697142
0.206902 0.701314 0.694812
0.306271 0.694587 0.691925
0.439917 0.686392 0.688925
0.577238 0.678775 0.685558
0.674138 0.673785 0.682681
0.744772 0.683065 0.699605
0.771109 0.693346 0.720639
0.156433 0.750530 0.683244
0.161988 0.749451 0.682255
0.185681 0.745840 0.679659
0.264303 0.740019 0.676315
0.387724 0.732982 0.673590
0.510250 0.726411 0.671776
0.626672 0.722351 0.672080
0.726672 0.722406 0.676755
0.767197 0.728670 0.707762
0.128175 0.774945 0.645437
0.131304 0.776117 0.644548
0.134744 0.776589 0.641775
0.179314 0.775787 0.662012
0.286016 0.770853 0.656939
0.414374 0.764525 0.653785
0.537088 0.760240 0.651910
0.654779 0.759039 0.651143
0.768826 0.763551 0.697011
0.086196 0.489526 0.862415
0.091296 0.492933 0.863391
0.364492 0.523406 0.863984
0.723397 0.540206 0.864120
0.813451 0.558120 0.864356
0.843821 0.569124 0.862059
0.841157 0.539667 0.845424
0.835788 0.490135 0.830159
0.827088 0.424677 0.805896
0.089438 0.507778 0.862354
0.095271 0.511390 0.863273
0.371125 0.536408 0.863979
0.717208 0.552735 0.864131
0.811338 0.570289 0.864368
0.837528 0.570864 0.857788
0.836918 0.543803 0.842409
0.832847 0.499393 0.826810
0.825076 0.424264 0.803375
0.114544 0.577191 0.862112
0.128346 0.579340 0.862750
0.401440 0.594527 0.863672
0.690038 0.607521 0.863976
0.793641 0.605440 0.857514
0.816499 0.585926 0.844201
0.822801 0.565582 0.830417
0.822990 0.538529 0.815555
0.818522 0.453635 0.795020
0.156260 0.638204 0.851299
0.175547 0.636332 0.850518
0.367716 0.634698 0.847130
0.599529 0.625572 0.840571
0.730634 0.614796 0.830662
0.785193 0.604658 0.818625
0.801718 0.593632 0.807353
0.808150 0.578434 0.797928
0.808043 0.560464 0.787853
0.159904 0.647165 0.807494
0.174433 0.646435 0.807195
0.286845 0.645293 0.805226
0.479853 0.639846 0.799765
0.644097 0.634133 0.793107
0.733349 0.630436 0.787028
0.773777 0.627500 0.782154
0.791512 0.622772 0.778450
0.796025 0.623058 0.774097
0.163697 0.671352 0.773086
0.174307 0.670507 0.773197
0.241674 0.668652 0.773082
0.393502 0.664284 0.769909
0.553011 0.659784 0.765271
0.671443 0.657838 0.761756
0.738580 0.658546 0.760450
0.771109 0.660080 0.760865
0.784535 0.665201 0.761014
0.164942 0.708753 0.750736
0.172845 0.707833 0.750890
0.215169 0.705202 0.751978
0.324632 0.700138 0.751918
0.463562 0.693761 0.749507
0.600679 0.688467 0.746054
0.700433 0.687224 0.744620
0.751751 0.690608 0.747300
0.772840 0.697833 0.750908
0.148905 0.752173 0.733162
0.154399 0.751138 0.732950
0.183290 0.747518 0.733054
0.259017 0.742120 0.733660
0.388818 0.735775 0.734876
0.517077 0.729882 0.735491
0.633974 0.725917 0.735346
0.727317 0.723636 0.734523
0.767260 0.731689 0.744638
0.124564 0.772093 0.699705
0.133751 0.776259 0.699897
0.134031 0.775522 0.703748
0.167199 0.776044 0.710910
0.263933 0.772291 0.709849
0.402867 0.766676 0.709844
0.525649 0.762659 0.710434
0.643726 0.761695 0.710542
0.768643 0.766464 0.741294
0.341736 0.527215 0.883313
0.428141 0.529345 0.883317
0.689431 0.537751 0.883335
0.805415 0.551948 0.883390
0.839649 0.568155 0.883486
0.855596 0.581424 0.883636
0.850220 0.544862 0.866845
0.841444 0.464592 0.852598
0.829244 0.444297 0.837126
0.346380 0.537507 0.883264
0.429568 0.539648 0.883269
0.685521 0.548075 0.883290
0.804113 0.562258 0.883350
0.839051 0.578373 0.883451
0.852527 0.583100 0.879970
0.846669 0.547848 0.863921
0.838692 0.470118 0.850460
0.827268 0.446670 0.837706
0.377986 0.587621 0.882990
0.444121 0.589555 0.883002
0.670388 0.597089 0.883045
0.797916 0.609762 0.883142
0.833635 0.619033 0.881199
0.837036 0.596052 0.867171
0.834289 0.567054 0.854353
0.829541 0.510527 0.843329
0.820680 0.429861 0.830368
0.409038 0.661053 0.879686
0.448821 0.659614 0.878332
0.624685 0.655225 0.873801
0.756971 0.648626 0.866592
0.799410 0.636828 0.857837
0.811849 0.621302 0.848713
0.815627 0.601336 0.840076
0.815531 0.569830 0.830067
0.811171 0.559880 0.819533
0.324597 0.665959 0.847949
0.359512 0.665011 0.847135
0.510840 0.662208 0.844421
0.679526 0.658157 0.840105
0.751312 0.653388 0.834118
0.783602 0.648003 0.825826
0.795008 0.637886 0.818024
0.799913 0.620202 0.810667
0.799571 0.612270 0.804660
0.245715 0.683443 0.821172
0.271589 0.682560 0.820207
0.398454 0.679967 0.816957
0.584627 0.676324 0.811723
0.695565 0.672526 0.805838
0.745273 0.669262 0.800447
0.770900 0.665849 0.796039
0.785039 0.660487 0.792557
0.788582 0.663029 0.790007
0.185539 0.714495 0.802131
0.200150 0.713572 0.801286
0.283371 0.710699 0.798420
0.445840 0.706236 0.793817
0.609960 0.701392 0.788500
0.705639 0.697665 0.783767
0.746360 0.695313 0.780676
0.768274 0.692786 0.779184
0.777235 0.697459 0.778821
0.143706 0.754321 0.789712
0.148986 0.753480 0.789691
0.180010 0.750516 0.788536
0.284322 0.745413 0.785333
0.450800 0.739460 0.781097
0.612192 0.734383 0.776756
0.714099 0.731330 0.773311
0.755208 0.729588 0.771787
0.770139 0.732277 0.772236
0.120362 0.767467 0.733910
0.133583 0.775559 0.744973
0.132552 0.774290 0.743449
0.138659 0.772972 0.740993
0.210816 0.775915 0.762959
0.372483 0.771898 0.773502
0.514918 0.768164 0.771959
0.647567 0.767358 0.770717
0.768690 0.769791 0.770469
