LUTs/negative-ultramax-400/Ultramax400_Classic_Soft.cube
TITLE "Kodak Ultramax 400 Classic Soft"
# Adobe RGB in/out. REPLACES AgX. Kodak Ultramax 400 Classic Soft.
LUT_3D_SIZE 5
DOMAIN_MIN 0.0 0.0 0.0
DOMAIN_MAX 1.0 1.0 1.0
0.061578 0.068299 0.085817
0.356315 0.079095 0.090490
0.669582 0.101399 0.100338
0.741456 0.120388 0.117585
0.763826 0.231867 0.561246
0.067547 0.130024 0.090990
0.096262 0.136507 0.095404
0.558212 0.166599 0.104370
0.733600 0.210670 0.117874
0.763827 0.231879 0.561244
0.078590 0.465924 0.100385
0.092826 0.482036 0.105770
0.299510 0.483658 0.114638
0.670762 0.501276 0.128184
0.764083 0.506973 0.263299
0.094880 0.658798 0.109174
0.105273 0.662216 0.114801
0.224657 0.665196 0.128220
0.558632 0.665785 0.143410
0.761942 0.673731 0.171529
0.104891 0.729449 0.103750
0.121768 0.748242 0.103769
0.185106 0.755241 0.119499
0.463451 0.751180 0.140061
0.764225 0.756239 0.151146
0.063455 0.078264 0.152150
0.356010 0.094135 0.347285
0.679954 0.113790 0.283799
0.741248 0.136092 0.358498
0.763827 0.231882 0.561265
0.073114 0.129513 0.149070
0.160406 0.160598 0.178891
0.629888 0.185382 0.190871
0.736094 0.231306 0.234212
0.763827 0.231880 0.561244
0.087005 0.457531 0.154367
0.109824 0.469224 0.162382
0.415566 0.480169 0.179341
0.705554 0.505301 0.200704
0.764002 0.518126 0.464468
0.102219 0.655637 0.157042
0.117933 0.658470 0.165076
0.284173 0.661846 0.186792
0.601701 0.664645 0.209449
0.762779 0.674001 0.255055
0.106448 0.734915 0.134218
0.123723 0.753212 0.134216
0.205727 0.754456 0.154031
0.480847 0.751022 0.190756
0.767239 0.756279 0.207879
0.066553 0.101686 0.459934
0.203217 0.128979 0.600378
0.664782 0.163743 0.601032
0.739065 0.202767 0.613913
0.763827 0.244574 0.646163
0.077007 0.173344 0.467431
0.148887 0.206879 0.547866
0.630027 0.254837 0.572835
0.735078 0.304091 0.598504
0.763827 0.243359 0.639325
0.097633 0.464628 0.440412
0.136263 0.475890 0.457918
0.503594 0.503408 0.502482
0.717162 0.523915 0.535549
0.763714 0.540190 0.629939
0.117197 0.654467 0.441783
0.147654 0.656912 0.448817
0.369728 0.661048 0.466776
0.650557 0.666218 0.489171
0.763435 0.678344 0.578786
0.115454 0.747503 0.524084
0.120807 0.752652 0.524082
0.254590 0.752207 0.466127
0.520160 0.751054 0.475403
0.768124 0.757895 0.501250
0.070004 0.160633 0.675853
0.126239 0.205011 0.704432
0.651942 0.253377 0.706305
0.737176 0.294380 0.709409
0.763826 0.259105 0.709800
0.079127 0.264330 0.681419
0.132699 0.300692 0.700249
0.626667 0.339757 0.704514
0.734059 0.375850 0.708400
0.763822 0.258412 0.708010
0.105155 0.501638 0.661295
0.155502 0.514549 0.677845
0.531597 0.531916 0.694256
0.720960 0.547463 0.702509
0.763542 0.563679 0.714700
0.128385 0.660444 0.640700
0.168237 0.662809 0.646689
0.411014 0.667624 0.665825
0.674138 0.673785 0.682681
0.763799 0.686004 0.712156
0.116308 0.749026 0.611907
0.122685 0.754996 0.612197
0.262091 0.755642 0.639410
0.529668 0.754819 0.645609
0.768382 0.763058 0.696483
0.131589 0.254433 0.766513
0.474028 0.269032 0.766545
0.704388 0.307816 0.766762
0.745263 0.325594 0.767506
0.763827 0.296528 0.764246
0.147129 0.330105 0.766050
0.449007 0.343918 0.766130
0.699163 0.377160 0.766456
0.744609 0.393713 0.767269
0.763827 0.304016 0.767455
0.173462 0.534790 0.765101
0.355430 0.538043 0.765357
0.670620 0.548411 0.765921
0.741576 0.556609 0.766860
0.765424 0.557221 0.769593
0.152363 0.672286 0.765262
0.218503 0.673214 0.765679
0.582040 0.676110 0.766447
0.731708 0.680077 0.767424
0.766543 0.686744 0.769559
0.112563 0.746596 0.717765
0.123723 0.757618 0.729708
0.196195 0.767589 0.754482
0.509773 0.764872 0.769401
0.768690 0.769791 0.770469
