LUTs/negative-ultramax-400/Ultramax400_Classic_Normal.cube
TITLE "Kodak Ultramax 400 Classic Normal"
# Adobe RGB in/out. REPLACES AgX. Kodak Ultramax 400 Classic Normal.
LUT_3D_SIZE 5
DOMAIN_MIN 0.0 0.0 0.0
DOMAIN_MAX 1.0 1.0 1.0
0.073661 0.072636 0.087722
0.353520 0.089454 0.090531
0.737948 0.121805 0.095197
0.827224 0.149287 0.110814
0.854402 0.255225 0.575230
0.079827 0.164625 0.090707
0.117440 0.172885 0.092605
0.577436 0.200612 0.097863
0.817697 0.238412 0.111158
0.854402 0.255234 0.575228
0.092549 0.466655 0.095232
0.112381 0.483599 0.099022
0.312903 0.485306 0.107547
0.739214 0.503870 0.124526
0.854714 0.509880 0.278181
0.115564 0.711739 0.102452
0.130882 0.716329 0.107727
0.256924 0.720336 0.124577
0.577951 0.721129 0.145825
0.852110 0.731837 0.184511
0.130285 0.807771 0.097428
0.153164 0.828368 0.097441
0.227573 0.834074 0.113292
0.464338 0.830764 0.141300
0.854887 0.834885 0.156847
0.075885 0.088389 0.158114
0.353218 0.110353 0.352462
0.749078 0.140571 0.296296
0.826972 0.172572 0.363303
0.854402 0.255236 0.575253
0.085839 0.163690 0.154233
0.196794 0.194562 0.192796
0.685618 0.219326 0.206310
0.820721 0.254786 0.251356
0.854402 0.255234 0.575228
0.103962 0.457244 0.160919
0.137911 0.470123 0.172371
0.412713 0.481634 0.193303
0.777985 0.508115 0.217431
0.854615 0.521654 0.465547
0.126118 0.707498 0.164451
0.148433 0.711299 0.176408
0.299306 0.715832 0.201704
0.644203 0.719595 0.226498
0.853127 0.732201 0.270834
0.132725 0.815297 0.133493
0.155905 0.832421 0.133489
0.243140 0.833434 0.160493
0.484960 0.830635 0.206181
0.858326 0.834918 0.224875
0.078774 0.122288 0.460187
0.241277 0.162714 0.625662
0.732795 0.197737 0.626635
0.824323 0.232241 0.645878
0.854402 0.265089 0.691190
0.090711 0.207370 0.469055
0.185125 0.235355 0.559345
0.685806 0.272949 0.589557
0.819489 0.313571 0.622879
0.854402 0.264152 0.683132
0.119241 0.465293 0.440138
0.172149 0.477132 0.457808
0.512127 0.506118 0.511298
0.795708 0.527916 0.545798
0.854265 0.552632 0.670061
0.147548 0.705930 0.441390
0.183867 0.709208 0.447808
0.366107 0.714760 0.468279
0.713683 0.721711 0.495194
0.853926 0.738067 0.596851
0.145268 0.827765 0.533211
0.151854 0.831964 0.533208
0.278412 0.831602 0.467511
0.530954 0.830662 0.478512
0.859324 0.836233 0.510036
0.082619 0.194597 0.726691
0.159537 0.233845 0.766107
0.715572 0.271836 0.768577
0.822032 0.305320 0.771393
0.854402 0.276190 0.771748
0.093245 0.280137 0.734332
0.168158 0.310688 0.760309
0.681265 0.343161 0.766220
0.818254 0.374016 0.770478
0.854397 0.275665 0.770124
0.130697 0.504252 0.709056
0.191845 0.517875 0.729424
0.544860 0.540020 0.752021
0.801531 0.563797 0.763441
0.854056 0.588955 0.776188
0.162398 0.713949 0.684751
0.204663 0.717126 0.691810
0.407072 0.723604 0.714412
0.742838 0.731910 0.736067
0.854368 0.748437 0.773883
0.146385 0.829008 0.642870
0.154416 0.833874 0.643304
0.283656 0.834400 0.683231
0.542510 0.833729 0.690537
0.859615 0.840429 0.755099
0.166675 0.272641 0.845175
0.476861 0.283670 0.845203
0.776211 0.316723 0.845391
0.831844 0.332233 0.846035
0.854402 0.307149 0.842358
0.183331 0.336316 0.844775
0.448685 0.345969 0.844844
0.769682 0.375283 0.845126
0.831051 0.391279 0.845829
0.854402 0.313507 0.845990
0.209912 0.544389 0.843552
0.352644 0.549349 0.843909
0.739062 0.565258 0.844663
0.827370 0.577942 0.845476
0.856278 0.578892 0.847839
0.188663 0.729887 0.843776
0.252492 0.731139 0.844359
0.606850 0.735049 0.845118
0.815404 0.740410 0.845964
0.857540 0.749440 0.847810
0.141489 0.827024 0.778963
0.155905 0.836007 0.794462
0.236021 0.844105 0.828758
0.519545 0.841902 0.847674
0.859963 0.845890 0.848597
