LUTs/negative-ultramax-400/Ultramax400_Modern_Soft.cube
TITLE "Kodak Ultramax 400 Modern Soft"
# Adobe RGB in/out. REPLACES AgX. Kodak Ultramax 400 Modern Soft.
LUT_3D_SIZE 33
DOMAIN_MIN 0.0 0.0 0.0
DOMAIN_MAX 1.0 1.0 1.0
0.061578 0.068299 0.085817
0.068644 0.069874 0.086826
0.071415 0.070300 0.087125
0.088175 0.072425 0.087941
0.179715 0.075812 0.089170
0.269226 0.078056 0.090134
0.428442 0.082822 0.092142
0.551729 0.088481 0.094038
0.596831 0.091094 0.095104
0.641083 0.095768 0.097112
0.695772 0.103729 0.099899
0.721730 0.108559 0.101864
0.740897 0.113650 0.103592
0.760580 0.121367 0.105755
0.780101 0.130842 0.108506
0.791132 0.139511 0.110495
0.798583 0.149722 0.112498
0.805162 0.160375 0.115327
0.810856 0.173760 0.118842
0.815641 0.179080 0.121382
0.819265 0.184534 0.124464
0.821951 0.192630 0.128219
0.824416 0.198612 0.132236
0.826771 0.195226 0.136681
0.827940 0.192514 0.143164
0.828741 0.186337 0.152640
0.830415 0.164516 0.170239
0.830217 0.152892 0.258697
0.832558 0.113804 0.589003
0.830159 0.112653 0.583952
0.827771 0.111560 0.578978
0.825394 0.110485 0.574054
0.825455 0.364748 0.666516
0.062371 0.072693 0.086345
0.064078 0.071666 0.086467
0.069195 0.070696 0.086638
0.085773 0.072952 0.087831
0.155015 0.076496 0.089211
0.231514 0.078565 0.090148
0.405390 0.083324 0.092145
0.532637 0.088972 0.094041
0.586578 0.091614 0.095106
0.632772 0.096279 0.097106
0.688958 0.104229 0.099884
0.717861 0.109000 0.101841
0.737780 0.114296 0.103572
0.758081 0.121987 0.105738
0.778110 0.131364 0.108488
0.790040 0.140736 0.110472
0.797696 0.150649 0.112476
0.804440 0.161292 0.115300
0.810265 0.174689 0.118814
0.815150 0.179985 0.121342
0.818853 0.185424 0.124420
0.821603 0.193823 0.128168
0.824119 0.199818 0.132175
0.826516 0.196417 0.136575
0.827719 0.193686 0.143015
0.828547 0.187454 0.152352
0.830244 0.165324 0.169348
0.830066 0.153471 0.254302
0.832428 0.113746 0.588731
0.830040 0.112599 0.583704
0.827663 0.111511 0.578753
0.825295 0.110440 0.573849
0.825363 0.364544 0.666350
0.062590 0.074033 0.086552
0.063092 0.073826 0.086930
0.064751 0.072893 0.086761
0.072497 0.074560 0.087680
0.098325 0.078795 0.089109
0.150700 0.080509 0.090072
0.300184 0.085332 0.092158
0.467493 0.091388 0.094125
0.537180 0.093868 0.095185
0.603527 0.098399 0.097131
0.664409 0.106241 0.099857
0.703716 0.111190 0.101788
0.726352 0.116808 0.103522
0.748915 0.124367 0.105689
0.770824 0.133671 0.108437
0.785891 0.145404 0.110402
0.794461 0.154136 0.112406
0.801814 0.164722 0.115214
0.808124 0.178149 0.118719
0.813373 0.183345 0.121206
0.817365 0.189489 0.124268
0.820350 0.198247 0.127993
0.823053 0.204278 0.131963
0.825600 0.200818 0.136207
0.826926 0.198016 0.142498
0.827854 0.191695 0.151357
0.829629 0.168318 0.166576
0.829528 0.155680 0.239461
0.831964 0.113536 0.587761
0.829617 0.112406 0.582821
0.827275 0.111335 0.577949
0.824939 0.110281 0.573115
0.825035 0.363812 0.665756
0.063587 0.081911 0.087448
0.063939 0.081756 0.087669
0.065382 0.080656 0.087889
0.068327 0.078844 0.087944
0.078744 0.082983 0.089207
0.096815 0.083979 0.090088
0.165046 0.088846 0.092097
0.342982 0.095441 0.094126
0.442054 0.097948 0.095272
0.538970 0.102557 0.097231
0.620559 0.111090 0.099906
0.666525 0.117521 0.101794
0.704306 0.122296 0.103504
0.731154 0.128775 0.105651
0.756750 0.143903 0.108383
0.774539 0.153271 0.110316
0.788268 0.161253 0.112311
0.796829 0.171637 0.115087
0.804093 0.185055 0.118572
0.810046 0.191213 0.120989
0.814598 0.198229 0.124020
0.818030 0.206981 0.127699
0.821088 0.213047 0.131605
0.823918 0.209452 0.135584
0.825473 0.206499 0.141618
0.826585 0.200009 0.149678
0.828507 0.174213 0.162917
0.828545 0.160281 0.218648
0.831123 0.113158 0.586003
0.828848 0.112055 0.581219
0.826571 0.111016 0.576489
0.824292 0.110002 0.571795
0.824438 0.362475 0.664676
0.065222 0.099639 0.088820
0.065624 0.099422 0.089178
0.067102 0.098559 0.089570
0.070061 0.095438 0.089903
0.075541 0.092090 0.090235
0.082947 0.089270 0.090379
0.108256 0.094376 0.092170
0.188303 0.101799 0.094157
0.311346 0.103657 0.095403
0.437755 0.107892 0.097355
0.559245 0.119430 0.100070
0.617333 0.125222 0.101939
0.660723 0.129419 0.103587
0.703646 0.140083 0.105698
0.733623 0.159562 0.108396
0.755964 0.166911 0.110288
0.774319 0.173841 0.112248
0.788846 0.183632 0.114975
0.797740 0.200469 0.118419
0.804866 0.206441 0.120742
0.810343 0.213036 0.123721
0.814501 0.221642 0.127331
0.818121 0.227671 0.131143
0.821394 0.223802 0.134773
0.823306 0.220561 0.140467
0.824698 0.213799 0.147749
0.826842 0.184027 0.158424
0.827091 0.168487 0.197263
0.829892 0.112611 0.583438
0.827721 0.111544 0.578876
0.825536 0.110549 0.574350
0.823342 0.109775 0.569869
0.823560 0.360513 0.663090
0.066833 0.117957 0.090213
0.067043 0.117300 0.090406
0.068032 0.116167 0.090742
0.070409 0.110879 0.091381
0.074065 0.105252 0.091341
0.079740 0.100844 0.091707
0.093470 0.103104 0.092669
0.132034 0.110639 0.094508
0.191510 0.111400 0.095662
0.322683 0.117236 0.097506
0.463817 0.128787 0.100171
0.551794 0.134621 0.102122
0.610164 0.144154 0.103806
0.659331 0.156502 0.105859
0.706990 0.174058 0.108458
0.732391 0.182669 0.110328
0.753628 0.192778 0.112262
0.772095 0.209123 0.114963
0.788190 0.227062 0.118335
0.797243 0.231455 0.120553
0.804219 0.236981 0.123452
0.809520 0.245037 0.126964
0.813999 0.250784 0.130657
0.817930 0.246375 0.133898
0.820364 0.242597 0.139201
0.822156 0.235427 0.145815
0.824607 0.203996 0.153863
0.825148 0.182186 0.179034
0.828279 0.111911 0.580095
0.826241 0.110876 0.575810
0.824176 0.109965 0.571563
0.824513 0.349089 0.567338
0.822401 0.357936 0.661001
0.069070 0.172935 0.092609
0.069361 0.173506 0.092854
0.070547 0.170355 0.093353
0.072643 0.159016 0.093591
0.076009 0.140886 0.093697
0.081250 0.128369 0.093754
0.089982 0.122183 0.094035
0.109649 0.126457 0.095451
0.144426 0.125398 0.096369
0.219296 0.129352 0.097963
0.370443 0.148891 0.100475
0.467310 0.157599 0.102483
0.545396 0.162952 0.103990
0.609632 0.174354 0.106008
0.663884 0.195632 0.108615
0.703803 0.208685 0.110543
0.730025 0.216779 0.112360
0.753193 0.231275 0.114972
0.772818 0.253150 0.118290
0.787595 0.261479 0.120457
0.795817 0.271509 0.123305
0.802533 0.280613 0.126709
0.808381 0.284755 0.130258
0.813313 0.280053 0.133143
0.816520 0.275926 0.138032
0.818880 0.269065 0.144015
0.821747 0.237289 0.150019
0.822690 0.210868 0.165272
0.826307 0.111106 0.576046
0.824426 0.110066 0.572079
0.822505 0.109505 0.568182
0.822967 0.344424 0.564232
0.820971 0.354777 0.658428
0.072214 0.273260 0.094834
0.072477 0.273938 0.095131
0.073705 0.274877 0.096077
0.075504 0.253619 0.096496
0.078364 0.226911 0.096659
0.084104 0.200591 0.096953
0.092405 0.180259 0.097104
0.104973 0.167817 0.097516
0.120659 0.149729 0.097333
0.168797 0.153831 0.098625
0.281113 0.174230 0.101120
0.391049 0.180953 0.102971
0.469075 0.185050 0.104390
0.551557 0.199413 0.106322
0.618136 0.225456 0.108824
0.661722 0.236318 0.110722
0.702122 0.246091 0.112535
0.728648 0.263735 0.115163
0.752583 0.284497 0.118393
0.772055 0.288897 0.120469
0.787116 0.295776 0.123214
0.795251 0.306479 0.126536
0.801920 0.316227 0.129997
0.807560 0.317862 0.132770
0.811438 0.320677 0.137221
0.814665 0.314905 0.142688
0.818103 0.289320 0.147860
0.819626 0.262641 0.158369
0.824016 0.110439 0.571477
0.822309 0.109478 0.567809
0.820548 0.108973 0.564246
0.821152 0.338862 0.560603
0.819290 0.349982 0.655410
0.073723 0.323212 0.096429
0.073965 0.323611 0.096647
0.074798 0.320198 0.097212
0.076257 0.306422 0.097709
0.078620 0.285565 0.098033
0.083125 0.260675 0.098221
0.089939 0.235238 0.098493
0.099518 0.213443 0.098710
0.114069 0.197089 0.099094
0.141826 0.186398 0.099593
0.212997 0.210262 0.102024
0.308465 0.217045 0.103644
0.403010 0.220490 0.104953
0.484332 0.234098 0.106733
0.570834 0.260996 0.109244
0.618736 0.270713 0.111090
0.660722 0.279037 0.112843
0.702591 0.293733 0.115410
0.730509 0.314134 0.118569
0.752341 0.320106 0.120663
0.770307 0.328400 0.123371
0.786095 0.335801 0.126547
0.794738 0.344862 0.129866
0.801731 0.345025 0.132485
0.806578 0.347603 0.136582
0.810190 0.350350 0.141770
0.813885 0.339677 0.146923
0.815791 0.331397 0.155682
0.821574 0.119287 0.567952
0.819932 0.109054 0.563183
0.818342 0.108415 0.559865
0.819098 0.332660 0.556526
0.817382 0.344009 0.651994
0.076078 0.392211 0.098549
0.076187 0.390309 0.098643
0.076634 0.382556 0.098924
0.077810 0.372453 0.099405
0.080314 0.357112 0.099781
0.084372 0.332754 0.100040
0.090220 0.312523 0.100281
0.098619 0.289440 0.100508
0.110470 0.269812 0.100868
0.131521 0.252199 0.101396
0.183216 0.265979 0.103419
0.249355 0.262526 0.104501
0.338477 0.262870 0.105602
0.422062 0.274388 0.107283
0.513429 0.298510 0.109855
0.577127 0.305719 0.111573
0.620783 0.312634 0.113321
0.664426 0.323997 0.115790
0.706083 0.345822 0.118905
0.730754 0.353798 0.121018
0.752904 0.359028 0.123547
0.770848 0.368850 0.126676
0.785505 0.379246 0.129938
0.794371 0.380196 0.132419
0.800691 0.379959 0.136197
0.805328 0.380367 0.141024
0.809785 0.371981 0.145650
0.812248 0.364585 0.152830
0.814678 0.346428 0.164080
0.815922 0.325649 0.206764
0.817178 0.285033 0.519827
0.816841 0.327921 0.554480
0.815279 0.337527 0.648240
0.079355 0.470927 0.101451
0.079456 0.468969 0.101519
0.079988 0.463201 0.101805
0.081672 0.457140 0.102460
0.084144 0.445988 0.103001
0.087908 0.427650 0.103455
0.093791 0.407292 0.103852
0.102032 0.386460 0.104188
0.114414 0.367178 0.104500
0.135344 0.349027 0.104922
0.170599 0.330616 0.105454
0.212697 0.317823 0.105890
0.280802 0.306338 0.106410
0.370330 0.315291 0.107932
0.458522 0.335677 0.110610
0.525319 0.341461 0.112220
0.584242 0.347151 0.113914
0.627572 0.359436 0.116270
0.672718 0.377542 0.119345
0.707998 0.381431 0.121471
0.732373 0.388385 0.123949
0.753369 0.399386 0.126991
0.771833 0.407074 0.130074
0.786593 0.409205 0.132454
0.793918 0.414136 0.136102
0.799378 0.420423 0.140658
0.804966 0.410656 0.144820
0.808211 0.401465 0.150706
0.811164 0.384542 0.159533
0.812845 0.364333 0.183107
0.814477 0.297116 0.454917
0.814419 0.323569 0.557123
0.813015 0.320926 0.556966
0.081833 0.511236 0.103410
0.081918 0.509550 0.103466
0.082336 0.504367 0.103696
0.083685 0.498543 0.104242
0.085891 0.488485 0.104756
0.089300 0.476410 0.105281
0.094713 0.462578 0.105782
0.101928 0.446881 0.106118
0.112598 0.427625 0.106446
0.130151 0.408985 0.106784
0.159827 0.392629 0.107191
0.193502 0.379446 0.107715
0.245459 0.360846 0.107775
0.318921 0.357829 0.108696
0.412299 0.376499 0.111499
0.475921 0.378659 0.112999
0.537665 0.381704 0.114706
0.594311 0.391424 0.116962
0.639106 0.408685 0.119945
0.677253 0.411939 0.122051
0.710687 0.419757 0.124520
0.735141 0.428652 0.127394
0.755914 0.439253 0.130414
0.773224 0.443650 0.132722
0.786737 0.445306 0.136223
0.793653 0.448484 0.140522
0.799844 0.446700 0.144384
0.803625 0.446214 0.149487
0.807120 0.436174 0.157058
0.809415 0.413203 0.170440
0.811501 0.333912 0.330794
0.811875 0.318370 0.552086
0.810627 0.316298 0.554670
0.083763 0.537946 0.104789
0.083849 0.536936 0.104839
0.084250 0.533732 0.105040
0.085417 0.529630 0.105494
0.087414 0.524161 0.106057
0.090592 0.514059 0.106609
0.095002 0.501022 0.107072
0.101495 0.486709 0.107495
0.110591 0.472030 0.107840
0.125305 0.457456 0.108169
0.149553 0.444091 0.108529
0.181672 0.428500 0.108912
0.224880 0.415765 0.109595
0.287864 0.407564 0.110478
0.371496 0.414831 0.112524
0.432670 0.415714 0.114054
0.494125 0.417292 0.115584
0.556222 0.426218 0.117773
0.608787 0.442658 0.120969
0.645935 0.444586 0.122838
0.683623 0.449343 0.125107
0.715359 0.456751 0.127959
0.738668 0.465594 0.130930
0.759355 0.466982 0.133044
0.774986 0.471483 0.136578
0.786657 0.477586 0.140768
0.794413 0.473925 0.144226
0.799157 0.471716 0.148682
0.803148 0.467539 0.155403
0.805734 0.461800 0.165515
0.807669 0.455609 0.194774
0.809251 0.312718 0.546477
0.808154 0.310845 0.553267
0.086541 0.566851 0.106544
0.086618 0.565984 0.106590
0.086958 0.563170 0.106770
0.087888 0.559263 0.107163
0.090010 0.555333 0.107785
0.092851 0.548460 0.108308
0.096978 0.540252 0.108782
0.103036 0.531178 0.109353
0.111432 0.520373 0.109911
0.124716 0.505807 0.110364
0.146202 0.491916 0.110804
0.175789 0.479243 0.111341
0.210918 0.467874 0.111868
0.268418 0.458476 0.112552
0.347388 0.462426 0.114721
0.402330 0.453456 0.115340
0.456044 0.452126 0.116615
0.518810 0.457704 0.118615
0.581115 0.469588 0.121977
0.617471 0.471064 0.123833
0.654689 0.474985 0.125973
0.692614 0.482200 0.128659
0.721045 0.489810 0.131486
0.743569 0.492770 0.133688
0.761873 0.497792 0.137126
0.776695 0.501952 0.141036
0.788484 0.502199 0.144345
0.793985 0.504184 0.148465
0.798947 0.498581 0.154262
0.802182 0.490960 0.162403
0.804549 0.481833 0.180821
0.805818 0.475190 0.310356
0.806220 0.477564 0.551350
0.090238 0.602784 0.108789
0.090324 0.602040 0.108832
0.090694 0.599583 0.109017
0.091644 0.595975 0.109505
0.093844 0.592937 0.110394
0.096381 0.586388 0.111071
0.100674 0.579534 0.111835
0.106577 0.571174 0.112464
0.115346 0.561987 0.113148
0.128802 0.552308 0.113761
0.150762 0.542635 0.114381
0.178490 0.533239 0.114909
0.212227 0.524539 0.115548
0.265291 0.513969 0.116189
0.323297 0.504640 0.116980
0.378255 0.493715 0.117422
0.423368 0.484491 0.117963
0.482377 0.486912 0.119684
0.545467 0.497845 0.123153
0.591818 0.498437 0.124849
0.627990 0.501863 0.126937
0.665835 0.508646 0.129538
0.702948 0.515598 0.132209
0.726809 0.519190 0.134555
0.748100 0.523053 0.137775
0.764952 0.527674 0.141596
0.780134 0.528098 0.144690
0.789029 0.528094 0.148456
0.794564 0.527728 0.153752
0.798286 0.526801 0.160677
0.801232 0.517973 0.173000
0.802908 0.504554 0.225650
0.803667 0.481474 0.538096
0.092636 0.625116 0.110298
0.092713 0.624467 0.110353
0.093035 0.622294 0.110561
0.093826 0.618964 0.110992
0.095655 0.615692 0.111757
0.098362 0.610660 0.112520
0.102538 0.605197 0.113526
0.107572 0.597111 0.114212
0.115653 0.588726 0.114941
0.128007 0.579989 0.115692
0.147179 0.570665 0.116248
0.172126 0.561489 0.116830
0.199752 0.552885 0.117437
0.247541 0.544795 0.118066
0.297173 0.537717 0.118724
0.358127 0.531604 0.119505
0.406437 0.524117 0.120046
0.454924 0.520278 0.121524
0.515094 0.526209 0.124479
0.563067 0.526232 0.126078
0.603888 0.527851 0.127968
0.640882 0.532160 0.130493
0.678268 0.536737 0.133066
0.710120 0.538683 0.135541
0.733100 0.541779 0.138639
0.752544 0.546226 0.142305
0.770252 0.546715 0.145172
0.781946 0.548774 0.148794
0.790058 0.548320 0.153660
0.794608 0.545960 0.159584
0.797891 0.543826 0.169014
0.799812 0.542612 0.197240
0.801037 0.511972 0.478543
0.094856 0.645964 0.111697
0.094925 0.645408 0.111747
0.095221 0.643525 0.111935
0.096017 0.640544 0.112318
0.097706 0.637314 0.113037
0.100398 0.633678 0.114027
0.103739 0.627808 0.114884
0.108538 0.621212 0.115739
0.116253 0.613823 0.116530
0.127270 0.605643 0.117259
0.144368 0.597054 0.117946
0.167233 0.588309 0.118551
0.190038 0.579819 0.119123
0.232235 0.571798 0.119841
0.283179 0.564356 0.120682
0.338746 0.557802 0.121573
0.390613 0.552186 0.122609
0.433741 0.548666 0.123970
0.488897 0.549946 0.126367
0.534054 0.546404 0.127310
0.582685 0.547718 0.129149
0.618217 0.551405 0.131541
0.654836 0.555725 0.134343
0.689986 0.557275 0.136690
0.717652 0.560494 0.139676
0.739520 0.564326 0.143135
0.759230 0.565917 0.145882
0.773400 0.567409 0.149319
0.784922 0.568060 0.153865
0.790602 0.568377 0.159204
0.794586 0.565512 0.166581
0.796965 0.561922 0.185888
0.798296 0.561826 0.328675
0.097862 0.660734 0.113537
0.097939 0.660435 0.113592
0.098245 0.659410 0.113796
0.098946 0.657747 0.114205
0.100378 0.655819 0.114904
0.103300 0.654269 0.115991
0.106134 0.650619 0.116723
0.111169 0.647368 0.117721
0.118643 0.641269 0.118536
0.128824 0.633751 0.119257
0.145105 0.625878 0.120166
0.166592 0.617638 0.121046
0.186897 0.609494 0.121932
0.225618 0.601405 0.122666
0.273223 0.593962 0.123557
0.321888 0.587073 0.124412
0.373487 0.580927 0.125311
0.417792 0.575740 0.126361
0.469786 0.576331 0.128683
0.512581 0.570548 0.129232
0.554817 0.567647 0.130344
0.597972 0.570962 0.132667
0.633313 0.574841 0.135768
0.667711 0.576046 0.137975
0.702407 0.579184 0.140855
0.725792 0.582737 0.144148
0.747648 0.584460 0.146722
0.764176 0.586176 0.150095
0.777415 0.588272 0.154420
0.786712 0.587286 0.159145
0.791281 0.586835 0.165602
0.794015 0.586977 0.179907
0.795753 0.582950 0.247552
0.101368 0.676765 0.115999
0.101441 0.676511 0.116050
0.101732 0.675636 0.116241
0.102444 0.674189 0.116621
0.103891 0.672434 0.117259
0.106636 0.670906 0.118258
0.109604 0.668081 0.119094
0.115205 0.665107 0.120274
0.122333 0.661312 0.121410
0.132940 0.657331 0.122570
0.149736 0.652840 0.123565
0.170312 0.648132 0.124587
0.189117 0.641412 0.125458
0.226405 0.633760 0.126309
0.270929 0.626229 0.127107
0.317606 0.619289 0.128054
0.366430 0.612899 0.128948
0.411109 0.607058 0.129840
0.453043 0.602252 0.130921
0.493144 0.596083 0.131370
0.534985 0.591962 0.132270
0.578806 0.590629 0.134081
0.613851 0.594089 0.137241
0.647126 0.595049 0.139350
0.681524 0.597601 0.142085
0.711895 0.601091 0.145281
0.735482 0.602595 0.147665
0.754117 0.605002 0.151105
0.770006 0.606388 0.155032
0.780895 0.607081 0.159457
0.787987 0.607423 0.165238
0.791290 0.605859 0.176396
0.793261 0.606690 0.213233
0.103746 0.688227 0.117013
0.103823 0.688000 0.117062
0.104121 0.687215 0.117244
0.104771 0.685893 0.117601
0.106016 0.684222 0.118193
0.108312 0.682593 0.119107
0.111792 0.680450 0.120271
0.116463 0.677364 0.121426
0.123667 0.674234 0.122736
0.133512 0.670604 0.123960
0.148204 0.666362 0.124955
0.166850 0.662010 0.125982
0.183471 0.657509 0.126958
0.216884 0.652970 0.127864
0.258019 0.648538 0.128754
0.299354 0.642994 0.129590
0.351576 0.636712 0.130525
0.398123 0.631032 0.131458
0.433338 0.625702 0.132360
0.476541 0.621324 0.133516
0.518478 0.616580 0.134619
0.559436 0.614753 0.136665
0.596764 0.613818 0.138900
0.628333 0.614126 0.140775
0.662060 0.616303 0.143412
0.696432 0.619318 0.146467
0.722726 0.620788 0.148708
0.743438 0.623264 0.152233
0.761818 0.624899 0.155883
0.774571 0.626202 0.159970
0.783971 0.626420 0.165109
0.788530 0.627068 0.174617
0.790902 0.626910 0.199021
0.106254 0.699628 0.118086
0.106325 0.699429 0.118133
0.106599 0.698735 0.118308
0.107185 0.697549 0.118648
0.108281 0.696007 0.119206
0.110429 0.694393 0.120240
0.114614 0.692833 0.121727
0.118603 0.689806 0.122766
0.126068 0.687258 0.124268
0.134218 0.683529 0.125303
0.148830 0.679912 0.126499
0.166804 0.676005 0.127626
0.183371 0.671746 0.128635
0.211275 0.667421 0.129545
0.249398 0.663209 0.130500
0.289951 0.659101 0.131406
0.339996 0.655145 0.132269
0.382133 0.651509 0.133195
0.419677 0.648278 0.134505
0.460339 0.644708 0.135757
0.501431 0.640793 0.137185
0.542480 0.638152 0.139142
0.583940 0.636925 0.141308
0.612074 0.634052 0.142457
0.643944 0.634822 0.144764
0.678017 0.637483 0.147744
0.709948 0.638805 0.150071
0.732353 0.640834 0.153405
0.752868 0.642908 0.156897
0.768106 0.643940 0.160567
0.778997 0.645306 0.165345
0.785694 0.645489 0.173525
0.788638 0.646444 0.192082
0.108905 0.711043 0.119367
0.108973 0.710871 0.119413
0.109233 0.710272 0.119612
0.109873 0.709239 0.120049
0.111049 0.707867 0.120758
0.113422 0.706364 0.121828
0.117607 0.705088 0.123387
0.121703 0.702493 0.124484
0.128161 0.699887 0.125840
0.137353 0.696855 0.127103
0.151465 0.693608 0.128380
0.166894 0.689856 0.129465
0.183340 0.686036 0.130581
0.209304 0.682052 0.131617
0.244998 0.678005 0.132548
0.285314 0.674097 0.133685
0.329078 0.670277 0.134919
0.371153 0.666673 0.136170
0.410822 0.663316 0.137434
0.448261 0.660389 0.138785
0.487162 0.657711 0.140090
0.527409 0.655475 0.141501
0.567420 0.654280 0.143599
0.599282 0.652418 0.144636
0.628326 0.651261 0.146398
0.660540 0.651860 0.149063
0.695470 0.652705 0.151514
0.720935 0.653809 0.154707
0.743343 0.655079 0.158008
0.761072 0.655850 0.161372
0.774022 0.656720 0.165727
0.781881 0.657200 0.173084
0.786394 0.658301 0.188062
0.111942 0.722286 0.120751
0.112030 0.722136 0.120811
0.112365 0.721610 0.121034
0.113058 0.720695 0.121462
0.114301 0.719456 0.122152
0.116431 0.718044 0.123182
0.120359 0.716721 0.124667
0.124871 0.714746 0.126022
0.130704 0.712176 0.127273
0.141176 0.709707 0.128796
0.152840 0.706429 0.129921
0.168576 0.703171 0.131186
0.183399 0.699735 0.132456
0.207765 0.695933 0.133599
0.241107 0.692112 0.134934
0.280926 0.688354 0.136297
0.319921 0.684711 0.137684
0.362647 0.681203 0.139003
0.403707 0.677899 0.140294
0.436987 0.674829 0.141599
0.475712 0.672172 0.142958
0.514966 0.669791 0.144331
0.551619 0.667780 0.145736
0.587541 0.665817 0.146704
0.615428 0.664431 0.148391
0.645446 0.663753 0.151025
0.678468 0.663580 0.152912
0.709394 0.664518 0.155982
0.733487 0.665701 0.159172
0.753456 0.666602 0.162327
0.768884 0.667401 0.166200
0.778081 0.668248 0.173114
0.783565 0.669014 0.185504
0.114654 0.732864 0.121060
0.114734 0.732727 0.121120
0.115037 0.732242 0.121338
0.115659 0.731390 0.121758
0.116761 0.730212 0.122430
0.118766 0.728814 0.123429
0.122237 0.727387 0.124859
0.127293 0.725786 0.126497
0.132274 0.723245 0.127665
0.142356 0.720898 0.129264
0.153296 0.717903 0.130498
0.168720 0.714907 0.131902
0.183254 0.711502 0.133063
0.203491 0.708092 0.134697
0.235983 0.704555 0.136256
0.272182 0.700927 0.137599
0.307395 0.697406 0.139024
0.352376 0.694003 0.140389
0.393638 0.690783 0.141754
0.423819 0.687771 0.143065
0.462308 0.685025 0.144410
0.499126 0.682611 0.145742
0.536282 0.680545 0.147154
0.574050 0.678807 0.148591
0.603484 0.677147 0.150563
0.632376 0.676183 0.153235
0.663766 0.675387 0.154737
0.696167 0.674997 0.157210
0.723064 0.676064 0.160205
0.745283 0.677007 0.163382
0.763416 0.677871 0.166836
0.774387 0.678557 0.173057
0.780755 0.679645 0.183948
0.117160 0.742001 0.121524
0.117235 0.741881 0.121583
0.117544 0.741460 0.121798
0.118183 0.740713 0.122210
0.119300 0.739668 0.122868
0.121161 0.738401 0.123839
0.124238 0.737047 0.125221
0.129966 0.735829 0.127156
0.134494 0.733465 0.128265
0.143398 0.731156 0.129757
0.155084 0.728676 0.131310
0.167906 0.725725 0.132600
0.183237 0.722714 0.134253
0.201614 0.719549 0.136066
0.230161 0.716199 0.137605
0.265142 0.712846 0.139159
0.298881 0.709499 0.140675
0.345324 0.706201 0.142153
0.382430 0.703053 0.143532
0.415524 0.700097 0.144923
0.450281 0.697366 0.146260
0.486066 0.694908 0.147608
0.523120 0.692710 0.148977
0.558519 0.690906 0.150770
0.592348 0.689386 0.152590
0.620052 0.688107 0.155228
0.650544 0.687404 0.156628
0.681915 0.686434 0.158837
0.712477 0.686219 0.161213
0.736498 0.687055 0.164113
0.757537 0.688010 0.167603
0.770709 0.688715 0.173232
0.778083 0.689701 0.182842
0.119688 0.750467 0.121820
0.119767 0.750364 0.121879
0.120065 0.749999 0.122093
0.120664 0.749350 0.122503
0.121699 0.748431 0.123156
0.123398 0.747296 0.124116
0.126275 0.746041 0.125477
0.131475 0.744826 0.127377
0.137302 0.742974 0.128848
0.145027 0.740786 0.130264
0.157527 0.738732 0.132157
0.168475 0.735930 0.133434
0.183285 0.733238 0.135597
0.198982 0.730191 0.137269
0.228032 0.727157 0.139132
0.260949 0.724011 0.140782
0.292296 0.720851 0.142350
0.336277 0.717712 0.143899
0.372147 0.714647 0.145381
0.408080 0.711756 0.146827
0.439440 0.709056 0.148247
0.474981 0.706597 0.149832
0.511106 0.704373 0.151518
0.545128 0.702404 0.153201
0.581917 0.700828 0.155060
0.608511 0.699505 0.156932
0.637948 0.698947 0.158235
0.668589 0.697781 0.160430
0.702949 0.697345 0.162572
0.727341 0.696964 0.164889
0.750914 0.697739 0.168272
0.766935 0.698538 0.173452
0.775743 0.699478 0.182119
0.122038 0.761393 0.120219
0.122104 0.761294 0.120279
0.122354 0.760940 0.120498
0.122858 0.760302 0.120919
0.123732 0.759380 0.121591
0.125176 0.758200 0.122586
0.127847 0.756820 0.124010
0.132379 0.755346 0.126023
0.139278 0.753619 0.128044
0.145845 0.751404 0.129442
0.156362 0.749184 0.131309
0.168323 0.746682 0.132957
0.182428 0.743954 0.134947
0.196125 0.741114 0.137024
0.222805 0.738136 0.138985
0.252796 0.735119 0.140749
0.287041 0.732101 0.142547
0.324896 0.729081 0.144192
0.361424 0.726111 0.145733
0.399566 0.723278 0.147238
0.427379 0.720629 0.148708
0.462968 0.718190 0.150459
0.497513 0.715990 0.152210
0.532358 0.714049 0.153943
