negative-superia-xtra-400/SuperiaXtra400_Modern_Normal.cube
TITLE "Fuji Superia X-tra 400 Modern Normal"
# Adobe RGB in/out. REPLACES AgX. Fuji Superia X-tra 400 Modern Normal.
LUT_3D_SIZE 5
DOMAIN_MIN 0.0 0.0 0.0
DOMAIN_MAX 1.0 1.0 1.0
0.070593 0.070461 0.087962
0.426850 0.106480 0.092211
0.840209 0.188922 0.103927
0.914172 0.230257 0.132746
0.922701 0.290258 0.568962
0.079772 0.315985 0.093426
0.168053 0.236208 0.094458
0.707785 0.303431 0.105718
0.890924 0.362743 0.134049
0.916657 0.274889 0.548618
0.092184 0.678609 0.109792
0.147429 0.658665 0.115690
0.465710 0.591948 0.122350
0.806933 0.606822 0.146980
0.897500 0.617884 0.207204
0.098747 0.812643 0.128708
0.135835 0.807932 0.142236
0.380210 0.784545 0.162093
0.709640 0.760760 0.179550
0.874821 0.764835 0.210628
0.070693 0.843454 0.102838
0.117140 0.860579 0.102460
0.266142 0.854320 0.152183
0.621290 0.840854 0.192062
0.867220 0.836899 0.212762
0.075434 0.098735 0.311917
0.386276 0.135602 0.427271
0.838086 0.211068 0.364780
0.910201 0.245824 0.372005
0.920444 0.284241 0.561334
0.092311 0.242956 0.264943
0.189379 0.193305 0.183080
0.719763 0.301027 0.257637
0.886183 0.363718 0.302988
0.914389 0.269535 0.541142
0.122910 0.639940 0.315515
0.202512 0.610181 0.278226
0.510727 0.545012 0.234853
0.813242 0.588511 0.265164
0.894112 0.617287 0.370048
0.126637 0.799603 0.304064
0.182565 0.792844 0.302479
0.426934 0.769711 0.292470
0.732583 0.751175 0.290743
0.873637 0.761551 0.301988
0.070902 0.845895 0.248260
0.116491 0.862517 0.242838
0.294378 0.852194 0.261665
0.638218 0.839634 0.304632
0.867787 0.836681 0.316158
0.080590 0.178089 0.737919
0.364777 0.245200 0.786745
0.858477 0.335048 0.783160
0.911060 0.331724 0.725851
0.919433 0.281575 0.708994
0.112750 0.380704 0.738631
0.317796 0.385781 0.722155
0.756610 0.392870 0.690041
0.886842 0.418157 0.682233
0.913003 0.266318 0.681577
0.149426 0.593209 0.631554
0.230517 0.564577 0.586226
0.513941 0.506565 0.514106
0.813641 0.584177 0.572420
0.889786 0.629143 0.630597
0.174653 0.778621 0.643578
0.236844 0.771622 0.622231
0.476798 0.750556 0.578966
0.749132 0.737742 0.554619
0.870453 0.758362 0.580948
0.097336 0.855940 0.710615
0.108158 0.858164 0.705109
0.350115 0.847163 0.622019
0.667169 0.837266 0.598778
0.867565 0.837066 0.581992
0.088457 0.326656 0.880293
0.301838 0.391780 0.882492
0.854193 0.472066 0.883005
0.918027 0.457070 0.856249
0.922049 0.288496 0.804568
0.122291 0.493748 0.882730
0.342250 0.534923 0.884249
0.808778 0.544220 0.868139
0.899528 0.513947 0.839022
0.915422 0.271778 0.789320
0.173070 0.629376 0.815577
0.271413 0.626900 0.806660
0.619117 0.619763 0.789704
0.832407 0.631652 0.784165
0.891182 0.657564 0.775140
0.188909 0.766059 0.788296
0.253109 0.761380 0.780249
0.494365 0.745227 0.758749
0.747684 0.730753 0.734574
0.868820 0.761969 0.753873
0.098173 0.850599 0.770282
0.110456 0.854275 0.766593
0.349826 0.845352 0.767108
0.669515 0.837077 0.752211
0.866883 0.838943 0.757615
0.203181 0.470873 0.942768
0.530864 0.488352 0.942808
0.897886 0.539546 0.943030
0.931534 0.513474 0.930997
0.925531 0.363670 0.889856
0.272951 0.567138 0.942688
0.546478 0.584044 0.942735
0.891667 0.620047 0.941680
0.919522 0.553972 0.915688
0.919128 0.362164 0.887103
0.308319 0.697082 0.907861
0.451848 0.692179 0.903502
0.782818 0.679812 0.891943
0.878339 0.661627 0.879504
0.899713 0.664445 0.870570
0.216377 0.769279 0.868344
0.303757 0.765909 0.865404
0.624123 0.756367 0.857821
0.817781 0.750210 0.851920
0.875250 0.767774 0.850915
0.089281 0.840851 0.826458
0.111124 0.850335 0.834957
0.259810 0.850007 0.847734
0.645634 0.841062 0.845651
0.866728 0.842589 0.844388
