negative-superia-xtra-400/SuperiaXtra400_Classic_Soft.cube
TITLE "Fuji Superia X-tra 400 Classic Soft"
# Adobe RGB in/out. REPLACES AgX. Fuji Superia X-tra 400 Classic Soft.
LUT_3D_SIZE 33
DOMAIN_MIN 0.0 0.0 0.0
DOMAIN_MAX 1.0 1.0 1.0
0.060829 0.068055 0.085817
0.062709 0.068439 0.086199
0.063456 0.068613 0.086274
0.068067 0.069566 0.086668
0.080725 0.071110 0.087129
0.087112 0.072088 0.087460
0.107105 0.074073 0.088187
0.149500 0.076490 0.089119
0.181390 0.077731 0.089664
0.242192 0.079869 0.090419
0.348832 0.084022 0.091970
0.407118 0.086502 0.092879
0.449660 0.088443 0.093586
0.497818 0.090827 0.094445
0.545476 0.094748 0.096144
0.579268 0.097265 0.097325
0.600604 0.099881 0.098425
0.620695 0.103374 0.099711
0.640233 0.107614 0.101521
0.657933 0.109732 0.102861
0.673857 0.113087 0.104301
0.688176 0.117097 0.105965
0.702381 0.119959 0.107617
0.712481 0.120215 0.108862
0.720403 0.120607 0.110934
0.727697 0.119888 0.113240
0.737165 0.111248 0.114321
0.742397 0.106837 0.118803
0.753655 0.086953 0.212583
0.753653 0.086937 0.212546
0.753653 0.086936 0.212544
0.753653 0.086937 0.212543
0.759647 0.166968 0.421203
0.061008 0.069887 0.086166
0.062879 0.070111 0.086283
0.065194 0.069090 0.086253
0.070210 0.070086 0.086764
0.083065 0.071729 0.087256
0.088836 0.072581 0.087538
0.108418 0.074548 0.088290
0.150003 0.076846 0.089194
0.180980 0.078163 0.089739
0.240353 0.080290 0.090483
0.346929 0.084443 0.092032
0.405603 0.086859 0.092928
0.447827 0.088750 0.093626
0.496333 0.091186 0.094479
0.544402 0.095075 0.096198
0.578358 0.097610 0.097372
0.600108 0.100250 0.098466
0.620299 0.103752 0.099747
0.639927 0.107974 0.101566
0.657684 0.110111 0.102901
0.673659 0.113619 0.104336
0.688023 0.117565 0.105995
0.702286 0.120417 0.107643
0.712414 0.120665 0.108883
0.720352 0.121049 0.110955
0.727659 0.120326 0.113248
0.737133 0.111731 0.114307
0.742379 0.107122 0.118704
0.753655 0.086953 0.212584
0.753653 0.086937 0.212546
0.753653 0.086936 0.212544
0.753653 0.086937 0.212543
0.759648 0.166969 0.421203
0.061093 0.070551 0.086238
0.061634 0.070791 0.086408
0.063551 0.070877 0.086443
0.069275 0.072074 0.086996
0.082209 0.074154 0.087539
0.091715 0.074454 0.087738
0.112680 0.076271 0.088627
0.155878 0.078947 0.089586
0.182095 0.079840 0.090018
0.236171 0.082196 0.090796
0.340481 0.086036 0.092261
0.400372 0.088196 0.093108
0.441276 0.089891 0.093775
0.490912 0.092518 0.094625
0.540429 0.096412 0.096395
0.574974 0.098961 0.097542
0.598257 0.101673 0.098614
0.618821 0.105139 0.099876
0.638785 0.109293 0.101731
0.656756 0.112139 0.103047
0.672924 0.115570 0.104464
0.687455 0.119278 0.106106
0.701843 0.122094 0.107738
0.712166 0.122309 0.108964
0.720167 0.122663 0.111031
0.727520 0.121924 0.113281
0.737015 0.113498 0.114269
0.742311 0.108162 0.118377
0.753655 0.086954 0.212587
0.753654 0.086938 0.212547
0.753653 0.086937 0.212544
0.753654 0.086938 0.212543
0.759648 0.166972 0.421202
0.061504 0.074596 0.086730
0.061874 0.074931 0.086907
0.063624 0.075553 0.087132
0.067319 0.075584 0.087320
0.077310 0.078499 0.088049
0.085480 0.077676 0.088294
0.106069 0.079676 0.089057
0.147183 0.083074 0.090082
0.178290 0.083699 0.090440
0.229595 0.085627 0.091338
0.329151 0.089217 0.092698
0.389807 0.090946 0.093455
0.429846 0.092623 0.094059
0.480763 0.095152 0.094967
0.532699 0.099305 0.096769
0.568243 0.101945 0.097863
0.594557 0.104558 0.098892
0.615860 0.107820 0.100120
0.636502 0.112985 0.102041
0.654903 0.116067 0.103321
0.671460 0.119114 0.104706
0.686330 0.122563 0.106316
0.700968 0.125193 0.107919
0.711678 0.125323 0.109175
0.719802 0.125579 0.111185
0.727245 0.124909 0.113363
0.736783 0.116898 0.114249
0.742175 0.110244 0.117879
0.753655 0.086957 0.212593
0.753654 0.086938 0.212548
0.753653 0.086937 0.212545
0.753654 0.086940 0.212543
0.759648 0.166974 0.421201
0.062076 0.082900 0.087423
0.062511 0.083431 0.087588
0.064200 0.084974 0.087856
0.067972 0.085815 0.088325
0.074309 0.085784 0.088807
0.081100 0.083861 0.088911
0.096615 0.085982 0.089635
0.128152 0.088754 0.090718
0.160873 0.088562 0.091194
0.208179 0.089840 0.091996
0.309576 0.093767 0.093292
0.371689 0.095395 0.093945
0.416703 0.097006 0.094472
0.466653 0.100075 0.095578
0.520518 0.105085 0.097358
0.556915 0.107204 0.098367
0.588259 0.109291 0.099328
0.610780 0.113549 0.100499
0.632580 0.119512 0.102526
0.651723 0.121928 0.103750
0.668960 0.124568 0.105085
0.684419 0.127395 0.106648
0.699491 0.129658 0.108208
0.710855 0.129689 0.109519
0.719190 0.129855 0.111452
0.726784 0.129148 0.113550
0.736394 0.121853 0.114336
0.741941 0.115466 0.117371
0.753656 0.086963 0.212605
0.753654 0.086939 0.212549
0.753653 0.086937 0.212546
0.753656 0.086960 0.212544
0.759648 0.166975 0.421200
0.062443 0.087484 0.087784
0.062727 0.087761 0.087968
0.063903 0.089104 0.088266
0.066841 0.090157 0.088791
0.071110 0.090570 0.089076
0.077983 0.090514 0.089607
0.090242 0.093061 0.090352
0.115109 0.096429 0.091743
0.139590 0.095008 0.091991
0.183270 0.096106 0.092685
0.278970 0.100482 0.093895
0.350129 0.102300 0.094503
0.402977 0.103772 0.095187
0.450760 0.106661 0.096414
0.506045 0.111916 0.098059
0.543750 0.115451 0.098997
0.578454 0.118944 0.099906
0.602658 0.123747 0.101245
0.626122 0.128368 0.103220
0.646466 0.129883 0.104365
0.664848 0.131742 0.105630
0.681304 0.135835 0.107128
0.697100 0.140903 0.108632
0.709531 0.140577 0.110040
0.718211 0.140628 0.111881
0.726046 0.138721 0.113936
0.735772 0.128632 0.114665
0.741555 0.122779 0.117091
0.753657 0.086974 0.212630
0.753654 0.086940 0.212552
0.753654 0.086938 0.212547
0.759644 0.166916 0.212544
0.759648 0.166975 0.421200
0.063194 0.096927 0.088865
0.063423 0.097213 0.088979
0.064686 0.098888 0.089376
0.067149 0.101032 0.089842
0.071246 0.102589 0.090312
0.077597 0.103090 0.090829
0.086324 0.102954 0.091496
0.106234 0.107835 0.092753
0.124850 0.105053 0.092913
0.163427 0.105653 0.093478
0.239185 0.110596 0.094604
0.314925 0.112515 0.095455
0.376860 0.113222 0.096165
0.429684 0.117114 0.097301
0.488953 0.123804 0.098898
0.529534 0.126625 0.099783
0.565030 0.128311 0.100574
0.595195 0.131644 0.102080
0.619325 0.141896 0.103997
0.639869 0.147214 0.105108
0.658657 0.152486 0.106348
0.676147 0.158101 0.107796
0.693180 0.161491 0.109335
0.707373 0.160683 0.110797
0.716629 0.160238 0.112539
0.724858 0.158507 0.114607
0.734759 0.145401 0.115419
0.740907 0.132249 0.117344
0.753660 0.087004 0.212695
0.753654 0.086943 0.212559
0.753654 0.086939 0.212551
0.759648 0.166971 0.212546
0.759648 0.166975 0.421200
0.064130 0.113338 0.090134
0.064412 0.113807 0.090238
0.065685 0.116964 0.090735
0.067893 0.120259 0.091405
0.071830 0.123290 0.092003
0.078001 0.125017 0.092657
0.086453 0.125432 0.093157
0.100118 0.125226 0.093690
0.115449 0.120229 0.093781
0.145789 0.120398 0.094287
0.204694 0.126856 0.095793
0.281208 0.127324 0.096655
0.347550 0.127074 0.097273
0.409427 0.129605 0.098311
0.469990 0.137673 0.099794
0.513449 0.141997 0.100573
0.549640 0.146270 0.101660
0.585590 0.153632 0.103118
0.610945 0.163450 0.104939
0.632924 0.165821 0.105936
0.653226 0.169770 0.107080
0.671609 0.175939 0.108474
0.688876 0.182108 0.110256
0.704419 0.184536 0.111745
0.713940 0.188448 0.113533
0.722852 0.185866 0.115699
0.733009 0.174307 0.116843
0.739757 0.162135 0.118506
0.753671 0.087124 0.212935
0.753655 0.086953 0.212582
0.753654 0.086942 0.212560
0.759648 0.166974 0.212550
0.759648 0.166975 0.421200
0.064671 0.124692 0.090846
0.064882 0.124978 0.090962
0.065865 0.126669 0.091403
0.067721 0.129582 0.092019
0.070887 0.132457 0.092608
0.075989 0.136580 0.093138
0.082965 0.139475 0.093684
0.093057 0.139987 0.094136
0.108511 0.139483 0.094621
0.132180 0.139312 0.095310
0.183313 0.153064 0.097154
0.245405 0.152606 0.097889
0.311031 0.150639 0.098435
0.384775 0.154230 0.099355
0.447474 0.164429 0.100852
0.493105 0.166711 0.101863
0.533529 0.169392 0.102849
0.572786 0.175874 0.104206
0.602353 0.185633 0.105944
0.624352 0.189966 0.106895
0.645113 0.197336 0.108006
0.665467 0.203437 0.109423
0.684294 0.210161 0.111264
0.701852 0.211742 0.112638
0.712168 0.215231 0.114459
0.721050 0.219182 0.116706
0.730887 0.214697 0.118421
0.737750 0.211374 0.121162
0.753993 0.090371 0.215734
0.753666 0.087076 0.212846
0.753656 0.086969 0.212623
0.759648 0.166975 0.212569
0.759648 0.166975 0.421200
0.065421 0.146154 0.092016
0.065637 0.146762 0.092103
0.066476 0.149329 0.092429
0.068105 0.154975 0.092963
0.070911 0.160844 0.093506
0.075525 0.166252 0.094013
0.081692 0.169699 0.094507
0.090248 0.171372 0.095140
0.103729 0.171696 0.095923
0.123585 0.171381 0.096701
0.169900 0.185078 0.098450
0.216731 0.183816 0.099142
0.282694 0.180160 0.099574
0.355827 0.182744 0.100435
0.423398 0.195525 0.102317
0.471928 0.197067 0.103216
0.516199 0.199018 0.104113
0.556686 0.206682 0.105373
0.593014 0.221434 0.107057
0.615489 0.225473 0.107932
0.637705 0.229791 0.108915
0.658516 0.239206 0.110643
0.677904 0.250054 0.112468
0.696535 0.252217 0.113824
0.709482 0.253575 0.115639
0.719142 0.256102 0.117734
0.729504 0.249492 0.119317
0.736807 0.244353 0.122030
0.744707 0.230399 0.124169
0.750503 0.213338 0.128393
0.756799 0.157874 0.185243
0.759648 0.166978 0.216590
0.759648 0.166976 0.421199
0.066697 0.188758 0.093597
0.066870 0.189400 0.093662
0.067529 0.192570 0.093906
0.069163 0.201725 0.094369
0.072185 0.210833 0.094983
0.076443 0.219065 0.095834
0.082477 0.226287 0.096713
0.091086 0.230678 0.097528
0.104463 0.232737 0.098271
0.124193 0.232991 0.099012
0.157060 0.232670 0.099747
0.192789 0.229705 0.100334
0.253533 0.222841 0.100803
0.328303 0.225425 0.101935
0.404869 0.240813 0.103812
0.450388 0.240411 0.104630
0.495136 0.240459 0.105408
0.539717 0.247655 0.106578
0.583233 0.264870 0.108216
0.606188 0.266887 0.109012
0.628815 0.272755 0.110313
0.650590 0.282861 0.111987
0.671816 0.290342 0.113702
0.691331 0.292952 0.115170
0.706112 0.298954 0.116983
0.716122 0.306932 0.119068
0.727335 0.298987 0.120888
0.735347 0.291839 0.123375
0.743625 0.276813 0.125309
0.749834 0.254883 0.128109
0.756520 0.174359 0.148230
0.759648 0.166980 0.229139
0.759648 0.166984 0.233657
0.067417 0.230277 0.094491
0.067559 0.230901 0.094544
0.068204 0.233805 0.094822
0.069640 0.242282 0.095434
0.072327 0.251605 0.096229
0.076274 0.262826 0.097096
0.081842 0.272857 0.097976
0.089073 0.278678 0.098747
0.100890 0.282346 0.099480
0.117931 0.284018 0.100170
0.145204 0.284122 0.100964
0.183195 0.283919 0.101966
0.228676 0.274921 0.102399
0.298410 0.277651 0.103515
0.382787 0.293132 0.105310
0.428043 0.290701 0.106027
0.475083 0.289561 0.106762
0.522925 0.295936 0.107865
0.567915 0.310811 0.109527
0.596219 0.311423 0.110532
0.619592 0.317000 0.111809
0.642684 0.323224 0.113348
0.664457 0.331416 0.115281
0.684639 0.335886 0.116711
0.702696 0.338891 0.118371
0.713715 0.344891 0.120585
0.725012 0.344107 0.122599
0.733249 0.345734 0.125163
0.741807 0.335817 0.127408
0.748685 0.316691 0.129543
0.755866 0.221305 0.129238
0.759648 0.166987 0.229203
0.759648 0.166994 0.237932
0.068044 0.271775 0.095522
0.068189 0.272330 0.095606
0.068730 0.274805 0.095913
0.070027 0.281564 0.096507
0.072542 0.291236 0.097267
0.076141 0.301841 0.098083
0.080941 0.311156 0.098878
0.087275 0.318058 0.099656
0.097592 0.322553 0.100368
0.112144 0.324957 0.101246
0.133374 0.326015 0.102190
0.167512 0.325932 0.103081
0.208480 0.325828 0.104019
0.279095 0.327484 0.105021
0.359726 0.343970 0.106811
0.411254 0.340063 0.107460
0.456082 0.337133 0.108100
0.504559 0.343300 0.109246
0.551892 0.357232 0.111286
0.586038 0.356625 0.112134
0.610026 0.359808 0.113270
0.634003 0.366346 0.115038
0.656684 0.375004 0.116956
0.678231 0.376011 0.118221
0.696986 0.380956 0.120004
0.710110 0.388202 0.122602
0.722483 0.385184 0.124387
0.731535 0.384149 0.126690
0.740330 0.381381 0.129007
0.747215 0.376880 0.131771
0.753401 0.370830 0.135624
0.759648 0.167107 0.229287
0.759648 0.167060 0.244764
0.068844 0.321298 0.097052
0.068968 0.321733 0.097125
0.069481 0.323595 0.097391
0.070879 0.328361 0.097901
0.073256 0.338916 0.098646
0.076537 0.349675 0.099388
0.080993 0.358462 0.100135
0.086916 0.365532 0.101030
0.096304 0.370942 0.102073
0.109307 0.374291 0.103018
0.128533 0.376241 0.103911
0.159664 0.377101 0.104818
0.193079 0.377031 0.105654
0.256880 0.376940 0.106537
0.341640 0.390138 0.108240
0.396783 0.387152 0.108883
0.436809 0.383753 0.109642
0.486102 0.387069 0.110976
0.536040 0.397760 0.112965
0.572759 0.396785 0.113872
0.600371 0.398996 0.115118
0.625054 0.405385 0.116802
0.648839 0.412697 0.118606
0.670742 0.415225 0.119969
0.690573 0.420627 0.122093
0.706836 0.425552 0.124490
0.719507 0.426624 0.126314
0.728921 0.430174 0.128613
0.738571 0.425470 0.130707
0.746104 0.418708 0.133029
0.752707 0.410044 0.136111
0.757553 0.400828 0.144948
0.760982 0.401615 0.253556
0.070012 0.379615 0.098930
0.070189 0.380042 0.098995
0.070845 0.381797 0.099231
0.072145 0.386014 0.099680
0.074615 0.395120 0.100396
0.077483 0.402081 0.101291
0.081981 0.411019 0.102382
0.087788 0.418834 0.103411
0.096984 0.425324 0.104445
0.109837 0.430140 0.105401
0.128838 0.433335 0.106335
0.158902 0.434945 0.107174
0.191018 0.435484 0.108029
0.252392 0.435494 0.108829
0.317492 0.435333 0.109931
0.375115 0.431465 0.110704
0.420269 0.427992 0.111496
0.469582 0.430895 0.112778
0.521230 0.441181 0.114904
0.557441 0.439239 0.115797
0.590677 0.440955 0.117014
0.616040 0.446151 0.118642
0.640553 0.451160 0.120614
0.662879 0.453529 0.122210
0.684047 0.456481 0.124180
0.702720 0.462068 0.126581
0.716257 0.462995 0.128315
0.726750 0.463733 0.130401
0.736591 0.464555 0.132554
0.744391 0.465103 0.135582
0.751594 0.458039 0.138366
0.756905 0.447508 0.142618
0.760901 0.415603 0.242606
0.070931 0.417824 0.100050
0.071087 0.418220 0.100107
0.071662 0.419814 0.100313
0.072789 0.423506 0.100762
0.075005 0.431135 0.101661
0.077780 0.439165 0.102638
0.082199 0.447765 0.103747
0.087276 0.453074 0.104688
0.095547 0.458386 0.105669
0.107458 0.462903 0.106664
0.124058 0.465819 0.107527
0.150250 0.467635 0.108380
0.183250 0.468756 0.109303
0.232349 0.469034 0.110401
0.292804 0.469138 0.111462
0.358078 0.469130 0.112560
0.407257 0.466154 0.113271
0.454002 0.468138 0.114740
0.505527 0.475975 0.116965
0.543222 0.474190 0.117808
0.580642 0.474619 0.118893
0.606905 0.478740 0.120804
0.632064 0.483465 0.122988
0.655035 0.485070 0.124464
0.676891 0.488496 0.126377
0.696883 0.494070 0.128701
0.712816 0.494923 0.130323
0.723800 0.498234 0.132442
0.734486 0.498797 0.134914
0.743060 0.497360 0.137728
0.750394 0.497033 0.140928
0.755747 0.498828 0.146122
0.760438 0.462145 0.193560
0.071766 0.453755 0.101313
0.071904 0.454031 0.101386
0.072413 0.455123 0.101650
0.073424 0.457571 0.102152
0.075456 0.462428 0.102939
0.078261 0.469171 0.103918
0.081977 0.474927 0.104874
0.086827 0.481144 0.105860
0.094521 0.486982 0.106827
0.105277 0.491731 0.107763
0.120200 0.495351 0.108671
0.142977 0.497825 0.109719
0.175270 0.499452 0.110809
0.213947 0.500296 0.111911
0.276625 0.500584 0.112956
0.340523 0.500734 0.114074
0.395809 0.500904 0.115330
0.438144 0.502786 0.116777
0.490378 0.510196 0.118971
0.529759 0.508069 0.119829
0.567024 0.508346 0.121256
0.597895 0.511918 0.123270
0.623467 0.516527 0.125410
0.646948 0.517670 0.126779
0.669509 0.521328 0.128641
0.690721 0.525372 0.130838
0.708839 0.526945 0.132447
0.720847 0.528675 0.134861
0.732212 0.530026 0.137557
0.741159 0.531470 0.140414
0.749189 0.530555 0.143234
0.755075 0.529785 0.146966
0.759410 0.533602 0.160707
0.072730 0.488054 0.103058
0.072855 0.488317 0.103123
0.073312 0.489338 0.103360
0.074409 0.491554 0.103809
0.076202 0.495775 0.104509
0.079200 0.503240 0.105499
0.082392 0.507847 0.106337
0.087344 0.514897 0.107358
0.094562 0.520576 0.108295
0.104518 0.524853 0.109274
0.118518 0.527778 0.110520
0.139477 0.529942 0.111685
0.170332 0.531504 0.112830
0.203947 0.532297 0.113923
0.263220 0.532841 0.115197
0.323442 0.533055 0.116392
0.380578 0.533160 0.117561
0.424263 0.533405 0.118789
0.476530 0.538436 0.121436
0.517472 0.536904 0.122415
0.553933 0.536725 0.123759
0.589280 0.539078 0.125748
0.614961 0.542048 0.127848
0.638725 0.542605 0.129135
0.662054 0.545152 0.130945
0.684178 0.548270 0.133053
0.704810 0.549937 0.135086
0.717597 0.551822 0.137658
0.729489 0.554470 0.140396
0.739509 0.554596 0.142936
0.747885 0.555927 0.145809
0.754023 0.558747 0.149780
0.758891 0.559591 0.157818
0.073979 0.526045 0.105099
0.074121 0.526228 0.105159
0.074639 0.526929 0.105374
0.075636 0.528399 0.105780
0.077245 0.531076 0.106410
0.080180 0.535734 0.107313
0.083375 0.539534 0.108167
0.088303 0.544175 0.109211
0.095227 0.548073 0.110480
0.105411 0.552036 0.111776
0.119287 0.555171 0.112977
0.139883 0.557628 0.114330
0.169138 0.559290 0.115645
0.201286 0.560447 0.116920
0.258170 0.561095 0.118116
0.317900 0.561593 0.119378
0.374049 0.561843 0.120908
0.419122 0.561907 0.122408
0.464149 0.562274 0.124038
0.503852 0.560774 0.124951
0.541924 0.560672 0.126275
0.580626 0.562599 0.128217
0.606739 0.565341 0.130262
0.630659 0.565786 0.131501
0.654393 0.567858 0.133246
0.677410 0.570974 0.136063
0.699944 0.572440 0.138009
0.714046 0.574968 0.140571
0.726998 0.576885 0.143086
0.737485 0.578538 0.145679
0.746511 0.580542 0.148502
0.753278 0.581674 0.152207
0.758281 0.587178 0.159495
0.074680 0.548286 0.106248
0.074810 0.548449 0.106302
0.075285 0.549063 0.106501
0.076193 0.550333 0.106874
0.077648 0.552597 0.107452
0.080363 0.556444 0.108275
0.083676 0.560679 0.109257
0.087934 0.564310 0.110456
0.094826 0.568618 0.111777
0.104320 0.572481 0.113064
0.116524 0.575392 0.114367
0.134191 0.577983 0.115765
0.162042 0.579975 0.117117
0.188826 0.581398 0.118399
0.242363 0.582394 0.119689
0.298316 0.582948 0.121242
0.358136 0.583375 0.122853
0.407416 0.583732 0.124409
0.448695 0.583910 0.125876
0.491624 0.584412 0.127456
0.530767 0.584045 0.128715
0.568999 0.585985 0.130654
0.598936 0.588404 0.132688
0.622830 0.588788 0.134095
0.646935 0.590619 0.136382
0.670435 0.593362 0.139115
0.693670 0.594842 0.140978
0.710372 0.597448 0.143495
0.724111 0.599577 0.145912
0.735278 0.601748 0.148442
0.745146 0.603546 0.151599
0.752289 0.606641 0.155519
0.757772 0.611036 0.160892
0.075397 0.571194 0.107449
0.075517 0.571342 0.107500
0.075955 0.571901 0.107684
0.076792 0.573036 0.108031
0.078191 0.575012 0.108567
0.080706 0.578281 0.109466
0.084216 0.582907 0.110782
0.088015 0.585847 0.111871
0.095072 0.590504 0.113261
0.103161 0.593431 0.114572
0.115268 0.596830 0.116041
0.132224 0.599693 0.117462
0.157850 0.601672 0.118802
0.183417 0.603171 0.120237
0.231013 0.604356 0.121925
0.287720 0.605166 0.123533
0.346878 0.605623 0.125063
0.397749 0.605992 0.126610
0.436193 0.606437 0.128151
0.478837 0.606734 0.129600
0.520675 0.607342 0.131129
0.557988 0.608710 0.133015
0.591484 0.611080 0.135687
0.615354 0.611519 0.137285
0.639539 0.613049 0.139503
0.663575 0.615620 0.142219
0.687289 0.617062 0.143985
0.706645 0.619323 0.146383
0.720977 0.621913 0.148797
0.733087 0.623722 0.151661
0.743545 0.626370 0.154995
0.751411 0.628735 0.158566
0.757241 0.633658 0.163362
0.076201 0.594946 0.108806
0.076313 0.595089 0.108854
0.076722 0.595622 0.109054
0.077500 0.596685 0.109501
0.078966 0.598488 0.110192
0.081275 0.601378 0.111171
0.084815 0.605917 0.112499
0.088594 0.608900 0.113607
0.094927 0.612699 0.115112
0.103352 0.616217 0.116574
0.115283 0.619669 0.118053
0.130359 0.622174 0.119414
0.154990 0.624345 0.121219
0.183256 0.625979 0.122966
0.224107 0.627137 0.124597
0.281533 0.628050 0.126285
0.338282 0.628631 0.127847
0.388182 0.629047 0.129386
0.426853 0.629350 0.130891
0.470486 0.629821 0.132418
0.511043 0.630208 0.134115
0.547904 0.630844 0.136132
0.584543 0.632628 0.138824
0.608221 0.633142 0.140345
0.632383 0.634373 0.142574
0.656649 0.636534 0.145287
0.680894 0.638013 0.147003
0.702789 0.639956 0.149461
0.717780 0.642372 0.152358
0.730676 0.644317 0.155106
0.741963 0.646680 0.158320
0.750457 0.648400 0.161818
0.756684 0.651666 0.166313
0.076871 0.619218 0.110473
0.076976 0.619352 0.110536
0.077362 0.619850 0.110763
0.078154 0.620828 0.111189
0.079622 0.622451 0.111846
0.081772 0.624839 0.112776
0.085093 0.628485 0.114139
0.089310 0.631797 0.115575
0.095055 0.634742 0.116969
0.104014 0.638445 0.118576
0.114451 0.640964 0.120052
0.129851 0.643663 0.121977
0.154197 0.645990 0.123918
0.181816 0.647046 0.125632
0.217710 0.647805 0.127283
0.272838 0.648398 0.128939
0.328235 0.648848 0.130590
0.379401 0.649162 0.132162
0.420229 0.649398 0.133858
0.462762 0.649588 0.135882
0.502892 0.649903 0.137921
0.539931 0.650231 0.139926
0.576015 0.650685 0.141914
0.601570 0.650995 0.143389
0.625549 0.651634 0.145573
0.649844 0.652767 0.148284
0.674437 0.653731 0.150221
0.697299 0.654835 0.153046
0.714619 0.656286 0.155933
0.728168 0.657609 0.158639
0.740330 0.659109 0.161618
0.749422 0.661044 0.165209
0.756267 0.663817 0.169667
0.077066 0.641868 0.111485
0.077167 0.641978 0.111545
0.077534 0.642382 0.111764
0.078326 0.643172 0.112173
0.079718 0.644469 0.112804
0.081743 0.646403 0.113742
0.084822 0.648277 0.115173
0.089378 0.650486 0.116792
0.094602 0.651962 0.118096
0.103108 0.654054 0.119804
0.113102 0.655563 0.121647
0.128306 0.657223 0.123657
0.149139 0.658360 0.125463
0.176940 0.659452 0.127329
0.210364 0.660284 0.129099
0.262005 0.660825 0.130706
0.314591 0.661261 0.132359
0.367207 0.661589 0.134216
0.412097 0.661857 0.136333
0.452395 0.662085 0.138361
0.492505 0.662329 0.140383
0.530521 0.662656 0.142359
0.566009 0.663098 0.144373
0.595377 0.663656 0.146368
0.619096 0.664093 0.148531
0.643306 0.665011 0.151772
0.668065 0.666006 0.153774
0.691481 0.666945 0.156584
0.711213 0.668310 0.159364
0.725634 0.669663 0.162232
0.738622 0.671174 0.165017
0.748455 0.672858 0.168652
0.755826 0.675715 0.173841
0.077307 0.656737 0.112649
0.077403 0.656802 0.112707
0.077755 0.657039 0.112917
0.078568 0.657497 0.113310
0.079895 0.658236 0.114003
0.081818 0.659346 0.115022
0.084715 0.660968 0.116400
0.089732 0.663315 0.118222
0.094558 0.664572 0.119452
0.102132 0.666281 0.121474
0.112810 0.668019 0.123589
0.125912 0.669314 0.125463
0.147049 0.670583 0.127422
0.174087 0.671633 0.129351
0.202140 0.672373 0.131081
0.253078 0.672989 0.132804
0.305251 0.673444 0.134954
0.360086 0.673753 0.137187
0.406123 0.674001 0.139301
0.443977 0.674224 0.141404
0.483967 0.674452 0.143420
0.522734 0.674730 0.145415
0.557183 0.675060 0.147363
0.589152 0.675575 0.149531
0.613060 0.676190 0.152011
0.637032 0.676846 0.155319
0.661982 0.677968 0.157263
0.685597 0.678679 0.159991
0.707695 0.679963 0.162785
0.723024 0.681224 0.165474
0.736908 0.682775 0.168821
0.747526 0.684386 0.172950
0.755393 0.686932 0.178032
0.077430 0.669617 0.113818
0.077524 0.669678 0.113885
0.077864 0.669901 0.114127
0.078681 0.670327 0.114581
0.079963 0.671004 0.115283
0.081813 0.672001 0.116278
0.084573 0.673421 0.117625
0.089202 0.675424 0.119408
0.094693 0.676955 0.121344
0.101643 0.678386 0.123282
0.113165 0.680271 0.125700
0.124883 0.681315 0.127467
0.146669 0.682621 0.129602
0.170641 0.683442 0.131403
0.198624 0.684257 0.133377
0.247793 0.684841 0.135768
0.296684 0.685269 0.138084
0.353154 0.685575 0.140363
0.400570 0.685786 0.142558
0.436499 0.685985 0.144699
0.476812 0.686181 0.146791
0.516021 0.686421 0.148836
0.550038 0.686707 0.151277
0.583803 0.687063 0.153676
0.607234 0.687627 0.156231
0.631116 0.688284 0.158754
0.656149 0.689560 0.160645
0.679959 0.690104 0.163395
0.704097 0.691262 0.166035
0.720313 0.692398 0.169244
0.735085 0.693843 0.173157
0.746614 0.695459 0.177260
0.755201 0.697811 0.182153
0.076486 0.684919 0.113659
0.076580 0.684966 0.113727
0.076925 0.685140 0.113971
0.077575 0.685467 0.114431
0.078786 0.685981 0.115146
0.080651 0.686726 0.116169
0.083247 0.687775 0.117570
0.087564 0.689246 0.119451
0.093820 0.690742 0.121955
0.100153 0.691796 0.123855
0.110144 0.693152 0.126238
0.123010 0.694263 0.128409
0.141243 0.695171 0.130456
0.166796 0.695962 0.132506
0.191217 0.696557 0.134930
0.237488 0.697017 0.137407
0.289690 0.697394 0.139905
0.346189 0.697640 0.142248
0.392757 0.697792 0.144481
0.427719 0.697931 0.146661
0.468601 0.698089 0.148787
0.507381 0.698286 0.151340
0.542686 0.698551 0.153850
0.577313 0.698904 0.156314
