negative-superia-xtra-400/SuperiaXtra400_Modern_Soft.cube
TITLE "Fuji Superia X-tra 400 Modern Soft"
# Adobe RGB in/out. REPLACES AgX. Fuji Superia X-tra 400 Modern Soft.
LUT_3D_SIZE 33
DOMAIN_MIN 0.0 0.0 0.0
DOMAIN_MAX 1.0 1.0 1.0
0.060829 0.068055 0.085817
0.070558 0.071662 0.086922
0.084455 0.077010 0.088487
0.104571 0.084473 0.090221
0.134824 0.091500 0.092319
0.183383 0.101162 0.094267
0.261290 0.113824 0.096788
0.335828 0.127918 0.099104
0.395684 0.149045 0.101370
0.435508 0.172296 0.103994
0.477133 0.199105 0.106370
0.514539 0.231930 0.108535
0.544907 0.267520 0.111114
0.573412 0.300850 0.113690
0.593925 0.330209 0.116501
0.610501 0.361612 0.119137
0.626173 0.386211 0.122325
0.641020 0.410443 0.125463
0.655114 0.434288 0.128447
0.668515 0.454210 0.131290
0.681276 0.471361 0.134297
0.693468 0.488037 0.137835
0.704318 0.504285 0.141252
0.712198 0.520116 0.144556
0.719731 0.531946 0.147750
0.726938 0.542375 0.151309
0.733840 0.552456 0.155006
0.740456 0.562202 0.158601
0.746801 0.571629 0.162097
0.752890 0.580747 0.165495
0.758738 0.589570 0.169321
0.764357 0.598108 0.173672
0.769758 0.606371 0.177928
0.062951 0.074331 0.087227
0.067890 0.073740 0.087214
0.079991 0.077764 0.088433
0.099199 0.085089 0.090171
0.128444 0.092005 0.092271
0.180232 0.101622 0.094226
0.251072 0.114272 0.096715
0.326873 0.128224 0.099053
0.389999 0.149638 0.101324
0.432061 0.172885 0.103963
0.474593 0.199882 0.106348
0.512357 0.232705 0.108519
0.543343 0.268352 0.111099
0.572077 0.301551 0.113677
0.593159 0.330738 0.116490
0.609831 0.362087 0.119129
0.625581 0.386660 0.122316
0.640494 0.410867 0.125456
0.654643 0.434690 0.128441
0.668090 0.454495 0.131285
0.680892 0.471629 0.134292
0.693121 0.488291 0.137831
0.704095 0.504527 0.141250
0.711996 0.520347 0.144554
0.719547 0.532099 0.147750
0.726770 0.542521 0.151309
0.733686 0.552594 0.155008
0.740314 0.562335 0.158603
0.746670 0.571755 0.162100
0.752770 0.580868 0.165499
0.758627 0.589686 0.169326
0.764254 0.598219 0.173678
0.769662 0.606478 0.177935
0.065824 0.084270 0.089167
0.070194 0.083701 0.089139
0.077530 0.082748 0.089143
0.089818 0.086765 0.090202
0.114440 0.093343 0.092194
0.159843 0.102927 0.094123
0.220978 0.115671 0.096510
0.299741 0.129300 0.098918
0.371748 0.151728 0.101195
0.421238 0.174963 0.103875
0.466026 0.202636 0.106286
0.504909 0.235457 0.108474
0.537950 0.271141 0.111052
0.567393 0.304044 0.113634
0.590483 0.332620 0.116457
0.607480 0.363781 0.119102
0.623499 0.388261 0.122288
0.638637 0.412382 0.125433
0.652977 0.436125 0.128423
0.666587 0.455515 0.131270
0.679531 0.472588 0.134276
0.691886 0.489201 0.137820
0.703303 0.505392 0.141243
0.711277 0.521172 0.144551
0.718892 0.532649 0.147749
0.726171 0.543043 0.151312
0.733137 0.553091 0.155014
0.739809 0.562808 0.158612
0.746206 0.572208 0.162111
0.752341 0.581302 0.165512
0.758230 0.590102 0.169347
0.763887 0.598619 0.173701
0.769321 0.606862 0.177960
0.068712 0.095188 0.091567
0.072669 0.094818 0.091540
0.080842 0.093743 0.091470
0.089002 0.092939 0.091521
0.104318 0.096011 0.092442
0.137647 0.105206 0.094127
0.185623 0.118351 0.096407
0.269893 0.131358 0.098828
0.348566 0.155590 0.101092
0.406756 0.178739 0.103795
0.451437 0.207632 0.106223
0.492649 0.240438 0.108425
0.528878 0.275766 0.110998
0.559315 0.308555 0.113583
0.585850 0.337217 0.116416
0.603374 0.366845 0.119069
0.619837 0.391163 0.122252
0.635353 0.415131 0.125404
0.650016 0.438734 0.128399
0.663907 0.457369 0.131251
0.677096 0.474334 0.134255
0.689673 0.490860 0.137806
0.701696 0.506973 0.141236
0.709982 0.522681 0.144549
0.717709 0.533653 0.147753
0.725088 0.543998 0.151322
0.732143 0.554000 0.155028
0.738895 0.563676 0.158631
0.745362 0.573037 0.162134
0.751562 0.582096 0.165539
0.757509 0.590864 0.169387
0.763218 0.599351 0.173746
0.768700 0.607566 0.178008
0.072564 0.112301 0.094062
0.076035 0.111646 0.094040
0.084213 0.109735 0.093972
0.094763 0.108053 0.093903
0.107219 0.107194 0.093968
0.127519 0.110642 0.094606
0.173056 0.123614 0.096771
0.236320 0.137617 0.098988
0.316041 0.161830 0.101193
0.386067 0.184545 0.103836
0.432348 0.215178 0.106236
0.477250 0.247856 0.108424
0.517047 0.282595 0.110989
0.548587 0.315134 0.113568
0.578262 0.344011 0.116399
0.597720 0.371334 0.119053
0.614741 0.395416 0.122232
0.630742 0.419167 0.125387
0.645829 0.442568 0.128385
0.660092 0.460092 0.131239
0.673616 0.476909 0.134245
0.686497 0.493311 0.137803
0.698789 0.509310 0.141240
0.708108 0.524519 0.144559
0.715993 0.535140 0.147769
0.723514 0.545412 0.151348
0.730695 0.555349 0.155060
0.737560 0.564964 0.158668
0.744130 0.574269 0.162176
0.750422 0.583277 0.165585
0.756452 0.591997 0.169455
0.762236 0.600440 0.173819
0.767787 0.608614 0.178087
0.078196 0.153095 0.098215
0.081493 0.151873 0.098157
0.090505 0.147624 0.097948
0.103650 0.138619 0.097567
0.117404 0.130905 0.097086
0.134316 0.128943 0.097035
0.163868 0.131482 0.097751
0.213757 0.151131 0.099550
0.289356 0.171453 0.101668
0.361343 0.195267 0.104122
0.415114 0.225876 0.106413
0.460841 0.258901 0.108536
0.501290 0.291858 0.111088
0.536267 0.322144 0.113646
0.566947 0.353100 0.116452
0.590906 0.377284 0.119089
0.608507 0.401049 0.122266
0.625033 0.424511 0.125411
0.640593 0.446634 0.128403
0.655281 0.463696 0.131254
0.669205 0.480333 0.134267
0.682447 0.496573 0.137830
0.695064 0.512425 0.141270
0.705692 0.526606 0.144595
0.713773 0.537124 0.147808
0.721470 0.547302 0.151402
0.728810 0.557152 0.155120
0.735818 0.566687 0.158733
0.742517 0.575919 0.162245
0.748926 0.584859 0.165659
0.755063 0.593517 0.169561
0.760945 0.601901 0.173930
0.766584 0.610022 0.178204
0.083713 0.209164 0.102146
0.086881 0.210234 0.102253
0.097148 0.203239 0.101931
0.111427 0.188585 0.101153
0.127559 0.175580 0.100339
0.148987 0.167439 0.099995
0.174302 0.164928 0.100056
0.201943 0.167685 0.100501
0.273343 0.185267 0.102586
0.344481 0.211395 0.104733
0.401245 0.240575 0.106824
0.443458 0.273255 0.108818
0.485652 0.303942 0.111361
0.523503 0.331094 0.113877
0.554679 0.361207 0.116621
0.583411 0.384758 0.119215
0.601523 0.408100 0.122394
0.618539 0.431188 0.125510
0.634560 0.451401 0.128482
0.649690 0.468198 0.131321
0.664037 0.484615 0.134351
0.677666 0.500658 0.137910
0.690637 0.516329 0.141349
0.702800 0.529220 0.144674
0.711103 0.539611 0.147888
0.719001 0.549672 0.151502
0.726524 0.559416 0.155222
0.733698 0.568854 0.158839
0.740548 0.577995 0.162354
0.747096 0.586852 0.165771
0.753360 0.595432 0.169716
0.759357 0.603744 0.174091
0.765103 0.611797 0.178370
0.088980 0.275314 0.105852
0.092499 0.276251 0.105932
0.103283 0.273545 0.105884
0.118319 0.253968 0.105074
0.137896 0.234576 0.104234
0.162593 0.219553 0.103605
0.183412 0.210629 0.103344
0.219709 0.208233 0.103503
0.264823 0.211622 0.104037
0.327521 0.233054 0.105674
0.386296 0.261017 0.107502
0.428232 0.289945 0.109442
0.471436 0.318390 0.111857
0.510090 0.345686 0.114316
0.542535 0.370986 0.116953
0.572470 0.393865 0.119470
0.594202 0.416642 0.122659
0.611606 0.439245 0.125722
0.628029 0.457127 0.128654
0.643577 0.473622 0.131469
0.658326 0.489773 0.134530
0.672335 0.505577 0.138073
0.685662 0.521033 0.141501
0.698357 0.532363 0.144817
0.708059 0.542603 0.148026
0.716171 0.552528 0.151668
0.723891 0.562145 0.155386
0.731247 0.571467 0.159001
0.738264 0.580502 0.162516
0.744965 0.589259 0.165934
0.751370 0.597747 0.169937
0.757498 0.605974 0.174315
0.763364 0.613947 0.178597
0.095544 0.337830 0.109253
0.098946 0.338745 0.109337
0.109085 0.332694 0.109085
0.125064 0.319561 0.108401
0.148442 0.302219 0.107677
0.174609 0.285435 0.107041
0.198535 0.272899 0.106624
0.238488 0.265097 0.106503
0.282378 0.263214 0.106695
0.322776 0.266991 0.107163
0.373302 0.285371 0.108429
0.417649 0.310889 0.110414
0.459421 0.333578 0.112602
0.497026 0.360995 0.114995
0.531231 0.382766 0.117482
0.561092 0.404747 0.120014
0.586931 0.426782 0.123101
0.604581 0.447478 0.126080
0.621322 0.463880 0.128955
0.637211 0.480006 0.131727
0.652304 0.495835 0.134837
0.666654 0.511353 0.138348
0.680311 0.525666 0.141751
0.693323 0.536040 0.145049
0.704728 0.546106 0.148243
0.713056 0.555870 0.151922
0.720977 0.565342 0.155630
0.728521 0.574530 0.159238
0.735713 0.583441 0.162748
0.742576 0.592084 0.166162
0.749132 0.600465 0.170242
0.755400 0.608593 0.174619
0.761396 0.616474 0.178901
0.102994 0.394883 0.113426
0.105967 0.393556 0.113350
0.115661 0.386506 0.112895
0.132246 0.375329 0.112175
0.157976 0.362029 0.111324
0.183276 0.346709 0.110502
0.215408 0.331113 0.109852
0.256596 0.322535 0.109477
0.293612 0.317814 0.109431
0.339248 0.316956 0.109716
0.372251 0.319579 0.110296
0.410407 0.331570 0.111653
0.448655 0.356619 0.113613
0.486028 0.376304 0.115927
0.521241 0.396700 0.118225
0.550619 0.417545 0.120809
0.579002 0.438658 0.123750
0.597803 0.455859 0.126622
0.614728 0.471730 0.129415
0.630848 0.487404 0.132122
0.646200 0.502841 0.135306
0.660825 0.518017 0.138765
0.674763 0.530112 0.142127
0.688056 0.540261 0.145392
0.700742 0.550124 0.148560
0.709740 0.559705 0.152287
0.717857 0.569010 0.155977
0.725585 0.578045 0.159570
0.732952 0.586815 0.163067
0.739979 0.595328 0.166471
0.746689 0.603588 0.170649
0.753101 0.611604 0.175020
0.759233 0.619380 0.179298
0.110069 0.440740 0.117390
0.112956 0.438942 0.117263
0.122621 0.432836 0.116834
0.140865 0.422876 0.116134
0.166851 0.410510 0.115272
0.189525 0.397505 0.114383
0.230597 0.385478 0.113602
0.273418 0.375642 0.113101
0.310066 0.368745 0.112865
0.350512 0.365100 0.112897
0.383499 0.364658 0.113194
0.411117 0.367123 0.113777
0.440325 0.376169 0.115034
0.477187 0.394039 0.117096
0.511881 0.412860 0.119184
0.541461 0.432414 0.121866
0.569596 0.450275 0.124637
0.591527 0.465523 0.127373
0.608489 0.480750 0.130057
0.624715 0.495876 0.132677
0.640223 0.510843 0.135965
0.655039 0.525005 0.139351
0.669191 0.535148 0.142653
0.682710 0.545036 0.145869
0.695630 0.554667 0.149039
0.706310 0.564039 0.152788
0.714606 0.573154 0.156446
0.722508 0.582015 0.160014
0.730041 0.590627 0.163490
0.737227 0.598993 0.166876
0.744089 0.607118 0.171178
0.750645 0.615008 0.175537
0.756913 0.622650 0.179804
0.117714 0.474374 0.121430
0.120506 0.473226 0.121294
0.130173 0.469282 0.120829
0.149819 0.462686 0.120057
0.175308 0.454183 0.119179
0.201790 0.444794 0.118381
0.244154 0.432991 0.117629
0.286049 0.422199 0.117012
0.325551 0.413649 0.116602
0.360364 0.407818 0.116440
0.394716 0.404879 0.116542
0.417083 0.404758 0.116902
0.442594 0.407215 0.117493
0.470380 0.414102 0.118475
0.503742 0.431344 0.120639
0.533830 0.448038 0.123194
0.561315 0.462166 0.125772
0.585927 0.476529 0.128346
0.602785 0.491000 0.130896
0.618992 0.505478 0.133490
0.634548 0.519888 0.136838
0.649461 0.530990 0.140128
0.663748 0.540793 0.143351
0.677429 0.550382 0.146501
0.690529 0.559746 0.149749
0.702851 0.568880 0.153445
0.711302 0.577780 0.157059
0.719358 0.586447 0.160590
0.727043 0.594880 0.164035
0.734377 0.603082 0.167427
0.741382 0.611057 0.171850
0.748076 0.618806 0.176187
0.754476 0.626095 0.180436
0.125766 0.505829 0.125806
0.128579 0.504850 0.125695
0.139183 0.501458 0.125308
0.158730 0.495696 0.124656
0.183194 0.488090 0.123806
0.213406 0.479419 0.122856
0.256559 0.470527 0.121916
0.294707 0.462185 0.121085
0.339739 0.455010 0.120448
0.370179 0.449442 0.120063
0.401736 0.445750 0.119967
0.422992 0.444027 0.120172
0.449132 0.444227 0.120668
0.473584 0.446198 0.121428
0.497515 0.449981 0.122455
0.527709 0.462484 0.124774
0.554422 0.475504 0.127145
0.580599 0.488890 0.129541
0.597732 0.502510 0.131939
0.613808 0.516250 0.134732
0.629308 0.528092 0.137941
0.644226 0.537648 0.141113
0.658567 0.547063 0.144237
0.672338 0.556311 0.147304
0.685556 0.565374 0.150652
0.698238 0.574239 0.154279
0.708015 0.582897 0.157834
0.716201 0.591345 0.161314
0.724017 0.599579 0.164717
0.731484 0.607600 0.168297
0.738619 0.615406 0.172684
0.745440 0.622964 0.176990
0.751965 0.629899 0.181213
0.134690 0.532171 0.129873
0.137967 0.531583 0.129779
0.149129 0.529532 0.129455
0.167602 0.525999 0.128901
0.185438 0.520231 0.128164
0.224588 0.512290 0.127318
0.268081 0.503891 0.126449
0.306352 0.495699 0.125640
0.348442 0.488286 0.124966
0.380100 0.482097 0.124485
0.407725 0.477440 0.124238
0.429817 0.474486 0.124245
0.455730 0.473283 0.124513
0.478752 0.473777 0.125031
0.501801 0.475841 0.125776
0.523826 0.479306 0.126721
0.548865 0.490207 0.128738
0.574473 0.502570 0.130947
0.593384 0.515273 0.133184
0.609239 0.526820 0.136230
0.624593 0.535920 0.139280
0.639431 0.544984 0.142316
0.653746 0.553967 0.145323
0.667538 0.562834 0.148290
0.680812 0.571559 0.151763
0.693578 0.580123 0.155304
0.704809 0.588512 0.158786
0.713096 0.596716 0.162203
0.721020 0.604730 0.165551
0.728598 0.612548 0.169359
0.735846 0.620170 0.173698
0.742781 0.627279 0.177962
0.749419 0.634063 0.182149
0.145608 0.552052 0.133850
0.148633 0.551550 0.133743
0.159020 0.549793 0.133372
0.176463 0.546738 0.132847
0.196336 0.542558 0.132209
0.235322 0.537560 0.131461
0.279062 0.532122 0.130670
0.317167 0.526631 0.129906
0.355704 0.520539 0.129232
0.389168 0.514042 0.128702
0.413227 0.508763 0.128358
0.436449 0.504914 0.128225
0.461538 0.502608 0.128318
0.483910 0.501864 0.128638
0.506475 0.502630 0.129174
0.527250 0.504796 0.129908
0.546285 0.508220 0.130816
0.569499 0.517476 0.132544
0.589739 0.527543 0.135125
0.605311 0.535955 0.137977
0.620450 0.544458 0.140855
0.635137 0.552991 0.143739
0.649358 0.561503 0.146614
0.663104 0.569952 0.149616
0.676373 0.578305 0.153093
0.689168 0.586537 0.156533
0.701496 0.594628 0.159927
0.710097 0.602564 0.163268
0.718102 0.610334 0.166549
0.725768 0.617931 0.170630
0.733109 0.625171 0.174909
0.740141 0.631967 0.179120
0.746877 0.638586 0.183260
0.156348 0.570852 0.138715
0.159152 0.570421 0.138624
0.168841 0.568907 0.138306
0.183282 0.566255 0.137752
0.207695 0.562586 0.136996
0.245954 0.558131 0.136095
0.286615 0.553190 0.135124
0.327380 0.548084 0.134159
0.362307 0.543120 0.133275
0.396944 0.538572 0.132703
0.418205 0.534663 0.132302
0.442557 0.531562 0.132075
0.466742 0.529380 0.132040
0.488880 0.528170 0.132205
0.511099 0.527940 0.132568
0.530723 0.528651 0.133120
0.549345 0.530237 0.134085
0.568018 0.532612 0.135281
0.586756 0.538034 0.137301
0.602009 0.545775 0.139955
0.616887 0.553665 0.142654
0.631370 0.561643 0.145378
0.645440 0.569656 0.148110
0.659084 0.577656 0.151302
0.672294 0.585608 0.154649
0.685068 0.593479 0.157973
0.697405 0.601246 0.161266
0.707246 0.608889 0.164518
0.715303 0.616394 0.167867
0.723033 0.623668 0.172124
0.730447 0.630428 0.176329
0.737557 0.637030 0.180476
0.744376 0.643470 0.184559
0.166889 0.588652 0.143331
0.169498 0.588280 0.143253
0.178558 0.586969 0.142979
0.188791 0.584659 0.142500
0.219185 0.581434 0.141838
0.256541 0.577469 0.141039
0.292839 0.573002 0.140161
0.337054 0.568297 0.139268
0.368900 0.563615 0.138424
0.401380 0.559199 0.137685
0.422670 0.555256 0.137102
0.448090 0.551951 0.136711
0.471517 0.549406 0.136540
0.493529 0.547698 0.136606
0.515524 0.546862 0.136914
0.534123 0.546892 0.137461
0.552413 0.547755 0.138235
0.570707 0.549394 0.139220
0.586395 0.551735 0.140393
0.599290 0.556203 0.142143
0.613882 0.563484 0.144662
0.628127 0.570898 0.147220
0.642005 0.578395 0.150028
0.655503 0.585926 0.153225
0.668609 0.593453 0.156429
0.681315 0.600940 0.159627
0.693619 0.608360 0.162807
0.704576 0.615688 0.165958
0.712660 0.622876 0.169689
0.720429 0.629540 0.173851
0.727893 0.636072 0.177971
0.735061 0.642465 0.182042
0.741945 0.647809 0.186058
0.177218 0.605522 0.147715
0.179652 0.605199 0.147648
0.183418 0.604060 0.147411
0.201217 0.602043 0.146995
0.230642 0.599204 0.146416
0.267101 0.595679 0.145709
0.301598 0.591655 0.144920
0.344502 0.587349 0.144103
0.375560 0.582983 0.143310
0.405373 0.578767 0.142594
0.427271 0.574891 0.141997
0.453041 0.571512 0.141557
0.475819 0.568753 0.141303
0.497777 0.566702 0.141253
0.519250 0.565411 0.141417
0.537348 0.564902 0.141800
0.555386 0.565165 0.142396
0.573332 0.566167 0.143195
0.587914 0.567859 0.144181
0.599413 0.570181 0.145337
0.611393 0.573839 0.146856
0.625381 0.580697 0.149348
0.639043 0.587675 0.152343
0.652363 0.594728 0.155375
0.665329 0.601816 0.158429
0.677932 0.608902 0.161491
0.690165 0.615956 0.164548
0.702024 0.622918 0.167690
0.710196 0.629412 0.171764
0.717981 0.635810 0.175818
0.725473 0.642099 0.179842
0.732680 0.647531 0.183826
0.739611 0.651304 0.187764
0.183378 0.621524 0.152592
0.183486 0.621243 0.152520
0.193682 0.620250 0.152268
0.213740 0.618484 0.151822
0.242008 0.615983 0.151197
0.277638 0.612850 0.150427
0.310727 0.609235 0.149558
0.349955 0.605315 0.148678
0.381752 0.601278 0.147944
0.408984 0.597306 0.147263
0.431629 0.593568 0.146674
0.457438 0.590210 0.146212
0.479641 0.587351 0.145904
0.501584 0.585084 0.145772
0.522354 0.583473 0.145829
0.540322 0.582552 0.146081
0.558179 0.582333 0.146530
0.575848 0.582804 0.147170
0.589395 0.583935 0.147991
0.600706 0.585682 0.149017
0.611899 0.587994 0.150424
0.623093 0.590971 0.152055
0.636525 0.597441 0.154872
0.649648 0.604017 0.157739
0.662451 0.610661 0.160639
0.674923 0.617337 0.163560
0.687055 0.623915 0.166488
0.698843 0.630158 0.170148
0.707928 0.636348 0.174092
0.715708 0.642468 0.178028
0.723208 0.647676 0.181945
0.730435 0.651381 0.185833
0.737395 0.655006 0.189684
0.193124 0.635836 0.157499
0.196164 0.635606 0.157437
0.206955 0.634792 0.157217
0.226284 0.633338 0.156827
0.253398 0.631268 0.156277
0.285695 0.628656 0.155595
0.319705 0.625613 0.154816
0.355167 0.622268 0.153988
0.387549 0.618561 0.153156
0.412267 0.614856 0.152368
0.435523 0.611303 0.151669
0.460838 0.608034 0.151096
0.483000 0.605164 0.150681
0.504939 0.602783 0.150451
0.525110 0.600961 0.150424
0.542996 0.599742 0.150611
0.560729 0.599152 0.151018
0.578183 0.599193 0.151644
0.590793 0.599852 0.152482
0.601947 0.601102 0.153523
0.612978 0.602905 0.154753
0.623891 0.605216 0.156157
0.634687 0.607988 0.157718
0.647332 0.613740 0.160299
0.659957 0.619945 0.163045
0.672279 0.625978 0.165821
0.684289 0.631886 0.169074
0.695981 0.637791 0.172864
0.705865 0.643668 0.176671
0.713620 0.648300 0.180482
0.721111 0.651898 0.184283
0.728340 0.655436 0.188066
0.735314 0.658906 0.191821
0.206906 0.648210 0.162192
0.209826 0.648085 0.162137
0.220207 0.647639 0.161946
0.238531 0.646842 0.161605
0.264777 0.645344 0.161123
0.292027 0.643029 0.160519
0.328633 0.640311 0.159825
0.360171 0.637302 0.159078
0.393010 0.634126 0.158319
0.415267 0.630909 0.157587
0.439009 0.627774 0.156923
0.463792 0.624834 0.156361
0.485925 0.622175 0.155931
0.507854 0.619760 0.155659
0.527510 0.617817 0.155565
0.545345 0.616397 0.155660
0.562995 0.615532 0.155955
0.580287 0.615238 0.156451
0.592071 0.615513 0.157146
0.603099 0.616344 0.158034
0.613995 0.617705 0.159107
0.624768 0.619564 0.160351
0.635424 0.621881 0.161754
0.645964 0.624482 0.163301
0.657820 0.629178 0.165629
0.669981 0.634678 0.168597
0.681855 0.640223 0.172194
0.693434 0.645787 0.175831
0.704007 0.649455 0.179496
0.711723 0.652906 0.183173
0.719188 0.656319 0.186853
0.726406 0.659684 0.190524
0.733378 0.662996 0.194175
0.220596 0.656195 0.166678
0.223402 0.656086 0.166631
0.233184 0.655699 0.166464
0.250718 0.655004 0.166167
0.276109 0.654006 0.165744
0.300641 0.652730 0.165213
0.337427 0.651221 0.164597
0.364991 0.649534 0.163928
0.397413 0.647734 0.163240
0.418026 0.645641 0.162569
0.442139 0.642728 0.161948
0.466385 0.639953 0.161410
0.488450 0.637406 0.160983
0.510350 0.635167 0.160691
0.529560 0.633298 0.160552
0.547358 0.631851 0.160582
0.564953 0.630860 0.160791
0.582100 0.630348 0.161183
0.593198 0.630323 0.161760
0.604130 0.630781 0.162519
0.614917 0.631709 0.163454
0.625574 0.633084 0.164557
0.636110 0.634881 0.165816
0.646529 0.637066 0.167220
0.656832 0.639606 0.169263
0.668004 0.643695 0.172118
0.679733 0.647917 0.175553
0.691188 0.651181 0.179036
0.702350 0.654445 0.182555
0.710015 0.657695 0.186096
0.717443 0.660922 0.189649
0.724635 0.664114 0.193202
0.731593 0.667263 0.196745
0.233924 0.663716 0.172252
0.236552 0.663621 0.172197
0.245911 0.663284 0.172000
0.262806 0.662678 0.171650
0.285215 0.661805 0.171150
0.310141 0.660685 0.170518
0.344387 0.659352 0.169783
0.370458 0.657851 0.168980
0.400340 0.656238 0.168147
0.420575 0.654567 0.167326
0.444957 0.652897 0.166749
0.468655 0.651283 0.166245
0.490615 0.649776 0.165833
0.512456 0.648422 0.165536
0.531275 0.647260 0.165374
0.549039 0.646323 0.165360
0.566594 0.645236 0.165505
0.583119 0.644558 0.165817
0.594158 0.644318 0.166299
0.605017 0.644521 0.166951
0.615718 0.645160 0.167931
0.626281 0.646222 0.169250
0.636716 0.647168 0.170779
0.647032 0.648322 0.172505
0.657232 0.649694 0.174417
0.667317 0.651266 0.176500
0.677899 0.653496 0.179133
0.689224 0.656540 0.182463
0.700286 0.659596 0.185836
0.708490 0.662650 0.189240
0.715870 0.665691 0.192663
0.723027 0.668709 0.196095
0.729960 0.671695 0.199524
0.246950 0.670803 0.177829
0.249475 0.670720 0.177780
0.258475 0.670427 0.177609
0.274757 0.669899 0.177302
0.291957 0.669136 0.176863
0.319518 0.668152 0.176307
0.349640 0.666977 0.175656
0.375851 0.665646 0.174939
0.403118 0.664205 0.174192
0.422941 0.662702 0.173448
0.447501 0.661185 0.172745
0.470642 0.659703 0.172116
0.492454 0.658302 0.171592
0.514205 0.657022 0.171203
0.532676 0.655902 0.170970
0.550400 0.654969 0.170916
0.567919 0.654250 0.171054
0.583944 0.653762 0.171395
0.594937 0.653518 0.171947
0.605742 0.653523 0.172713
0.616379 0.653778 0.173691
0.626867 0.654278 0.174877
0.637221 0.655016 0.176266
0.647451 0.655979 0.177849
0.657562 0.657154 0.179614
0.667559 0.658525 0.181552
0.677441 0.660075 0.183648
0.687520 0.662031 0.186097
0.698465 0.664885 0.189326
0.707138 0.667748 0.192592
0.714465 0.670607 0.195885
0.721578 0.673453 0.199193
0.728478 0.676278 0.202648
0.259757 0.677483 0.183194
0.262184 0.677411 0.183152
0.270843 0.677156 0.183003
0.284713 0.676696 0.182736
0.301078 0.676029 0.182353
0.328843 0.675167 0.181866
0.354749 0.674133 0.181293
0.381075 0.672956 0.180660
0.405760 0.671675 0.179995
0.425420 0.670328 0.179330
0.449804 0.668959 0.178695
0.472377 0.667610 0.178121
0.494003 0.666321 0.177637
0.515629 0.665128 0.177270
0.533786 0.664066 0.177040
0.551459 0.663162 0.176969
0.568938 0.662441 0.177071
0.584574 0.661922 0.177358
0.595533 0.661617 0.177838
0.606296 0.661534 0.178516
0.616884 0.661679 0.179393
0.627315 0.662049 0.180468
0.637605 0.662640 0.181736
0.647764 0.663443 0.183192
0.657802 0.664449 0.184827
0.667723 0.665645 0.186631
0.677530 0.667017 0.188595
0.687224 0.668551 0.190708
0.696878 0.670289 0.193008
0.705948 0.672967 0.196139
0.713216 0.675650 0.199302
0.720280 0.678328 0.202626
0.727142 0.680993 0.206127
0.272314 0.683781 0.188350
0.274648 0.683719 0.188314
0.282537 0.683497 0.188185
0.291729 0.683096 0.187954
0.311037 0.682515 0.187622
0.337998 0.681761 0.187198
0.359709 0.680853 0.186699
0.386132 0.679816 0.186144
0.408276 0.678681 0.185560
0.427940 0.677481 0.184971
0.451893 0.676254 0.184407
0.473888 0.675035 0.183894
0.495292 0.673860 0.183458
0.516759 0.672761 0.183123
0.534628 0.671770 0.182910
0.552235 0.670913 0.182838
0.569665 0.670211 0.182922
0.585016 0.669685 0.183173
0.595945 0.669347 0.183602
0.606675 0.669208 0.184213
0.617226 0.669273 0.185009
0.627613 0.669543 0.185992
0.637853 0.670017 0.187159
0.647957 0.670690 0.188506
0.657935 0.671554 0.190026
0.667793 0.672600 0.191712
0.677536 0.673816 0.193556
0.687166 0.675191 0.195547
0.696684 0.676712 0.197677
0.704979 0.678367 0.199936
0.712113 0.680800 0.203079
0.719125 0.683316 0.206434
0.725943 0.685825 0.209812
0.283526 0.689717 0.193298
0.284899 0.689663 0.193267
0.289772 0.689471 0.193157
0.301058 0.689123 0.192958
0.320796 0.688617 0.192672
0.344930 0.687960 0.192307
0.364515 0.687166 0.191876
0.391020 0.686255 0.191396
0.410673 0.685255 0.190888
0.430298 0.684192 0.190376
0.453790 0.683099 0.189883
0.475200 0.682006 0.189434
0.496348 0.680945 0.189052
0.517573 0.679945 0.188758
0.535228 0.679034 0.188572
0.552750 0.678235 0.188512
0.570111 0.677570 0.188592
0.585277 0.677056 0.188824
0.596178 0.676709 0.189219
0.606880 0.676537 0.189781
0.617401 0.676549 0.190517
0.627755 0.676747 0.191426
0.637956 0.677132 0.192510
0.648017 0.677701 0.193764
