negative-superia-xtra-400/SuperiaXtra400_Modern_Punchy.cube
TITLE "Fuji Superia X-tra 400 Modern Punchy"
# Adobe RGB in/out. REPLACES AgX. Fuji Superia X-tra 400 Modern Punchy.
LUT_3D_SIZE 9
DOMAIN_MIN 0.0 0.0 0.0
DOMAIN_MAX 1.0 1.0 1.0
0.068119 0.082999 0.079619
0.141731 0.089583 0.081509
0.424769 0.106103 0.086403
0.716230 0.138767 0.093506
0.840600 0.180469 0.103122
0.891823 0.216230 0.116566
0.913452 0.222700 0.132725
0.928669 0.116165 0.372744
0.924057 0.280310 0.564586
0.072262 0.113111 0.081698
0.099945 0.107661 0.082687
0.303394 0.122518 0.086737
0.640930 0.163139 0.093904
0.807570 0.205484 0.103338
0.880518 0.239299 0.116658
0.909036 0.244718 0.132216
0.926197 0.115439 0.366776
0.922294 0.276746 0.560019
0.083368 0.305048 0.088979
0.101338 0.287179 0.090136
0.181702 0.228747 0.090470
0.429759 0.246984 0.096166
0.705078 0.292793 0.104878
0.834438 0.340802 0.118948
0.891179 0.357413 0.133713
0.918585 0.121302 0.352324
0.916539 0.265353 0.544401
0.094092 0.534500 0.098689
0.106423 0.524104 0.100289
0.169483 0.486855 0.101856
0.313160 0.430715 0.103126
0.559654 0.433142 0.110254
0.759694 0.467593 0.123547
0.856765 0.492680 0.137371
0.897698 0.489354 0.158356
0.907928 0.250058 0.352591
0.103480 0.666934 0.109771
0.112753 0.662425 0.111927
0.162755 0.649665 0.116900
0.280908 0.620866 0.119894
0.466204 0.589497 0.123372
0.668022 0.583810 0.131572
0.803381 0.603984 0.146791
0.873818 0.613322 0.166431
0.898358 0.613626 0.208182
0.110068 0.755853 0.122320
0.116889 0.752512 0.124530
0.159839 0.746820 0.131613
0.256875 0.728497 0.136610
0.417147 0.704907 0.141797
0.602196 0.686460 0.148665
0.753542 0.681210 0.160330
0.848472 0.690651 0.178478
0.884574 0.701082 0.201259
0.111242 0.813559 0.129539
0.116718 0.812431 0.131689
0.151863 0.810375 0.141122
0.235341 0.804252 0.153647
0.377254 0.793618 0.163089
0.555892 0.775052 0.171601
0.706961 0.762784 0.180680
0.814899 0.758383 0.192748
0.872957 0.768048 0.211585
0.096498 0.851053 0.119796
0.101013 0.849392 0.122112
0.135060 0.844879 0.137379
0.208444 0.839062 0.157539
0.335763 0.830705 0.173988
0.512346 0.821944 0.186732
0.667870 0.815181 0.197319
0.788820 0.811843 0.208023
0.865672 0.811461 0.222486
0.068119 0.844875 0.101684
0.068119 0.843888 0.101559
0.132726 0.864397 0.101186
0.130640 0.859993 0.128201
0.270404 0.857256 0.152428
0.445866 0.848611 0.176547
0.619747 0.841915 0.193128
0.756716 0.838152 0.205246
0.864685 0.837416 0.213722
0.069960 0.087969 0.120509
0.117323 0.094347 0.132579
0.391891 0.112381 0.135078
0.720897 0.145541 0.135044
0.839078 0.182783 0.131713
0.888816 0.217027 0.135734
0.911485 0.224246 0.151549
0.927344 0.115785 0.369556
0.923143 0.278463 0.562218
0.080229 0.109018 0.109533
0.107701 0.103821 0.100044
0.294743 0.125591 0.113608
0.644976 0.167865 0.127651
0.808269 0.207111 0.130060
0.877761 0.239243 0.135214
0.907116 0.245692 0.149905
0.924877 0.115073 0.363661
0.921386 0.274923 0.557682
0.096897 0.275278 0.130914
0.114269 0.245845 0.120687
0.195650 0.200202 0.108588
0.452781 0.236068 0.118435
0.709934 0.288156 0.128018
0.834328 0.336319 0.136063
0.889200 0.354654 0.151256
0.917356 0.123250 0.351081
0.915658 0.263647 0.541824
0.107530 0.510374 0.137597
0.120366 0.496487 0.135491
0.188303 0.451605 0.128962
0.331669 0.403435 0.125130
0.572822 0.419006 0.130120
0.762374 0.459285 0.139215
0.856336 0.488050 0.155893
0.896161 0.487053 0.174473
0.907108 0.248578 0.517290
0.113747 0.654929 0.140089
0.123098 0.649829 0.141744
0.179316 0.634196 0.143659
0.297704 0.606518 0.142185
0.482413 0.574563 0.143492
0.674277 0.574751 0.149446
0.805334 0.598011 0.164617
0.873083 0.610425 0.182357
0.897333 0.613097 0.232719
0.116935 0.747749 0.144499
0.123913 0.744366 0.147216
0.171605 0.737601 0.155901
0.269728 0.719295 0.160940
0.429234 0.697023 0.164415
0.611005 0.680485 0.169957
0.756759 0.677349 0.178425
0.849304 0.687922 0.194212
0.883804 0.699909 0.214950
0.116179 0.811041 0.148184
0.121576 0.809885 0.151312
0.159510 0.807566 0.163416
0.244243 0.801314 0.175344
0.386701 0.788445 0.183836
0.562821 0.770796 0.191035
0.711843 0.759503 0.199134
0.817047 0.756231 0.208474
0.872621 0.766940 0.225646
0.100019 0.849220 0.130218
0.104414 0.847662 0.132879
0.140357 0.843311 0.155586
0.214810 0.837463 0.176686
0.342636 0.829235 0.192676
0.518516 0.820697 0.204453
0.671530 0.814212 0.214340
0.791283 0.811121 0.225246
0.865708 0.811067 0.237657
0.068119 0.849302 0.252090
0.068119 0.848317 0.250893
0.132532 0.868199 0.246920
0.130463 0.862837 0.240713
0.273934 0.856787 0.168226
0.449778 0.848185 0.193457
0.622564 0.841610 0.209784
0.758251 0.837976 0.222129
0.864970 0.837346 0.229690
0.073782 0.099355 0.313202
0.136965 0.111105 0.450769
0.383009 0.131952 0.426991
0.728758 0.169916 0.400317
0.838220 0.202341 0.368030
0.885768 0.232609 0.366194
0.908522 0.237766 0.374706
0.925136 0.119953 0.390649
0.921249 0.274649 0.557368
0.088536 0.139465 0.332067
0.140069 0.151252 0.354397
0.335204 0.157351 0.325826
0.657175 0.185552 0.325960
0.808926 0.223709 0.327933
0.874799 0.252691 0.340052
0.904146 0.257842 0.350838
0.922665 0.120937 0.387809
0.919479 0.271124 0.552801
0.103668 0.235077 0.265516
0.119438 0.214107 0.226240
0.200150 0.184056 0.184193
0.457573 0.231548 0.220114
0.717240 0.290448 0.258777
0.834400 0.340195 0.289447
0.886007 0.358528 0.303361
0.914317 0.192371 0.380714
0.913721 0.260033 0.536186
0.123119 0.469265 0.305177
0.140362 0.450691 0.281756
0.206889 0.400164 0.234883
0.344856 0.355570 0.207162
0.591909 0.397861 0.226389
0.769018 0.449392 0.257540
0.855508 0.482561 0.274784
0.892901 0.484381 0.306409
0.905170 0.245264 0.511864
0.139863 0.632788 0.317175
0.153187 0.626223 0.306584
0.212097 0.606914 0.277918
0.331319 0.570186 0.251025
0.514500 0.544777 0.237339
0.693948 0.557000 0.249565
0.810424 0.586228 0.265720
0.871517 0.603921 0.290321
0.894659 0.613107 0.372899
0.147401 0.731760 0.320901
0.157613 0.727795 0.316289
0.209434 0.717534 0.303616
0.311743 0.698654 0.285762
0.470250 0.678698 0.271754
0.640182 0.666078 0.266733
0.768156 0.668003 0.269896
0.851385 0.680810 0.291472
0.881699 0.696968 0.300967
0.143345 0.804732 0.304546
0.151673 0.803448 0.303697
0.194301 0.800138 0.302802
0.283269 0.791485 0.298349
0.424859 0.774356 0.292370
0.590790 0.759097 0.289126
0.730540 0.750436 0.290617
0.824178 0.749975 0.301394
0.871668 0.763805 0.302261
0.123062 0.841643 0.289111
0.130097 0.840579 0.290673
0.170876 0.837581 0.302127
0.247206 0.832013 0.308038
0.376568 0.824359 0.310746
0.543344 0.816617 0.312164
0.688801 0.811074 0.315526
0.801332 0.808773 0.321300
0.865714 0.809875 0.314315
0.068119 0.847654 0.250106
0.133200 0.869919 0.248941
0.131915 0.866610 0.245079
0.129944 0.861376 0.239073
0.295588 0.854831 0.262495
0.469405 0.846631 0.291060
0.635960 0.840526 0.305171
0.765268 0.837350 0.316001
0.865302 0.837167 0.317885
0.078992 0.123454 0.565686
0.116789 0.147368 0.644863
0.380437 0.175423 0.671939
0.728196 0.217857 0.666933
0.847119 0.248539 0.629860
0.887091 0.267368 0.600927
0.907679 0.269349 0.594999
0.920742 0.195484 0.618346
0.919987 0.272131 0.600566
0.091514 0.171903 0.578236
0.130349 0.190727 0.610982
0.386950 0.222584 0.647387
0.686332 0.245760 0.621724
0.818491 0.266504 0.590746
0.876060 0.286512 0.576534
0.903161 0.289175 0.578090
0.917770 0.212570 0.607767
0.918171 0.268543 0.596480
0.112806 0.270687 0.500638
0.135337 0.266138 0.478485
0.259083 0.259892 0.456017
0.510355 0.278445 0.461239
0.732019 0.322712 0.483740
0.836133 0.363224 0.500941
0.884248 0.379379 0.519133
0.906641 0.349854 0.560751
0.912256 0.257450 0.583475
0.131486 0.433468 0.477395
0.148153 0.419895 0.455023
0.212883 0.375518 0.390053
0.345491 0.338289 0.345188
0.597152 0.396207 0.387255
0.770253 0.451415 0.429298
0.853876 0.485419 0.459499
0.889912 0.490961 0.492864
0.903477 0.242470 0.561208
0.155950 0.609932 0.499763
0.171008 0.603745 0.486049
0.229522 0.577562 0.448830
0.344779 0.540857 0.400337
0.519517 0.518507 0.373618
0.698077 0.543705 0.392674
0.810371 0.578258 0.421328
0.868796 0.600103 0.448339
0.891811 0.616285 0.526822
0.170169 0.713631 0.505590
0.182224 0.709768 0.497817
0.234831 0.698969 0.475529
0.337807 0.680445 0.445992
0.494194 0.661869 0.417721
0.654075 0.652046 0.403868
0.773470 0.659409 0.411620
0.850302 0.674697 0.429328
0.879077 0.695106 0.472823
0.169340 0.797399 0.502751
0.179381 0.796079 0.498293
0.224009 0.789585 0.485259
0.316069 0.776593 0.467106
0.457494 0.760501 0.449065
0.614346 0.747139 0.434190
0.745326 0.740928 0.427763
0.827957 0.743919 0.430694
0.870069 0.760864 0.447935
0.147781 0.835764 0.499744
0.155192 0.834805 0.496882
0.197768 0.831980 0.489049
0.277703 0.826519 0.477290
0.407083 0.819383 0.465492
0.566356 0.812408 0.456117
0.704869 0.807715 0.450548
0.809500 0.806282 0.448967
0.865181 0.808732 0.446440
0.102603 0.857772 0.555340
0.132196 0.869921 0.553752
0.130980 0.866751 0.548032
0.183348 0.863773 0.472023
0.330505 0.851564 0.483087
0.497523 0.844357 0.474889
0.654111 0.839039 0.471121
0.775203 0.836472 0.471035
0.865287 0.837126 0.463468
0.085061 0.171394 0.727542
0.105012 0.186030 0.748661
0.362596 0.237181 0.783753
0.709198 0.279989 0.785255
0.857803 0.325944 0.778452
0.893130 0.329444 0.739016
0.909588 0.322194 0.715979
0.919805 0.260044 0.704316
0.919991 0.272140 0.699821
0.094136 0.214386 0.733326
0.118028 0.233635 0.747672
0.365619 0.281771 0.778193
0.698170 0.326154 0.781307
0.834475 0.343007 0.752718
0.882688 0.347265 0.723180
0.905015 0.341230 0.705912
0.916825 0.279532 0.697846
0.918119 0.268442 0.693553
0.127255 0.378031 0.728224
0.156273 0.380282 0.721449
0.317875 0.383887 0.712438
0.576922 0.381351 0.695206
0.758678 0.392086 0.681639
0.846778 0.412113 0.676017
0.886725 0.418016 0.674113
0.906406 0.397168 0.676230
0.911999 0.257010 0.673230
0.141845 0.453166 0.633058
0.158858 0.446897 0.619590
0.239411 0.430951 0.590274
0.412453 0.421004 0.571996
0.633468 0.442259 0.579731
0.779341 0.480175 0.598960
0.855490 0.503020 0.615929
0.889268 0.508185 0.633667
0.903615 0.433008 0.647692
0.164717 0.590696 0.624710
0.179726 0.584241 0.613415
0.237720 0.563439 0.581892
0.351229 0.530578 0.538933
0.517628 0.508018 0.506580
0.701836 0.545038 0.538409
0.810870 0.582105 0.568016
0.867262 0.605127 0.591042
0.889938 0.623419 0.623808
0.184484 0.697968 0.633351
0.196369 0.694605 0.625842
0.249604 0.684791 0.603606
0.351783 0.667603 0.574647
0.504295 0.649505 0.546098
0.655408 0.640127 0.529077
0.774422 0.654424 0.543205
0.848153 0.672437 0.562890
0.876802 0.696002 0.597250
0.187456 0.785913 0.636044
0.197536 0.783624 0.631125
0.243456 0.776832 0.615916
0.337045 0.764607 0.595096
0.478071 0.749639 0.574857
0.628089 0.737520 0.558584
0.752054 0.733206 0.551005
0.828827 0.739719 0.554592
0.868202 0.759690 0.576896
0.165270 0.830661 0.639206
0.174238 0.829744 0.635545
0.217487 0.826919 0.623727
0.299732 0.821757 0.607648
0.429527 0.815124 0.591498
0.583456 0.808823 0.578512
0.716837 0.804872 0.569566
0.814240 0.804317 0.565549
0.864362 0.808360 0.566801
0.109506 0.859103 0.701375
0.113597 0.860134 0.700163
0.121701 0.861641 0.696095
0.216821 0.856494 0.634382
0.348646 0.849098 0.615715
0.515612 0.842570 0.602448
0.663865 0.837833 0.593764
0.782242 0.835892 0.590268
0.865060 0.837605 0.577883
0.090465 0.235575 0.830794
0.103838 0.243363 0.838255
0.345259 0.312107 0.849813
0.688642 0.356214 0.850852
0.857473 0.407985 0.852136
0.900310 0.409196 0.828350
0.913370 0.391292 0.803288
0.921411 0.331997 0.777954
0.921216 0.274584 0.744303
0.098051 0.272110 0.833059
0.112799 0.283100 0.838936
0.347706 0.353137 0.849557
0.681466 0.396801 0.850785
0.851688 0.437599 0.849365
0.891392 0.423053 0.818968
0.908912 0.407324 0.797287
0.918438 0.351830 0.772039
0.919308 0.270786 0.740082
0.136173 0.448591 0.837941
0.161950 0.458548 0.840157
0.361267 0.496046 0.847795
0.626197 0.485641 0.827418
0.782565 0.477821 0.806708
0.859031 0.474725 0.787201
0.892618 0.469267 0.768920
0.908255 0.445892 0.753746
0.913034 0.258829 0.726312
0.156563 0.512030 0.772109
0.176260 0.510771 0.766817
0.279554 0.512402 0.756009
0.481738 0.509157 0.743053
0.678917 0.512252 0.733834
0.796868 0.522313 0.729636
0.861673 0.534168 0.728418
0.891592 0.534819 0.726717
0.903979 0.489999 0.708802
0.173928 0.597527 0.725455
0.188096 0.593504 0.719330
0.254076 0.583450 0.702820
0.383553 0.566269 0.683428
0.566080 0.559689 0.672438
0.723836 0.576186 0.677736
0.817926 0.602511 0.688599
0.868713 0.616341 0.697995
0.889761 0.634669 0.700310
0.191529 0.688189 0.719452
0.203491 0.685692 0.714515
0.258011 0.678038 0.699559
0.360679 0.663641 0.679362
0.512006 0.646430 0.653408
0.653333 0.634431 0.633111
0.776401 0.656558 0.654616
0.848011 0.675841 0.674434
0.875790 0.700396 0.686365
0.196904 0.775374 0.720028
0.207342 0.773406 0.716481
0.254554 0.767529 0.705411
0.348220 0.756684 0.689905
0.488851 0.742943 0.674350
0.634063 0.731164 0.657085
0.752553 0.727666 0.649095
0.828303 0.738374 0.657594
0.866723 0.760657 0.676490
0.174692 0.826494 0.721941
0.183747 0.825666 0.719269
0.227944 0.823051 0.710321
0.311728 0.818281 0.697885
0.442023 0.812185 0.685148
0.592956 0.806441 0.674624
0.723297 0.803022 0.665179
0.815776 0.803178 0.661355
0.863377 0.808669 0.669089
0.111624 0.856808 0.722105
0.114971 0.857669 0.722349
0.121484 0.858705 0.723749
0.220632 0.854547 0.713050
0.355028 0.847488 0.699575
0.521317 0.841479 0.689397
0.668147 0.837316 0.682508
0.785639 0.835895 0.679189
0.864655 0.838420 0.675267
0.098010 0.316489 0.891193
0.107782 0.320013 0.893687
0.302697 0.390824 0.893281
0.676867 0.430172 0.893247
0.854580 0.474801 0.893768
0.906446 0.487114 0.886104
0.918243 0.457065 0.862700
0.924372 0.402037 0.836393
0.923246 0.278652 0.805386
0.103366 0.350483 0.891794
0.114709 0.356040 0.893816
0.310639 0.422935 0.893703
0.672119 0.461413 0.893644
0.851894 0.498627 0.894140
0.900141 0.495316 0.881202
0.913990 0.471163 0.856925
0.921467 0.418539 0.832640
0.921332 0.274788 0.802048
0.139172 0.495736 0.893507
0.159549 0.501007 0.894396
0.341152 0.535143 0.894950
0.660779 0.561203 0.894748
0.805440 0.544022 0.879509
0.871580 0.529950 0.858719
0.899969 0.515086 0.838715
0.911602 0.492038 0.820958
0.915004 0.262196 0.787567
0.175670 0.583026 0.869576
0.194663 0.582071 0.867266
0.310084 0.586386 0.859298
0.536205 0.582214 0.846510
0.718622 0.576882 0.833502
0.818746 0.574814 0.822214
0.871035 0.572606 0.812595
0.896443 0.565975 0.803319
0.905178 0.550182 0.781638
0.186080 0.623622 0.816041
0.200260 0.622468 0.813835
0.275114 0.621469 0.807411
0.428605 0.617503 0.798414
0.617665 0.615262 0.788136
0.755882 0.618832 0.782207
0.831857 0.625598 0.779937
0.873428 0.632766 0.777789
0.891461 0.648651 0.766637
0.197835 0.689886 0.795496
0.209861 0.688221 0.791997
0.266186 0.683824 0.781393
0.377996 0.674949 0.766237
0.538988 0.665011 0.751168
0.683904 0.662578 0.743350
0.787820 0.671955 0.746594
0.852290 0.685702 0.752754
0.876683 0.707954 0.752068
0.199748 0.769630 0.786050
0.210621 0.768138 0.783176
0.258710 0.763585 0.774157
0.353820 0.754651 0.761271
0.496911 0.742795 0.747486
0.640008 0.731424 0.734709
0.750181 0.724277 0.724338
0.829336 0.741362 0.736159
0.866425 0.764344 0.742819
0.174034 0.824085 0.782207
0.183251 0.823349 0.779940
0.228463 0.820958 0.772300
0.313537 0.816646 0.761675
0.445309 0.811081 0.750651
0.596296 0.805728 0.741185
0.725437 0.802504 0.734813
0.815199 0.802978 0.732986
0.862594 0.809705 0.740035
0.110535 0.853013 0.759509
0.116999 0.855512 0.758439
0.124379 0.857204 0.754992
0.206265 0.854591 0.767242
0.348370 0.847035 0.755485
0.517621 0.841372 0.747060
0.666243 0.837618 0.741228
0.784603 0.836656 0.738441
0.864318 0.839740 0.746400
0.108122 0.407877 0.926695
0.117244 0.409898 0.926695
0.323520 0.453385 0.924689
0.694079 0.487797 0.924569
0.860834 0.519412 0.924906
0.914263 0.541753 0.922272
0.924065 0.506752 0.902815
0.928652 0.447560 0.886855
0.925611 0.309630 0.855471
0.113395 0.434000 0.926845
0.122889 0.436886 0.926855
0.333461 0.480204 0.925090
0.690041 0.509165 0.924935
0.858817 0.540237 0.925235
0.908657 0.547981 0.917631
0.920151 0.515764 0.899605
0.925860 0.463450 0.884634
0.923749 0.313643 0.852360
0.153386 0.547432 0.927406
0.173168 0.550726 0.927400
0.376873 0.578202 0.926413
0.680383 0.602353 0.926186
0.834679 0.604558 0.918573
0.886870 0.582133 0.903075
0.907070 0.557673 0.889325
0.916380 0.522972 0.877151
0.917764 0.383540 0.842061
0.199136 0.638388 0.917017
0.219008 0.636986 0.915440
0.366937 0.638881 0.909628
0.593517 0.632768 0.901137
0.762415 0.624501 0.891724
0.846109 0.616804 0.882545
0.883322 0.608291 0.873056
0.902199 0.592989 0.859457
0.907620 0.579282 0.839927
0.203517 0.657533 0.881885
0.219500 0.656877 0.880912
0.314853 0.658226 0.877196
0.489143 0.655568 0.869687
0.670664 0.652140 0.860049
0.784770 0.650491 0.851625
0.851554 0.649917 0.844578
0.881333 0.648860 0.838178
0.894822 0.661057 0.827136
0.205814 0.702741 0.851571
0.218552 0.701828 0.850225
0.285779 0.700844 0.845381
0.410217 0.696162 0.837540
0.581360 0.691020 0.829401
0.721558 0.689643 0.823698
0.807512 0.692696 0.820914
0.859737 0.698342 0.819570
0.879662 0.717118 0.814583
0.200156 0.770379 0.834628
0.210725 0.769298 0.833576
0.263596 0.766640 0.830020
0.362616 0.760092 0.823893
0.516869 0.751181 0.816197
0.661747 0.743801 0.809127
0.768733 0.743116 0.805565
0.837896 0.750928 0.806714
0.868185 0.770580 0.805612
0.161427 0.824783 0.824681
0.171056 0.824054 0.823726
0.218907 0.821542 0.820623
0.306739 0.817418 0.816325
0.442745 0.812250 0.811582
0.598277 0.807342 0.806716
0.728520 0.804134 0.802539
0.812776 0.802541 0.798297
0.862683 0.811581 0.802132
0.105880 0.847862 0.802527
0.123677 0.856103 0.802425
0.125977 0.855280 0.803986
0.188472 0.854816 0.807024
0.323703 0.848432 0.803041
0.497699 0.842759 0.799758
0.656596 0.839158 0.797584
0.777951 0.838373 0.796447
0.864125 0.841564 0.806280
0.212714 0.473324 0.942297
0.244224 0.477150 0.942304
0.532733 0.490560 0.942330
0.813670 0.513289 0.942403
0.898681 0.539559 0.942514
0.931056 0.562047 0.942656
0.934901 0.514632 0.934057
0.935192 0.420248 0.923107
0.927582 0.358473 0.900275
0.223389 0.489259 0.942295
0.255682 0.492677 0.942302
0.534232 0.506244 0.942328
0.811940 0.529138 0.942401
0.898119 0.555467 0.942511
0.926702 0.566146 0.940774
0.931594 0.520317 0.932539
0.932926 0.428343 0.920618
0.925745 0.373611 0.903650
0.276486 0.565879 0.942231
0.310820 0.569146 0.942240
0.547777 0.581977 0.942270
0.804764 0.603419 0.942353
0.891990 0.615510 0.941398
0.911326 0.591294 0.934169
0.920102 0.553328 0.924779
0.924207 0.483030 0.912303
0.919612 0.356751 0.897661
0.346998 0.668307 0.940640
0.375809 0.666411 0.939939
0.542445 0.660922 0.937589
0.757824 0.652490 0.933856
0.848052 0.640967 0.928688
0.884569 0.627207 0.918144
0.902680 0.609144 0.908246
0.910787 0.570476 0.899539
0.911156 0.587394 0.892006
0.308865 0.682825 0.917358
0.330794 0.681679 0.916404
0.451395 0.678612 0.913225
0.659560 0.673919 0.908203
0.781833 0.667970 0.902256
0.846783 0.661206 0.896154
0.876910 0.652279 0.890443
0.894859 0.637823 0.885437
0.900114 0.654714 0.881952
0.267869 0.716538 0.892963
0.285267 0.715501 0.892227
0.374985 0.712807 0.889792
0.554741 0.708689 0.886053
0.708307 0.703982 0.881885
0.796758 0.700156 0.877844
0.849913 0.696404 0.874545
0.874810 0.691059 0.870403
0.885714 0.716685 0.868100
0.224833 0.773797 0.879719
0.237471 0.772661 0.879034
0.304524 0.769436 0.876719
0.450421 0.763866 0.872167
0.622462 0.757119 0.865354
0.748685 0.751986 0.859367
0.815495 0.749195 0.855542
0.858211 0.747175 0.853805
0.873424 0.771849 0.853968
0.152694 0.824060 0.870430
0.161151 0.823443 0.869763
0.207535 0.821407 0.867060
0.320096 0.817596 0.862301
0.495672 0.812762 0.856660
0.664395 0.808544 0.851091
0.776590 0.806085 0.846762
0.841311 0.804827 0.844938
0.866145 0.812443 0.845846
0.099215 0.841912 0.826567
0.125891 0.854550 0.836776
0.125204 0.852713 0.834786
0.140525 0.850549 0.831567
0.264731 0.852339 0.848993
0.459312 0.845867 0.848446
0.643058 0.842152 0.845741
0.775164 0.841513 0.844143
0.864149 0.843889 0.843902
