negative-superia-xtra-400/SuperiaXtra400_Classic_Soft.cube
TITLE "Fuji Superia X-tra 400 Classic Soft"
# Adobe RGB in/out. REPLACES AgX. Fuji Superia X-tra 400 Classic Soft.
LUT_3D_SIZE 5
DOMAIN_MIN 0.0 0.0 0.0
DOMAIN_MAX 1.0 1.0 1.0
0.060829 0.068055 0.085817
0.181390 0.077731 0.089664
0.600604 0.099881 0.098425
0.720403 0.120607 0.110934
0.759647 0.166968 0.421203
0.064671 0.124692 0.090846
0.108511 0.139483 0.094621
0.533529 0.169392 0.102849
0.712168 0.215231 0.114459
0.759648 0.166975 0.421200
0.071766 0.453755 0.101313
0.094521 0.486982 0.106827
0.395809 0.500904 0.115330
0.669509 0.521328 0.128641
0.759410 0.533602 0.160707
0.077307 0.656737 0.112649
0.094558 0.664572 0.119452
0.305251 0.673444 0.134954
0.613060 0.676190 0.152011
0.755393 0.686932 0.178032
0.060829 0.730367 0.104568
0.092562 0.755785 0.104608
0.207734 0.760816 0.136161
0.568168 0.757551 0.165922
0.759545 0.762549 0.190338
0.062285 0.075368 0.143759
0.155058 0.085400 0.179345
0.605727 0.107012 0.180892
0.719815 0.128161 0.207342
0.759648 0.166975 0.421244
0.072848 0.124675 0.153444
0.160530 0.155103 0.166573
0.568020 0.181644 0.170688
0.714028 0.227772 0.189885
0.759648 0.166975 0.421201
0.084666 0.446884 0.172494
0.121677 0.468527 0.177173
0.453149 0.489751 0.186928
0.685839 0.520102 0.203246
0.759228 0.538226 0.298090
0.090000 0.654072 0.189706
0.116173 0.660122 0.198237
0.367934 0.668384 0.217331
0.633426 0.673510 0.240624
0.756232 0.686718 0.261529
0.060845 0.735606 0.188447
0.092562 0.760393 0.188442
0.244845 0.760056 0.211364
0.582309 0.757326 0.269698
0.760607 0.762768 0.298903
0.065148 0.093195 0.458210
0.145336 0.106955 0.522792
0.591734 0.131053 0.526384
0.716649 0.169457 0.542620
0.759648 0.166976 0.573017
0.077171 0.155478 0.473910
0.147491 0.178193 0.496806
0.564260 0.222033 0.512535
0.712339 0.278214 0.534186
0.759648 0.166982 0.562284
0.099115 0.453960 0.492203
0.154695 0.470531 0.490109
0.502736 0.505065 0.506831
0.695394 0.528022 0.518997
0.758611 0.553665 0.564907
0.113788 0.653589 0.527175
0.159222 0.658018 0.524561
0.428327 0.665576 0.523415
0.658538 0.672766 0.529363
0.756877 0.688658 0.554634
0.081043 0.753960 0.627342
0.088158 0.760820 0.627341
0.322915 0.758410 0.576158
0.601686 0.757502 0.572614
0.761392 0.764445 0.568115
0.068478 0.127126 0.669670
0.121294 0.153789 0.673789
0.582233 0.193582 0.674625
0.714022 0.241140 0.676580
0.759647 0.166962 0.662883
0.078965 0.210660 0.674177
0.135229 0.244945 0.676658
0.560944 0.297749 0.677399
0.710805 0.343907 0.679182
0.759640 0.166846 0.660436
0.107802 0.484041 0.675815
0.170611 0.499447 0.678343
0.513692 0.524958 0.681724
0.698710 0.544250 0.684598
0.758138 0.573561 0.681963
0.127384 0.658407 0.680906
0.182421 0.662238 0.680806
0.457101 0.669488 0.683423
0.669070 0.677155 0.687300
0.757180 0.693570 0.693317
0.082242 0.755115 0.685279
0.091014 0.763077 0.685427
0.333595 0.761400 0.695676
0.606645 0.760652 0.694856
0.761620 0.767972 0.704114
0.095459 0.192663 0.765120
0.243607 0.206346 0.765210
0.633684 0.248997 0.765707
0.725369 0.276779 0.766930
0.759648 0.215427 0.758260
0.113061 0.274813 0.764941
0.259115 0.289379 0.765047
0.629183 0.328973 0.765589
0.724502 0.356370 0.766800
0.759648 0.231793 0.764798
0.163153 0.509361 0.764744
0.288880 0.515997 0.764970
0.609873 0.531480 0.765604
0.720742 0.543172 0.766774
0.761495 0.569825 0.770776
0.150429 0.664972 0.766134
0.231151 0.667001 0.766358
0.549821 0.671709 0.766979
0.710164 0.676923 0.768058
0.761094 0.694581 0.770745
0.076637 0.750040 0.743097
0.092563 0.764442 0.751242
0.223417 0.771386 0.767563
0.594235 0.767880 0.770985
0.761874 0.772429 0.772076
