negative-superia-xtra-400/SuperiaXtra400_Modern_ExtraSoft.cube
TITLE "Fuji Superia X-tra 400 Modern ExtraSoft"
# Adobe RGB in/out. REPLACES AgX. Fuji Superia X-tra 400 Modern ExtraSoft.
LUT_3D_SIZE 9
DOMAIN_MIN 0.0 0.0 0.0
DOMAIN_MAX 1.0 1.0 1.0
0.055369 0.061977 0.079302
0.131601 0.087082 0.086376
0.392955 0.147290 0.095157
0.538454 0.267408 0.105572
0.625093 0.394590 0.116140
0.681762 0.472539 0.128664
0.717117 0.535350 0.141969
0.746848 0.580334 0.157950
0.772147 0.617564 0.174412
0.066655 0.109421 0.088248
0.102708 0.103504 0.088119
0.314448 0.159507 0.094982
0.515130 0.283749 0.105448
0.610479 0.402316 0.116047
0.675803 0.478608 0.128614
0.713021 0.538957 0.141994
0.743910 0.583342 0.158037
0.769973 0.619236 0.174581
0.089336 0.340997 0.103734
0.143621 0.304684 0.101707
0.281480 0.263475 0.100458
0.459508 0.337377 0.107042
0.575249 0.428405 0.116928
0.658783 0.499355 0.129187
0.700687 0.551357 0.142628
0.734657 0.593800 0.158668
0.762924 0.624737 0.175442
0.121604 0.510341 0.119676
0.181488 0.490855 0.117644
0.333176 0.454693 0.114237
0.449476 0.442955 0.114460
0.546389 0.477070 0.121038
0.629114 0.531002 0.132192
0.685084 0.573218 0.145399
0.721818 0.612249 0.160840
0.752532 0.634400 0.177889
0.161510 0.599750 0.137412
0.221181 0.591509 0.135966
0.368585 0.571219 0.132660
0.472806 0.555095 0.130836
0.544715 0.553225 0.132477
0.609384 0.571069 0.138701
0.671900 0.605238 0.151719
0.709370 0.629214 0.165716
0.741507 0.648218 0.183026
0.210166 0.648687 0.158055
0.264485 0.645752 0.156877
0.391106 0.637514 0.153793
0.488689 0.628705 0.151173
0.553444 0.624080 0.151199
0.609527 0.625595 0.154659
0.663467 0.633868 0.161848
0.699899 0.650144 0.176071
0.732092 0.666021 0.191656
0.259721 0.683070 0.179989
0.302378 0.681356 0.179097
0.404337 0.676227 0.176600
0.497615 0.669929 0.174105
0.558275 0.665370 0.173506
0.613212 0.664475 0.175962
0.663454 0.667729 0.181720
0.693852 0.674596 0.190413
0.725246 0.687210 0.204963
0.301445 0.705884 0.201057
0.333188 0.705157 0.200496
0.415208 0.702903 0.198892
0.501621 0.699930 0.197386
0.559360 0.697492 0.197170
0.613684 0.696633 0.199235
0.663273 0.697882 0.204471
0.693018 0.701234 0.212830
0.721027 0.706333 0.224769
0.333097 0.721890 0.222501
0.359895 0.721519 0.222261
0.424011 0.720354 0.221626
0.502372 0.718795 0.221222
0.557589 0.717533 0.221988
0.610948 0.717228 0.224780
0.661344 0.718311 0.230147
0.690880 0.720913 0.238276
0.718663 0.724916 0.249045
0.055369 0.069571 0.149867
0.137973 0.090527 0.151475
0.392937 0.149543 0.154018
0.532450 0.261356 0.155924
0.618616 0.386174 0.162473
0.678574 0.467242 0.172442
0.714824 0.532373 0.184544
0.745201 0.578119 0.197196
0.770967 0.616508 0.212007
0.065806 0.104748 0.130812
0.089166 0.094201 0.111377
0.299957 0.154458 0.132830
0.507108 0.272745 0.146430
0.603443 0.395545 0.158053
0.672554 0.473007 0.169517
0.710720 0.535906 0.182951
0.742270 0.581103 0.196323
0.768802 0.618179 0.211423
0.087224 0.318884 0.155936
0.132744 0.274095 0.140336
0.248139 0.235741 0.126216
0.442524 0.319334 0.134781
0.567325 0.419299 0.149058
0.653265 0.492984 0.163264
0.698396 0.548122 0.178918
0.733054 0.591506 0.194059
0.761792 0.623748 0.210069
0.117016 0.495597 0.168499
0.172360 0.476780 0.160847
0.317515 0.440767 0.146582
0.436101 0.429748 0.139737
0.539508 0.467792 0.146521
0.624062 0.526197 0.160435
0.682929 0.569912 0.176311
0.720318 0.609958 0.192604
0.751483 0.633443 0.209481
0.157266 0.593311 0.183952
0.214937 0.585217 0.179394
0.360069 0.565075 0.168036
0.465539 0.548958 0.159976
0.539797 0.547616 0.158001
0.605601 0.567049 0.163860
0.670111 0.602254 0.178860
0.708082 0.627938 0.194583
0.740600 0.647353 0.211836
0.207107 0.646330 0.200239
0.260307 0.643427 0.197427
0.387909 0.635248 0.190491
0.484699 0.626465 0.183180
0.550693 0.621917 0.179383
0.606855 0.623685 0.180640
0.662211 0.632508 0.187633
0.698928 0.649138 0.202014
0.731389 0.665324 0.219304
0.257328 0.681655 0.219237
0.300151 0.679959 0.217423
0.402451 0.674874 0.212100
0.495354 0.668621 0.206338
0.556739 0.664116 0.202657
0.611661 0.663324 0.202814
0.662596 0.666758 0.207277
0.693227 0.673930 0.216091
0.724778 0.686738 0.232266
0.300150 0.705262 0.237922
0.331772 0.704542 0.236942
0.414099 0.702311 0.233989
0.500596 0.699368 0.230380
0.558519 0.696966 0.228016
0.612843 0.696157 0.228417
0.662803 0.697478 0.232351
0.692637 0.700926 0.239869
0.720755 0.706132 0.250547
0.332310 0.721553 0.254497
0.359054 0.721186 0.254049
0.423395 0.720036 0.252721
0.501936 0.718502 0.251241
0.557160 0.717270 0.250746
0.610540 0.717004 0.252248
0.661129 0.718136 0.256508
0.690722 0.720799 0.263754
0.718575 0.724871 0.273867
0.055369 0.080392 0.390834
0.137973 0.096550 0.391947
0.400776 0.162329 0.395921
0.541841 0.283866 0.384126
0.617534 0.389919 0.359424
0.675790 0.464671 0.349983
0.711664 0.529197 0.347453
0.742299 0.574808 0.348259
0.768523 0.614576 0.350951
0.068912 0.131725 0.392984
0.141026 0.148107 0.386576
0.356237 0.191660 0.344815
0.512619 0.288887 0.335051
0.600657 0.395763 0.334910
0.669333 0.469296 0.336915
0.707390 0.532343 0.339890
0.739307 0.577617 0.343656
0.766344 0.616202 0.348074
0.082845 0.266456 0.312071
0.117666 0.237308 0.267003
0.193765 0.187676 0.191737
0.427197 0.305963 0.242952
0.558917 0.411349 0.279773
0.645708 0.485537 0.303099
0.694545 0.543339 0.318618
0.729915 0.587476 0.330038
0.759301 0.621764 0.339299
0.110029 0.464334 0.338398
0.154253 0.448508 0.314386
0.287778 0.414554 0.261142
0.408173 0.402865 0.228203
0.526344 0.450973 0.244769
0.614365 0.517490 0.272893
0.678533 0.563606 0.295895
0.717022 0.605255 0.313875
0.749002 0.631327 0.328225
0.148881 0.577378 0.349539
0.201142 0.569984 0.336845
0.340299 0.550883 0.303527
0.448415 0.534725 0.271102
0.527687 0.534110 0.254716
0.596604 0.557771 0.262493
0.665790 0.595315 0.283508
0.704895 0.624906 0.303066
0.738274 0.645235 0.320049
0.198780 0.639903 0.354241
0.249078 0.637154 0.347296
0.376437 0.629297 0.327238
0.474249 0.620673 0.303681
0.543218 0.616035 0.286320
0.599580 0.618511 0.279331
0.658287 0.628952 0.284780
0.696289 0.646479 0.301869
0.729444 0.663464 0.318521
0.250367 0.677546 0.357112
0.293681 0.675923 0.353249
0.397019 0.671028 0.341457
0.488928 0.664959 0.326070
0.552370 0.660606 0.312716
0.607198 0.660064 0.305108
0.660091 0.663974 0.304321
0.691424 0.672058 0.310092
0.723410 0.685401 0.324775
0.296177 0.703370 0.359296
0.327438 0.702679 0.357194
0.410723 0.700532 0.350571
0.496738 0.697700 0.341415
0.555990 0.695414 0.332841
0.610310 0.694749 0.327432
0.661375 0.696278 0.326546
0.691468 0.700007 0.330330
0.719917 0.705531 0.338110
0.329799 0.720489 0.360734
0.356379 0.720139 0.359694
0.421439 0.719045 0.356381
0.500218 0.717593 0.351736
0.555812 0.716463 0.347426
0.609261 0.716320 0.345060
0.660453 0.717604 0.345716
0.690223 0.720455 0.349816
0.718297 0.724739 0.357211
0.055369 0.094368 0.576073
0.137973 0.110694 0.576522
0.400776 0.180075 0.578133
0.555790 0.319409 0.580428
0.631593 0.413220 0.553019
0.678866 0.475477 0.526652
0.711849 0.532183 0.511361
0.741161 0.575162 0.501273
0.766896 0.613987 0.493843
0.068912 0.147925 0.576942
0.143974 0.167938 0.577390
0.403741 0.247273 0.578996
0.541042 0.343839 0.561019
0.613833 0.416440 0.531156
0.671984 0.479036 0.514545
0.707321 0.534820 0.504213
0.738039 0.577680 0.496834
0.764659 0.615512 0.490984
0.083448 0.287637 0.511384
0.129248 0.281794 0.494731
0.292909 0.292777 0.467220
0.460480 0.350967 0.465003
0.566851 0.425489 0.474642
0.647077 0.490935 0.480533
0.693541 0.543973 0.482997
0.728196 0.586534 0.483152
0.757421 0.620801 0.481947
0.103754 0.437894 0.488847
0.143193 0.426824 0.473564
0.264782 0.399385 0.420370
0.375392 0.366844 0.359135
0.520589 0.445913 0.405824
0.609867 0.514612 0.434719
0.675915 0.561034 0.452933
0.714590 0.602691 0.463617
0.746838 0.629891 0.469331
0.139803 0.558965 0.495708
0.185565 0.552843 0.486825
0.319330 0.536117 0.458353
0.430002 0.519946 0.419212
0.513452 0.518824 0.396124
0.587604 0.549162 0.407995
0.661695 0.589422 0.428048
0.701819 0.622332 0.443320
0.735894 0.643356 0.453758
0.188033 0.631594 0.495639
0.234867 0.629159 0.490549
0.360309 0.622035 0.475095
0.461638 0.613509 0.450002
0.533980 0.606634 0.427443
0.590372 0.611217 0.415928
0.651698 0.624965 0.420037
0.693195 0.643578 0.433167
0.727150 0.661461 0.444328
0.240789 0.671903 0.491001
0.284726 0.670424 0.488072
0.389643 0.665923 0.478834
0.480439 0.660251 0.464582
0.546565 0.656151 0.447769
0.601266 0.655872 0.435988
0.654756 0.660349 0.431004
0.689082 0.669767 0.433304
0.721622 0.683781 0.442608
0.290378 0.700648 0.484231
0.321136 0.700011 0.482576
0.405852 0.698028 0.477228
0.491278 0.695406 0.469264
0.552453 0.693321 0.458260
0.606774 0.692858 0.449587
0.659143 0.694656 0.444846
0.689808 0.698766 0.444316
0.718750 0.704760 0.447290
0.325965 0.718901 0.476465
0.352302 0.718582 0.475589
0.418474 0.717585 0.472724
0.496998 0.716279 0.467957
0.553815 0.715319 0.461761
0.607379 0.715364 0.456771
0.659300 0.716872 0.454113
0.689486 0.719995 0.454254
0.717887 0.724589 0.457045
0.055369 0.114390 0.663761
0.137973 0.132235 0.663892
0.400776 0.207738 0.664364
0.555790 0.339986 0.665226
0.652862 0.447277 0.662246
0.686720 0.498314 0.635330
0.715778 0.542083 0.617218
0.742594 0.580501 0.604664
0.766901 0.615620 0.595178
0.068912 0.172949 0.664015
0.143974 0.194556 0.664146
0.403741 0.273221 0.664617
0.556849 0.388095 0.665478
0.635723 0.450947 0.648622
0.679799 0.501540 0.626554
0.711108 0.544372 0.611790
0.739356 0.582746 0.601191
0.764592 0.617025 0.592888
0.088120 0.367858 0.658015
0.154624 0.370999 0.651412
0.370771 0.388021 0.634763
0.509540 0.417616 0.618783
0.588690 0.459985 0.607850
0.658852 0.511512 0.600610
0.696649 0.552102 0.595097
0.729053 0.590587 0.590216
0.757092 0.621827 0.585512
0.102715 0.439473 0.596864
0.143834 0.434862 0.590297
0.289833 0.426306 0.569789
0.430525 0.434451 0.549531
0.537012 0.473669 0.552619
0.616907 0.525060 0.562914
0.677328 0.565959 0.569749
0.714509 0.604795 0.572647
0.746032 0.630229 0.572450
0.132355 0.544776 0.589761
0.173462 0.540302 0.584597
0.305309 0.527495 0.563195
0.419550 0.512038 0.528667
0.497878 0.499651 0.496512
0.584289 0.547629 0.521419
0.660242 0.588865 0.538921
0.700398 0.621904 0.549910
0.734483 0.642824 0.555798
0.177216 0.623262 0.589289
0.220771 0.621253 0.586070
0.344735 0.614958 0.574111
0.449894 0.604077 0.551783
0.525013 0.596548 0.529279
0.580691 0.600911 0.516681
0.645873 0.621814 0.523493
0.690688 0.641627 0.534762
0.725289 0.660198 0.542819
0.230247 0.665720 0.585731
0.272599 0.664448 0.583784
0.379773 0.660529 0.576543
0.471464 0.655483 0.562412
0.540443 0.651738 0.546803
0.594936 0.651613 0.534535
0.648668 0.656593 0.528595
0.686718 0.667683 0.530686
0.719861 0.682408 0.537212
0.283249 0.697518 0.579628
0.313784 0.696960 0.578052
0.400203 0.695217 0.572220
0.485084 0.692909 0.563441
0.548483 0.690636 0.553404
0.602860 0.690335 0.544405
0.655422 0.692956 0.538623
0.687942 0.697478 0.536544
0.717637 0.704172 0.537838
0.321284 0.717018 0.568044
0.347337 0.716742 0.567060
0.414878 0.715884 0.563800
0.493149 0.714784 0.558784
0.551463 0.714055 0.552605
0.605192 0.714340 0.547108
0.657399 0.716110 0.543376
0.688637 0.719545 0.541900
0.717424 0.724503 0.542561
0.055369 0.145476 0.720226
0.137973 0.165153 0.720313
0.400776 0.244593 0.720627
0.555790 0.366854 0.721202
0.659709 0.469265 0.722057
0.696186 0.524424 0.703948
0.722009 0.556967 0.684701
0.746111 0.590186 0.670711
0.768481 0.619444 0.660038
0.068912 0.209987 0.720395
0.143974 0.232581 0.720482
0.403741 0.307639 0.720795
0.556849 0.407076 0.721369
0.657254 0.489821 0.720120
0.689564 0.526913 0.697042
0.717375 0.559148 0.680218
0.742831 0.592263 0.667744
0.766123 0.620669 0.657625
0.089336 0.403735 0.721000
0.167474 0.413602 0.721087
0.414165 0.446893 0.721399
0.538979 0.469857 0.704916
0.612876 0.501578 0.688906
0.669493 0.534295 0.676077
0.702832 0.566321 0.666148
0.732294 0.599429 0.657875
0.758419 0.624972 0.648835
0.107647 0.473917 0.677152
0.156568 0.473724 0.674225
0.332540 0.476297 0.666071
0.475479 0.489391 0.656752
0.562196 0.516949 0.649116
0.633030 0.545685 0.645100
0.682738 0.578492 0.642356
0.717076 0.612137 0.639428
0.746908 0.632695 0.635833
0.129760 0.542900 0.650637
0.170415 0.540481 0.646615
0.308307 0.534028 0.634375
0.433567 0.529562 0.619141
0.524241 0.537413 0.610115
0.595647 0.563432 0.612172
0.663447 0.597275 0.617366
0.701608 0.624700 0.620915
0.734608 0.644261 0.622188
0.168609 0.616895 0.644139
0.210286 0.615300 0.641156
0.333535 0.609112 0.631562
0.442897 0.599721 0.617534
0.520263 0.592695 0.602625
0.571180 0.591361 0.589776
0.643896 0.621709 0.600103
0.689913 0.641935 0.607186
0.724501 0.660396 0.611347
0.220195 0.659964 0.640057
0.261095 0.658936 0.638138
0.368138 0.655737 0.631856
0.463355 0.651525 0.622387
0.535075 0.648257 0.612026
0.589081 0.647995 0.603245
0.642564 0.653066 0.598717
0.684713 0.666266 0.601428
0.718504 0.681726 0.605479
0.274509 0.694350 0.633551
0.306143 0.693888 0.632376
0.394354 0.692412 0.628484
0.478817 0.689868 0.622476
0.544499 0.687954 0.615682
0.599021 0.687986 0.609566
0.651692 0.691028 0.605343
0.686046 0.696310 0.603634
0.716590 0.703784 0.604513
0.316161 0.715036 0.624836
0.341914 0.714812 0.624162
0.410958 0.714125 0.621909
0.489014 0.713280 0.618378
0.548960 0.712834 0.614300
0.602923 0.713396 0.610526
0.655445 0.715445 0.607763
0.687770 0.719204 0.606395
0.716973 0.724546 0.606373
0.055369 0.188892 0.766951
0.137973 0.212115 0.766994
0.400776 0.289765 0.767150
0.555790 0.397957 0.767435
0.659709 0.486536 0.767860
0.704781 0.546748 0.760712
0.728729 0.574235 0.737376
0.750649 0.602668 0.719410
0.771100 0.624595 0.705421
0.068912 0.256073 0.767035
0.143974 0.277398 0.767078
0.403741 0.343236 0.767233
0.556849 0.427448 0.767518
0.660113 0.509985 0.767943
0.698629 0.549533 0.753998
0.724267 0.576470 0.732716
0.747409 0.604683 0.716235
0.768734 0.625755 0.703233
0.089336 0.424301 0.767335
0.167474 0.433603 0.767378
0.414165 0.465177 0.767533
0.560277 0.516503 0.767623
0.633402 0.534950 0.750590
0.679710 0.557724 0.732675
0.710117 0.583701 0.717919
0.736917 0.611559 0.705950
0.760958 0.629810 0.696046
0.114062 0.518763 0.741699
0.176600 0.519626 0.739368
0.373424 0.523491 0.732158
0.508320 0.532564 0.722313
0.584719 0.548146 0.712496
0.651061 0.569708 0.704015
0.690121 0.595491 0.696933
0.721485 0.619781 0.690804
0.749181 0.637017 0.685172
0.133155 0.556626 0.702140
0.177923 0.556011 0.700150
0.327452 0.555123 0.694072
0.459162 0.557683 0.686334
0.545896 0.567932 0.680200
0.613059 0.587161 0.677046
0.670136 0.612787 0.675786
0.705245 0.630530 0.674820
0.736291 0.647706 0.673295
0.164509 0.615175 0.687221
0.205975 0.614216 0.685409
0.331053 0.610570 0.679545
0.445583 0.605903 0.670979
0.527256 0.605258 0.662475
0.587743 0.614254 0.657454
0.651344 0.628646 0.659023
0.691930 0.645722 0.661632
0.725218 0.662548 0.663135
0.212389 0.655757 0.681733
0.251952 0.654999 0.680432
0.359279 0.652638 0.676118
0.457856 0.649537 0.669437
0.532123 0.647176 0.661775
0.586117 0.646989 0.652962
0.636729 0.649985 0.645371
0.684047 0.666684 0.651737
0.718068 0.682340 0.655748
0.266329 0.691204 0.676618
0.298974 0.690729 0.675783
0.388900 0.689249 0.672991
0.473156 0.687326 0.668595
0.541048 0.685990 0.663464
0.595787 0.686369 0.658404
0.648367 0.689487 0.653519
0.684232 0.695372 0.651491
0.715735 0.703711 0.653066
0.310979 0.713145 0.669970
0.336437 0.712979 0.669475
0.407004 0.712483 0.667814
0.484902 0.711926 0.665177
0.546485 0.711800 0.662071
0.600765 0.712662 0.659086
0.653613 0.714987 0.656066
0.686965 0.719050 0.654503
0.716591 0.724774 0.654409
0.055369 0.246954 0.795835
0.137973 0.267774 0.795865
0.400776 0.336032 0.795972
0.555790 0.423334 0.796168
0.659709 0.506673 0.796462
0.711295 0.568066 0.794186
0.734612 0.591844 0.777405
0.755152 0.615153 0.763226
0.774052 0.630616 0.747625
0.068912 0.309581 0.795892
0.143974 0.326580 0.795922
0.403741 0.384392 0.796029
0.556849 0.450835 0.796226
0.660113 0.525309 0.796519
0.705680 0.571150 0.789920
0.730399 0.594198 0.774398
0.752013 0.616469 0.760947
0.771717 0.631740 0.745314
0.089336 0.447888 0.796099
0.167474 0.456610 0.796129
0.414165 0.486391 0.796236
0.560609 0.530315 0.796432
0.648610 0.561378 0.789912
0.688169 0.580244 0.776490
0.716916 0.601751 0.764177
0.741780 0.620821 0.750539
0.764002 0.635645 0.737676
0.120826 0.550549 0.786727
0.193829 0.551606 0.785304
0.398750 0.555626 0.780655
0.526228 0.563613 0.773606
0.602719 0.576160 0.765108
0.664160 0.593128 0.755105
0.697497 0.613457 0.744140
0.726503 0.627879 0.734496
0.752179 0.642516 0.725955
0.139708 0.579162 0.752851
0.190646 0.579430 0.751365
0.351418 0.580983 0.746621
0.483441 0.585666 0.739817
0.563539 0.595329 0.732759
0.629188 0.610595 0.726604
0.677536 0.624115 0.721516
0.710028 0.638032 0.717082
0.738974 0.652581 0.712826
0.165941 0.619690 0.727376
0.208527 0.619357 0.726033
0.338284 0.618529 0.721692
0.456692 0.618500 0.715407
0.539421 0.621110 0.709188
0.602076 0.627781 0.704858
0.661443 0.638635 0.702828
0.695935 0.652104 0.701980
0.727219 0.666423 0.701067
0.208095 0.654289 0.716446
0.246851 0.653825 0.715341
0.355222 0.652426 0.711663
0.456857 0.650805 0.705936
0.533541 0.650237 0.699415
0.590547 0.652289 0.693709
0.646695 0.659046 0.690870
0.686493 0.671058 0.691514
0.718996 0.684772 0.692714
0.259573 0.688501 0.709993
0.293060 0.688174 0.709234
0.384255 0.687173 0.706677
0.468893 0.685952 0.702595
0.538778 0.685342 0.697727
0.594057 0.686260 0.692953
0.646712 0.689472 0.689054
0.682589 0.694747 0.686587
0.715420 0.704273 0.688858
0.306113 0.711540 0.703199
0.331304 0.711435 0.702736
0.403310 0.711139 0.701171
0.481132 0.710887 0.698662
0.544285 0.711103 0.695665
0.598929 0.712281 0.692760
0.652108 0.714863 0.690501
0.686305 0.719165 0.689311
0.716328 0.725238 0.689333
0.055369 0.310380 0.821412
0.137973 0.327358 0.821435
0.400776 0.385110 0.821517
0.555790 0.451241 0.821669
0.659709 0.525548 0.821895
0.714937 0.586753 0.822200
0.738952 0.608545 0.805115
0.758861 0.623700 0.790384
0.776705 0.636875 0.778090
0.068912 0.360478 0.821456
0.143974 0.376286 0.821479
0.403741 0.418447 0.821562
0.556849 0.476812 0.821713
0.660113 0.540692 0.821939
0.710307 0.590787 0.818537
0.735028 0.611024 0.802211
0.755863 0.624947 0.788279
0.774431 0.637980 0.776564
0.089336 0.474060 0.821616
0.167474 0.482211 0.821639
0.414165 0.510198 0.821721
0.560609 0.545411 0.821872
0.658493 0.584362 0.819984
0.694295 0.600662 0.805802
0.722355 0.616862 0.792773
0.746027 0.629133 0.781338
0.766881 0.641801 0.771441
0.126430 0.578110 0.818956
0.206254 0.579159 0.817572
0.413657 0.582957 0.812943
0.538813 0.590005 0.805599
0.615990 0.600522 0.796735
0.671756 0.613906 0.787519
0.703766 0.624526 0.778731
0.731142 0.636101 0.770631
0.755189 0.648457 0.762933
0.146413 0.603207 0.787317
0.203421 0.603767 0.786471
0.373345 0.606024 0.783656
0.502651 0.610946 0.779245
0.577429 0.617184 0.774011
0.642487 0.624905 0.768405
0.684137 0.634616 0.762944
0.714745 0.645896 0.756847
0.741897 0.658080 0.750062
0.171239 0.628185 0.765865
0.215707 0.628219 0.765154
0.350802 0.628568 0.762815
0.470174 0.629977 0.758834
0.550818 0.633417 0.753186
0.614020 0.639553 0.748050
0.667685 0.648373 0.743842
0.700275 0.659219 0.740341
0.729734 0.671173 0.737061
0.207506 0.656216 0.750779
0.246552 0.656035 0.749896
0.356692 0.655583 0.746955
0.460507 0.655462 0.742383
0.538445 0.656689 0.737221
0.598021 0.660375 0.732699
0.655145 0.667255 0.729714
0.690051 0.677037 0.728207
0.720775 0.688440 0.727238
0.254994 0.687388 0.741413
0.289106 0.687211 0.740751
0.380040 0.686709 0.738516
0.466771 0.686266 0.734924
0.538290 0.686576 0.730612
0.594746 0.688446 0.726395
0.648884 0.692651 0.723119
0.685200 0.698241 0.721645
0.716165 0.705939 0.721763
0.301910 0.710410 0.733946
0.326885 0.710365 0.733525
0.400157 0.710268 0.732099
0.478014 0.710325 0.729795
0.542571 0.710897 0.727010
0.597646 0.712406 0.724269
0.651210 0.715245 0.722088
0.685956 0.719711 0.720890
0.716230 0.725981 0.720964
