negative-superia-xtra-400/SuperiaXtra400_Classic_Punchy.cube
TITLE "Fuji Superia X-tra 400 Classic Punchy"
# Adobe RGB in/out. REPLACES AgX. Fuji Superia X-tra 400 Classic Punchy.
LUT_3D_SIZE 5
DOMAIN_MIN 0.0 0.0 0.0
DOMAIN_MAX 1.0 1.0 1.0
0.069654 0.083313 0.079745
0.147939 0.087707 0.079765
0.504440 0.137879 0.080265
0.796898 0.322924 0.083372
0.921526 0.571356 0.090729
0.073365 0.109715 0.079835
0.155355 0.125703 0.079920
0.511701 0.214549 0.080804
0.798656 0.416753 0.084899
0.922051 0.622932 0.092407
0.093836 0.407404 0.082049
0.185992 0.435033 0.082614
0.532368 0.519171 0.085145
0.804902 0.635999 0.090023
0.923924 0.756062 0.100419
0.137186 0.743678 0.091121
0.242313 0.754994 0.091990
0.567132 0.794409 0.096046
0.816125 0.829926 0.103948
0.927316 0.874681 0.120108
0.218416 0.899503 0.116454
0.321617 0.902138 0.118320
0.616936 0.911355 0.124899
0.832309 0.927151 0.136498
0.932264 0.939637 0.162278
0.069654 0.083407 0.114600
0.147939 0.088682 0.116481
0.504440 0.140685 0.123112
0.796898 0.326878 0.134817
0.921526 0.573866 0.159632
0.073365 0.111534 0.118224
0.155355 0.128419 0.120075
0.511701 0.218210 0.126606
0.798656 0.420225 0.138319
0.922051 0.624609 0.164938
0.093836 0.410880 0.130794
0.185992 0.438441 0.132548
0.532368 0.521711 0.139224
0.804902 0.637644 0.156934
0.923924 0.757460 0.184991
0.137186 0.745097 0.161180
0.242313 0.756393 0.163912
0.567132 0.795594 0.174249
0.816125 0.830550 0.193388
0.927316 0.875053 0.221931
0.218416 0.899833 0.216176
0.321617 0.902464 0.219102
0.616936 0.911668 0.229638
0.832309 0.927317 0.249128
0.932264 0.939785 0.278788
0.069654 0.085008 0.504525
0.147939 0.092500 0.506735
0.504440 0.151457 0.514657
0.796898 0.341117 0.529154
0.921526 0.582849 0.550659
0.073365 0.118570 0.508798
0.155355 0.137984 0.511004
0.511701 0.231384 0.518909
0.798656 0.432505 0.533377
0.922051 0.630598 0.554308
0.093836 0.423323 0.524077
0.185992 0.450669 0.526267
0.532368 0.530794 0.534115
0.804902 0.643522 0.548482
0.923924 0.762460 0.567141
0.137186 0.750173 0.551784
0.242313 0.761399 0.553643
0.567132 0.798093 0.560299
0.816125 0.832784 0.572452
0.927316 0.876386 0.590401
0.218416 0.901015 0.586865
0.321617 0.903633 0.588672
0.616936 0.912787 0.595090
0.832309 0.927912 0.606815
0.932264 0.940319 0.624163
0.069654 0.091118 0.833918
0.147939 0.100995 0.834510
0.504440 0.170837 0.836631
0.796898 0.367458 0.840503
0.921526 0.599255 0.846225
0.073365 0.134252 0.835063
0.155355 0.157547 0.835653
0.511701 0.255755 0.837768
0.798656 0.455006 0.841629
0.922051 0.641484 0.847334
0.093836 0.445856 0.839148
0.185992 0.473109 0.839733
0.532368 0.547355 0.841825
0.804902 0.654210 0.845647
0.923924 0.771581 0.851294
0.137186 0.759432 0.846556
0.242313 0.770533 0.847129
0.567132 0.802638 0.849183
0.816125 0.836851 0.852933
0.927316 0.878816 0.858473
0.218416 0.903173 0.857377
0.321617 0.905767 0.857935
0.616936 0.914832 0.859931
0.832309 0.929000 0.863579
0.932264 0.941294 0.868973
0.069654 0.103936 0.942629
0.147939 0.119049 0.942724
0.504440 0.202908 0.943067
0.796898 0.405688 0.943694
0.921526 0.617566 0.944624
0.073365 0.163016 0.942814
0.155355 0.186305 0.942909
0.511701 0.292727 0.943251
0.798656 0.485537 0.943877
0.922051 0.657459 0.944805
0.093836 0.478505 0.943475
0.185992 0.499366 0.943569
0.532368 0.571817 0.943909
0.804902 0.669906 0.944530
0.923924 0.785043 0.945451
0.137186 0.773089 0.944678
0.242313 0.784011 0.944771
0.567132 0.809310 0.945106
0.816125 0.842839 0.945719
0.927316 0.882397 0.946627
0.218416 0.906365 0.946447
0.321617 0.908920 0.946539
0.616936 0.917854 0.946867
0.832309 0.930607 0.947468
0.932264 0.942736 0.948359
