negative-superia-xtra-400/SuperiaXtra400_Classic_ExtraPunchy.cube
TITLE "Fuji Superia X-tra 400 Classic ExtraPunchy"
# Adobe RGB in/out. REPLACES AgX. Fuji Superia X-tra 400 Classic ExtraPunchy.
LUT_3D_SIZE 9
DOMAIN_MIN 0.0 0.0 0.0
DOMAIN_MAX 1.0 1.0 1.0
0.069662 0.073299 0.081842
0.088177 0.083265 0.078325
0.184350 0.108244 0.079865
0.342197 0.156032 0.081585
0.484551 0.220549 0.085382
0.587859 0.303324 0.091201
0.660952 0.385221 0.098979
0.714153 0.458109 0.111096
0.763687 0.528756 0.125318
0.069526 0.097645 0.078746
0.090235 0.104368 0.079182
0.186548 0.129223 0.080457
0.343558 0.175372 0.082240
0.485333 0.240492 0.086192
0.588271 0.318931 0.092036
0.661183 0.398568 0.099805
0.714331 0.467384 0.112154
0.763829 0.536758 0.126400
0.075233 0.173339 0.081082
0.096858 0.179330 0.081313
0.194352 0.203084 0.082371
0.348409 0.247046 0.084935
0.488131 0.306103 0.089107
0.589749 0.371205 0.095229
0.662013 0.436281 0.104165
0.714970 0.499219 0.116004
0.764339 0.556634 0.130190
0.085794 0.300354 0.085630
0.111992 0.305606 0.086047
0.208515 0.323993 0.087420
0.357203 0.356102 0.090489
0.493225 0.400777 0.094942
0.592446 0.445956 0.101499
0.663530 0.497044 0.111594
0.716142 0.548362 0.123627
0.765275 0.589825 0.137427
0.105903 0.431229 0.093941
0.133337 0.434517 0.094455
0.231216 0.446120 0.096225
0.370055 0.466681 0.099215
0.500717 0.495778 0.105118
0.596429 0.532465 0.112748
0.665778 0.564421 0.122685
0.717882 0.598005 0.134004
0.766667 0.633788 0.149553
0.134793 0.544954 0.107943
0.160744 0.546773 0.108521
0.260908 0.553217 0.110553
0.386894 0.564719 0.114126
0.510614 0.581151 0.120039
0.601718 0.602065 0.127669
0.668776 0.626848 0.137137
0.720210 0.650829 0.150285
0.768534 0.674427 0.165397
0.169327 0.626792 0.126795
0.197273 0.628195 0.127348
0.291718 0.633186 0.129307
0.407528 0.640988 0.132814
0.522847 0.651120 0.138779
0.608199 0.664176 0.147272
0.672524 0.679849 0.157558
0.723136 0.697126 0.170491
0.770887 0.715692 0.188491
0.215126 0.689647 0.150784
0.243842 0.690453 0.151393
0.325038 0.693328 0.153567
0.431692 0.698530 0.157506
0.537299 0.706106 0.163677
0.615858 0.715983 0.172185
0.677009 0.727999 0.184683
0.726657 0.741643 0.199586
0.773050 0.753773 0.216815
0.270075 0.742834 0.181930
0.291579 0.743339 0.182661
0.359764 0.745140 0.185276
0.459090 0.748410 0.190058
0.553818 0.753196 0.197137
0.624672 0.759476 0.206573
0.682207 0.767173 0.218373
0.730763 0.776175 0.232727
0.775406 0.786343 0.249776
0.069662 0.073407 0.093425
0.088177 0.084272 0.093949
0.184350 0.109049 0.095750
0.342197 0.156878 0.098789
0.484551 0.221363 0.104515
0.587859 0.303978 0.112217
0.660952 0.385777 0.122113
0.714153 0.458495 0.133495
0.763687 0.529088 0.148946
0.069526 0.098520 0.094428
0.090235 0.105252 0.094933
0.186548 0.130252 0.096674
0.343558 0.176121 0.099620
0.485333 0.241331 0.105693
0.588271 0.319562 0.113256
0.661183 0.399112 0.123232
0.714331 0.467762 0.134492
0.763829 0.537085 0.150134
0.075233 0.174097 0.097759
0.096858 0.180062 0.098208
0.194352 0.203940 0.099763
0.348409 0.247874 0.103893
0.488131 0.306753 0.109742
0.589749 0.371775 0.117270
0.662013 0.436687 0.127145
0.714970 0.499572 0.138976
0.764339 0.556853 0.154344
0.085794 0.301012 0.104868
0.111992 0.306257 0.105477
0.208515 0.324618 0.107612
0.357203 0.356688 0.111354
0.493225 0.401318 0.116916
0.592446 0.446353 0.124793
0.663530 0.497399 0.133963
0.716142 0.548587 0.147102
0.765275 0.590021 0.162149
0.105903 0.431640 0.115697
0.133337 0.434925 0.116319
0.231216 0.446517 0.118518
0.370055 0.467060 0.122432
0.500717 0.496133 0.127999
0.596429 0.532795 0.135136
0.665778 0.564634 0.146081
0.717882 0.598196 0.158650
0.766667 0.633960 0.174666
0.134793 0.545182 0.130565
0.160744 0.546999 0.131097
0.260908 0.553438 0.132985
0.386894 0.564932 0.136850
0.510614 0.581353 0.143237
0.601718 0.602254 0.151536
0.668776 0.627023 0.161869
0.720210 0.650954 0.175551
0.768534 0.674541 0.193480
0.169327 0.626968 0.150571
0.197273 0.628369 0.151181
0.291718 0.633358 0.153357
0.407528 0.641118 0.157300
0.522847 0.651245 0.163457
0.608199 0.664294 0.171925
0.672524 0.679960 0.184429
0.723136 0.697223 0.199338
0.770887 0.715783 0.216575
0.215126 0.689747 0.176153
0.243842 0.690554 0.176892
0.325038 0.693427 0.179535
0.431692 0.698627 0.184365
0.537299 0.706200 0.191514
0.615858 0.716073 0.201037
0.677009 0.728085 0.212939
0.726657 0.741707 0.227213
0.773050 0.753832 0.244373
0.270075 0.742897 0.210314
0.291579 0.743402 0.211010
0.359764 0.745202 0.213505
0.459090 0.748471 0.218072
0.553818 0.753256 0.224845
0.624672 0.759534 0.234158
0.682207 0.767229 0.245930
0.730763 0.776228 0.260098
0.775406 0.786394 0.276640
0.069662 0.079309 0.178613
0.088177 0.087365 0.179347
0.184350 0.111818 0.181979
0.342197 0.159879 0.186788
0.484551 0.224275 0.193907
0.587859 0.306318 0.203392
0.660952 0.387770 0.215251
0.714153 0.459878 0.229558
0.763687 0.530279 0.246670
0.069526 0.101454 0.180033
0.090235 0.108277 0.180766
0.186548 0.133881 0.183390
0.343558 0.178785 0.188187
0.485333 0.244332 0.195289
0.588271 0.321825 0.204753
0.661183 0.401059 0.216587
0.714331 0.469117 0.230913
0.763829 0.538002 0.247998
0.075233 0.176794 0.185104
0.096858 0.182666 0.185831
0.194352 0.206996 0.188432
0.348409 0.250838 0.193187
0.488131 0.309078 0.200229
0.589749 0.373818 0.209618
0.662013 0.438143 0.221364
0.714970 0.500837 0.235765
0.764339 0.557636 0.252754
0.085794 0.303367 0.194319
0.111992 0.308585 0.195034
0.208515 0.326857 0.197594
0.357203 0.358789 0.202277
0.493225 0.403038 0.209216
0.592446 0.447776 0.218474
0.663530 0.498670 0.230193
0.716142 0.549392 0.244619
0.765275 0.590725 0.261439
0.105903 0.433114 0.207842
0.133337 0.436387 0.208541
0.231216 0.447939 0.211046
0.370055 0.468417 0.215630
0.500717 0.497408 0.222427
0.596429 0.533977 0.231685
0.665778 0.565397 0.243490
0.717882 0.598882 0.257698
0.766667 0.634575 0.274281
0.134793 0.545997 0.225670
0.160744 0.547809 0.226350
0.260908 0.554230 0.228869
0.386894 0.565695 0.233497
0.510614 0.582076 0.240371
0.601718 0.602931 0.249573
0.668776 0.627651 0.261140
0.720210 0.651404 0.275078
0.768534 0.674950 0.291370
0.169327 0.627596 0.248488
0.197273 0.628995 0.249173
0.291718 0.633974 0.251632
0.407528 0.641586 0.256139
0.522847 0.651694 0.262838
0.608199 0.664720 0.271816
0.672524 0.680360 0.283114
0.723136 0.697573 0.296746
0.770887 0.716107 0.310687
0.215126 0.690109 0.275622
0.243842 0.690914 0.276287
0.325038 0.693783 0.278676
0.431692 0.698975 0.283055
0.537299 0.706538 0.289571
0.615858 0.716397 0.298310
0.677009 0.728393 0.308038
0.726657 0.741934 0.318427
0.773050 0.754045 0.330489
0.270075 0.743123 0.306125
0.291579 0.743627 0.306632
0.359764 0.745426 0.308450
0.459090 0.748690 0.311779
0.553818 0.753470 0.316716
0.624672 0.759741 0.323313
0.682207 0.767427 0.331582
0.730763 0.776417 0.341511
0.775406 0.786573 0.353069
0.069662 0.086158 0.343199
0.088177 0.092891 0.343672
0.184350 0.117672 0.345365
0.342197 0.165251 0.348466
0.484551 0.229573 0.353074
0.587859 0.310593 0.359241
0.660952 0.391419 0.366989
0.714153 0.462413 0.376317
0.763687 0.532464 0.387206
0.069526 0.107112 0.344112
0.090235 0.113327 0.344584
0.186548 0.140302 0.346274
0.343558 0.183582 0.349371
0.485333 0.249809 0.353971
0.588271 0.325960 0.360128
0.661183 0.404158 0.367864
0.714331 0.471600 0.377179
0.763829 0.539538 0.388053
0.075233 0.181646 0.347380
0.096858 0.187632 0.347848
0.194352 0.212549 0.349529
0.348409 0.256247 0.352607
0.488131 0.313327 0.357181
0.589749 0.377558 0.363303
0.662013 0.440809 0.370998
0.714970 0.503156 0.380264
0.764339 0.559073 0.391084
0.085794 0.307670 0.353341
0.111992 0.312838 0.353805
0.208515 0.330949 0.355467
0.357203 0.362633 0.358514
0.493225 0.405946 0.363040
0.592446 0.450383 0.369101
0.663530 0.500999 0.376721
0.716142 0.550869 0.385900
0.765275 0.592015 0.396622
0.105903 0.435812 0.362143
0.133337 0.439064 0.362600
0.231216 0.450545 0.364237
0.370055 0.470904 0.367237
0.500717 0.499743 0.371696
0.596429 0.536147 0.377669
0.665778 0.566797 0.385181
0.717882 0.600140 0.394236
0.766667 0.635705 0.404155
0.134793 0.547491 0.373827
0.160744 0.549294 0.374275
0.260908 0.555683 0.375880
0.386894 0.567094 0.378822
0.510614 0.583402 0.383195
0.601718 0.604173 0.389056
0.668776 0.628804 0.396432
0.720210 0.652228 0.404582
0.768534 0.675700 0.413304
0.169327 0.628749 0.388365
0.197273 0.630143 0.388801
0.291718 0.635106 0.390369
0.407528 0.642445 0.393241
0.522847 0.652517 0.397515
0.608199 0.665501 0.402832
0.672524 0.681094 0.408888
0.723136 0.698216 0.416174
0.770887 0.716703 0.424673
0.215126 0.690772 0.404874
0.243842 0.691575 0.405231
0.325038 0.694436 0.406511
0.431692 0.699614 0.408857
0.537299 0.707157 0.412342
0.615858 0.716992 0.417009
0.677009 0.728960 0.422875
0.726657 0.742352 0.429939
0.773050 0.754437 0.438187
0.270075 0.743538 0.421578
0.291579 0.744041 0.421921
0.359764 0.745836 0.423154
0.459090 0.749093 0.425414
0.553818 0.753863 0.428773
0.624672 0.760121 0.433274
0.682207 0.767792 0.438936
0.730763 0.776765 0.445762
0.775406 0.786904 0.453740
0.069662 0.094660 0.487674
0.088177 0.101646 0.487974
0.184350 0.126486 0.489050
0.342197 0.172964 0.491025
0.484551 0.237812 0.493965
0.587859 0.316913 0.497912
0.660952 0.396835 0.502890
0.714153 0.466178 0.508217
0.763687 0.535715 0.513322
0.069526 0.115084 0.488254
0.090235 0.122553 0.488553
0.186548 0.149371 0.489629
0.343558 0.191695 0.491601
0.485333 0.257896 0.494538
0.588271 0.332081 0.498481
0.661183 0.408487 0.503454
0.714331 0.475288 0.508621
0.763829 0.541819 0.513719
0.075233 0.189301 0.490332
0.096858 0.196391 0.490631
0.194352 0.220698 0.491702
0.348409 0.264238 0.493666
0.488131 0.319611 0.496592
0.589749 0.383106 0.500520
0.662013 0.444766 0.505474
0.714970 0.506604 0.510066
0.764339 0.561209 0.515141
0.085794 0.314030 0.494136
0.111992 0.319129 0.494432
0.208515 0.337008 0.495495
0.357203 0.368333 0.497446
0.493225 0.410255 0.500351
0.592446 0.454252 0.504251
0.663530 0.504463 0.508406
0.716142 0.553065 0.512709
0.765275 0.593936 0.517741
0.105903 0.439816 0.499774
0.133337 0.443037 0.500067
0.231216 0.454412 0.501119
0.370055 0.474598 0.503050
0.500717 0.503216 0.505924
0.596429 0.538799 0.508850
0.665778 0.568880 0.512372
0.717882 0.602013 0.516620
0.766667 0.637250 0.521589
0.134793 0.549711 0.507050
0.160744 0.551501 0.507260
0.260908 0.557844 0.508012
0.386894 0.569174 0.509390
0.510614 0.585376 0.511441
0.601718 0.606022 0.514190
0.668776 0.630521 0.517651
0.720210 0.653456 0.521828
0.768534 0.676817 0.526716
0.169327 0.630466 0.513865
0.197273 0.631854 0.514070
0.291718 0.636784 0.514805
0.407528 0.643723 0.516154
0.522847 0.653744 0.518160
0.608199 0.666665 0.520850
0.672524 0.682188 0.524239
0.723136 0.699175 0.528329
0.770887 0.717591 0.533118
0.215126 0.691761 0.521991
0.243842 0.692560 0.522191
0.325038 0.695410 0.522907
0.431692 0.700567 0.524221
0.537299 0.708081 0.526176
0.615858 0.717880 0.528799
0.677009 0.729806 0.532104
0.726657 0.742975 0.536095
0.773050 0.755021 0.540770
0.270075 0.744157 0.531372
0.291579 0.744659 0.531566
0.359764 0.746447 0.532261
0.459090 0.749694 0.533537
0.553818 0.754448 0.535436
0.624672 0.760687 0.537984
0.682207 0.768337 0.541195
0.730763 0.777285 0.545077
0.775406 0.787397 0.549625
0.069662 0.106247 0.591170
0.088177 0.112582 0.591299
0.184350 0.139326 0.591765
0.342197 0.182847 0.592618
0.484551 0.248963 0.593890
0.587859 0.325321 0.595598
0.660952 0.403706 0.597755
0.714153 0.471215 0.600366
0.763687 0.539300 0.603266
0.069526 0.127144 0.591420
0.090235 0.134905 0.591550
0.186548 0.160780 0.592015
0.343558 0.203333 0.592868
0.485333 0.268635 0.594138
0.588271 0.340232 0.595845
0.661183 0.414262 0.597999
0.714331 0.480225 0.600607
0.763829 0.544874 0.603482
0.075233 0.201022 0.592319
0.096858 0.207869 0.592448
0.194352 0.231433 0.592911
0.348409 0.274855 0.593761
0.488131 0.327972 0.595027
0.589749 0.390517 0.596728
0.662013 0.450054 0.598875
0.714970 0.511225 0.601474
0.764339 0.564071 0.604258
0.085794 0.322489 0.593964
0.111992 0.327498 0.594092
0.208515 0.345080 0.594552
0.357203 0.375942 0.595397
0.493225 0.416005 0.596655
0.592446 0.459426 0.598345
0.663530 0.509105 0.600479
0.716142 0.556006 0.602932
0.765275 0.596513 0.605679
0.105903 0.445166 0.596405
0.133337 0.448347 0.596532
0.231216 0.459585 0.596988
0.370055 0.479543 0.597824
0.500717 0.507870 0.599071
0.596429 0.541886 0.600745
0.665778 0.571671 0.602749
0.717882 0.604526 0.605066
0.766667 0.639013 0.607787
0.134793 0.552686 0.599667
0.160744 0.554458 0.599793
0.260908 0.560738 0.600243
0.386894 0.571963 0.601069
0.510614 0.588023 0.602242
0.601718 0.608505 0.603739
0.668776 0.632828 0.605630
0.720210 0.655106 0.607918
0.768534 0.678320 0.610605
0.169327 0.632773 0.603562
0.197273 0.634151 0.603674
0.291718 0.638551 0.604075
0.407528 0.645440 0.604811
0.522847 0.655391 0.605908
0.608199 0.668229 0.607381
0.672524 0.683660 0.609242
0.723136 0.700464 0.611494
0.770887 0.718787 0.614140
0.215126 0.693090 0.608007
0.243842 0.693885 0.608117
0.325038 0.696720 0.608510
0.431692 0.701849 0.609232
0.537299 0.709324 0.610308
0.615858 0.719074 0.611753
0.677009 0.730945 0.613579
0.726657 0.743814 0.615789
0.773050 0.755807 0.618386
0.270075 0.744991 0.613174
0.291579 0.745490 0.613281
0.359764 0.747271 0.613666
0.459090 0.750503 0.614372
0.553818 0.755237 0.615424
0.624672 0.761451 0.616837
0.682207 0.769070 0.618623
0.730763 0.777985 0.620786
0.775406 0.788062 0.623328
0.069662 0.120810 0.660502
0.088177 0.127763 0.660590
0.184350 0.154672 0.660905
0.342197 0.197043 0.661484
0.484551 0.262809 0.662348
0.587859 0.335807 0.663511
0.660952 0.411126 0.664982
0.714153 0.477542 0.666767
0.763687 0.543214 0.668870
0.069526 0.143480 0.660672
0.090235 0.150721 0.660760
0.186548 0.174170 0.661075
0.343558 0.217583 0.661654
0.485333 0.282002 0.662517
0.588271 0.350412 0.663679
0.661183 0.421487 0.665149
0.714331 0.486429 0.666933
0.763829 0.548714 0.669035
0.075233 0.215365 0.661281
0.096858 0.221942 0.661369
0.194352 0.245723 0.661683
0.348409 0.287587 0.662261
0.488131 0.338402 0.663122
0.589749 0.399809 0.664281
0.662013 0.456688 0.665747
0.714970 0.517040 0.667527
0.764339 0.567673 0.669624
0.085794 0.333036 0.662399
0.111992 0.337938 0.662486
0.208515 0.355165 0.662799
0.357203 0.385470 0.663374
0.493225 0.423199 0.664231
0.592446 0.465920 0.665385
0.663530 0.514945 0.666845
0.716142 0.559705 0.668617
0.765275 0.599761 0.670705
0.105903 0.451875 0.664061
0.133337 0.455007 0.664147
0.231216 0.466077 0.664458
0.370055 0.485756 0.665029
0.500717 0.513724 0.665881
0.596429 0.545765 0.667027
0.665778 0.575185 0.668478
0.717882 0.607695 0.670238
0.766667 0.641237 0.672312
0.134793 0.556426 0.666289
0.160744 0.558176 0.666375
0.260908 0.564380 0.666683
0.386894 0.575473 0.667249
0.510614 0.591359 0.668093
0.601718 0.611635 0.669230
0.668776 0.635739 0.670667
0.720210 0.657188 0.672413
0.768534 0.680218 0.674469
0.169327 0.635685 0.669095
0.197273 0.636987 0.669180
0.291718 0.640780 0.669485
0.407528 0.647606 0.670044
0.522847 0.657471 0.670879
0.608199 0.670204 0.672003
0.672524 0.685519 0.673425
0.723136 0.702094 0.675151
0.770887 0.720299 0.677186
0.215126 0.694771 0.672481
0.243842 0.695560 0.672565
0.325038 0.698375 0.672865
0.431692 0.703469 0.673417
0.537299 0.710895 0.674241
0.615858 0.720585 0.675350
0.677009 0.732386 0.676753
0.726657 0.744875 0.678457
0.773050 0.756803 0.680466
0.270075 0.746046 0.676442
0.291579 0.746542 0.676525
0.359764 0.748313 0.676821
0.459090 0.751527 0.677364
0.553818 0.756236 0.678175
0.624672 0.762417 0.679267
0.682207 0.769998 0.680649
0.730763 0.778872 0.682327
0.775406 0.788904 0.683931
0.069662 0.140186 0.714622
0.088177 0.147597 0.714675
0.184350 0.171491 0.714862
0.342197 0.214684 0.715206
0.484551 0.279264 0.715720
0.587859 0.348324 0.716413
0.660952 0.420004 0.717290
0.714153 0.485153 0.718356
0.763687 0.547925 0.719613
0.069526 0.161521 0.714723
0.090235 0.167954 0.714776
0.186548 0.189985 0.714963
0.343558 0.234466 0.715307
0.485333 0.296248 0.715821
0.588271 0.362583 0.716513
0.661183 0.430142 0.717389
0.714331 0.493898 0.718455
0.763829 0.553339 0.719712
0.075233 0.232174 0.715086
0.096858 0.238977 0.715138
0.194352 0.262692 0.715325
0.348409 0.301440 0.715668
0.488131 0.350856 0.716181
0.589749 0.409337 0.716872
0.662013 0.464658 0.717746
0.714970 0.524053 0.718810
0.764339 0.572017 0.720065
0.085794 0.345621 0.715750
0.111992 0.350403 0.715802
0.208515 0.367229 0.715989
0.357203 0.396900 0.716331
0.493225 0.431818 0.716842
0.592446 0.473728 0.717530
0.663530 0.521986 0.718402
0.716142 0.564163 0.719462
0.765275 0.603685 0.720712
0.105903 0.459932 0.716740
0.133337 0.463007 0.716792
0.231216 0.473881 0.716977
0.370055 0.493235 0.717318
0.500717 0.520783 0.717826
0.596429 0.550436 0.718511
0.665778 0.579424 0.719378
0.717882 0.611525 0.720433
0.766667 0.643927 0.721677
0.134793 0.560933 0.718070
0.160744 0.562657 0.718121
0.260908 0.568770 0.718305
0.386894 0.579709 0.718644
0.510614 0.595386 0.719148
0.601718 0.615420 0.719828
0.668776 0.638712 0.720690
0.720210 0.659708 0.721737
0.768534 0.682518 0.722973
0.169327 0.638670 0.719748
0.197273 0.639725 0.719799
0.291718 0.643475 0.719981
0.407528 0.650226 0.720316
0.522847 0.659988 0.720817
0.608199 0.672596 0.721491
0.672524 0.687733 0.722345
0.723136 0.704070 0.723383
0.770887 0.722135 0.724608
0.215126 0.696808 0.721778
0.243842 0.697591 0.721828
0.325038 0.700382 0.722009
0.431692 0.705434 0.722341
0.537299 0.712802 0.722836
0.615858 0.722418 0.723503
0.677009 0.734135 0.724348
0.726657 0.746164 0.725375
0.773050 0.758012 0.726588
0.270075 0.747326 0.724160
0.291579 0.747819 0.724210
0.359764 0.749578 0.724388
0.459090 0.752771 0.724716
0.553818 0.757449 0.725205
0.624672 0.763591 0.725864
0.682207 0.771127 0.726699
0.730763 0.779949 0.727714
0.775406 0.789928 0.728912
0.069662 0.161825 0.759678
0.088177 0.168246 0.759710
0.184350 0.190316 0.759824
0.342197 0.234782 0.760034
0.484551 0.296495 0.760348
0.587859 0.362799 0.760772
0.660952 0.430295 0.761308
0.714153 0.494030 0.761961
0.763687 0.553421 0.762733
0.069526 0.180520 0.759739
0.090235 0.186270 0.759771
0.186548 0.211254 0.759886
0.343558 0.254983 0.760096
0.485333 0.312334 0.760410
0.588271 0.376683 0.760833
0.661183 0.440185 0.761369
0.714331 0.502613 0.762022
0.763829 0.558736 0.762793
0.075233 0.252782 0.759961
0.096858 0.259318 0.759992
0.194352 0.282178 0.760107
0.348409 0.317346 0.760316
0.488131 0.365262 0.760630
0.589749 0.419903 0.761052
0.662013 0.473938 0.761588
0.714970 0.532252 0.762240
0.764339 0.577095 0.763010
0.085794 0.360170 0.760367
0.111992 0.364821 0.760398
0.208515 0.381211 0.760512
0.357203 0.408701 0.760722
0.493225 0.441821 0.761034
0.592446 0.482825 0.761455
0.663530 0.530219 0.761990
0.716142 0.569372 0.762640
0.765275 0.608282 0.763407
0.105903 0.469310 0.760972
0.133337 0.472321 0.761004
0.231216 0.482975 0.761117
0.370055 0.501962 0.761326
0.500717 0.529036 0.761637
0.596429 0.555886 0.762056
0.665778 0.584383 0.762588
0.717882 0.616014 0.763236
0.766667 0.647082 0.764000
0.134793 0.566197 0.761786
0.160744 0.567891 0.761818
0.260908 0.573901 0.761930
0.386894 0.584663 0.762138
0.510614 0.600103 0.762447
0.601718 0.619857 0.762865
0.668776 0.641935 0.763394
0.720210 0.662666 0.764037
0.768534 0.685222 0.764798
0.169327 0.641894 0.762815
0.197273 0.642935 0.762846
0.291718 0.646635 0.762958
0.407528 0.653300 0.763164
0.522847 0.662944 0.763472
0.608199 0.675407 0.763886
0.672524 0.690222 0.764412
0.723136 0.706396 0.765051
0.770887 0.724296 0.765806
0.215126 0.699204 0.764063
0.243842 0.699979 0.764094
0.325038 0.702743 0.764205
0.431692 0.707747 0.764409
0.537299 0.715046 0.764714
0.615858 0.724577 0.765125
0.677009 0.736195 0.765646
0.726657 0.747682 0.766280
0.773050 0.759437 0.767029
0.270075 0.748835 0.765530
0.291579 0.749323 0.765561
0.359764 0.751068 0.765671
0.459090 0.754237 0.765873
0.553818 0.758878 0.766175
0.624672 0.764975 0.766582
0.682207 0.772458 0.767097
0.730763 0.781221 0.767725
0.775406 0.791137 0.768467
