negative-superia-xtra-400/SuperiaXtra400_Classic_Normal.cube
TITLE "Fuji Superia X-tra 400 Classic Normal"
# Adobe RGB in/out. REPLACES AgX. Fuji Superia X-tra 400 Classic Normal.
LUT_3D_SIZE 33
DOMAIN_MIN 0.0 0.0 0.0
DOMAIN_MAX 1.0 1.0 1.0
0.070593 0.070461 0.087962
0.077533 0.076916 0.088537
0.084528 0.081855 0.089170
0.094752 0.087010 0.089702
0.108438 0.092422 0.090245
0.127392 0.099247 0.090735
0.152880 0.106024 0.091226
0.182802 0.113673 0.091722
0.213796 0.122991 0.092413
0.245734 0.133685 0.093027
0.281610 0.145188 0.093579
0.316643 0.159417 0.094547
0.351469 0.173622 0.095542
0.386879 0.188479 0.096719
0.420110 0.203990 0.097930
0.452409 0.219575 0.099360
0.484868 0.235418 0.100949
0.517476 0.253387 0.102465
0.545511 0.271582 0.103916
0.572697 0.290678 0.105816
0.599320 0.310877 0.108175
0.625638 0.329861 0.110467
0.651806 0.347850 0.112833
0.670787 0.365955 0.115565
0.688316 0.384172 0.119037
0.705560 0.402497 0.122466
0.722534 0.420926 0.125853
0.737590 0.439456 0.129201
0.750446 0.458082 0.133402
0.763062 0.473737 0.137596
0.775452 0.488915 0.141774
0.787628 0.504058 0.145935
0.799598 0.519166 0.150402
0.073352 0.080143 0.088810
0.077785 0.081307 0.088983
0.084661 0.084489 0.089362
0.094884 0.088610 0.089833
0.108530 0.094238 0.090321
0.127518 0.100467 0.090801
0.152994 0.107276 0.091271
0.182908 0.114636 0.091784
0.213890 0.124090 0.092460
0.245825 0.134762 0.093063
0.281693 0.146420 0.093617
0.316713 0.160515 0.094598
0.351533 0.174610 0.095585
0.386938 0.189459 0.096770
0.420159 0.204891 0.097974
0.452454 0.220409 0.099415
0.484910 0.236300 0.100998
0.517515 0.254218 0.102509
0.545542 0.272367 0.103955
0.572726 0.291484 0.105878
0.599347 0.311648 0.108231
0.625662 0.330500 0.110519
0.651829 0.348459 0.112890
0.670802 0.366536 0.115637
0.688330 0.384728 0.119105
0.705573 0.403029 0.122529
0.722546 0.421437 0.125913
0.737599 0.439946 0.129261
0.750454 0.458554 0.133470
0.763070 0.474106 0.137661
0.775460 0.489268 0.141836
0.787635 0.504396 0.145995
0.799605 0.519492 0.150466
0.075509 0.088449 0.089556
0.078565 0.088919 0.089623
0.085122 0.090670 0.089855
0.095352 0.094785 0.090202
0.108858 0.099467 0.090565
0.127968 0.104678 0.091015
0.153400 0.111362 0.091421
0.183289 0.118874 0.091995
0.214225 0.128175 0.092621
0.246152 0.138496 0.093189
0.281990 0.150742 0.093748
0.316964 0.164384 0.094777
0.351763 0.178104 0.095735
0.387150 0.192933 0.096949
0.420334 0.208093 0.098128
0.452617 0.223375 0.099613
0.485061 0.239447 0.101173
0.517656 0.257185 0.102664
0.545651 0.275174 0.104094
0.572828 0.294368 0.106098
0.599440 0.314404 0.108432
0.625750 0.332789 0.110704
0.651912 0.350639 0.113091
0.670855 0.368617 0.115893
0.688380 0.386718 0.119345
0.705619 0.404936 0.122755
0.722590 0.423266 0.126126
0.737631 0.441704 0.129516
0.750484 0.460247 0.133713
0.763099 0.475425 0.137894
0.775487 0.490533 0.142059
0.787660 0.505610 0.146208
0.799629 0.520657 0.150695
0.077146 0.099009 0.090268
0.079662 0.099428 0.090308
0.085912 0.100853 0.090436
0.096190 0.103200 0.090677
0.109477 0.107481 0.090999
0.128792 0.112394 0.091332
0.154145 0.118567 0.091752
0.183989 0.126337 0.092339
0.214842 0.135543 0.092891
0.246752 0.145664 0.093406
0.282535 0.158317 0.094127
0.317425 0.171222 0.095093
0.352186 0.184678 0.096070
0.387541 0.199159 0.097268
0.420657 0.213852 0.098405
0.452915 0.228728 0.099968
0.485338 0.245150 0.101487
0.517916 0.262572 0.102945
0.545853 0.280279 0.104346
0.573017 0.299623 0.106498
0.599613 0.319433 0.108798
0.625912 0.336963 0.111040
0.652064 0.354617 0.113460
0.670953 0.372417 0.116361
0.688471 0.390354 0.119784
0.705705 0.408422 0.123169
0.722670 0.426613 0.126516
0.737691 0.444923 0.129985
0.750540 0.462811 0.134160
0.763151 0.477841 0.138321
0.775536 0.492848 0.142467
0.787707 0.507832 0.146599
0.799673 0.522792 0.151117
0.079242 0.110818 0.090941
0.081173 0.111172 0.090971
0.087238 0.112412 0.091072
0.097390 0.114563 0.091239
0.110525 0.118388 0.091453
0.130012 0.123501 0.091819
0.155264 0.129905 0.092298
0.185031 0.137357 0.092778
0.215761 0.146182 0.093247
0.247647 0.157279 0.093732
0.283350 0.168873 0.094649
0.318114 0.180910 0.095534
0.352818 0.194332 0.096596
0.388124 0.208104 0.097723
0.421139 0.222172 0.098964
0.453361 0.236858 0.100482
0.485753 0.253486 0.101944
0.518303 0.270468 0.103354
0.546155 0.288280 0.104777
0.573298 0.307371 0.107084
0.599870 0.325923 0.109336
0.626153 0.343118 0.111535
0.652291 0.360493 0.114003
0.671099 0.378036 0.117053
0.688607 0.395736 0.120435
0.705833 0.413585 0.123782
0.722790 0.431575 0.127095
0.737779 0.449697 0.130680
0.750623 0.466552 0.134824
0.763229 0.481424 0.138955
0.775610 0.496284 0.143074
0.787776 0.511131 0.147181
0.799739 0.525965 0.151744
0.081294 0.125625 0.091544
0.083159 0.125984 0.091569
0.089000 0.127416 0.091690
0.098923 0.129972 0.091898
0.112017 0.133619 0.092180
0.131636 0.138257 0.092514
0.156896 0.144139 0.092882
0.186432 0.152417 0.093267
0.216998 0.161572 0.093680
0.248854 0.171459 0.094467
0.284448 0.182100 0.095284
0.319043 0.194102 0.096178
0.353670 0.206621 0.097256
0.388912 0.219579 0.098300
0.421789 0.232916 0.099709
0.453963 0.248375 0.101145
0.486313 0.264409 0.102537
0.518827 0.280850 0.103887
0.546563 0.298986 0.105620
0.573678 0.317634 0.107857
0.600218 0.334470 0.110046
0.626480 0.351276 0.112230
0.652598 0.368294 0.114724
0.671296 0.385507 0.117975
0.688791 0.402903 0.121303
0.706005 0.420470 0.124600
0.722952 0.438197 0.127868
0.737899 0.456074 0.131612
0.750735 0.471543 0.135713
0.763335 0.486208 0.139806
0.775709 0.500876 0.143889
0.787871 0.515544 0.148025
0.799828 0.530210 0.152587
0.083691 0.144123 0.092477
0.085291 0.144535 0.092500
0.090946 0.146005 0.092583
0.100782 0.148661 0.092729
0.114013 0.152529 0.092932
0.133665 0.157570 0.093182
0.158951 0.163705 0.093467
0.188199 0.170833 0.093888
0.218562 0.178842 0.094580
0.250382 0.188280 0.095287
0.285841 0.198613 0.096064
0.320222 0.209619 0.097050
0.354752 0.221211 0.098024
0.389911 0.233315 0.099224
0.422615 0.247556 0.100597
0.454728 0.262424 0.101941
0.487025 0.277793 0.103254
0.519491 0.294603 0.104535
0.547081 0.312239 0.106654
0.574161 0.328975 0.108807
0.600660 0.345057 0.110923
0.626894 0.361406 0.113192
0.652988 0.378000 0.115841
0.671546 0.394820 0.119126
0.689026 0.411851 0.122388
0.706225 0.429078 0.125625
0.723158 0.446487 0.128838
0.738050 0.463400 0.132783
0.750878 0.477788 0.136832
0.763469 0.492201 0.140877
0.775836 0.506634 0.144915
0.787990 0.521083 0.149129
0.799942 0.535544 0.153651
0.086231 0.167650 0.093281
0.088009 0.167992 0.093298
0.093179 0.169214 0.093358
0.103138 0.171433 0.093465
0.116356 0.174687 0.093628
0.136089 0.178968 0.093959
0.161430 0.184588 0.094439
0.190339 0.191347 0.094974
0.220460 0.199056 0.095548
0.252241 0.207633 0.096273
0.287536 0.216994 0.097132
0.321656 0.227061 0.098002
0.356070 0.238294 0.099068
0.391129 0.251160 0.100341
0.423621 0.264681 0.101604
0.455660 0.278799 0.102851
0.487893 0.294436 0.104079
0.520302 0.310898 0.105779
0.547712 0.326854 0.107864
0.574750 0.342060 0.109924
0.601200 0.357596 0.111957
0.627401 0.373435 0.114332
0.653464 0.389553 0.117299
0.671852 0.405929 0.120500
0.689311 0.422544 0.123685
0.706492 0.439381 0.126852
0.723410 0.456426 0.130204
0.738236 0.471194 0.134193
0.751052 0.485270 0.138181
0.763633 0.499391 0.142169
0.775991 0.513550 0.146154
0.788136 0.527743 0.150465
0.800080 0.541963 0.154939
0.089514 0.192096 0.094336
0.090937 0.192413 0.094364
0.096431 0.193551 0.094461
0.105716 0.195625 0.094637
0.119015 0.198685 0.094889
0.138896 0.202743 0.095212
0.164329 0.207782 0.095597
0.192852 0.213768 0.096115
0.222695 0.220651 0.096783
0.254435 0.228372 0.097495
0.289539 0.237285 0.098239
0.323353 0.247800 0.099259
0.357629 0.259115 0.100399
0.392571 0.271170 0.101551
0.424813 0.284098 0.102704
0.456764 0.298568 0.103854
0.488920 0.313722 0.105271
0.521263 0.328235 0.107257
0.548461 0.342426 0.109232
0.575448 0.357016 0.111192
0.601839 0.371972 0.113351
0.628000 0.387265 0.115867
0.654029 0.402869 0.118981
0.672214 0.418762 0.122089
0.689650 0.434921 0.125188
0.706810 0.451330 0.128277
0.723709 0.466573 0.131924
0.738456 0.480225 0.135838
0.751258 0.493953 0.139757
0.763827 0.507747 0.143680
0.776174 0.521600 0.147625
0.788310 0.535503 0.152031
0.800244 0.549451 0.156452
0.092540 0.217823 0.095683
0.094257 0.218101 0.095705
0.099725 0.219098 0.095781
0.108464 0.220919 0.095955
0.121954 0.223613 0.096235
0.142325 0.227201 0.096599
0.167643 0.231679 0.097039
0.195736 0.237465 0.097545
0.225268 0.244526 0.098108
0.256968 0.252527 0.098839
0.291854 0.261425 0.099784
0.325314 0.271172 0.100771
0.359433 0.281731 0.101788
0.394241 0.293940 0.102826
0.426193 0.306947 0.103876
0.458044 0.320569 0.105157
0.490112 0.333133 0.107013
0.522281 0.346200 0.108875
0.549329 0.359733 0.110737
0.576258 0.373695 0.112710
0.602581 0.388054 0.114907
0.628697 0.402780 0.117867
0.654684 0.417846 0.120872
0.672635 0.433229 0.123880
0.690043 0.448905 0.126887
0.707179 0.464040 0.130064
0.724055 0.477182 0.133882
0.738711 0.490435 0.137713
0.751498 0.503787 0.141556
0.764053 0.517226 0.145407
0.776387 0.530744 0.149486
0.788511 0.544332 0.153827
0.800435 0.557981 0.158186
0.096823 0.245128 0.097332
0.098311 0.245411 0.097356
0.103388 0.246423 0.097442
0.111843 0.248277 0.097599
0.125999 0.251030 0.097828
0.146270 0.254711 0.098128
0.171360 0.259332 0.098511
0.198987 0.264887 0.099135
0.228177 0.271362 0.099838
0.259841 0.278731 0.100607
0.294395 0.287398 0.101433
0.327544 0.297201 0.102304
0.361486 0.307882 0.103211
0.396142 0.319400 0.104144
0.427764 0.330142 0.105449
0.459501 0.341453 0.107147
0.491470 0.353327 0.108871
0.523345 0.365725 0.110610
0.550318 0.378609 0.112431
0.577181 0.391947 0.114514
0.603427 0.405706 0.117189
0.629491 0.419857 0.120066
0.655431 0.434373 0.122958
0.673114 0.449230 0.125860
0.690492 0.463673 0.128770
0.707599 0.476224 0.132344
0.724450 0.488924 0.136067
0.739002 0.501758 0.139810
0.751772 0.514712 0.143570
0.764311 0.527775 0.147343
0.776630 0.540937 0.151578
0.788741 0.554186 0.155849
0.800652 0.567515 0.160140
0.100994 0.275178 0.099110
0.102443 0.275435 0.099140
0.107142 0.276357 0.099245
0.116100 0.278047 0.099435
0.130601 0.280560 0.099715
0.150586 0.284118 0.100083
0.175467 0.288696 0.100537
0.202600 0.294223 0.101070
0.231420 0.300695 0.101675
0.263054 0.308098 0.102344
0.297125 0.316411 0.103068
0.330043 0.324839 0.103838
0.363789 0.333565 0.104661
0.398197 0.342968 0.106134
0.429528 0.353013 0.107658
0.461138 0.363664 0.109223
0.492996 0.374884 0.110820
0.524541 0.386640 0.112528
0.551430 0.398897 0.114475
0.578220 0.411624 0.116967
0.604379 0.424791 0.119692
0.630384 0.438370 0.122445
0.656031 0.452334 0.125221
0.673654 0.465508 0.128016
0.690996 0.477395 0.131250
0.708072 0.489470 0.134846
0.724895 0.501717 0.138470
0.739329 0.514119 0.142120
0.752080 0.526663 0.145791
0.764601 0.539335 0.149730
0.776904 0.552123 0.153896
0.789000 0.565018 0.158090
0.800898 0.578008 0.162309
0.105468 0.307835 0.101254
0.106723 0.308092 0.101279
0.111174 0.309012 0.101367
0.120490 0.310700 0.101529
0.135494 0.313214 0.101766
0.155261 0.316589 0.102080
0.179950 0.320694 0.102469
0.206597 0.325176 0.102929
0.234990 0.330423 0.103454
0.266605 0.336424 0.104039
0.300144 0.343163 0.104713
0.332811 0.350616 0.105911
0.366342 0.358759 0.107186
0.400317 0.367564 0.108525
0.431487 0.377000 0.109919
0.462957 0.387037 0.111360
0.494692 0.397645 0.113000
0.525870 0.408792 0.114794
0.552667 0.420450 0.117213
0.579374 0.432588 0.119763
0.605437 0.445179 0.122356
0.631378 0.458197 0.124986
0.656674 0.469533 0.127646
0.674255 0.480697 0.130623
0.691558 0.492089 0.134070
0.708599 0.503689 0.137557
0.725391 0.515479 0.141079
0.739694 0.527444 0.144631
0.752423 0.539569 0.148304
0.764924 0.551840 0.152350
0.777209 0.564245 0.156431
0.789288 0.576773 0.160544
0.801171 0.589413 0.164882
0.109846 0.338923 0.103267
0.111172 0.339130 0.103288
0.116423 0.339870 0.103364
0.125782 0.341228 0.103502
0.140729 0.343251 0.103706
0.160756 0.345967 0.103977
0.184793 0.349393 0.104314
0.210939 0.353536 0.104777
0.238882 0.358398 0.105582
0.270491 0.363970 0.106487
0.303452 0.370243 0.107483
0.335848 0.377199 0.108563
0.369148 0.384819 0.109717
0.402646 0.393082 0.110937
0.433641 0.401961 0.112259
0.464959 0.411433 0.113834
0.496560 0.421470 0.115626
0.527333 0.432047 0.117921
0.554029 0.443136 0.120281
0.580631 0.454712 0.122697
0.606604 0.465580 0.125162
0.632474 0.475695 0.127670
0.657384 0.486094 0.130475
0.674917 0.496756 0.133756
0.692178 0.507661 0.137087
0.709181 0.518791 0.140464
0.725937 0.530127 0.143880
0.740097 0.541655 0.147333
0.752801 0.553359 0.151230
0.765280 0.565225 0.155182
0.777545 0.577241 0.159175
0.789606 0.589395 0.163204
0.801472 0.601676 0.167875
0.115501 0.368841 0.105569
0.116904 0.369032 0.105602
0.121673 0.369716 0.105717
0.131966 0.370973 0.105927
0.146767 0.372846 0.106239
0.166598 0.375363 0.106654
0.189979 0.378541 0.107173
0.215613 0.382391 0.107794
0.243088 0.386916 0.108511
0.274709 0.392112 0.109322
0.307045 0.397972 0.110218
0.339153 0.404486 0.111194
0.372204 0.411636 0.112292
0.405184 0.419408 0.113614
0.435991 0.427780 0.115007
0.467143 0.436731 0.116998
0.498600 0.446240 0.119078
0.528931 0.456283 0.121235
0.555517 0.465652 0.123462
0.581993 0.474609 0.125749
0.607880 0.483902 0.128091
0.633673 0.493511 0.130813
0.658160 0.503413 0.133911
0.675641 0.513590 0.137071
0.692855 0.524022 0.140286
0.709816 0.534691 0.143551
0.726535 0.545582 0.146862
0.740537 0.556677 0.150551
0.753215 0.567962 0.154361
0.765670 0.579424 0.158218
0.777913 0.591049 0.162119
0.789954 0.602827 0.166475
0.801802 0.612529 0.171102
0.121287 0.399063 0.108747
0.122555 0.399240 0.108775
0.128372 0.399877 0.108877
0.138295 0.401046 0.109064
0.153055 0.402788 0.109340
0.172764 0.405132 0.109710
0.195490 0.408095 0.110172
0.220608 0.411689 0.110727
0.247847 0.415917 0.111371
0.279253 0.420780 0.112123
0.310921 0.426275 0.113084
0.342723 0.432392 0.114137
0.375510 0.439121 0.115367
0.407931 0.446447 0.117030
0.438535 0.454357 0.118796
0.469511 0.462392 0.120658
0.500812 0.469723 0.122608
0.530664 0.477454 0.124636
0.557131 0.485565 0.126737
0.583471 0.494034 0.128902
0.609265 0.502843 0.131634
0.634975 0.511972 0.134536
0.659002 0.521401 0.137511
0.676427 0.531112 0.140551
0.693592 0.541088 0.143651
0.710507 0.551311 0.146806
0.727185 0.561766 0.150323
0.741016 0.572437 0.153976
0.753665 0.583310 0.157685
0.766094 0.594371 0.161446
0.778314 0.605565 0.165539
0.790333 0.614252 0.170015
0.802161 0.623017 0.174554
0.128459 0.429571 0.111805
0.130023 0.429737 0.111831
0.135449 0.430331 0.111922
0.145336 0.431424 0.112110
0.160024 0.433053 0.112403
0.179231 0.435245 0.112796
0.201309 0.438019 0.113288
0.225910 0.441386 0.113881
0.253128 0.445352 0.114571
0.284117 0.449920 0.115481
0.315074 0.455088 0.116680
0.346555 0.460779 0.118001
0.379064 0.465945 0.119437
0.410884 0.471564 0.120982
0.441274 0.477624 0.122629
0.472062 0.484109 0.124370
0.503197 0.491003 0.126199
0.532532 0.498288 0.128108
0.558873 0.505948 0.130318
0.585066 0.513964 0.132927
0.610761 0.522319 0.135624
0.636381 0.530996 0.138403
0.659912 0.539976 0.141257
0.677277 0.549244 0.144181
0.694387 0.558782 0.147168
0.711254 0.568575 0.150552
0.727888 0.578608 0.154036
0.741533 0.588867 0.157585
0.754152 0.599337 0.161193
0.766553 0.608919 0.165077
0.778747 0.617176 0.169390
0.790743 0.625531 0.173774
0.802549 0.633975 0.178225
0.136060 0.460350 0.115377
0.137512 0.460499 0.115414
0.142889 0.460953 0.115548
0.152724 0.461788 0.115792
0.167452 0.463033 0.116155
0.185979 0.464708 0.116641
0.207469 0.466826 0.117254
0.231508 0.469397 0.117993
0.258735 0.472424 0.118858
0.289296 0.475908 0.119847
0.319500 0.479847 0.120954
0.350647 0.484236 0.122178
0.382863 0.489068 0.123512
0.414043 0.494333 0.124951
0.444207 0.500020 0.126489
0.474796 0.506118 0.128119
0.505754 0.512612 0.129996
0.534534 0.519488 0.132283
0.560741 0.526732 0.134673
0.586778 0.534327 0.137160
0.612366 0.542259 0.139737
0.637891 0.550510 0.142398
0.660889 0.559067 0.145136
0.678189 0.567914 0.148008
0.695242 0.577035 0.151237
0.712057 0.586416 0.154542
0.728643 0.596043 0.157920
0.742090 0.605789 0.161364
0.754675 0.613469 0.165095
0.767046 0.621276 0.169235
0.779213 0.629200 0.173452
0.791184 0.637230 0.177744
0.802967 0.645358 0.182105
0.144092 0.485512 0.120057
0.145612 0.485630 0.120091
0.150940 0.486053 0.120213
0.160775 0.486830 0.120438
0.175114 0.487988 0.120771
0.192988 0.489548 0.121219
0.213917 0.491522 0.121783
0.237387 0.493919 0.122465
0.264659 0.496744 0.123263
0.294671 0.500000 0.124178
0.324193 0.503684 0.125205
0.354994 0.507795 0.126342
0.386906 0.512327 0.127584
0.417404 0.517273 0.128927
0.447331 0.522623 0.130669
0.477711 0.528368 0.132616
0.508484 0.534497 0.134679
0.536672 0.540998 0.136850
0.562736 0.547857 0.139125
0.588607 0.555062 0.141496
0.614082 0.562599 0.143959
0.639505 0.570453 0.146506
0.661932 0.578611 0.149339
0.679164 0.587060 0.152373
0.696156 0.595785 0.155491
0.712915 0.604772 0.158689
0.729451 0.611970 0.161961
0.742685 0.619169 0.165595
0.755235 0.626511 0.169552
0.767574 0.633988 0.173594
0.779712 0.641588 0.177716
0.791655 0.649145 0.181914
0.803414 0.656488 0.186186
0.152608 0.510556 0.124658
0.154039 0.510666 0.124690
0.159469 0.511061 0.124803
0.169238 0.511786 0.125009
0.182990 0.512868 0.125317
0.200241 0.514326 0.125731
0.220628 0.516172 0.126252
0.243536 0.518415 0.126883
0.270891 0.521061 0.127624
0.300030 0.524112 0.128472
0.329148 0.527570 0.129477
0.359592 0.531431 0.130822
0.391189 0.535693 0.132299
0.420967 0.540349 0.133902
0.450646 0.545394 0.135628
0.480807 0.550818 0.137472
0.511384 0.556613 0.139429
0.538943 0.562769 0.141493
0.564858 0.569274 0.143659
0.590552 0.576116 0.145922
0.615909 0.583285 0.148377
0.641225 0.590768 0.151115
0.663043 0.598552 0.153950
0.680203 0.606341 0.156875
0.697129 0.612704 0.159886
0.713830 0.619247 0.162979
0.730312 0.625959 0.166576
0.743319 0.632830 0.170343
0.755832 0.639850 0.174200
0.768137 0.646991 0.178145
0.780243 0.653836 0.182171
0.792159 0.660790 0.186277
0.803891 0.667845 0.190458
0.161773 0.535507 0.129187
0.163266 0.535610 0.129216
0.168532 0.535980 0.129340
0.177861 0.536660 0.129583
0.191063 0.537675 0.129945
0.207771 0.539042 0.130432
0.227589 0.540774 0.131048
0.250417 0.542880 0.131794
0.277419 0.545365 0.132672
0.305652 0.548233 0.133680
0.334358 0.551486 0.134820
0.364437 0.555123 0.136087
0.395709 0.559140 0.137480
0.424727 0.563535 0.138995
0.454149 0.568302 0.140629
0.484081 0.573433 0.142378
0.514455 0.578922 0.144236
0.541346 0.584760 0.146200
0.567105 0.590938 0.148365
0.592614 0.597445 0.150789
0.617845 0.604272 0.153320
0.643048 0.609988 0.155953
0.664221 0.615643 0.158682
0.681305 0.621499 0.161503
0.698162 0.627546 0.164562
0.714800 0.633774 0.168031
0.731227 0.640173 0.171602
0.743993 0.646732 0.175269
0.756466 0.653036 0.179029
0.768735 0.659470 0.182877
0.780808 0.666027 0.186809
0.792694 0.672697 0.190823
0.804398 0.679472 0.194914
0.171269 0.560372 0.134853
0.172689 0.560469 0.134887
0.177708 0.560816 0.135011
0.186631 0.561456 0.135239
0.199318 0.562410 0.135579
0.215536 0.563696 0.136036
0.234783 0.565326 0.136614
0.257729 0.567308 0.137316
0.284236 0.569649 0.138142
0.311528 0.572353 0.139092
0.339817 0.575422 0.140166
0.369522 0.578855 0.141363
0.400152 0.582651 0.142680
0.428681 0.586808 0.144115
0.457838 0.591321 0.145664
0.487533 0.596184 0.147324
0.517695 0.601393 0.149292
0.543882 0.606580 0.151392
0.569476 0.611059 0.153607
0.594792 0.615772 0.155932
0.619892 0.620710 0.158363
0.644976 0.625865 0.160895
0.665466 0.631227 0.163535
0.682470 0.636789 0.166688
0.699255 0.642540 0.169952
0.715828 0.648364 0.173322
0.732065 0.654095 0.176794
0.744705 0.659976 0.180364
0.757137 0.665998 0.184027
0.769368 0.672153 0.187781
0.781407 0.678433 0.191620
0.793260 0.684831 0.195543
0.804935 0.691338 0.199544
0.180841 0.585154 0.140502
0.182195 0.585245 0.140535
0.186989 0.585573 0.140652
0.195537 0.586176 0.140866
0.207794 0.587075 0.141186
0.223502 0.588288 0.141616
0.242199 0.589826 0.142161
0.265315 0.591698 0.142822
0.291330 0.593909 0.143601
0.317651 0.596464 0.144499
0.345518 0.599366 0.145514
0.374844 0.602614 0.146646
0.404604 0.606023 0.147949
0.432827 0.609029 0.149475
0.461709 0.612289 0.151126
0.491159 0.615801 0.152901
0.521102 0.619558 0.154796
0.546548 0.623554 0.156806
0.571972 0.627784 0.158929
0.597084 0.632241 0.161161
0.622047 0.636916 0.163503
0.647008 0.641803 0.166327
0.666778 0.646883 0.169269
0.683697 0.651848 0.172326
0.700406 0.656986 0.175493
0.716911 0.662291 0.178767
0.732865 0.667753 0.182143
0.745457 0.673365 0.185617
0.757845 0.679119 0.189187
0.770036 0.685009 0.192847
0.782038 0.691025 0.196596
0.793858 0.697162 0.200428
0.805503 0.702361 0.204341
0.190487 0.608806 0.146122
0.191781 0.608872 0.146153
0.196368 0.609109 0.146263
0.204591 0.609543 0.146465
0.216459 0.610191 0.146767
0.231656 0.611065 0.147173
0.250286 0.612172 0.147718
0.273165 0.613519 0.148418
0.298295 0.615111 0.149244
0.324011 0.616949 0.150197
0.351455 0.619036 0.151277
0.380396 0.621371 0.152484
0.409251 0.623954 0.153815
0.437160 0.626782 0.155271
0.465761 0.629854 0.156848
0.494959 0.633165 0.158545
0.524205 0.636711 0.160358
0.549344 0.640487 0.162285
0.574591 0.644488 0.164459
0.599491 0.648587 0.166944
0.624312 0.652750 0.169555
0.649144 0.657105 0.172287
0.668155 0.661644 0.175137
0.684987 0.666362 0.178100
0.701617 0.671250 0.181174
0.718050 0.676302 0.184355
0.733706 0.681511 0.187638
0.746248 0.686870 0.191020
0.758591 0.692372 0.194498
0.770740 0.698009 0.198068
0.782704 0.702607 0.201727
0.794488 0.706606 0.205471
0.805988 0.710672 0.209297
0.200205 0.627494 0.152236
0.201444 0.627556 0.152268
0.205874 0.627778 0.152385
0.213829 0.628185 0.152600
0.225275 0.628794 0.152921
0.239987 0.629615 0.153354
0.258887 0.630655 0.153902
0.281268 0.631921 0.154568
0.305346 0.633417 0.155354
0.330602 0.635147 0.156262
0.357620 0.637110 0.157291
0.386174 0.639310 0.158442
0.414088 0.641744 0.159713
0.441677 0.644411 0.161104
0.469991 0.647274 0.162612
0.498929 0.650212 0.164360
0.527331 0.653361 0.166374
0.552267 0.656716 0.168520
0.577331 0.660274 0.170796
0.602011 0.664028 0.173197
0.626684 0.667974 0.175722
0.651382 0.672107 0.178367
0.669599 0.676419 0.181128
0.686339 0.680906 0.184003
0.702887 0.685561 0.186987
0.719245 0.690377 0.190078
0.734589 0.695348 0.193271
0.747078 0.700357 0.196564
0.759373 0.703937 0.199953
0.771478 0.707600 0.203434
0.783402 0.711341 0.207005
0.795150 0.715157 0.210662
0.806482 0.719042 0.214403
0.210065 0.645958 0.158504
0.211264 0.646016 0.158535
0.215526 0.646225 0.158646
0.223183 0.646609 0.158851
0.234232 0.647153 0.159157
0.248816 0.647878 0.159569
0.267718 0.648799 0.160091
0.289613 0.649919 0.160726
0.312616 0.651243 0.161476
0.337414 0.652774 0.162341
0.364008 0.654513 0.163324
0.392170 0.656462 0.164576
0.419109 0.658619 0.165985
0.446373 0.660985 0.167529
0.474394 0.663557 0.169208
0.503068 0.666333 0.171019
0.530589 0.669311 0.172962
0.555315 0.672487 0.175033
0.580185 0.675857 0.177232
0.604644 0.679418 0.179554
0.629164 0.683164 0.181997
0.653723 0.687090 0.184559
0.671107 0.691192 0.187236
0.687753 0.695464 0.190025
0.704216 0.699900 0.192923
0.720496 0.703097 0.195927
0.735512 0.706321 0.199034
0.747948 0.709638 0.202240
0.760192 0.713043 0.205542
0.772252 0.716532 0.208938
0.784134 0.720100 0.212424
0.795843 0.723743 0.215996
0.807000 0.727456 0.219653
0.220015 0.663137 0.164977
0.221168 0.663188 0.165011
0.225267 0.663373 0.165134
0.232646 0.663712 0.165361
0.243321 0.664219 0.165699
0.258328 0.664903 0.166155
0.276768 0.665770 0.166733
0.297830 0.666826 0.167437
0.320093 0.668075 0.168269
0.344439 0.669519 0.169231
0.370610 0.671160 0.170324
0.398290 0.673000 0.171548
0.424311 0.675038 0.172905
0.451246 0.677274 0.174392
0.478968 0.679708 0.176011
0.507371 0.682336 0.177758
0.533976 0.685157 0.179633
0.558488 0.688168 0.181635
0.583102 0.691366 0.183760
0.607387 0.694747 0.186007
0.631750 0.698308 0.188373
0.655957 0.701429 0.190855
0.672680 0.704085 0.193452
0.689229 0.706848 0.196159
