negative-superia-xtra-400/SuperiaXtra400_Classic_Normal.cube
TITLE "Fuji Superia X-tra 400 Classic Normal"
# Adobe RGB in/out. REPLACES AgX. Fuji Superia X-tra 400 Classic Normal.
LUT_3D_SIZE 9
DOMAIN_MIN 0.0 0.0 0.0
DOMAIN_MAX 1.0 1.0 1.0
0.070593 0.070461 0.087962
0.108438 0.092422 0.090245
0.213796 0.122991 0.092413
0.351469 0.173622 0.095542
0.484868 0.235418 0.100949
0.599320 0.310877 0.108175
0.688316 0.384172 0.119037
0.750446 0.458082 0.133402
0.799598 0.519166 0.150402
0.079242 0.110818 0.090941
0.110525 0.118388 0.091453
0.215761 0.146182 0.093247
0.352818 0.194332 0.096596
0.485753 0.253486 0.101944
0.599870 0.325923 0.109336
0.688607 0.395736 0.120435
0.750623 0.466552 0.134824
0.799739 0.525965 0.151744
0.089514 0.192096 0.094336
0.119015 0.198685 0.094889
0.222695 0.220651 0.096783
0.357629 0.259115 0.100399
0.488920 0.313722 0.105271
0.601839 0.371972 0.113351
0.689650 0.434921 0.125188
0.751258 0.493953 0.139757
0.800244 0.549451 0.156452
0.105468 0.307835 0.101254
0.135494 0.313214 0.101766
0.234990 0.330423 0.103454
0.366342 0.358759 0.107186
0.494692 0.397645 0.113000
0.605437 0.445179 0.122356
0.691558 0.492089 0.134070
0.752423 0.539569 0.148304
0.801171 0.589413 0.164882
0.128459 0.429571 0.111805
0.160024 0.433053 0.112403
0.253128 0.445352 0.114571
0.379064 0.465945 0.119437
0.503197 0.491003 0.126199
0.610761 0.522319 0.135624
0.694387 0.558782 0.147168
0.754152 0.599337 0.161193
0.802549 0.633975 0.178225
0.161773 0.535507 0.129187
0.191063 0.537675 0.129945
0.277419 0.545365 0.132672
0.395709 0.559140 0.137480
0.514455 0.578922 0.144236
0.617845 0.604272 0.153320
0.698162 0.627546 0.164562
0.756466 0.653036 0.179029
0.804398 0.679472 0.194914
0.200205 0.627494 0.152236
0.225275 0.628794 0.152921
0.305346 0.633417 0.155354
0.414088 0.641744 0.159713
0.527331 0.653361 0.166374
0.626684 0.667974 0.175722
0.702887 0.685561 0.186987
0.759373 0.703937 0.199953
0.806482 0.719042 0.214403
0.240120 0.696760 0.179575
0.263545 0.697727 0.180243
0.335640 0.700838 0.182623
0.435233 0.705082 0.186930
0.541128 0.711253 0.193207
0.637236 0.719278 0.201401
0.708549 0.729013 0.211399
0.762870 0.740267 0.223051
0.808697 0.752827 0.236752
0.284832 0.741500 0.209216
0.305219 0.742022 0.209796
0.368878 0.743887 0.211868
0.459014 0.747273 0.215634
0.556874 0.752230 0.221156
0.649432 0.758736 0.228422
0.715120 0.766713 0.238038
0.766948 0.776045 0.250631
0.811289 0.786592 0.265161
0.070593 0.079719 0.111272
0.108438 0.094012 0.111813
0.213796 0.123947 0.113990
0.351469 0.174481 0.118716
0.484868 0.236185 0.125559
0.599320 0.311547 0.134908
0.688316 0.384655 0.146535
0.750446 0.458492 0.160559
0.799598 0.519449 0.177560
0.079242 0.111741 0.112371
0.110525 0.119437 0.112989
0.215761 0.147244 0.115160
0.352818 0.195156 0.120122
0.485753 0.254208 0.126807
0.599870 0.326485 0.136307
0.688607 0.396206 0.147814
0.750623 0.466879 0.161799
0.799739 0.526242 0.178863
0.089514 0.192930 0.116981
0.119015 0.199490 0.117736
0.222695 0.221371 0.120364
0.357629 0.259824 0.124900
0.488920 0.314388 0.131583
0.601839 0.372469 0.141164
0.689650 0.435352 0.152670
0.751258 0.494255 0.166592
0.800244 0.549713 0.183473
0.105468 0.308509 0.125934
0.135494 0.313880 0.126579
0.234990 0.330978 0.128837
0.366342 0.359273 0.133748
0.494692 0.398112 0.140770
0.605437 0.445600 0.149751
0.691558 0.492393 0.161141
0.752423 0.539837 0.175535
0.801171 0.589651 0.191688
0.128459 0.430006 0.139416
0.160024 0.433485 0.140107
0.253128 0.445774 0.142550
0.379064 0.466272 0.146888
0.503197 0.491308 0.153730
0.610761 0.522599 0.162501
0.694387 0.559038 0.174414
0.754152 0.599569 0.188180
0.802549 0.634134 0.203404
0.161773 0.535778 0.156918
0.191063 0.537944 0.157579
0.277419 0.545629 0.159925
0.395709 0.559396 0.164244
0.514455 0.579166 0.171286
0.617845 0.604502 0.180399
0.698162 0.627708 0.191410
0.756466 0.653176 0.204115
0.804398 0.679600 0.218311
0.200205 0.627657 0.179341
0.225275 0.628956 0.180010
0.305346 0.633576 0.182393
0.414088 0.641899 0.186705
0.527331 0.653501 0.192988
0.626684 0.668107 0.201191
0.702887 0.685686 0.211198
0.759373 0.704016 0.222860
0.806482 0.719116 0.236553
0.240120 0.696881 0.204600
0.263545 0.697847 0.205192
0.335640 0.700919 0.207307
0.435233 0.705161 0.211147
0.541128 0.711329 0.216775
0.637236 0.719351 0.224172
0.708549 0.729082 0.233544
0.762870 0.740332 0.245886
0.808697 0.752889 0.260579
0.284832 0.741565 0.231363
0.305219 0.742087 0.231942
0.368878 0.743952 0.234014
0.459014 0.747336 0.237789
0.556874 0.752292 0.243789
0.649432 0.758796 0.251859
0.715120 0.766770 0.261902
0.766948 0.776100 0.273861
0.811289 0.786644 0.287657
0.070593 0.087506 0.206570
0.108438 0.098698 0.207157
0.213796 0.127461 0.209254
0.351469 0.177524 0.213062
0.484868 0.238922 0.218644
0.599320 0.313943 0.225984
0.688316 0.386385 0.235459
0.750446 0.459963 0.247907
0.799598 0.520462 0.262530
0.079242 0.114834 0.207704
0.110525 0.123029 0.208289
0.215761 0.150983 0.210375
0.352818 0.198086 0.214164
0.485753 0.256787 0.219720
0.599870 0.328497 0.227029
0.688607 0.397889 0.236564
0.750623 0.468050 0.249073
0.799739 0.527237 0.263656
0.089514 0.195896 0.211733
0.119015 0.202354 0.212306
0.222695 0.223940 0.214357
0.357629 0.262358 0.218082
0.488920 0.316769 0.223548
0.601839 0.374251 0.230784
0.689650 0.436895 0.240669
0.751258 0.495339 0.253236
0.800244 0.550651 0.267679
0.105468 0.310921 0.218965
0.135494 0.316264 0.219522
0.234990 0.332965 0.221510
0.366342 0.361116 0.225127
0.494692 0.399788 0.230449
0.605437 0.447110 0.238121
0.691558 0.493482 0.248453
0.752423 0.540798 0.260788
0.801171 0.590503 0.274986
0.128459 0.431567 0.229391
0.160024 0.435034 0.229924
0.253128 0.447283 0.231972
0.379064 0.467445 0.235773
0.503197 0.492400 0.241622
0.610761 0.523604 0.249736
0.694387 0.559954 0.259829
0.754152 0.600402 0.271844
0.802549 0.634704 0.285700
0.161773 0.536749 0.244527
0.191063 0.538910 0.245135
0.277419 0.546576 0.247314
0.395709 0.560311 0.251292
0.514455 0.580039 0.257172
0.617845 0.605326 0.264990
0.698162 0.628290 0.274735
0.756466 0.653678 0.286362
0.804398 0.680059 0.299762
0.200205 0.628239 0.264071
0.225275 0.629535 0.264651
0.305346 0.634147 0.266731
0.414088 0.642454 0.270532
0.527331 0.654002 0.276158
0.626684 0.668584 0.283651
0.702887 0.686135 0.293011
0.759373 0.704302 0.303826
0.806482 0.719379 0.315774
0.240120 0.697314 0.286813
0.263545 0.698279 0.287365
0.335640 0.701209 0.289343
0.435233 0.705444 0.292962
0.541128 0.711603 0.298326
0.637236 0.719614 0.305004
0.708549 0.729332 0.313255
0.762870 0.740568 0.323122
0.808697 0.753109 0.334552
0.284832 0.741799 0.311436
0.305219 0.742320 0.311918
0.368878 0.744183 0.313648
0.459014 0.747563 0.316811
0.556874 0.752513 0.321499
0.649432 0.759010 0.327755
0.715120 0.766976 0.335586
0.766948 0.776296 0.344973
0.811289 0.786831 0.355876
0.070593 0.097009 0.346567
0.108438 0.105635 0.347012
0.213796 0.133974 0.348610
0.351469 0.183197 0.351537
0.484868 0.243892 0.355880
0.599320 0.318320 0.361688
0.688316 0.389549 0.368977
0.750446 0.462252 0.377739
0.799598 0.522319 0.387948
0.079242 0.121646 0.347428
0.110525 0.129558 0.347873
0.215761 0.157577 0.349469
0.352818 0.203361 0.352389
0.485753 0.261479 0.356726
0.599870 0.332170 0.362524
0.688607 0.400969 0.369800
0.750623 0.470195 0.378547
0.799739 0.529062 0.388741
0.089514 0.201232 0.350512
0.119015 0.207515 0.350954
0.222695 0.228586 0.352538
0.357629 0.266971 0.355441
0.488920 0.320932 0.359749
0.601839 0.377509 0.365512
0.689650 0.439720 0.372744
0.751258 0.497325 0.381441
0.800244 0.552371 0.391579
0.105468 0.315326 0.356133
0.135494 0.320496 0.356569
0.234990 0.336592 0.358136
0.366342 0.364482 0.361004
0.494692 0.402854 0.365264
0.605437 0.449876 0.370962
0.691558 0.495478 0.378117
0.752423 0.542561 0.386724
0.801171 0.592067 0.396761
0.128459 0.434424 0.364420
0.160024 0.437871 0.364849
0.253128 0.450048 0.366389
0.379064 0.469594 0.369210
0.503197 0.494402 0.373400
0.610761 0.525446 0.379007
0.694387 0.561635 0.386051
0.754152 0.601931 0.394529
0.802549 0.635749 0.404421
0.161773 0.538530 0.375401
0.191063 0.540681 0.375822
0.277419 0.548314 0.377328
0.395709 0.561991 0.380088
0.514455 0.581642 0.384190
0.617845 0.606503 0.389681
0.698162 0.629358 0.396583
0.756466 0.654600 0.404896
0.804398 0.680901 0.414603
0.200205 0.629307 0.389033
0.225275 0.630599 0.389442
0.305346 0.635195 0.390909
0.414088 0.643474 0.393599
0.527331 0.654923 0.397596
0.626684 0.669459 0.402951
0.702887 0.686960 0.409686
0.759373 0.704826 0.417578
0.806482 0.719862 0.425806
0.240120 0.698109 0.405220
0.263545 0.699071 0.405617
0.335640 0.701742 0.407041
0.435233 0.705965 0.409651
0.541128 0.712107 0.413532
0.637236 0.720097 0.418386
0.708549 0.729791 0.424066
0.762870 0.741000 0.430902
0.808697 0.753515 0.438878
0.284832 0.742228 0.422810
0.305219 0.742749 0.423143
0.368878 0.744607 0.424336
0.459014 0.747981 0.426524
0.556874 0.752920 0.429774
0.649432 0.759404 0.434128
0.715120 0.767354 0.439603
0.766948 0.776657 0.446200
0.811289 0.787174 0.453906
0.070593 0.107661 0.486631
0.108438 0.115036 0.486920
0.213796 0.142735 0.487956
0.351469 0.191682 0.489858
0.484868 0.251176 0.492689
0.599320 0.324128 0.496488
0.688316 0.394237 0.501279
0.750446 0.465510 0.507070
0.799598 0.525080 0.513076
0.079242 0.131400 0.487189
0.110525 0.138808 0.487478
0.215761 0.166846 0.488513
0.352818 0.210992 0.490413
0.485753 0.268373 0.493241
0.599870 0.337594 0.497036
0.688607 0.405535 0.501821
0.750623 0.473378 0.507606
0.799739 0.531775 0.513484
0.089514 0.208945 0.489191
0.119015 0.214989 0.489479
0.222695 0.235559 0.490510
0.357629 0.273751 0.492402
0.488920 0.326529 0.495218
0.601839 0.382335 0.498998
0.689650 0.443916 0.503765
0.751258 0.500276 0.509527
0.800244 0.554930 0.514944
0.105468 0.321558 0.492853
0.135494 0.326100 0.493139
0.234990 0.341951 0.494162
0.366342 0.369465 0.496040
0.494692 0.407401 0.498835
0.605437 0.453985 0.502588
0.691558 0.498444 0.507321
0.752423 0.545183 0.512447
0.801171 0.594396 0.517613
0.128459 0.438667 0.498281
0.160024 0.442083 0.498563
0.253128 0.454155 0.499575
0.379064 0.472783 0.501433
0.503197 0.497377 0.504198
0.610761 0.528184 0.507911
0.694387 0.564137 0.512101
0.754152 0.604209 0.516462
0.802549 0.637307 0.521565
0.161773 0.541179 0.505522
0.191063 0.543316 0.505800
0.277419 0.550899 0.506798
0.395709 0.564491 0.508628
0.514455 0.584028 0.511145
0.617845 0.608222 0.513967
0.698162 0.630949 0.517521
0.756466 0.655973 0.521810
0.804398 0.682156 0.526830
0.200205 0.630898 0.513634
0.225275 0.632184 0.513844
0.305346 0.636755 0.514599
0.414088 0.644992 0.515983
0.527331 0.656295 0.518043
0.626684 0.670764 0.520805
0.702887 0.688190 0.524286
0.759373 0.705608 0.528488
0.806482 0.720583 0.533408
0.240120 0.699294 0.521977
0.263545 0.700210 0.522183
0.335640 0.702537 0.522918
0.435233 0.706742 0.524268
0.541128 0.712859 0.526276
0.637236 0.720817 0.528970
0.708549 0.730475 0.532365
0.762870 0.741646 0.536467
0.808697 0.754120 0.541272
0.284832 0.742870 0.531614
0.305219 0.743388 0.531813
0.368878 0.745241 0.532527
0.459014 0.748603 0.533838
0.556874 0.753527 0.535789
0.649432 0.759991 0.538408
0.715120 0.767919 0.541709
0.766948 0.777196 0.545699
0.811289 0.787685 0.550377
0.070593 0.120618 0.591969
0.108438 0.128521 0.592119
0.213796 0.156577 0.592659
0.351469 0.202553 0.593650
0.484868 0.260756 0.595126
0.599320 0.331602 0.597110
0.688316 0.400492 0.599616
0.750446 0.469863 0.602651
0.799598 0.528779 0.606218
0.079242 0.143593 0.592260
0.110525 0.152036 0.592410
0.215761 0.178437 0.592949
0.352818 0.220860 0.593939
0.485753 0.277466 0.595414
0.599870 0.344797 0.597396
0.688607 0.411631 0.599900
0.750623 0.477634 0.602933
0.799739 0.535412 0.606496
0.089514 0.218911 0.593302
0.119015 0.224672 0.593452
0.222695 0.245633 0.593990
0.357629 0.282797 0.594976
0.488920 0.333954 0.596446
0.601839 0.388767 0.598422
0.689650 0.449528 0.600918
0.751258 0.504225 0.603941
0.800244 0.558363 0.607493
0.105468 0.329087 0.595212
0.135494 0.333533 0.595361
0.234990 0.349071 0.595895
0.366342 0.376102 0.596876
0.494692 0.413471 0.598337
0.605437 0.459483 0.600302
0.691558 0.502413 0.602783
0.752423 0.548699 0.605789
0.801171 0.597524 0.609321
0.128459 0.444340 0.598047
0.160024 0.447716 0.598195
0.253128 0.459651 0.598724
0.379064 0.477046 0.599697
0.503197 0.501358 0.601145
0.610761 0.531855 0.603093
0.694387 0.567495 0.605553
0.754152 0.606831 0.608533
0.802549 0.639399 0.612035
0.161773 0.544730 0.601839
0.191063 0.546848 0.601985
0.277419 0.554366 0.602508
0.395709 0.567846 0.603469
0.514455 0.587231 0.604901
0.617845 0.610528 0.606826
0.698162 0.633086 0.609258
0.756466 0.657818 0.612204
0.804398 0.683843 0.615668
0.200205 0.633035 0.606598
0.225275 0.634311 0.606742
0.305346 0.638851 0.607258
0.414088 0.647013 0.608205
0.527331 0.658138 0.609616
0.626684 0.672518 0.611513
0.702887 0.689844 0.613910
0.759373 0.706658 0.616816
0.806482 0.721553 0.620232
0.240120 0.700643 0.612320
0.263545 0.701292 0.612461
0.335640 0.703605 0.612968
0.435233 0.707786 0.613898
0.541128 0.713869 0.615285
0.637236 0.721785 0.617150
0.708549 0.731395 0.619507
0.762870 0.742514 0.622363
0.808697 0.754935 0.625723
0.284832 0.743733 0.618984
0.305219 0.744249 0.619123
0.368878 0.746093 0.619619
0.459014 0.749441 0.620531
0.556874 0.754344 0.621891
0.649432 0.760782 0.623719
0.715120 0.768679 0.626030
0.766948 0.777922 0.628831
0.811289 0.788375 0.632127
0.070593 0.137085 0.679937
0.108438 0.144402 0.680017
0.213796 0.172241 0.680308
0.351469 0.215542 0.680841
0.484868 0.272542 0.681637
0.599320 0.340890 0.682708
0.688316 0.408320 0.684062
0.750446 0.475322 0.685705
0.799598 0.533434 0.687640
0.079242 0.160831 0.680093
0.110525 0.168222 0.680174
0.215761 0.193009 0.680464
0.352818 0.232773 0.680997
0.485753 0.289271 0.681792
0.599870 0.353763 0.682862
0.688607 0.419265 0.684215
0.750623 0.482974 0.685857
0.799739 0.539989 0.687791
0.089514 0.230931 0.680654
0.119015 0.236729 0.680735
0.222695 0.257981 0.681025
0.357629 0.294763 0.681556
0.488920 0.343182 0.682349
0.601839 0.396808 0.683417
0.689650 0.456573 0.684766
0.751258 0.509189 0.686404
0.800244 0.562688 0.688333
0.105468 0.338439 0.681683
0.135494 0.342772 0.681764
0.234990 0.357937 0.682052
0.366342 0.384389 0.682581
0.494692 0.421074 0.683371
0.605437 0.465287 0.684433
0.691558 0.507401 0.685776
0.752423 0.553128 0.687407
0.801171 0.601470 0.689327
0.128459 0.451461 0.683214
0.160024 0.454787 0.683294
0.253128 0.465422 0.683580
0.379064 0.482394 0.684105
0.503197 0.506359 0.684889
0.610761 0.536474 0.685944
0.694387 0.571726 0.687279
0.754152 0.609775 0.688898
0.802549 0.642040 0.690806
0.161773 0.549202 0.685265
0.191063 0.551297 0.685344
0.277419 0.558733 0.685628
0.395709 0.572073 0.686148
0.514455 0.591271 0.686925
0.617845 0.613435 0.687970
0.698162 0.635781 0.689293
0.756466 0.660148 0.690898
0.804398 0.685976 0.692788
0.200205 0.635731 0.687847
0.225275 0.636996 0.687925
0.305346 0.641497 0.688205
0.414088 0.649433 0.688720
0.527331 0.660466 0.689488
0.626684 0.674733 0.690521
0.702887 0.691934 0.691828
0.759373 0.707986 0.693415
0.806482 0.722779 0.695285
0.240120 0.702015 0.690961
0.263545 0.702659 0.691038
0.335640 0.704955 0.691314
0.435233 0.709106 0.691822
0.541128 0.715147 0.692579
0.637236 0.723010 0.693598
0.708549 0.732559 0.694887
0.762870 0.743613 0.696453
0.808697 0.755966 0.698297
0.284832 0.744825 0.694602
0.305219 0.745338 0.694677
0.368878 0.747172 0.694949
0.459014 0.750502 0.695449
0.556874 0.755379 0.696194
0.649432 0.761783 0.697197
0.715120 0.769641 0.698466
0.766948 0.778842 0.700006
0.811289 0.789249 0.701822
0.070593 0.157458 0.738515
0.108438 0.165036 0.738578
0.213796 0.190063 0.738803
0.351469 0.230364 0.739216
0.484868 0.286793 0.739833
0.599320 0.351927 0.740664
0.688316 0.417697 0.741716
0.750446 0.481876 0.742996
0.799598 0.539047 0.744507
0.079242 0.179188 0.738637
0.110525 0.186171 0.738699
0.215761 0.209530 0.738924
0.352818 0.248286 0.739337
0.485753 0.303631 0.739953
0.599870 0.364438 0.740784
0.688607 0.428420 0.741836
0.750623 0.489389 0.743115
0.799739 0.545511 0.744625
0.089514 0.246302 0.739071
0.119015 0.252181 0.739134
0.222695 0.272443 0.739358
0.357629 0.308948 0.739770
0.488920 0.354153 0.740386
0.601839 0.406432 0.741215
0.689650 0.464195 0.742265
0.751258 0.515165 0.743542
0.800244 0.567911 0.745049
0.105468 0.349548 0.739869
0.135494 0.353755 0.739931
0.234990 0.368501 0.740155
0.366342 0.394293 0.740566
0.494692 0.430194 0.741179
0.605437 0.472032 0.742005
0.691558 0.513405 0.743052
0.752423 0.558473 0.744324
0.801171 0.606049 0.745827
0.128459 0.460021 0.741057
0.160024 0.462766 0.741119
0.253128 0.472165 0.741342
0.379064 0.488820 0.741750
0.503197 0.512380 0.742361
0.610761 0.542044 0.743183
0.694387 0.576838 0.744224
0.754152 0.613332 0.745491
0.802549 0.645235 0.746986
0.161773 0.554599 0.742653
0.191063 0.556666 0.742715
0.277419 0.564006 0.742936
0.395709 0.577181 0.743342
0.514455 0.596156 0.743948
0.617845 0.616947 0.744765
0.698162 0.639042 0.745800
0.756466 0.662970 0.747058
0.804398 0.688560 0.748543
0.200205 0.638993 0.744668
0.225275 0.640244 0.744729
0.305346 0.644697 0.744948
0.414088 0.652361 0.745351
0.527331 0.663284 0.745952
0.626684 0.677417 0.746762
0.702887 0.694468 0.747789
0.759373 0.709595 0.749036
0.806482 0.724266 0.750510
0.240120 0.703677 0.747107
0.263545 0.704316 0.747168
0.335640 0.706591 0.747385
0.435233 0.710706 0.747783
0.541128 0.716695 0.748378
0.637236 0.724495 0.749180
0.708549 0.733972 0.750196
0.762870 0.744947 0.751432
0.808697 0.757219 0.752891
0.284832 0.746151 0.749971
0.305219 0.746661 0.750031
0.368878 0.748482 0.750245
0.459014 0.751790 0.750639
0.556874 0.756635 0.751227
0.649432 0.763000 0.752020
0.715120 0.770811 0.753024
0.766948 0.779959 0.754245
0.811289 0.790311 0.755687
0.070593 0.179496 0.784583
0.108438 0.186492 0.784616
0.213796 0.209814 0.784732
0.351469 0.248559 0.784946
0.484868 0.303884 0.785266
0.599320 0.364627 0.785697
0.688316 0.428583 0.786243
0.750446 0.489503 0.786907
0.799598 0.545609 0.787692
0.079242 0.199994 0.784646
0.110525 0.206316 0.784678
0.215761 0.227505 0.784795
0.352818 0.265894 0.785009
0.485753 0.320046 0.785328
0.599870 0.376747 0.785759
0.688607 0.439059 0.786305
0.750623 0.496860 0.786969
0.799739 0.551968 0.787754
0.089514 0.264019 0.784871
0.119015 0.269581 0.784903
0.222695 0.289430 0.785020
0.357629 0.324513 0.785233
0.488920 0.366782 0.785552
0.601839 0.417590 0.785982
0.689650 0.472213 0.786527
0.751258 0.522138 0.787191
0.800244 0.574028 0.787974
0.105468 0.362325 0.785284
0.135494 0.366396 0.785317
0.234990 0.380687 0.785433
0.366342 0.405760 0.785646
0.494692 0.440793 0.785964
0.605437 0.479873 0.786393
0.691558 0.520411 0.786936
0.752423 0.564729 0.787598
0.801171 0.610321 0.788379
0.128459 0.468217 0.785901
0.160024 0.470817 0.785933
0.253128 0.480002 0.786048
0.379064 0.496303 0.786260
0.503197 0.519405 0.786577
0.610761 0.548556 0.787004
0.694387 0.582827 0.787546
0.754152 0.617499 0.788204
0.802549 0.648848 0.788983
0.161773 0.560914 0.786729
0.191063 0.562950 0.786761
0.277419 0.570180 0.786876
0.395709 0.583166 0.787087
0.514455 0.601885 0.787402
0.617845 0.621064 0.787827
0.698162 0.642869 0.788365
0.756466 0.666283 0.789020
0.804398 0.691600 0.789795
0.200205 0.642820 0.787777
0.225275 0.644056 0.787808
0.305346 0.648349 0.787922
0.414088 0.655799 0.788132
0.527331 0.666594 0.788445
0.626684 0.680572 0.788867
0.702887 0.697450 0.789401
0.759373 0.711488 0.790052
0.806482 0.726016 0.790821
0.240120 0.705631 0.789046
0.263545 0.706263 0.789078
0.335640 0.708515 0.789191
0.435233 0.712587 0.789398
0.541128 0.718517 0.789709
0.637236 0.726244 0.790127
0.708549 0.735636 0.790657
0.762870 0.746519 0.791302
0.808697 0.758696 0.792065
0.284832 0.747713 0.790540
0.305219 0.748219 0.790571
0.368878 0.750026 0.790683
0.459014 0.753308 0.790888
0.556874 0.758117 0.791196
0.649432 0.764434 0.791610
0.715120 0.772191 0.792135
0.766948 0.781278 0.792774
0.811289 0.791565 0.793529
