negative-superia-xtra-400/SuperiaXtra400_Classic_Soft.cube
TITLE "Fuji Superia X-tra 400 Classic Soft"
# Adobe RGB in/out. REPLACES AgX. Fuji Superia X-tra 400 Classic Soft.
LUT_3D_SIZE 9
DOMAIN_MIN 0.0 0.0 0.0
DOMAIN_MAX 1.0 1.0 1.0
0.060829 0.068055 0.085817
0.080725 0.071110 0.087129
0.181390 0.077731 0.089664
0.449660 0.088443 0.093586
0.600604 0.099881 0.098425
0.673857 0.113087 0.104301
0.720403 0.120607 0.110934
0.753655 0.086953 0.212583
0.759647 0.166968 0.421203
0.062076 0.082900 0.087423
0.074309 0.085784 0.088807
0.160873 0.088562 0.091194
0.416703 0.097006 0.094472
0.588259 0.109291 0.099328
0.668960 0.124568 0.105085
0.719190 0.129855 0.111452
0.753656 0.086963 0.212605
0.759648 0.166975 0.421200
0.064671 0.124692 0.090846
0.070887 0.132457 0.092608
0.108511 0.139483 0.094621
0.311031 0.150639 0.098435
0.533529 0.169392 0.102849
0.645113 0.197336 0.108006
0.712168 0.215231 0.114459
0.753993 0.090371 0.215734
0.759648 0.166975 0.421200
0.068044 0.271775 0.095522
0.072542 0.291236 0.097267
0.097592 0.322553 0.100368
0.208480 0.325828 0.104019
0.456082 0.337133 0.108100
0.610026 0.359808 0.113270
0.696986 0.380956 0.120004
0.740330 0.381381 0.129007
0.759648 0.167060 0.244764
0.071766 0.453755 0.101313
0.075456 0.462428 0.102939
0.094521 0.486982 0.106827
0.175270 0.499452 0.110809
0.395809 0.500904 0.115330
0.567024 0.508346 0.121256
0.669509 0.521328 0.128641
0.732212 0.530026 0.137557
0.759410 0.533602 0.160707
0.075397 0.571194 0.107449
0.078191 0.575012 0.108567
0.095072 0.590504 0.113261
0.157850 0.601672 0.118802
0.346878 0.605623 0.125063
0.520675 0.607342 0.131129
0.639539 0.613049 0.139503
0.720977 0.621913 0.148797
0.757241 0.633658 0.163362
0.077307 0.656737 0.112649
0.079895 0.658236 0.114003
0.094558 0.664572 0.119452
0.147049 0.670583 0.127422
0.305251 0.673444 0.134954
0.483967 0.674452 0.143420
0.613060 0.676190 0.152011
0.707695 0.679963 0.162785
0.755393 0.686932 0.178032
0.072489 0.715026 0.111324
0.074629 0.715031 0.112570
0.090282 0.716001 0.121598
0.133596 0.718574 0.131946
0.274408 0.719622 0.143323
0.454991 0.719702 0.154146
0.592114 0.720424 0.164589
0.689948 0.723166 0.177120
0.755174 0.727764 0.192872
0.060829 0.730367 0.104568
0.060829 0.730370 0.104570
0.092562 0.755785 0.104608
0.092564 0.756828 0.120787
0.207734 0.760816 0.136161
0.418801 0.758469 0.152358
0.568168 0.757551 0.165922
0.666421 0.758853 0.179614
0.759545 0.762549 0.190338
0.061291 0.070283 0.101630
0.073845 0.073272 0.105035
0.164923 0.079896 0.106340
0.463853 0.090291 0.107853
0.605400 0.101717 0.108058
0.674851 0.115007 0.110861
0.720299 0.122231 0.117192
0.753656 0.086962 0.212608
0.759648 0.166974 0.421205
0.064928 0.082907 0.103602
0.083365 0.088616 0.107157
0.163975 0.090430 0.106005
0.431663 0.099839 0.108308
0.595383 0.111819 0.108921
0.670602 0.125981 0.111778
0.719161 0.131161 0.117642
0.753657 0.086978 0.212643
0.759648 0.166975 0.421201
0.068729 0.122943 0.106061
0.076732 0.128180 0.106771
0.125153 0.133050 0.108101
0.358778 0.152666 0.111077
0.548991 0.173058 0.112820
0.650226 0.199884 0.115748
0.712808 0.217239 0.121288
0.754091 0.091469 0.217116
0.759648 0.166975 0.421200
0.072479 0.265100 0.108773
0.077832 0.280507 0.110133
0.108108 0.308409 0.112899
0.247869 0.318303 0.116011
0.477521 0.335136 0.118837
0.617146 0.360224 0.122309
0.699888 0.381004 0.128194
0.740475 0.382200 0.136030
0.759648 0.167001 0.421194
0.075560 0.449056 0.111509
0.079623 0.456876 0.113056
0.101902 0.478581 0.117450
0.187330 0.491542 0.122255
0.411875 0.496101 0.127378
0.578350 0.506141 0.131273
0.674146 0.520276 0.137568
0.732979 0.529548 0.145939
0.759372 0.534549 0.176686
0.078036 0.568440 0.115440
0.081350 0.572138 0.116996
0.100300 0.586510 0.122689
0.169716 0.597409 0.129119
0.361118 0.602172 0.135392
0.530595 0.605063 0.142755
0.644488 0.611775 0.149693
0.722646 0.621105 0.159009
0.757286 0.633814 0.173597
0.079544 0.655785 0.119915
0.082208 0.657236 0.121749
0.098388 0.663252 0.128411
0.155585 0.669059 0.136683
0.320752 0.672053 0.145592
0.492233 0.673391 0.154619
0.617499 0.675439 0.163946
0.709864 0.679507 0.174943
0.755599 0.686863 0.189548
0.074090 0.714106 0.116428
0.076352 0.714203 0.118045
0.092831 0.715301 0.129298
0.139543 0.717785 0.141421
0.284106 0.718900 0.153619
0.461035 0.719128 0.165222
0.595217 0.720027 0.178168
0.692934 0.722887 0.191416
0.755528 0.727682 0.205290
0.060829 0.735603 0.188435
0.060844 0.735606 0.188436
0.092562 0.760392 0.188438
0.092565 0.760392 0.188424
0.213097 0.760759 0.145039
0.421891 0.758394 0.163205
0.570798 0.757530 0.179866
0.668158 0.758880 0.194042
0.759940 0.762590 0.203693
0.062285 0.075368 0.143759
0.078460 0.079076 0.189060
0.155058 0.085400 0.179345
0.456651 0.094644 0.178531
0.605727 0.107012 0.180892
0.675167 0.122101 0.191671
0.719815 0.128161 0.207342
0.753839 0.088921 0.232432
0.759648 0.166975 0.421244
0.066361 0.087039 0.147942
0.079681 0.089690 0.156634
0.157207 0.094326 0.162351
0.433661 0.104585 0.168333
0.598560 0.119243 0.174537
0.671956 0.131600 0.186046
0.718861 0.141387 0.198683
0.753909 0.089647 0.235174
0.759648 0.166975 0.421208
0.072848 0.124675 0.153444
0.081697 0.128410 0.152733
0.160530 0.155103 0.166573
0.385222 0.158594 0.163280
0.568020 0.181644 0.170688
0.657561 0.211634 0.182303
0.714028 0.227772 0.189885
0.753385 0.121302 0.246461
0.759648 0.166975 0.421201
0.079461 0.263423 0.163723
0.085876 0.274719 0.163902
0.126691 0.296894 0.164996
0.303014 0.313001 0.167675
0.515357 0.337850 0.176305
0.632496 0.366021 0.186748
0.704876 0.385284 0.192773
0.740920 0.386566 0.211216
0.759648 0.166979 0.421206
0.084666 0.446884 0.172494
0.090095 0.452597 0.173708
0.121677 0.468527 0.177173
0.246956 0.481239 0.181544
0.453149 0.489751 0.186928
0.600805 0.504080 0.197024
0.685839 0.520102 0.203246
0.735140 0.528929 0.218822
0.759228 0.538226 0.298090
0.088740 0.566047 0.184398
0.093630 0.568963 0.185836
0.120585 0.579614 0.190895
0.210823 0.589220 0.196930
0.408617 0.595332 0.203525
0.562042 0.600552 0.211423
0.660536 0.609289 0.219693
0.727188 0.619177 0.236236
0.757435 0.634526 0.245093
0.090000 0.654072 0.189706
0.094012 0.655316 0.191478
0.116173 0.660122 0.198237
0.183504 0.665131 0.207263
0.367934 0.668384 0.217331
0.522583 0.670603 0.228620
0.633426 0.673510 0.240624
0.716775 0.678151 0.259663
0.756232 0.686718 0.261529
0.085061 0.709275 0.196682
0.087917 0.709828 0.198929
0.108473 0.712174 0.210917
0.169728 0.714744 0.224964
0.329622 0.716235 0.239146
0.486748 0.717045 0.254326
0.608753 0.718610 0.269974
0.703897 0.721881 0.285959
0.756515 0.727455 0.286054
0.060845 0.735606 0.188447
0.092561 0.760392 0.188445
0.092562 0.760393 0.188442
0.092586 0.760395 0.188444
0.244845 0.760056 0.211364
0.439332 0.757922 0.245763
0.582309 0.757326 0.269698
0.675773 0.758887 0.289767
0.760607 0.762768 0.298903
0.063545 0.083447 0.266554
0.073671 0.088490 0.350207
0.153828 0.094062 0.379790
0.433081 0.102844 0.373962
0.599799 0.117728 0.380493
0.672097 0.131320 0.393506
0.718457 0.144496 0.417601
0.748956 0.117384 0.469606
0.759648 0.166975 0.473064
0.067071 0.093305 0.279114
0.077120 0.097264 0.316403
0.156947 0.103867 0.352766
0.418460 0.113651 0.354339
0.593947 0.128758 0.365333
0.669358 0.149336 0.381391
0.717589 0.160718 0.409075
0.748457 0.125564 0.465749
0.759648 0.166975 0.473546
0.075799 0.133634 0.291574
0.084252 0.142035 0.292062
0.151073 0.156134 0.309150
0.384357 0.170584 0.321248
0.569652 0.196714 0.337892
0.657739 0.229020 0.354324
0.713515 0.247575 0.380920
0.744468 0.231149 0.437147
0.759648 0.166975 0.475296
0.084084 0.271521 0.306645
0.091742 0.280324 0.304654
0.140054 0.301113 0.304892
0.354607 0.340168 0.331985
0.527934 0.348977 0.328934
0.638086 0.374524 0.343038
0.706352 0.394594 0.360576
0.740649 0.399237 0.399968
0.759648 0.167004 0.475822
0.092743 0.448356 0.330643
0.099891 0.452901 0.329602
0.140429 0.466394 0.329042
0.288500 0.478911 0.330946
0.480128 0.489536 0.336429
0.612321 0.505969 0.348548
0.692511 0.522763 0.361812
0.736055 0.531533 0.382648
0.758962 0.544895 0.468664
0.099671 0.565340 0.349961
0.105848 0.567794 0.349744
0.141945 0.576606 0.350457
0.258264 0.585344 0.352327
0.438115 0.592180 0.356618
0.584823 0.598825 0.363458
0.672025 0.608741 0.376305
0.729985 0.619079 0.389989
0.757474 0.636874 0.435292
0.102473 0.653205 0.371571
0.107787 0.654259 0.371686
0.137698 0.658228 0.373444
0.230936 0.662674 0.376636
0.406694 0.666042 0.381631
0.548184 0.668864 0.388871
0.648282 0.672430 0.397220
0.722067 0.677565 0.406703
0.756705 0.687191 0.423498
0.096338 0.707595 0.400999
0.100566 0.708173 0.400899
0.125941 0.710441 0.402192
0.195359 0.712776 0.404300
0.366760 0.714461 0.408221
0.512700 0.715731 0.413711
0.622383 0.717760 0.420917
0.711396 0.721373 0.429382
0.757343 0.727706 0.433914
0.077134 0.749119 0.489249
0.092558 0.763147 0.489249
0.092562 0.763151 0.489247
0.125422 0.765378 0.421503
0.292638 0.758609 0.446939
0.464154 0.757240 0.449518
0.593392 0.757144 0.455068
0.686645 0.758949 0.462143
0.761076 0.763278 0.460088
0.065148 0.093195 0.458210
0.070373 0.096390 0.482838
0.145336 0.106955 0.522792
0.416559 0.118370 0.524346
0.591734 0.131053 0.526384
0.667897 0.155450 0.533160
0.716649 0.169457 0.542620
0.746033 0.148359 0.556452
0.759648 0.166976 0.573017
0.067582 0.102085 0.464916
0.074074 0.106215 0.481698
0.146769 0.118840 0.517054
0.408009 0.129150 0.520265
0.586807 0.149782 0.523137
0.665449 0.171641 0.530666
0.715856 0.184896 0.540855
0.745645 0.163153 0.555547
0.759648 0.166976 0.570536
0.077171 0.155478 0.473910
0.084428 0.161757 0.477437
0.147491 0.178193 0.496806
0.382104 0.195861 0.506448
0.564260 0.222033 0.512535
0.655610 0.256245 0.522153
0.712339 0.278214 0.534186
0.743159 0.273043 0.551326
0.759648 0.166982 0.562284
0.087780 0.296348 0.481397
0.095931 0.304188 0.480813
0.149738 0.324272 0.484991
0.350173 0.344237 0.493090
0.530651 0.364749 0.500267
0.639368 0.389633 0.512092
0.706257 0.410592 0.524727
0.740078 0.418549 0.543386
0.760764 0.352630 0.562363
0.099115 0.453960 0.492203
0.107167 0.458155 0.491063
0.154695 0.470531 0.490109
0.311622 0.483358 0.492314
0.502736 0.505065 0.506831
0.618130 0.512645 0.507857
0.695394 0.528022 0.518997
0.736207 0.537438 0.534071
0.758611 0.553665 0.564907
0.108969 0.567394 0.509436
0.116548 0.569559 0.508442
0.161266 0.577325 0.506567
0.289571 0.585603 0.506050
0.460919 0.592973 0.508319
0.595049 0.600430 0.512682
0.678740 0.610891 0.520899
0.731495 0.621694 0.530538
0.757358 0.641060 0.560507
0.113788 0.653589 0.527175
0.120425 0.654542 0.526425
0.159222 0.658018 0.524561
0.269482 0.662116 0.523119
0.428327 0.665576 0.523415
0.567436 0.668777 0.525551
0.658538 0.672766 0.529363
0.725434 0.678081 0.535329
0.756877 0.688658 0.554634
0.106505 0.707549 0.551603
0.111657 0.708052 0.550581
0.144168 0.709958 0.547301
0.230013 0.712114 0.544113
0.397872 0.713859 0.542397
0.531438 0.715436 0.542754
0.633725 0.717802 0.544961
0.716808 0.721717 0.548477
0.757818 0.728738 0.553655
0.081043 0.753960 0.627342
0.083107 0.756011 0.627342
0.088158 0.760820 0.627341
0.157470 0.760346 0.583603
0.322915 0.758410 0.576158
0.479920 0.757387 0.573022
0.601686 0.757502 0.572614
0.694899 0.759501 0.575088
0.761392 0.764445 0.568115
0.066863 0.106621 0.586533
0.069953 0.108232 0.595962
0.137156 0.126199 0.609417
0.400656 0.138423 0.610633
0.585485 0.161198 0.612136
0.663805 0.182135 0.614516
0.714850 0.201491 0.617604
0.744348 0.185853 0.619952
0.759648 0.166976 0.612578
0.068488 0.116193 0.589664
0.072547 0.119190 0.596750
0.138306 0.136895 0.609118
0.394382 0.156149 0.610554
0.581405 0.176917 0.612196
0.661672 0.201764 0.614596
0.714154 0.222389 0.617833
0.744006 0.206021 0.620281
0.759648 0.166976 0.612578
0.078278 0.179692 0.595597
0.083784 0.184265 0.598168
0.144706 0.210919 0.607060
0.373445 0.232784 0.609892
0.560605 0.260759 0.612000
0.653251 0.289658 0.614724
0.711165 0.312394 0.618535
0.742095 0.314228 0.621933
0.759648 0.166982 0.612577
0.090284 0.323038 0.597600
0.097640 0.328143 0.598172
0.154485 0.353706 0.603151
0.353070 0.370944 0.607651
0.533332 0.389161 0.610680
0.639334 0.409640 0.613945
0.705904 0.431145 0.618710
0.739512 0.442026 0.623800
0.760297 0.403725 0.615372
0.104334 0.467656 0.601089
0.112458 0.471153 0.600929
0.166173 0.484035 0.602361
0.331819 0.497123 0.605451
0.504598 0.509570 0.609034
0.621094 0.523438 0.612554
0.696739 0.535587 0.618016
0.736219 0.545592 0.624763
0.758280 0.563695 0.628386
0.116160 0.571950 0.607470
0.124549 0.574036 0.607032
0.174161 0.581282 0.606437
0.310059 0.589374 0.607141
0.473693 0.597039 0.609495
0.603078 0.608010 0.614718
0.682656 0.615538 0.617783
0.732316 0.626396 0.624502
0.757259 0.646513 0.633429
0.122447 0.655322 0.617605
0.130134 0.656182 0.617045
0.174059 0.659366 0.615694
0.291083 0.663258 0.614785
0.445625 0.666776 0.615338
0.580251 0.670178 0.617134
0.665004 0.674413 0.619950
0.727445 0.679827 0.624813
0.756969 0.690885 0.635956
0.113405 0.708810 0.633327
0.119328 0.709265 0.632587
0.157280 0.710947 0.630013
0.253731 0.712905 0.627364
0.411000 0.714642 0.625809
0.543893 0.716385 0.625782
0.641500 0.718948 0.627080
0.720078 0.723014 0.629337
0.758047 0.730442 0.636329
0.082416 0.755300 0.650073
0.084245 0.757092 0.651275
0.088509 0.761140 0.655846
0.163483 0.761330 0.651890
0.338155 0.759297 0.646469
0.488270 0.758384 0.643844
0.606322 0.758673 0.643171
0.699630 0.760727 0.644261
0.761512 0.765971 0.643405
0.068478 0.127126 0.669670
0.071189 0.127868 0.674487
0.121294 0.153789 0.673789
0.388516 0.171271 0.673730
0.582233 0.193582 0.674625
0.661950 0.221628 0.675619
0.714022 0.241140 0.676580
0.743430 0.231318 0.675666
0.759647 0.166962 0.662883
0.069800 0.135580 0.670859
0.073055 0.138336 0.674707
0.123892 0.167977 0.674514
0.382512 0.185584 0.674413
0.577756 0.213088 0.675265
0.660229 0.241884 0.676214
0.713399 0.263581 0.677155
0.743132 0.253041 0.676274
0.759647 0.166957 0.662442
0.078965 0.210660 0.674177
0.083313 0.215098 0.675704
0.135229 0.244945 0.676658
0.368991 0.271187 0.676666
0.560944 0.297749 0.677399
0.653222 0.323487 0.678234
0.710805 0.343907 0.679182
0.741592 0.350169 0.678813
0.759640 0.166846 0.660436
0.092095 0.355265 0.675362
0.098643 0.359130 0.676232
0.153227 0.377845 0.678169
0.356121 0.396097 0.679036
0.537611 0.414752 0.679879
0.641331 0.435065 0.680909
0.706303 0.450885 0.681996
0.739427 0.459980 0.682350
0.759457 0.460812 0.674235
0.107802 0.484041 0.675815
0.115780 0.487050 0.676342
0.170611 0.499447 0.678343
0.344338 0.512838 0.680196
0.513692 0.524958 0.681724
0.625348 0.534557 0.683084
0.698710 0.544250 0.684598
0.736608 0.554230 0.686047
0.758138 0.573561 0.681963
0.121845 0.580158 0.677214
0.130494 0.582008 0.677406
0.182290 0.589038 0.678547
0.329375 0.597353 0.680512
0.486141 0.605033 0.682645
0.607333 0.612965 0.684592
0.686189 0.621826 0.686619
0.733204 0.631983 0.689027
0.757321 0.650158 0.688103
0.127384 0.658407 0.680906
0.136181 0.659236 0.680798
0.182421 0.662238 0.680806
0.305439 0.665956 0.681630
0.457101 0.669488 0.683423
0.586669 0.672950 0.685495
0.669070 0.677155 0.687300
0.728944 0.682439 0.690859
0.757180 0.693570 0.693317
0.114989 0.711713 0.688661
0.121230 0.712109 0.688310
0.161641 0.713532 0.687092
0.263856 0.715272 0.686221
0.417529 0.716894 0.686325
0.550904 0.718613 0.687398
0.646076 0.721226 0.689236
0.721808 0.725243 0.691652
0.758258 0.732705 0.697186
0.082242 0.755115 0.685279
0.085830 0.758600 0.685284
0.091014 0.763077 0.685427
0.151959 0.764499 0.699144
0.333595 0.761400 0.695676
0.487912 0.760372 0.694699
0.606645 0.760652 0.694856
0.699904 0.762716 0.695980
0.761620 0.767972 0.704114
0.071282 0.161149 0.728136
0.073819 0.162063 0.728137
0.128447 0.181892 0.725774
0.404848 0.204061 0.725633
0.589271 0.230953 0.726030
0.666226 0.259555 0.726524
0.715401 0.278001 0.726867
0.744394 0.264189 0.727150
0.759760 0.182470 0.713448
0.072706 0.173017 0.728313
0.075559 0.174335 0.728325
0.132084 0.197847 0.726246
0.401734 0.222057 0.726064
0.586998 0.249664 0.726417
0.664957 0.279112 0.726880
0.714954 0.296937 0.727218
0.744135 0.285330 0.727482
0.759797 0.187773 0.713448
0.082104 0.256793 0.728974
0.086015 0.260093 0.728967
0.152126 0.285933 0.727804
0.392997 0.308307 0.727537
0.575608 0.329959 0.727754
0.659288 0.356560 0.728124
0.712884 0.371521 0.728471
0.742837 0.371343 0.728705
0.760203 0.261894 0.713447
0.095358 0.382616 0.729915
0.101720 0.385413 0.730022
0.169914 0.402611 0.729591
0.378366 0.418855 0.729363
0.554842 0.436801 0.729500
0.649800 0.453098 0.729834
0.709438 0.465625 0.730255
0.741079 0.472223 0.730539
0.759601 0.479810 0.725571
0.111875 0.501179 0.730491
0.119897 0.503517 0.730745
0.183263 0.515305 0.730997
0.364060 0.526109 0.731114
0.531328 0.534595 0.731356
0.635861 0.543716 0.731729
0.704144 0.552587 0.732203
0.738773 0.560383 0.732647
0.758597 0.580812 0.729613
0.125866 0.589552 0.730608
0.134970 0.591123 0.730968
0.188090 0.598104 0.731790
0.349380 0.605451 0.732436
0.503964 0.612634 0.732926
0.617890 0.620362 0.733490
0.693750 0.628122 0.734089
0.735904 0.636377 0.734732
0.757980 0.653237 0.732832
0.129724 0.662565 0.730132
0.138843 0.663303 0.730474
0.183456 0.666309 0.731589
0.319188 0.669740 0.732941
0.468857 0.672970 0.734047
0.595245 0.676285 0.734947
0.676683 0.680186 0.735760
0.731891 0.684943 0.736787
0.757876 0.696044 0.735665
0.109134 0.717104 0.730645
0.115268 0.717344 0.730720
0.155951 0.718103 0.731062
0.260060 0.719246 0.732138
0.418707 0.720449 0.733799
0.554847 0.721996 0.735418
0.649723 0.724451 0.736827
0.722067 0.726992 0.736862
0.758721 0.735198 0.738438
0.080280 0.753257 0.722508
0.090706 0.762918 0.722924
0.092453 0.764349 0.725784
0.135606 0.767642 0.730836
0.301196 0.765271 0.731173
0.476027 0.763712 0.732083
0.601357 0.763725 0.733332
0.694396 0.765574 0.734437
0.761734 0.770376 0.742951
0.095459 0.192663 0.765120
0.104013 0.195374 0.765140
0.243607 0.206346 0.765210
0.533713 0.225617 0.765408
0.633684 0.248997 0.765707
0.690928 0.271397 0.766092
0.725369 0.276779 0.766930
0.749802 0.231971 0.768505
0.759648 0.215427 0.758260
0.098318 0.205268 0.765115
0.107076 0.208105 0.765135
0.245128 0.219553 0.765204
0.531767 0.239556 0.765401
0.632866 0.264881 0.765700
0.690519 0.285787 0.766091
0.725226 0.291345 0.766916
0.749673 0.244803 0.768479
0.759648 0.231734 0.764798
0.113061 0.274813 0.764941
0.123950 0.277742 0.764964
0.259115 0.289379 0.765047
0.523725 0.309312 0.765273
0.629183 0.328973 0.765589
0.688640 0.350112 0.766019
0.724502 0.356370 0.766800
0.749026 0.318694 0.768271
0.759648 0.231793 0.764798
0.141506 0.397250 0.764688
0.157388 0.399193 0.764726
0.282588 0.406864 0.764855
0.508109 0.419826 0.765121
0.621643 0.435187 0.765460
0.684546 0.448225 0.765915
0.723019 0.453820 0.766680
0.747955 0.445010 0.767941
0.761314 0.480707 0.769620
0.163153 0.509361 0.764744
0.178403 0.510682 0.764796
0.288880 0.515997 0.764970
0.484199 0.524349 0.765224
0.609873 0.531480 0.765604
0.677988 0.538478 0.766079
0.720742 0.543172 0.766774
0.747023 0.542750 0.767948
0.761495 0.569825 0.770776
0.167393 0.593362 0.765203
0.181552 0.594177 0.765264
0.280940 0.597538 0.765462
0.452336 0.602725 0.765741
0.591158 0.608549 0.766100
0.666830 0.614608 0.766565
0.717089 0.619384 0.767188
0.745738 0.621588 0.768193
0.761109 0.650108 0.770497
0.150429 0.664972 0.766134
0.162457 0.665366 0.766192
0.231151 0.667001 0.766358
0.403981 0.669286 0.766616
0.549821 0.671709 0.766979
0.645277 0.674460 0.767423
0.710164 0.676923 0.768058
0.743783 0.678246 0.768896
0.761094 0.694581 0.770745
0.105083 0.719571 0.767177
0.110348 0.719758 0.767367
0.147293 0.720451 0.767686
0.282263 0.721020 0.767914
0.461090 0.721500 0.768297
0.599441 0.722665 0.768742
0.687294 0.724723 0.769283
0.738630 0.725977 0.770015
0.761378 0.735176 0.771330
0.076637 0.750040 0.743097
0.092562 0.764441 0.751242
0.092563 0.764442 0.751242
0.101756 0.765360 0.751261
0.223417 0.771386 0.767563
0.448521 0.768434 0.770323
0.594235 0.767880 0.770985
0.692202 0.769588 0.771604
0.761874 0.772429 0.772076
