negative-superia-xtra-400/SuperiaXtra400_Classic_Normal.cube
TITLE "Fuji Superia X-tra 400 Classic Normal"
# Adobe RGB in/out. REPLACES AgX. Fuji Superia X-tra 400 Classic Normal.
LUT_3D_SIZE 5
DOMAIN_MIN 0.0 0.0 0.0
DOMAIN_MAX 1.0 1.0 1.0
0.070593 0.070461 0.087962
0.213796 0.122991 0.092413
0.484868 0.235418 0.100949
0.688316 0.384172 0.119037
0.799598 0.519166 0.150402
0.089514 0.192096 0.094336
0.222695 0.220651 0.096783
0.488920 0.313722 0.105271
0.689650 0.434921 0.125188
0.800244 0.549451 0.156452
0.128459 0.429571 0.111805
0.253128 0.445352 0.114571
0.503197 0.491003 0.126199
0.694387 0.558782 0.147168
0.802549 0.633975 0.178225
0.200205 0.627494 0.152236
0.305346 0.633417 0.155354
0.527331 0.653361 0.166374
0.702887 0.685561 0.186987
0.806482 0.719042 0.214403
0.284832 0.741500 0.209216
0.368878 0.743887 0.211868
0.556874 0.752230 0.221156
0.715120 0.766713 0.238038
0.811289 0.786592 0.265161
0.070593 0.087506 0.206570
0.213796 0.127461 0.209254
0.484868 0.238922 0.218644
0.688316 0.386385 0.235459
0.799598 0.520462 0.262530
0.089514 0.195896 0.211733
0.222695 0.223940 0.214357
0.488920 0.316769 0.223548
0.689650 0.436895 0.240669
0.800244 0.550651 0.267679
0.128459 0.431567 0.229391
0.253128 0.447283 0.231972
0.503197 0.492400 0.241622
0.694387 0.559954 0.259829
0.802549 0.634704 0.285700
0.200205 0.628239 0.264071
0.305346 0.634147 0.266731
0.527331 0.654002 0.276158
0.702887 0.686135 0.293011
0.806482 0.719379 0.315774
0.284832 0.741799 0.311436
0.368878 0.744183 0.313648
0.556874 0.752513 0.321499
0.715120 0.766976 0.335586
0.811289 0.786831 0.355876
0.070593 0.107661 0.486631
0.213796 0.142735 0.487956
0.484868 0.251176 0.492689
0.688316 0.394237 0.501279
0.799598 0.525080 0.513076
0.089514 0.208945 0.489191
0.222695 0.235559 0.490510
0.488920 0.326529 0.495218
0.689650 0.443916 0.503765
0.800244 0.554930 0.514944
0.128459 0.438667 0.498281
0.253128 0.454155 0.499575
0.503197 0.497377 0.504198
0.694387 0.564137 0.512101
0.802549 0.637307 0.521565
0.200205 0.630898 0.513634
0.305346 0.636755 0.514599
0.527331 0.656295 0.518043
0.702887 0.688190 0.524286
0.806482 0.720583 0.533408
0.284832 0.742870 0.531614
0.368878 0.745241 0.532527
0.556874 0.753527 0.535789
0.715120 0.767919 0.541709
0.811289 0.787685 0.550377
0.070593 0.137085 0.679937
0.213796 0.172241 0.680308
0.484868 0.272542 0.681637
0.688316 0.408320 0.684062
0.799598 0.533434 0.687640
0.089514 0.230931 0.680654
0.222695 0.257981 0.681025
0.488920 0.343182 0.682349
0.689650 0.456573 0.684766
0.800244 0.562688 0.688333
0.128459 0.451461 0.683214
0.253128 0.465422 0.683580
0.503197 0.506359 0.684889
0.694387 0.571726 0.687279
0.802549 0.642040 0.690806
0.200205 0.635731 0.687847
0.305346 0.641497 0.688205
0.527331 0.660466 0.689488
0.702887 0.691934 0.691828
0.806482 0.722779 0.695285
0.284832 0.744825 0.694602
0.368878 0.747172 0.694949
0.556874 0.755379 0.696194
0.715120 0.769641 0.698466
0.811289 0.789249 0.701822
0.070593 0.179496 0.784583
0.213796 0.209814 0.784732
0.484868 0.303884 0.785266
0.688316 0.428583 0.786243
0.799598 0.545609 0.787692
0.089514 0.264019 0.784871
0.222695 0.289430 0.785020
0.488920 0.366782 0.785552
0.689650 0.472213 0.786527
0.800244 0.574028 0.787974
0.128459 0.468217 0.785901
0.253128 0.480002 0.786048
0.503197 0.519405 0.786577
0.694387 0.582827 0.787546
0.802549 0.648848 0.788983
0.200205 0.642820 0.787777
0.305346 0.648349 0.787922
0.527331 0.666594 0.788445
0.702887 0.697450 0.789401
0.806482 0.726016 0.790821
0.284832 0.747713 0.790540
0.368878 0.750026 0.790683
0.556874 0.758117 0.791196
0.715120 0.772191 0.792135
0.811289 0.791565 0.793529
