negative-superia-xtra-400/SuperiaXtra400_Modern_Punchy.cube
TITLE "Fuji Superia X-tra 400 Modern Punchy"
# Adobe RGB in/out. REPLACES AgX. Fuji Superia X-tra 400 Modern Punchy.
LUT_3D_SIZE 5
DOMAIN_MIN 0.0 0.0 0.0
DOMAIN_MAX 1.0 1.0 1.0
0.068119 0.082999 0.079619
0.424769 0.106103 0.086403
0.840600 0.180469 0.103122
0.913452 0.222700 0.132725
0.924057 0.280310 0.564586
0.083368 0.305048 0.088979
0.181702 0.228747 0.090470
0.705078 0.292793 0.104878
0.891179 0.357413 0.133713
0.916539 0.265353 0.544401
0.103480 0.666934 0.109771
0.162755 0.649665 0.116900
0.466204 0.589497 0.123372
0.803381 0.603984 0.146791
0.898358 0.613626 0.208182
0.111242 0.813559 0.129539
0.151863 0.810375 0.141122
0.377254 0.793618 0.163089
0.706961 0.762784 0.180680
0.872957 0.768048 0.211585
0.068119 0.844875 0.101684
0.132726 0.864397 0.101186
0.270404 0.857256 0.152428
0.619747 0.841915 0.193128
0.864685 0.837416 0.213722
0.073782 0.099355 0.313202
0.383009 0.131952 0.426991
0.838220 0.202341 0.368030
0.908522 0.237766 0.374706
0.921249 0.274649 0.557368
0.103668 0.235077 0.265516
0.200150 0.184056 0.184193
0.717240 0.290448 0.258777
0.886007 0.358528 0.303361
0.913721 0.260033 0.536186
0.139863 0.632788 0.317175
0.212097 0.606914 0.277918
0.514500 0.544777 0.237339
0.810424 0.586228 0.265720
0.894659 0.613107 0.372899
0.143345 0.804732 0.304546
0.194301 0.800138 0.302802
0.424859 0.774356 0.292370
0.730540 0.750436 0.290617
0.871668 0.763805 0.302261
0.068119 0.847654 0.250106
0.131915 0.866610 0.245079
0.295588 0.854831 0.262495
0.635960 0.840526 0.305171
0.865302 0.837167 0.317885
0.085061 0.171394 0.727542
0.362596 0.237181 0.783753
0.857803 0.325944 0.778452
0.909588 0.322194 0.715979
0.919991 0.272140 0.699821
0.127255 0.378031 0.728224
0.317875 0.383887 0.712438
0.758678 0.392086 0.681639
0.886725 0.418016 0.674113
0.911999 0.257010 0.673230
0.164717 0.590696 0.624710
0.237720 0.563439 0.581892
0.517628 0.508018 0.506580
0.810870 0.582105 0.568016
0.889938 0.623419 0.623808
0.187456 0.785913 0.636044
0.243456 0.776832 0.615916
0.478071 0.749639 0.574857
0.752054 0.733206 0.551005
0.868202 0.759690 0.576896
0.109506 0.859103 0.701375
0.121701 0.861641 0.696095
0.348646 0.849098 0.615715
0.663865 0.837833 0.593764
0.865060 0.837605 0.577883
0.098010 0.316489 0.891193
0.302697 0.390824 0.893281
0.854580 0.474801 0.893768
0.918243 0.457065 0.862700
0.923246 0.278652 0.805386
0.139172 0.495736 0.893507
0.341152 0.535143 0.894950
0.805440 0.544022 0.879509
0.899969 0.515086 0.838715
0.915004 0.262196 0.787567
0.186080 0.623622 0.816041
0.275114 0.621469 0.807411
0.617665 0.615262 0.788136
0.831857 0.625598 0.779937
0.891461 0.648651 0.766637
0.199748 0.769630 0.786050
0.258710 0.763585 0.774157
0.496911 0.742795 0.747486
0.750181 0.724277 0.724338
0.866425 0.764344 0.742819
0.110535 0.853013 0.759509
0.124379 0.857204 0.754992
0.348370 0.847035 0.755485
0.666243 0.837618 0.741228
0.864318 0.839740 0.746400
0.212714 0.473324 0.942297
0.532733 0.490560 0.942330
0.898681 0.539559 0.942514
0.934901 0.514632 0.934057
0.927582 0.358473 0.900275
0.276486 0.565879 0.942231
0.547777 0.581977 0.942270
0.891990 0.615510 0.941398
0.920102 0.553328 0.924779
0.919612 0.356751 0.897661
0.308865 0.682825 0.917358
0.451395 0.678612 0.913225
0.781833 0.667970 0.902256
0.876910 0.652279 0.890443
0.900114 0.654714 0.881952
0.224833 0.773797 0.879719
0.304524 0.769436 0.876719
0.622462 0.757119 0.865354
0.815495 0.749195 0.855542
0.873424 0.771849 0.853968
0.099215 0.841912 0.826567
0.125204 0.852713 0.834786
0.264731 0.852339 0.848993
0.643058 0.842152 0.845741
0.864149 0.843889 0.843902
