negative-superia-xtra-400/SuperiaXtra400_Modern_ExtraPunchy.cube
TITLE "Fuji Superia X-tra 400 Modern ExtraPunchy"
# Adobe RGB in/out. REPLACES AgX. Fuji Superia X-tra 400 Modern ExtraPunchy.
LUT_3D_SIZE 5
DOMAIN_MIN 0.0 0.0 0.0
DOMAIN_MAX 1.0 1.0 1.0
0.069662 0.073299 0.081842
0.302286 0.086586 0.081842
0.824820 0.308347 0.078250
0.946606 0.634361 0.079996
0.977910 0.808491 0.084408
0.068107 0.227141 0.081842
0.147752 0.146812 0.081842
0.732638 0.389690 0.078138
0.928197 0.669826 0.080050
0.972919 0.828056 0.084660
0.081004 0.771448 0.079524
0.261547 0.714352 0.079034
0.665911 0.673959 0.079015
0.887745 0.781423 0.080835
0.961215 0.880586 0.086493
0.130961 0.934952 0.085763
0.327857 0.925030 0.084942
0.695075 0.908854 0.084186
0.873194 0.912717 0.086180
0.952235 0.940957 0.093328
0.207357 0.973675 0.100029
0.372800 0.972923 0.099695
0.693576 0.971538 0.099827
0.869568 0.971920 0.104510
0.948335 0.975155 0.115955
0.069662 0.073299 0.306717
0.319711 0.092088 0.317525
0.812414 0.301249 0.242265
0.940501 0.617504 0.223080
0.975953 0.800066 0.228500
0.067465 0.149239 0.172993
0.091071 0.101808 0.088919
0.696482 0.347119 0.139564
0.921317 0.652220 0.181709
0.970949 0.820844 0.210883
0.077571 0.728420 0.226263
0.217783 0.668782 0.163547
0.623583 0.630942 0.120061
0.877213 0.763416 0.143213
0.959439 0.874934 0.183647
0.124506 0.926942 0.238462
0.311262 0.917495 0.214072
0.682209 0.900986 0.173841
0.867421 0.906548 0.164380
0.951214 0.938333 0.190133
0.203129 0.972989 0.244436
0.366850 0.972280 0.237267
0.689696 0.971012 0.223038
0.868039 0.971573 0.220449
0.947926 0.975068 0.238624
0.069662 0.076994 0.898094
0.319711 0.110181 0.899010
0.859674 0.433101 0.895791
0.945107 0.649481 0.821679
0.975075 0.803003 0.770031
0.067984 0.267509 0.889835
0.265120 0.298441 0.853593
0.762983 0.461879 0.799546
0.923674 0.671475 0.769845
0.969745 0.821037 0.744746
0.073955 0.655360 0.757332
0.172437 0.612888 0.696530
0.545040 0.552374 0.553887
0.867680 0.751779 0.647532
0.957350 0.869363 0.683367
0.110965 0.909433 0.745391
0.278066 0.900861 0.721352
0.656950 0.886375 0.664260
0.855326 0.894370 0.625896
0.949236 0.933992 0.643929
0.192351 0.971285 0.705514
0.351938 0.970727 0.697649
0.680242 0.969826 0.676688
0.864371 0.970838 0.656963
0.946949 0.974953 0.655234
0.069662 0.102282 0.986809
0.319711 0.167356 0.986936
0.866768 0.525398 0.987387
0.954168 0.721224 0.972283
0.977345 0.827735 0.950259
0.068107 0.379154 0.987053
0.350342 0.473937 0.987179
0.838498 0.633258 0.978233
0.938767 0.742464 0.960798
0.971850 0.839558 0.942307
0.074061 0.681514 0.947480
0.200168 0.678172 0.940627
0.668396 0.706894 0.923125
0.884701 0.795202 0.916397
0.958347 0.879745 0.912602
0.100100 0.892992 0.925463
0.246651 0.887855 0.916903
0.635481 0.878873 0.895076
0.842915 0.883490 0.870447
0.947670 0.933893 0.886966
0.179372 0.969377 0.907539
0.334176 0.969051 0.904259
0.669638 0.968714 0.895525
0.860452 0.970286 0.887473
0.946017 0.975085 0.884831
0.069662 0.185705 0.996668
0.319711 0.294157 0.996679
0.866768 0.607632 0.996720
0.959811 0.787449 0.994923
0.980363 0.855686 0.991979
0.068107 0.494976 0.996690
0.350342 0.571631 0.996701
0.865503 0.743654 0.996516
0.950626 0.806507 0.993590
0.975064 0.867006 0.989660
0.077018 0.777726 0.992995
0.269358 0.782853 0.992593
0.737522 0.807418 0.991381
0.908927 0.850515 0.984258
0.961429 0.896820 0.977997
0.097010 0.893747 0.978317
0.242596 0.892705 0.976603
0.652655 0.894528 0.972213
0.862038 0.911969 0.968828
0.949746 0.942598 0.967709
0.168349 0.967686 0.970734
0.318308 0.967516 0.969903
0.661406 0.968267 0.967606
0.857962 0.970412 0.964298
0.945614 0.975674 0.963355
