negative-superia-xtra-400/SuperiaXtra400_Modern_Soft.cube
TITLE "Fuji Superia X-tra 400 Modern Soft"
# Adobe RGB in/out. REPLACES AgX. Fuji Superia X-tra 400 Modern Soft.
LUT_3D_SIZE 5
DOMAIN_MIN 0.0 0.0 0.0
DOMAIN_MAX 1.0 1.0 1.0
0.060829 0.068055 0.085817
0.395684 0.149045 0.101370
0.626173 0.386211 0.122325
0.719731 0.531946 0.147750
0.769758 0.606371 0.177928
0.095544 0.337830 0.109253
0.282378 0.263214 0.106695
0.586931 0.426782 0.123101
0.704728 0.546106 0.148243
0.761396 0.616474 0.178901
0.166889 0.588652 0.143331
0.368900 0.563615 0.138424
0.552413 0.547755 0.138235
0.668609 0.593453 0.156429
0.741945 0.647809 0.186058
0.259757 0.677483 0.183194
0.405760 0.671675 0.179995
0.568938 0.662441 0.177071
0.657802 0.664449 0.184827
0.727142 0.680993 0.206127
0.339639 0.718719 0.221907
0.422677 0.716976 0.221092
0.568093 0.713776 0.221430
0.655109 0.714658 0.229022
0.721140 0.722154 0.247558
0.060829 0.086076 0.386826
0.402686 0.164262 0.393475
0.620267 0.382393 0.353653
0.714755 0.526490 0.343658
0.766473 0.602368 0.346584
0.087523 0.266527 0.313009
0.188034 0.185838 0.194251
0.569729 0.406229 0.279441
0.697776 0.539019 0.319095
0.758110 0.612213 0.336777
0.154437 0.569031 0.345403
0.346103 0.545688 0.304116
0.532039 0.530847 0.253500
0.660787 0.584769 0.283316
0.739004 0.644639 0.320324
0.249915 0.672795 0.351727
0.399438 0.667255 0.338613
0.561675 0.658382 0.313681
0.653511 0.661252 0.304942
0.725468 0.679460 0.324376
0.335434 0.717129 0.354744
0.420472 0.715490 0.351117
0.565907 0.712563 0.343635
0.653972 0.713857 0.342203
0.720807 0.721952 0.351810
0.060829 0.117981 0.672405
0.402686 0.205583 0.673240
0.647733 0.448200 0.670307
0.718509 0.537908 0.622120
0.765002 0.603765 0.597321
0.094115 0.364582 0.664888
0.370940 0.380868 0.641105
0.597584 0.459864 0.611566
0.700499 0.546765 0.597231
0.756104 0.612304 0.585508
0.135675 0.540290 0.591214
0.304699 0.524980 0.562991
0.494240 0.496105 0.497623
0.653704 0.579116 0.540527
0.735554 0.641351 0.556170
0.228812 0.662739 0.585801
0.379327 0.658317 0.574793
0.547291 0.650816 0.548071
0.644490 0.654961 0.530637
0.722233 0.676922 0.538891
0.324629 0.713193 0.567456
0.414838 0.711906 0.563569
0.560561 0.709835 0.553404
0.651236 0.712163 0.544791
0.720010 0.721684 0.544012
0.060829 0.187008 0.772585
0.402686 0.287998 0.772809
0.653024 0.484149 0.773611
0.730315 0.566268 0.747046
0.768809 0.616270 0.721718
0.095544 0.421820 0.773018
0.414225 0.464622 0.773241
0.632646 0.531592 0.757449
0.713342 0.574585 0.731654
0.759612 0.623682 0.711405
0.136577 0.550758 0.718773
0.332449 0.549432 0.709021
0.553830 0.560722 0.692305
0.666349 0.600049 0.686998
0.737200 0.647372 0.684007
0.209499 0.654247 0.694149
0.361070 0.651585 0.687398
0.537335 0.646918 0.669656
0.635232 0.649319 0.651954
0.720598 0.676864 0.662569
0.311726 0.708803 0.680016
0.408060 0.708054 0.677431
0.554537 0.707280 0.670065
0.648314 0.710891 0.662895
0.719250 0.721992 0.661199
0.060829 0.308505 0.835570
0.402686 0.378527 0.835690
0.653024 0.523109 0.836120
0.739621 0.596343 0.817021
0.773886 0.633258 0.785671
0.095544 0.472752 0.835802
0.414225 0.505699 0.835922
0.652080 0.575165 0.833943
0.724507 0.605430 0.803004
0.764985 0.639958 0.777654
0.151621 0.591676 0.796816
0.373339 0.594140 0.792434
0.588662 0.605862 0.780722
0.684335 0.630192 0.768064
0.742300 0.656229 0.757034
0.203809 0.654638 0.757597
0.359040 0.654098 0.754591
0.544897 0.655042 0.746925
0.649496 0.664045 0.740996
0.723067 0.682035 0.739038
0.300501 0.705706 0.744340
0.402151 0.705545 0.742881
0.549841 0.706257 0.738857
0.646456 0.711182 0.734960
0.718922 0.723363 0.734069
