negative-superia-xtra-400/SuperiaXtra400_Classic_ExtraSoft.cube
TITLE "Fuji Superia X-tra 400 Classic ExtraSoft"
# Adobe RGB in/out. REPLACES AgX. Fuji Superia X-tra 400 Classic ExtraSoft.
LUT_3D_SIZE 33
DOMAIN_MIN 0.0 0.0 0.0
DOMAIN_MAX 1.0 1.0 1.0
0.055369 0.061977 0.079302
0.057706 0.062887 0.079972
0.058447 0.063140 0.080114
0.063071 0.064281 0.080575
0.075717 0.066072 0.081025
0.083077 0.066973 0.081339
0.103720 0.068932 0.082360
0.146222 0.071647 0.083312
0.181234 0.072880 0.083733
0.245495 0.074571 0.084624
0.345288 0.078727 0.086173
0.406491 0.081227 0.087070
0.450078 0.083452 0.087777
0.501256 0.086887 0.088959
0.538111 0.091200 0.090421
0.566280 0.093703 0.091296
0.592677 0.095983 0.092316
0.618972 0.099157 0.093539
0.644806 0.105002 0.095609
0.664963 0.107961 0.096936
0.677770 0.111003 0.098363
0.689235 0.114447 0.100013
0.700580 0.117834 0.102000
0.711980 0.118145 0.103681
0.720937 0.118622 0.105755
0.729196 0.117748 0.108026
0.739930 0.109420 0.108957
0.745871 0.103923 0.112881
0.758671 0.081682 0.213735
0.758670 0.081666 0.213688
0.758670 0.081665 0.213685
0.758670 0.081666 0.213684
0.765495 0.167227 0.422248
0.055845 0.064680 0.079889
0.057874 0.064959 0.080129
0.060135 0.063715 0.080082
0.065168 0.064927 0.080678
0.078680 0.066694 0.081116
0.084654 0.067485 0.081484
0.105197 0.069294 0.082465
0.146665 0.072081 0.083388
0.180737 0.073210 0.083794
0.243745 0.074976 0.084707
0.342904 0.079151 0.086235
0.404753 0.081587 0.087119
0.448355 0.083894 0.087833
0.499684 0.087281 0.089007
0.537226 0.091561 0.090461
0.565507 0.094031 0.091331
0.592031 0.096282 0.092355
0.618451 0.099671 0.093572
0.644400 0.105503 0.095653
0.664763 0.108438 0.096976
0.677612 0.111461 0.098398
0.689113 0.114933 0.100043
0.700485 0.118391 0.102035
0.711905 0.118692 0.103710
0.720880 0.119159 0.105775
0.729153 0.118279 0.108034
0.739894 0.109835 0.108945
0.745851 0.104318 0.112768
0.758671 0.081682 0.213736
0.758670 0.081666 0.213688
0.758670 0.081665 0.213685
0.758670 0.081666 0.213684
0.765495 0.167228 0.422248
0.055973 0.065451 0.080059
0.056500 0.065682 0.080296
0.058573 0.065802 0.080333
0.064413 0.066962 0.080927
0.077593 0.068994 0.081486
0.086835 0.069223 0.081878
0.109413 0.071380 0.082809
0.151811 0.073809 0.083676
0.182091 0.074543 0.084097
0.239762 0.076890 0.085016
0.335374 0.080757 0.086461
0.398758 0.083097 0.087297
0.442190 0.085542 0.088038
0.493765 0.088744 0.089178
0.533949 0.092896 0.090607
0.562633 0.095236 0.091477
0.589623 0.097381 0.092495
0.616507 0.101576 0.093695
0.642883 0.107345 0.095816
0.664014 0.110187 0.097120
0.677022 0.113137 0.098525
0.688659 0.117007 0.100153
0.700133 0.120433 0.102163
0.711625 0.120695 0.103817
0.720671 0.121126 0.105850
0.728995 0.120225 0.108066
0.739760 0.111357 0.108913
0.745774 0.105766 0.112447
0.758671 0.081683 0.213739
0.758670 0.081666 0.213688
0.758670 0.081665 0.213686
0.758670 0.081667 0.213684
0.765495 0.167232 0.422247
0.056363 0.069345 0.080642
0.056829 0.069751 0.080832
0.058684 0.070506 0.081027
0.062175 0.070544 0.081161
0.072187 0.073467 0.082219
0.081347 0.072838 0.082469
0.102557 0.074386 0.083249
0.144187 0.077774 0.084167
0.177477 0.078402 0.084656
0.233491 0.080345 0.085551
0.326531 0.084568 0.086892
0.389637 0.087018 0.087639
0.431423 0.088860 0.088428
0.482700 0.091646 0.089505
0.527562 0.095516 0.090884
0.556935 0.097582 0.091782
0.584816 0.100776 0.092760
0.612620 0.105289 0.094018
0.639853 0.110916 0.096124
0.662519 0.113563 0.097392
0.675847 0.116809 0.098764
0.687760 0.121005 0.100362
0.699437 0.124360 0.102407
0.711073 0.124543 0.104024
0.720258 0.124904 0.106002
0.728683 0.123962 0.108146
0.739497 0.114276 0.108897
0.745619 0.108553 0.111959
0.758672 0.081686 0.213747
0.758670 0.081667 0.213689
0.758670 0.081666 0.213686
0.758670 0.081669 0.213684
0.765495 0.167234 0.422246
0.057018 0.077598 0.081291
0.057466 0.078133 0.081583
0.059245 0.079686 0.082021
0.062965 0.080534 0.082500
0.069093 0.080503 0.082993
0.076189 0.078565 0.083100
0.091217 0.080703 0.083712
0.125962 0.083900 0.084939
0.156638 0.083623 0.085408
0.213547 0.085470 0.086199
0.311022 0.090119 0.087478
0.372906 0.091915 0.088272
0.417512 0.093458 0.088998
0.467349 0.096141 0.090001
0.517466 0.101501 0.091320
0.547521 0.104432 0.092261
0.576657 0.107343 0.093174
0.605961 0.111401 0.094561
0.634657 0.117292 0.096603
0.659951 0.120230 0.097816
0.673839 0.123482 0.099140
0.686232 0.127468 0.100697
0.698261 0.130685 0.102797
0.710144 0.130729 0.104362
0.719565 0.130966 0.106265
0.728161 0.129958 0.108316
0.739057 0.120139 0.108969
0.745354 0.113048 0.111484
0.758672 0.081692 0.213763
0.758670 0.081667 0.213691
0.758670 0.081666 0.213687
0.758672 0.081689 0.213684
0.765495 0.167235 0.422245
0.057373 0.082218 0.081948
0.057723 0.082498 0.082136
0.058989 0.084404 0.082441
0.061621 0.085929 0.082977
0.065785 0.086530 0.083269
0.072858 0.086448 0.083691
0.085722 0.089342 0.084522
0.111733 0.092912 0.085950
0.137491 0.091487 0.086195
0.185695 0.092606 0.086879
0.280326 0.096470 0.088202
0.346917 0.097897 0.089040
0.401742 0.099698 0.089711
0.451112 0.103678 0.090621
0.506994 0.109995 0.091968
0.536689 0.113035 0.092859
0.565590 0.116602 0.093723
0.595352 0.122451 0.095335
0.626123 0.128849 0.097292
0.653101 0.131006 0.098426
0.670533 0.133993 0.099681
0.683740 0.138528 0.101342
0.696356 0.142288 0.103370
0.708649 0.142048 0.104874
0.718458 0.142085 0.106687
0.727325 0.140674 0.108637
0.738350 0.129224 0.109242
0.744915 0.121268 0.111253
0.758674 0.081703 0.213794
0.758670 0.081669 0.213695
0.758670 0.081666 0.213689
0.765492 0.167166 0.213685
0.765495 0.167235 0.422245
0.058186 0.093384 0.083053
0.058413 0.093654 0.083169
0.059664 0.095177 0.083522
0.061945 0.096907 0.083906
0.065878 0.098235 0.084461
0.072484 0.098824 0.085048
0.082257 0.098664 0.085706
0.102743 0.105310 0.086946
0.122153 0.101457 0.087104
0.159664 0.102284 0.087662
0.242633 0.108857 0.089158
0.315301 0.110511 0.089910
0.378408 0.111120 0.090437
0.431269 0.114463 0.091278
0.491628 0.122522 0.092766
0.524943 0.126378 0.093607
0.554256 0.128767 0.094669
0.585644 0.133816 0.096162
0.617170 0.143021 0.098062
0.644322 0.146985 0.099163
0.665547 0.151955 0.100393
0.679608 0.157238 0.102242
0.693230 0.160859 0.104181
0.706213 0.159923 0.105620
0.716669 0.159408 0.107336
0.725980 0.157620 0.109194
0.737201 0.145597 0.109868
0.744179 0.134912 0.111462
0.758677 0.081733 0.213868
0.758670 0.081672 0.213704
0.758670 0.081668 0.213693
0.765495 0.167231 0.213687
0.765495 0.167235 0.422245
0.059184 0.111219 0.084223
0.059428 0.111623 0.084349
0.060594 0.114333 0.084956
0.062877 0.118198 0.085617
0.066276 0.121893 0.086206
0.072873 0.124114 0.086852
0.082396 0.124697 0.087345
0.095630 0.124407 0.087921
0.112057 0.118162 0.088046
0.142961 0.118368 0.088742
0.210559 0.126705 0.090161
0.282436 0.127367 0.090800
0.343682 0.127014 0.091258
0.409143 0.130610 0.092207
0.470976 0.139896 0.093617
0.512132 0.143095 0.094667
0.541540 0.146232 0.095746
0.573208 0.153034 0.097190
0.606176 0.163133 0.098996
0.635112 0.165890 0.099984
0.661165 0.170498 0.101277
0.675966 0.177730 0.103156
0.689794 0.185006 0.105087
0.702879 0.187880 0.106553
0.713630 0.192320 0.108302
0.723709 0.189505 0.110100
0.735216 0.175814 0.111047
0.742873 0.161607 0.112574
0.758689 0.081854 0.214124
0.758671 0.081682 0.213733
0.758670 0.081671 0.213706
0.765495 0.167234 0.213692
0.765495 0.167235 0.422245
0.059651 0.123657 0.085065
0.059832 0.124059 0.085180
0.060754 0.126441 0.085615
0.062686 0.130576 0.086222
0.065632 0.135290 0.086803
0.070823 0.139083 0.087326
0.078552 0.141233 0.087913
0.087870 0.141611 0.088535
0.105301 0.141239 0.089174
0.130544 0.141112 0.089802
0.186797 0.152499 0.091169
0.248550 0.152068 0.091807
0.312187 0.150215 0.092326
0.386172 0.153597 0.093200
0.448022 0.164270 0.094946
0.496158 0.166927 0.095947
0.528249 0.170057 0.096923
0.560773 0.177654 0.098269
0.594955 0.189189 0.099993
0.623789 0.193864 0.101029
0.651299 0.201355 0.102525
0.671030 0.207556 0.104268
0.686132 0.214388 0.106079
0.700140 0.215995 0.107432
0.711628 0.219540 0.109071
0.721670 0.223555 0.110934
0.732811 0.218998 0.112491
0.740595 0.215621 0.115496
0.759057 0.086240 0.217117
0.758684 0.081806 0.214028
0.758673 0.081698 0.213785
0.765495 0.167235 0.213716
0.765495 0.167235 0.422245
0.060359 0.146148 0.086219
0.060551 0.146592 0.086305
0.061297 0.148981 0.086626
0.063114 0.154298 0.087153
0.065649 0.160110 0.087690
0.070345 0.166392 0.088365
0.076937 0.170415 0.089046
0.085727 0.172373 0.089670
0.099938 0.172751 0.090257
0.120539 0.172383 0.090834
0.167381 0.188522 0.092339
0.221392 0.187026 0.092998
0.284348 0.182704 0.093408
0.354085 0.185758 0.094469
0.425232 0.199515 0.096397
0.473084 0.201082 0.097287
0.514035 0.203064 0.098177
0.547332 0.210854 0.099426
0.582815 0.225843 0.101247
0.612132 0.229945 0.102424
0.641449 0.234156 0.103753
0.665433 0.243251 0.105468
0.681016 0.253582 0.107265
0.695906 0.255509 0.108544
0.708594 0.256718 0.110050
0.719511 0.258966 0.111816
0.731243 0.253081 0.113572
0.739525 0.248215 0.116375
0.748495 0.234744 0.118540
0.755085 0.217616 0.122824
0.762250 0.157025 0.183175
0.765495 0.167238 0.218034
0.765495 0.167236 0.422244
0.061493 0.192635 0.087793
0.061647 0.193289 0.087883
0.062459 0.196511 0.088218
0.064298 0.205816 0.088854
0.066629 0.215072 0.089520
0.071292 0.223436 0.090191
0.077932 0.230767 0.090843
0.086361 0.235014 0.091464
0.100759 0.237004 0.092170
0.121313 0.237250 0.092874
0.152843 0.236939 0.093573
0.200286 0.234073 0.094325
0.256268 0.227272 0.094898
0.325867 0.229897 0.096019
0.403912 0.244801 0.097878
0.450763 0.244414 0.098689
0.498376 0.244460 0.099460
0.533361 0.251397 0.100621
0.570165 0.266808 0.102808
0.599957 0.268736 0.103864
0.629677 0.274741 0.105144
0.658604 0.285928 0.106791
0.676132 0.294233 0.108443
0.691755 0.297135 0.109661
0.704789 0.303195 0.111164
0.716096 0.310391 0.113237
0.728785 0.303225 0.115219
0.737868 0.295898 0.117736
0.747266 0.279228 0.119695
0.754324 0.257882 0.122536
0.761933 0.175875 0.143455
0.765495 0.167241 0.231487
0.765496 0.167245 0.236342
0.062307 0.234626 0.089023
0.062499 0.235230 0.089096
0.063225 0.238036 0.089366
0.064735 0.246219 0.089894
0.066810 0.254964 0.090484
0.071118 0.264933 0.091127
0.077127 0.274854 0.091889
0.084837 0.281292 0.092622
0.096609 0.285357 0.093319
0.114370 0.287211 0.094090
0.142445 0.287326 0.095057
0.183829 0.287101 0.096049
0.232615 0.277135 0.096478
0.302042 0.280155 0.097584
0.384721 0.297335 0.099364
0.429722 0.294632 0.100075
0.476516 0.293364 0.100851
0.519465 0.300456 0.102334
0.556662 0.313883 0.104370
0.586974 0.314434 0.105359
0.617522 0.319951 0.106616
0.648066 0.327058 0.108132
0.670218 0.336441 0.109753
0.686408 0.340603 0.110938
0.700936 0.343143 0.112442
0.713375 0.348205 0.114913
0.726155 0.347544 0.116950
0.735489 0.348914 0.119547
0.745201 0.340544 0.121824
0.753017 0.319598 0.123992
0.761188 0.225712 0.123682
0.765495 0.167249 0.231555
0.765496 0.167257 0.240941
0.063046 0.273658 0.089960
0.063207 0.274272 0.090022
0.063812 0.277007 0.090250
0.065043 0.284489 0.090690
0.067083 0.295227 0.091253
0.070980 0.305801 0.091991
0.075989 0.314193 0.092746
0.083226 0.321158 0.093485
0.092442 0.326292 0.094373
0.108900 0.329041 0.095336
0.131906 0.330251 0.096271
0.164527 0.330157 0.097154
0.213805 0.330038 0.098083
0.280443 0.331934 0.099076
0.359008 0.347428 0.100917
0.411241 0.344133 0.101788
0.456114 0.341658 0.102652
0.505959 0.346864 0.104094
0.543393 0.359956 0.106101
0.573787 0.359216 0.106936
0.604974 0.363096 0.108055
0.636541 0.371088 0.109552
0.663956 0.381716 0.111141
0.681278 0.382956 0.112294
0.696265 0.389053 0.114325
0.709303 0.396837 0.116953
0.723292 0.394279 0.118761
0.733545 0.392998 0.121096
0.743524 0.389577 0.123448
0.751346 0.384026 0.126388
0.758383 0.376585 0.130590
0.765495 0.167389 0.231645
0.765496 0.167334 0.247602
0.063940 0.324857 0.091094
0.064078 0.325354 0.091148
0.064595 0.327482 0.091345
0.065627 0.332939 0.091818
0.067994 0.343164 0.092526
0.071389 0.352230 0.093231
0.076054 0.361455 0.094039
0.082897 0.370091 0.095122
0.090827 0.376723 0.096155
0.106188 0.380839 0.097092
0.126395 0.383239 0.097977
0.155207 0.384298 0.098876
0.200537 0.384211 0.099704
0.259442 0.384100 0.100581
0.336294 0.398449 0.102840
0.394652 0.395962 0.103709
0.437984 0.392508 0.104483
0.488519 0.395893 0.105796
0.530324 0.404783 0.107755
0.560750 0.403974 0.108584
0.592373 0.405807 0.109618
0.624713 0.411095 0.111013
0.656266 0.417128 0.112672
0.675270 0.419209 0.114290
0.691150 0.423649 0.116438
0.705606 0.427687 0.118865
0.719923 0.428565 0.120714
0.730582 0.431469 0.123048
0.741526 0.427620 0.125174
0.750084 0.422073 0.128033
0.757593 0.414942 0.131060
0.763109 0.407325 0.139597
0.767016 0.407976 0.255970
0.065033 0.387397 0.092796
0.065154 0.387924 0.092858
0.065604 0.390091 0.093082
0.066579 0.395013 0.093509
0.069408 0.402591 0.094414
0.072366 0.408362 0.095381
0.077304 0.415745 0.096461
0.083696 0.422177 0.097481
0.091679 0.427500 0.098505
0.106695 0.431441 0.099454
0.126741 0.434051 0.100381
0.154452 0.435365 0.101404
0.198744 0.435805 0.102555
0.255185 0.435813 0.103636
0.317349 0.435682 0.104767
0.376551 0.432524 0.105529
0.421621 0.429685 0.106308
0.470533 0.432059 0.107571
0.518057 0.440446 0.109440
0.547953 0.438865 0.110181
0.579787 0.440262 0.111189
0.612855 0.445179 0.112707
0.645232 0.450578 0.114942
0.668947 0.453133 0.116556
0.685934 0.456318 0.118551
0.700962 0.462351 0.120985
0.716249 0.463353 0.122744
0.728123 0.464150 0.124863
0.739280 0.465038 0.127411
0.748136 0.465630 0.130549
0.756326 0.458000 0.133238
0.762371 0.446642 0.137346
0.766924 0.419521 0.245579
0.065662 0.421347 0.093918
0.065769 0.421672 0.093999
0.066162 0.422982 0.094295
0.067398 0.426011 0.094857
0.069810 0.432254 0.095747
0.072672 0.438805 0.096714
0.077580 0.446919 0.097813
0.083228 0.452642 0.098746
0.090022 0.458375 0.099720
0.104117 0.463253 0.100719
0.121141 0.466405 0.101879
0.146881 0.468368 0.103029
0.185190 0.469580 0.104150
0.236119 0.469881 0.105230
0.297048 0.469993 0.106275
0.356926 0.469984 0.107356
0.406651 0.466767 0.108056
0.454160 0.468912 0.109304
0.506633 0.477393 0.111149
0.536253 0.475460 0.111890
0.567447 0.475924 0.113003
0.600893 0.480388 0.115135
0.633973 0.485508 0.117344
0.662625 0.487248 0.118839
0.680204 0.490965 0.120779
0.696183 0.497016 0.123137
0.712359 0.497943 0.124784
0.724782 0.501540 0.127265
0.736891 0.502152 0.129903
0.746624 0.500590 0.132622
0.754961 0.500235 0.135714
0.761053 0.502185 0.140732
0.766396 0.462435 0.192000
0.066233 0.453377 0.095402
0.066327 0.453674 0.095474
0.066920 0.454852 0.095736
0.068183 0.457495 0.096233
0.070274 0.462740 0.097013
0.073084 0.470029 0.097983
0.077298 0.476258 0.098931
0.082801 0.482992 0.099909
0.089170 0.489322 0.100937
0.101670 0.494477 0.102197
0.116331 0.498408 0.103422
0.140482 0.501095 0.104558
0.173831 0.502864 0.105632
0.218789 0.503781 0.106717
0.278114 0.504094 0.107746
0.335406 0.504258 0.108752
0.393752 0.504442 0.109794
0.439242 0.506489 0.110993
0.493183 0.514553 0.113107
0.525129 0.512237 0.114149
0.555919 0.512539 0.115591
0.589152 0.516240 0.117630
0.622622 0.519856 0.119798
0.653744 0.520752 0.121186
0.674280 0.523616 0.123075
0.691268 0.527371 0.125307
0.707868 0.529124 0.127271
0.721440 0.531054 0.129852
0.734312 0.532560 0.132456
0.744465 0.534172 0.135217
0.753590 0.533150 0.137942
0.760288 0.532291 0.141768
0.765225 0.536551 0.157242
0.067323 0.490486 0.097130
0.067482 0.490771 0.097195
0.068065 0.491878 0.097430
0.069196 0.494284 0.097875
0.071043 0.498868 0.098569
0.073847 0.506983 0.099551
0.077825 0.511996 0.100382
0.083289 0.518579 0.101651
0.089206 0.523028 0.102915
0.100820 0.526793 0.104121
0.114878 0.530053 0.105347
0.137391 0.532467 0.106494
0.167898 0.534210 0.107622
0.209917 0.535094 0.108626
0.265446 0.535702 0.109684
0.322051 0.535940 0.110674
0.382367 0.536058 0.111647
0.426157 0.536331 0.112862
0.478091 0.541951 0.115774
0.514936 0.540239 0.116765
0.545071 0.540039 0.118125
0.577978 0.542668 0.120141
0.611440 0.545988 0.122271
0.642803 0.546612 0.123577
0.668284 0.549461 0.125416
0.686039 0.552951 0.128065
0.703321 0.554818 0.130070
0.717763 0.556931 0.132554
0.731226 0.559899 0.135200
0.742591 0.560040 0.137654
0.752108 0.561532 0.140430
0.759090 0.564696 0.145289
0.764634 0.565643 0.154072
0.068754 0.528121 0.099155
0.068900 0.528325 0.099213
0.069433 0.529106 0.099427
0.070460 0.530745 0.099829
0.072120 0.533731 0.100456
0.075031 0.538932 0.101590
0.079074 0.543178 0.102742
0.084166 0.548368 0.104059
0.089783 0.552731 0.105308
0.101820 0.557171 0.106584
0.115542 0.560685 0.107766
0.137751 0.563440 0.108964
0.166470 0.565305 0.110055
0.207628 0.566603 0.111111
0.260664 0.567331 0.112191
0.317674 0.567890 0.113654
0.375417 0.568171 0.115240
0.420299 0.568243 0.116757
0.464630 0.568655 0.118408
0.505467 0.566971 0.119333
0.535182 0.566856 0.120675
0.567433 0.569020 0.122645
0.600677 0.572100 0.124722
0.632115 0.572600 0.126036
0.662108 0.574929 0.128292
0.680620 0.578432 0.131013
0.698621 0.580082 0.132893
0.713749 0.582927 0.135369
0.728404 0.585085 0.137799
0.740294 0.586947 0.140304
0.750546 0.589205 0.143818
0.758243 0.590480 0.147935
0.763939 0.596687 0.155911
0.069475 0.552970 0.100294
0.069609 0.553152 0.100348
0.070098 0.553840 0.100545
0.071035 0.555262 0.101000
0.072537 0.557799 0.101778
0.075260 0.562112 0.102888
0.079404 0.566865 0.104104
0.083829 0.570942 0.105284
0.089441 0.575783 0.106584
0.100598 0.580127 0.107852
0.113084 0.583404 0.108995
0.132708 0.586322 0.110154
0.158021 0.588566 0.111274
0.196828 0.590169 0.112469
0.245657 0.591292 0.114007
0.301967 0.591916 0.115577
0.356999 0.592398 0.117208
0.406833 0.592800 0.118783
0.449171 0.593001 0.120270
0.494542 0.593567 0.121873
0.525964 0.593153 0.123151
0.557565 0.595342 0.125121
0.590506 0.598070 0.127586
0.621783 0.598504 0.129112
0.653726 0.600571 0.131322
0.675023 0.603669 0.133962
0.693621 0.605340 0.135762
0.709598 0.608286 0.138193
0.725134 0.610692 0.140529
0.737790 0.613079 0.143738
0.748994 0.614406 0.147271
0.757116 0.616689 0.151554
0.763359 0.619925 0.157445
0.070213 0.578680 0.101774
0.070337 0.578847 0.101842
0.070789 0.579475 0.102091
0.071652 0.580752 0.102558
0.073027 0.582977 0.103282
0.075692 0.586657 0.104310
0.079985 0.591870 0.105606
0.083903 0.595186 0.106677
0.089659 0.600441 0.108046
0.099304 0.603747 0.109165
0.111885 0.607587 0.110383
0.130594 0.610824 0.111560
0.153534 0.613023 0.112880
0.189465 0.614130 0.114561
0.234845 0.615005 0.116268
0.290713 0.615602 0.117896
0.342840 0.615938 0.119447
0.395757 0.616211 0.121014
0.437404 0.616538 0.122579
0.480603 0.616758 0.124049
0.517597 0.617205 0.125603
0.548402 0.618213 0.128015
0.580832 0.619958 0.130650
0.611954 0.620281 0.132194
0.643885 0.621409 0.134337
0.669508 0.623302 0.136960
0.688527 0.624362 0.138668
0.705391 0.626024 0.140992
0.721587 0.627926 0.144212
0.735304 0.629315 0.147338
0.747175 0.631380 0.150980
0.756118 0.633223 0.154892
0.762754 0.637055 0.160162
0.071043 0.605459 0.103605
0.071158 0.605620 0.103670
0.071580 0.606222 0.103904
0.072384 0.607423 0.104344
0.073657 0.609462 0.105025
0.076411 0.612730 0.105988
0.080631 0.616155 0.107296
0.084433 0.618353 0.108364
0.089530 0.621151 0.109613
0.099518 0.623741 0.110824
0.111899 0.626278 0.112130
0.128470 0.628117 0.113701
0.151035 0.629801 0.115555
0.185347 0.631075 0.117322
0.228277 0.631978 0.118974
0.282742 0.632690 0.120685
0.333662 0.633142 0.122270
0.388520 0.633466 0.123832
0.428600 0.633702 0.125361
0.471516 0.634070 0.127233
0.510465 0.634371 0.129132
0.540111 0.634866 0.131080
0.571856 0.636254 0.133680
0.602614 0.636654 0.135150
0.634396 0.637611 0.137304
0.663928 0.639291 0.139925
0.683411 0.640439 0.141817
0.701040 0.641947 0.144941
0.717971 0.643821 0.148099
0.732571 0.645329 0.151102
0.745378 0.647335 0.154622
0.755032 0.649463 0.158464
0.762119 0.653506 0.163414
0.071733 0.625947 0.105301
0.071843 0.626046 0.105363
0.072241 0.626411 0.105586
0.072997 0.627129 0.106006
0.074330 0.628323 0.106653
0.077038 0.630186 0.107568
0.080929 0.633029 0.108806
0.085017 0.635608 0.109997
0.089644 0.637898 0.111152
0.100257 0.640775 0.112643
0.111104 0.642729 0.114374
0.127892 0.644822 0.116321
0.150341 0.646624 0.118286
0.181752 0.647787 0.120023
0.222307 0.648726 0.121697
0.274539 0.649460 0.123378
0.325813 0.650016 0.125055
0.381114 0.650405 0.126898
0.421575 0.650698 0.128883
0.463123 0.650933 0.130838
0.504798 0.651323 0.132808
0.533538 0.651730 0.134746
0.563518 0.652291 0.136667
0.593935 0.652675 0.138091
0.625366 0.653467 0.140202
0.657607 0.654870 0.143527
0.678236 0.656066 0.145769
0.696514 0.657435 0.148850
0.714396 0.659234 0.152007
0.729729 0.660876 0.154973
0.743524 0.662739 0.158243
0.753856 0.665143 0.162197
0.761645 0.668592 0.166726
0.071935 0.643430 0.106297
0.072040 0.643515 0.106357
0.072419 0.643829 0.106572
0.073137 0.644441 0.106975
0.074449 0.645446 0.107597
0.077002 0.646992 0.108476
0.080638 0.649310 0.109664
0.085068 0.652045 0.111006
0.089242 0.653873 0.112172
0.099244 0.656466 0.114123
0.109815 0.658338 0.115987
0.126137 0.660398 0.118022
0.145906 0.661808 0.119852
0.175846 0.663165 0.121744
0.215434 0.664199 0.123541
0.264297 0.664872 0.125174
0.315034 0.665413 0.127156
0.368140 0.665821 0.129229
0.412211 0.666154 0.131274
0.452649 0.666438 0.133233
0.495504 0.666742 0.135187
0.525760 0.667147 0.137096
0.555072 0.667697 0.139042
0.585880 0.668391 0.140972
0.616869 0.668935 0.143857
0.648893 0.670078 0.147460
0.673119 0.671317 0.149646
0.691875 0.672486 0.152719
0.710548 0.674187 0.155767
0.726859 0.675874 0.158919
0.741584 0.677758 0.161986
0.752756 0.679859 0.165657
0.761143 0.683427 0.171124
0.072184 0.659794 0.107443
0.072284 0.659875 0.107500
0.072647 0.660169 0.107707
0.073334 0.660737 0.108095
0.074673 0.661655 0.108693
0.077097 0.663034 0.109538
0.080523 0.665049 0.110680
0.085336 0.667967 0.112295
0.089202 0.669531 0.113752
0.098156 0.671659 0.115812
0.109537 0.673824 0.117953
0.123425 0.675438 0.119852
0.144069 0.677020 0.121838
0.172407 0.678331 0.123797
0.208364 0.679254 0.125554
0.255836 0.680023 0.127738
0.307552 0.680590 0.129942
0.359464 0.680976 0.132099
0.405349 0.681285 0.134142
0.444732 0.681564 0.136173
0.486192 0.681849 0.138121
0.519306 0.682197 0.140049
0.547741 0.682608 0.142297
0.577812 0.683252 0.145017
0.608947 0.684021 0.147721
0.640556 0.684840 0.151335
0.668225 0.686243 0.153464
0.687174 0.687132 0.156455
0.706576 0.688739 0.159527
0.723904 0.690316 0.162488
0.739640 0.692258 0.165835
0.751700 0.693842 0.170183
0.760650 0.696235 0.175547
0.072311 0.675816 0.108539
0.072408 0.675892 0.108595
0.072760 0.676170 0.108796
0.073425 0.676702 0.109173
0.074757 0.677546 0.109755
0.077091 0.678789 0.110579
0.080369 0.680562 0.111710
0.084935 0.683063 0.113694
0.089322 0.684976 0.115680
0.097567 0.686765 0.117641
0.109875 0.689123 0.120092
0.122195 0.690430 0.121884
0.143735 0.692066 0.124051
0.168269 0.692955 0.125908
0.205333 0.693721 0.128418
0.250819 0.694270 0.130729
0.300648 0.694672 0.132966
0.350719 0.694960 0.135168
0.398986 0.695158 0.137288
0.437692 0.695344 0.139357
0.478398 0.695529 0.141535
0.513913 0.695755 0.144261
0.541867 0.696023 0.146920
0.570901 0.696358 0.149538
0.601323 0.696887 0.152333
0.632720 0.697505 0.155098
0.663524 0.698704 0.157175
0.682662 0.699214 0.160198
0.702516 0.700301 0.163107
0.720835 0.701368 0.166280
0.737571 0.702725 0.170403
0.750663 0.704242 0.174731
0.760431 0.706449 0.179904
0.071336 0.694343 0.108407
0.071434 0.694388 0.108463
0.071789 0.694550 0.108666
0.072461 0.694858 0.109048
0.073510 0.695341 0.109642
0.075623 0.696041 0.110489
0.078911 0.697027 0.111656
0.083491 0.698409 0.113752
0.088547 0.699814 0.116298
0.095674 0.700803 0.118222
0.106988 0.702076 0.120637
0.119806 0.703120 0.122840
0.138952 0.703972 0.124919
0.163672 0.704714 0.127349
0.198917 0.705272 0.129919
0.241017 0.705705 0.132312
0.293165 0.706058 0.134725
0.341977 0.706289 0.136989
0.391662 0.706431 0.139146
0.429416 0.706562 0.141362
0.469467 0.706710 0.144199
0.507923 0.706895 0.146989
0.535811 0.707143 0.149729
0.564620 0.707475 0.152424
