negative-superia-xtra-400/SuperiaXtra400_Classic_ExtraPunchy.cube
TITLE "Fuji Superia X-tra 400 Classic ExtraPunchy"
# Adobe RGB in/out. REPLACES AgX. Fuji Superia X-tra 400 Classic ExtraPunchy.
LUT_3D_SIZE 33
DOMAIN_MIN 0.0 0.0 0.0
DOMAIN_MAX 1.0 1.0 1.0
0.069662 0.073299 0.081842
0.068666 0.072274 0.081842
0.072803 0.074806 0.079491
0.078423 0.078815 0.078130
0.088177 0.083265 0.078325
0.104981 0.087852 0.078612
0.127491 0.093149 0.078941
0.153399 0.100352 0.079407
0.184350 0.108244 0.079865
0.222353 0.117382 0.080301
0.266116 0.128365 0.080718
0.304090 0.142099 0.081170
0.342197 0.156032 0.081585
0.377958 0.170052 0.082326
0.414390 0.184154 0.083173
0.451458 0.201809 0.084092
0.484551 0.220549 0.085382
0.513265 0.240376 0.086616
0.541895 0.261676 0.087796
0.567876 0.283558 0.089501
0.587859 0.303324 0.091201
0.607437 0.323360 0.092848
0.626383 0.343694 0.094806
0.645038 0.364317 0.096915
0.660952 0.385221 0.098979
0.674642 0.405607 0.101602
0.688062 0.423059 0.104792
0.701228 0.440560 0.107956
0.714153 0.458109 0.111096
0.726850 0.475704 0.114212
0.739331 0.493345 0.117819
0.751607 0.511029 0.121571
0.763687 0.528756 0.125318
0.068330 0.073656 0.081353
0.068790 0.074437 0.080482
0.072868 0.076755 0.078731
0.078510 0.080410 0.078084
0.088277 0.084415 0.078370
0.105089 0.088935 0.078650
0.127590 0.094296 0.078972
0.153494 0.101266 0.079446
0.184454 0.109169 0.079898
0.222462 0.118466 0.080327
0.266219 0.129453 0.080744
0.304167 0.143171 0.081191
0.342262 0.157005 0.081602
0.378018 0.170942 0.082361
0.414446 0.184973 0.083203
0.451510 0.202797 0.084133
0.484588 0.221486 0.085422
0.513300 0.241342 0.086652
0.541927 0.262603 0.087828
0.567897 0.284386 0.089546
0.587878 0.304077 0.091241
0.607455 0.324080 0.092885
0.626400 0.344385 0.094852
0.645053 0.364982 0.096958
0.660963 0.385861 0.099019
0.674652 0.406112 0.101661
0.688072 0.423541 0.104848
0.701237 0.441022 0.108010
0.714161 0.458553 0.111147
0.726858 0.476131 0.114260
0.739339 0.493756 0.117875
0.751614 0.511425 0.121625
0.763694 0.529138 0.125369
0.067807 0.080249 0.078387
0.069185 0.080718 0.078269
0.073093 0.082194 0.078097
0.078821 0.084760 0.078300
0.088635 0.088048 0.078521
0.105479 0.092294 0.078797
0.127945 0.098161 0.079145
0.153832 0.104777 0.079577
0.184829 0.112333 0.080012
0.222851 0.122237 0.080416
0.266589 0.133647 0.080835
0.304442 0.146957 0.081266
0.342494 0.160451 0.081665
0.378233 0.174100 0.082487
0.414646 0.188306 0.083311
0.451698 0.206323 0.084294
0.484721 0.224834 0.085564
0.513423 0.244795 0.086778
0.542042 0.265920 0.087968
0.567973 0.287202 0.089704
0.587949 0.306769 0.091386
0.607519 0.326659 0.093017
0.626459 0.346860 0.095017
0.645109 0.367362 0.097111
0.661002 0.388154 0.099161
0.674689 0.407919 0.101874
0.688106 0.425271 0.105049
0.701269 0.442681 0.108200
0.714192 0.460145 0.111328
0.726887 0.477662 0.114433
0.739366 0.495230 0.118076
0.751640 0.512846 0.121817
0.763718 0.530509 0.125554
0.068504 0.087641 0.078339
0.069738 0.088013 0.078362
0.073475 0.089278 0.078437
0.079375 0.091362 0.078581
0.089284 0.094489 0.078786
0.106191 0.099139 0.079039
0.128595 0.104519 0.079426
0.154454 0.111007 0.079812
0.185519 0.119254 0.080204
0.223568 0.128729 0.080570
0.267269 0.141024 0.080994
0.304949 0.153669 0.081398
0.342920 0.166597 0.081871
0.378628 0.179760 0.082710
0.415014 0.195052 0.083540
0.452042 0.212720 0.084584
0.484967 0.230917 0.085820
0.513651 0.251088 0.087006
0.542254 0.271972 0.088286
0.568113 0.292334 0.089993
0.588078 0.311680 0.091649
0.607637 0.331368 0.093258
0.626569 0.351384 0.095317
0.645211 0.371715 0.097390
0.661075 0.392349 0.099421
0.674757 0.411222 0.102263
0.688170 0.428434 0.105418
0.701329 0.445715 0.108550
0.714248 0.463059 0.111660
0.726940 0.480465 0.114749
0.739416 0.497930 0.118443
0.751687 0.515449 0.122170
0.763763 0.533022 0.125894
0.069526 0.097645 0.078746
0.070852 0.097981 0.078767
0.073988 0.099156 0.078836
0.080169 0.101197 0.078950
0.090235 0.104368 0.079182
0.107246 0.108674 0.079468
0.129562 0.113584 0.079783
0.155380 0.121085 0.080124
0.186548 0.129223 0.080457
0.224638 0.140011 0.080825
0.268286 0.151360 0.081212
0.305706 0.163173 0.081581
0.343558 0.175372 0.082240
0.379218 0.188318 0.083028
0.415564 0.204892 0.083869
0.452557 0.222079 0.085002
0.485333 0.240492 0.086192
0.513991 0.260363 0.087339
0.542570 0.280906 0.088750
0.568322 0.299900 0.090416
0.588271 0.318931 0.092036
0.607813 0.338329 0.093679
0.626732 0.358078 0.095761
0.645364 0.378163 0.097802
0.661183 0.398568 0.099805
0.674858 0.416113 0.102840
0.688264 0.433122 0.105965
0.701417 0.450214 0.109069
0.714331 0.467384 0.112154
0.727018 0.484627 0.115283
0.739490 0.501940 0.118991
0.751757 0.519318 0.122696
0.763829 0.536758 0.126400
0.070921 0.110460 0.079290
0.072008 0.110752 0.079312
0.074921 0.111786 0.079387
0.081178 0.113651 0.079517
0.091484 0.117315 0.079698
0.108651 0.121994 0.079936
0.130857 0.127562 0.080198
0.156624 0.135276 0.080472
0.187934 0.144205 0.080788
0.226082 0.153903 0.081136
0.269658 0.164255 0.081477
0.306727 0.175163 0.081947
0.344417 0.186590 0.082701
0.380015 0.201814 0.083453
0.416307 0.217756 0.084373
0.453252 0.234569 0.085542
0.485828 0.253240 0.086675
0.514450 0.272650 0.087772
0.542998 0.291712 0.089360
0.568605 0.309923 0.090972
0.588533 0.328555 0.092545
0.608050 0.347585 0.094313
0.626953 0.366992 0.096349
0.645571 0.386759 0.098350
0.661330 0.405992 0.100509
0.674995 0.422627 0.103611
0.688392 0.439372 0.106696
0.701538 0.456219 0.109763
0.714444 0.473161 0.112815
0.727125 0.490192 0.116048
0.739590 0.507306 0.119725
0.751852 0.524498 0.123402
0.763919 0.540504 0.127079
0.072339 0.127549 0.079910
0.073174 0.127865 0.079927
0.076101 0.129051 0.079986
0.082522 0.131627 0.080089
0.093019 0.135384 0.080234
0.110407 0.140295 0.080411
0.132487 0.146292 0.080617
0.158196 0.153287 0.080894
0.189691 0.161180 0.081184
0.227915 0.169871 0.081478
0.271089 0.179264 0.081867
0.308022 0.190088 0.082558
0.345508 0.203749 0.083238
0.381026 0.218236 0.084015
0.417250 0.233622 0.085096
0.454135 0.250914 0.086190
0.486457 0.269022 0.087258
0.515033 0.287432 0.088524
0.543541 0.304654 0.090106
0.568963 0.322362 0.091656
0.588864 0.340526 0.093174
0.608352 0.359120 0.095099
0.627234 0.378122 0.097080
0.645833 0.397509 0.099032
0.661516 0.414471 0.101528
0.675169 0.430763 0.104576
0.688555 0.447189 0.107612
0.701690 0.463739 0.110636
0.714588 0.480404 0.113645
0.727260 0.497175 0.117012
0.739718 0.514046 0.120651
0.751973 0.531010 0.124292
0.764034 0.544985 0.127936
0.073630 0.150160 0.080482
0.074317 0.150496 0.080494
0.077462 0.151695 0.080536
0.084170 0.153877 0.080615
0.094818 0.157081 0.080752
0.112508 0.161305 0.080924
0.134490 0.166515 0.081125
0.160099 0.172658 0.081348
0.191828 0.179667 0.081587
0.230148 0.187769 0.082013
0.272794 0.198756 0.082615
0.309601 0.210723 0.083223
0.346837 0.223607 0.083928
0.382259 0.237793 0.084887
0.418399 0.253559 0.085915
0.455212 0.270215 0.086930
0.487223 0.287268 0.087949
0.515744 0.303344 0.089474
0.544203 0.319977 0.090977
0.569401 0.337132 0.092458
0.589269 0.354776 0.094087
0.608720 0.372882 0.096030
0.627577 0.391424 0.097948
0.646153 0.408861 0.099843
0.661743 0.424588 0.102748
0.675381 0.440490 0.105735
0.688753 0.456550 0.108714
0.701876 0.472757 0.111684
0.714763 0.489101 0.114646
0.727425 0.505570 0.118175
0.739874 0.522157 0.121769
0.752120 0.538428 0.125369
0.764174 0.550368 0.128973
0.075233 0.173339 0.081082
0.076095 0.173628 0.081093
0.079535 0.174662 0.081134
0.085967 0.176548 0.081207
0.096858 0.179330 0.081313
0.115199 0.183020 0.081447
0.137048 0.187944 0.081608
0.162337 0.194953 0.081903
0.194352 0.203084 0.082371
0.232791 0.212294 0.082869
0.274809 0.222533 0.083403
0.311468 0.233904 0.084035
0.348409 0.247046 0.084935
0.383718 0.261190 0.085872
0.419761 0.276290 0.086811
0.456489 0.291303 0.087746
0.488131 0.306103 0.089107
0.516586 0.321530 0.090540
0.544989 0.337546 0.091961
0.569919 0.354115 0.093367
0.589749 0.371205 0.095229
0.609156 0.388785 0.097095
0.627983 0.405960 0.098946
0.646533 0.421011 0.101247
0.662013 0.436281 0.104165
0.675632 0.451752 0.107081
0.688989 0.467408 0.109996
0.702097 0.483234 0.112907
0.714970 0.499219 0.116004
0.727621 0.515350 0.119537
0.740059 0.531618 0.123079
0.752295 0.544951 0.126631
0.764339 0.556634 0.130190
0.077140 0.199735 0.081643
0.078094 0.200064 0.081652
0.081706 0.201243 0.081684
0.088206 0.203402 0.081791
0.100088 0.206607 0.081987
0.118288 0.210891 0.082242
0.139973 0.216265 0.082550
0.164907 0.222724 0.082904
0.197266 0.230250 0.083297
0.235851 0.239379 0.083798
0.277139 0.249746 0.084434
0.313630 0.261192 0.085237
0.350230 0.273680 0.086065
0.385408 0.286785 0.086910
0.421338 0.299486 0.087763
0.457968 0.312921 0.089025
0.489183 0.327046 0.090364
0.517563 0.341822 0.091704
0.545899 0.357212 0.093041
0.570520 0.373180 0.094705
0.590305 0.389695 0.096499
0.609662 0.405875 0.098285
0.628455 0.420145 0.100105
0.646973 0.434683 0.102932
0.662325 0.449468 0.105768
0.675924 0.464479 0.108609
0.689262 0.479701 0.111453
0.702354 0.495116 0.114299
0.715212 0.510712 0.117623
0.727848 0.526475 0.121094
0.740273 0.540953 0.124580
0.752498 0.552352 0.128077
0.764532 0.563753 0.131586
0.079794 0.230894 0.082754
0.080776 0.231195 0.082771
0.084345 0.232314 0.082832
0.091351 0.234456 0.082941
0.103777 0.237642 0.083102
0.121724 0.241916 0.083311
0.143259 0.247299 0.083613
0.168099 0.253801 0.083966
0.200573 0.261417 0.084477
0.239334 0.270134 0.085104
0.279787 0.279932 0.085776
0.316089 0.289969 0.086485
0.352301 0.300399 0.087223
0.387333 0.311648 0.088032
0.423136 0.323676 0.089236
0.459653 0.336445 0.090461
0.490382 0.349916 0.091701
0.518676 0.364053 0.092950
0.546937 0.378822 0.094478
0.571205 0.394188 0.096178
0.590939 0.408649 0.097883
0.610239 0.422047 0.099587
0.628992 0.435763 0.102064
0.647476 0.449774 0.104799
0.662682 0.464055 0.107548
0.676257 0.478589 0.110308
0.689574 0.493355 0.113077
0.702646 0.508337 0.116052
0.715487 0.523521 0.119438
0.728107 0.538455 0.122843
0.740518 0.549508 0.126266
0.752730 0.560588 0.129705
0.764752 0.571688 0.133158
0.082670 0.265924 0.083952
0.083684 0.266228 0.083968
0.086958 0.267320 0.084027
0.094622 0.269323 0.084150
0.107755 0.272306 0.084377
0.125488 0.276312 0.084678
0.146895 0.281367 0.085047
0.171940 0.287061 0.085481
0.204273 0.293381 0.085973
0.243243 0.300610 0.086517
0.282755 0.308729 0.087106
0.318847 0.317713 0.087733
0.354625 0.327533 0.088667
0.389494 0.338160 0.089730
0.425155 0.349559 0.090829
0.461548 0.361698 0.091954
0.491728 0.374544 0.093100
0.519927 0.388064 0.094557
0.548104 0.402192 0.096146
0.571975 0.414255 0.097751
0.591653 0.426712 0.099366
0.610888 0.439535 0.101582
0.629597 0.452698 0.104196
0.648041 0.466176 0.106835
0.663083 0.479947 0.109494
0.676632 0.493992 0.112170
0.689925 0.508290 0.114860
0.702976 0.522825 0.118131
0.715797 0.537519 0.121442
0.728399 0.548166 0.124776
0.740794 0.558866 0.128132
0.752991 0.569612 0.131508
0.764999 0.580394 0.134936
0.085794 0.300354 0.085630
0.086667 0.300604 0.085651
0.090824 0.301503 0.085723
0.098405 0.303151 0.085854
0.111992 0.305606 0.086047
0.129559 0.308903 0.086303
0.150869 0.313061 0.086619
0.176348 0.318091 0.086993
0.208515 0.323993 0.087420
0.247582 0.330760 0.087899
0.286042 0.338380 0.088704
0.321907 0.346835 0.089570
0.357203 0.356102 0.090489
0.391893 0.366157 0.091453
0.427398 0.376973 0.092454
0.463655 0.388522 0.093510
0.493225 0.400777 0.094942
0.521318 0.411574 0.096406
0.549401 0.422608 0.097897
0.572831 0.434078 0.099408
0.592446 0.445956 0.101499
0.611610 0.458216 0.103974
0.630270 0.470833 0.106485
0.648671 0.483783 0.109026
0.663530 0.497044 0.111594
0.677049 0.510597 0.114183
0.690315 0.524422 0.117194
0.703342 0.538176 0.120395
0.716142 0.548362 0.123627
0.728725 0.558630 0.126887
0.741102 0.568969 0.130173
0.753282 0.579371 0.133482
0.765275 0.589825 0.137427
0.089619 0.333583 0.087268
0.090822 0.333817 0.087285
0.094870 0.334654 0.087347
0.103590 0.336190 0.087459
0.116900 0.338480 0.087625
0.133918 0.341558 0.087846
0.155168 0.345445 0.088246
0.181164 0.350154 0.088751
0.213524 0.355690 0.089332
0.252351 0.362049 0.089985
0.289650 0.369224 0.090703
0.325268 0.377202 0.091480
0.360036 0.385967 0.092309
0.394532 0.395499 0.093185
0.429867 0.405099 0.094337
0.465974 0.414075 0.095623
0.494871 0.423573 0.096952
0.522849 0.433567 0.098318
0.550831 0.444030 0.099714
0.573774 0.454936 0.101819
0.593320 0.466259 0.104140
0.612406 0.477975 0.106508
0.631012 0.490059 0.108916
0.649364 0.502491 0.111360
0.664022 0.515249 0.113835
0.677509 0.528314 0.116640
0.690746 0.540434 0.119718
0.703747 0.550110 0.122834
0.716522 0.559898 0.125985
0.729084 0.569784 0.129169
0.741441 0.579759 0.132381
0.753603 0.589810 0.135873
0.765579 0.599931 0.140140
0.094162 0.367618 0.089323
0.095239 0.367837 0.089346
0.099764 0.368621 0.089429
0.108937 0.370060 0.089581
0.122157 0.372206 0.089806
0.139050 0.375093 0.090106
0.159779 0.378744 0.090480
0.186382 0.383171 0.090926
0.218978 0.388383 0.091443
0.257552 0.394379 0.092025
0.293574 0.401156 0.092669
0.328930 0.407492 0.093369
0.363123 0.414267 0.094364
0.397410 0.421623 0.095443
0.432562 0.429537 0.096581
0.468507 0.437989 0.097769
0.496669 0.446957 0.099003
0.524522 0.456416 0.100446
0.552393 0.466343 0.102538
0.574804 0.476715 0.104694
0.594275 0.487509 0.106906
0.613275 0.498703 0.109168
0.631823 0.510275 0.111475
0.650123 0.522203 0.113822
0.664561 0.534470 0.116480
0.678012 0.544269 0.119421
0.691218 0.553398 0.122408
0.704190 0.562666 0.125438
0.716939 0.572059 0.128507
0.729476 0.581566 0.131612
0.741812 0.591176 0.134749
0.753954 0.600877 0.138871
0.765912 0.610660 0.143069
0.099320 0.402350 0.091612
0.100780 0.402518 0.091633
0.105827 0.403122 0.091706
0.114615 0.404231 0.091840
0.127643 0.405883 0.092039
0.144501 0.408105 0.092304
0.164687 0.410913 0.092636
0.191995 0.414317 0.093034
0.224877 0.418320 0.093521
0.263183 0.422921 0.094226
0.297815 0.428115 0.095011
0.332891 0.433893 0.095870
0.366463 0.440244 0.096797
0.400527 0.447152 0.097788
0.435483 0.454602 0.098836
0.470951 0.462576 0.099937
0.498618 0.471054 0.101735
0.526336 0.480016 0.103645
0.554088 0.489443 0.105626
0.575921 0.499314 0.107673
0.595311 0.509608 0.109780
0.614220 0.520304 0.111940
0.632704 0.531384 0.114149
0.650948 0.541262 0.116719
0.665146 0.549635 0.119511
0.678559 0.558188 0.122358
0.691730 0.566906 0.125254
0.704671 0.575775 0.128197
0.717392 0.584782 0.131183
0.729904 0.593915 0.134208
0.742216 0.603163 0.138023
0.754337 0.612515 0.142082
0.766275 0.621962 0.146209
0.105903 0.431229 0.093941
0.107255 0.431386 0.093966
0.111953 0.431947 0.094054
0.120910 0.432979 0.094215
0.133337 0.434517 0.094455
0.150231 0.436587 0.094775
0.170513 0.439205 0.095177
0.197995 0.442380 0.095661
0.231216 0.446120 0.096225
0.269244 0.450424 0.096865
0.302367 0.455290 0.097580
0.337151 0.460712 0.098365
0.370055 0.466681 0.099215
0.403883 0.473186 0.100208
0.438631 0.480214 0.101755
0.473214 0.487750 0.103394
0.500717 0.495778 0.105118
0.528292 0.504281 0.106922
0.555917 0.513242 0.108798
0.577126 0.522643 0.110743
0.596429 0.532465 0.112748
0.615239 0.541164 0.114810
0.633655 0.548703 0.117354
0.651838 0.556461 0.119989
0.665778 0.564421 0.122685
0.679150 0.572569 0.125439
0.692284 0.580891 0.128246
0.705191 0.589374 0.131102
0.717882 0.598005 0.134004
0.730366 0.606773 0.137604
0.742652 0.615666 0.141515
0.754750 0.624675 0.145499
0.766667 0.633788 0.149553
0.112483 0.460243 0.096803
0.113854 0.460389 0.096826
0.118779 0.460913 0.096905
0.127354 0.461877 0.097051
0.139805 0.463315 0.097267
0.156222 0.465251 0.097557
0.177313 0.467701 0.097922
0.204374 0.470676 0.098361
0.237992 0.474182 0.098873
0.274564 0.478222 0.099457
0.307228 0.482795 0.100182
0.341369 0.487898 0.101331
0.373897 0.493523 0.102586
0.407477 0.499662 0.103941
0.442004 0.506306 0.105392
0.475637 0.513442 0.106933
0.502968 0.521056 0.108559
0.530390 0.529134 0.110263
0.557879 0.537577 0.112042
0.578418 0.543963 0.113889
0.597629 0.550616 0.115986
0.616333 0.557519 0.118381
0.634677 0.564659 0.120850
0.652794 0.572019 0.123388
0.666457 0.579588 0.125991
0.679785 0.587350 0.128653
0.692879 0.595293 0.131371
0.705750 0.603405 0.134142
0.718408 0.611672 0.137620
0.730862 0.620085 0.141374
0.743122 0.628633 0.145206
0.755194 0.637185 0.149114
0.767088 0.644031 0.153093
0.119827 0.489383 0.099582
0.121151 0.489520 0.099602
0.125797 0.490012 0.099674
0.133933 0.490916 0.099806
0.146582 0.492265 0.100010
0.162458 0.494082 0.100430
0.184485 0.496383 0.100960
0.211596 0.499180 0.101600
0.245203 0.502478 0.102352
0.280087 0.506282 0.103212
0.312394 0.510592 0.104180
0.345752 0.515407 0.105253
0.377986 0.520721 0.106426
0.411306 0.526529 0.107697
0.445602 0.532822 0.109060
0.478219 0.538954 0.110511
0.505368 0.544106 0.112046
0.532629 0.549560 0.113659
0.559975 0.555302 0.115436
0.579798 0.561319 0.117570
0.598910 0.567599 0.119788
0.617502 0.574128 0.122087
0.635769 0.580893 0.124461
0.653662 0.587882 0.126906
0.667183 0.595080 0.129417
0.680464 0.602476 0.131990
0.693516 0.610058 0.134622
0.706348 0.617813 0.138073
0.718972 0.625732 0.141662
0.731394 0.633802 0.145335
0.743625 0.640857 0.149088
0.755671 0.647348 0.152919
0.767540 0.653917 0.156824
0.127253 0.518643 0.103665
0.128503 0.518772 0.103695
0.132897 0.519235 0.103801
0.141383 0.520086 0.103996
0.153566 0.521356 0.104286
0.169364 0.523068 0.104676
0.192018 0.525236 0.105169
0.219562 0.527872 0.105764
0.252843 0.530984 0.106464
0.285918 0.534576 0.107267
0.317859 0.538282 0.108171
0.350390 0.541530 0.109175
0.382319 0.545110 0.110275
0.415368 0.549016 0.111468
0.449424 0.553241 0.112751
0.480959 0.557776 0.114120
0.507917 0.562613 0.115709
0.535009 0.567741 0.117567
0.562039 0.573149 0.119518
0.581264 0.578826 0.121560
0.600273 0.584762 0.123686
0.618745 0.590943 0.125893
0.636931 0.597359 0.128176
0.654490 0.603998 0.130531
0.667956 0.610848 0.132954
0.681187 0.617898 0.135637
0.694194 0.625136 0.138962
0.706986 0.632552 0.142380
0.719572 0.639393 0.145887
0.731961 0.645420 0.149479
0.744161 0.651545 0.153154
0.756178 0.657761 0.156908
0.768022 0.664060 0.160913
0.134793 0.544954 0.107943
0.136110 0.545041 0.107970
0.140759 0.545351 0.108069
0.149016 0.545922 0.108250
0.160744 0.546773 0.108521
0.177648 0.547920 0.108884
0.199903 0.549372 0.109343
0.227956 0.551136 0.109899
0.260908 0.553217 0.110553
0.292052 0.555616 0.111304
0.323618 0.558334 0.112151
0.355279 0.561370 0.113092
0.386894 0.564719 0.114126
0.419662 0.568378 0.115319
0.453467 0.572342 0.116789
0.483855 0.576602 0.118363
0.510614 0.581151 0.120039
0.537528 0.585981 0.121811
0.563714 0.591084 0.123676
0.582817 0.596448 0.125630
0.601718 0.602065 0.127669
0.620064 0.607924 0.129788
0.638164 0.614014 0.131985
0.655368 0.620326 0.134253
0.668776 0.626848 0.137137
0.681955 0.633571 0.140282
0.694914 0.639665 0.143524
0.707663 0.645188 0.146860
0.720210 0.650829 0.150285
0.732563 0.656582 0.153798
0.744730 0.662437 0.157395
0.756718 0.668388 0.161280
0.768534 0.674427 0.165397
0.143179 0.565745 0.112175
0.144435 0.565826 0.112201
0.148880 0.566115 0.112293
0.156801 0.566648 0.112462
0.168433 0.567442 0.112715
0.186296 0.568512 0.113054
0.208250 0.569868 0.113484
0.236772 0.571516 0.114004
0.269393 0.573461 0.114617
0.298480 0.575706 0.115406
0.329666 0.578251 0.116373
0.360414 0.581095 0.117450
0.391706 0.584237 0.118636
0.424185 0.587674 0.119929
0.457729 0.591400 0.121327
0.486905 0.595410 0.122826
0.513457 0.599697 0.124423
0.540187 0.604256 0.126116
0.565480 0.609077 0.127900
0.584455 0.614153 0.129772
0.603243 0.619475 0.131728
0.621457 0.625034 0.133765
0.639467 0.630821 0.136208
0.656297 0.636812 0.139064
0.669643 0.641658 0.142025
0.682766 0.646649 0.145088
0.695676 0.651777 0.148249
0.708380 0.657034 0.151504
0.720886 0.662412 0.154850
0.733201 0.667904 0.158285
0.745334 0.673502 0.162081
0.757290 0.679199 0.166032
0.769076 0.684989 0.170078
0.151659 0.586307 0.116675
0.152861 0.586382 0.116704
0.157119 0.586653 0.116809
0.164729 0.587151 0.117002
0.177673 0.587895 0.117290
0.195264 0.588897 0.117678
0.217822 0.590166 0.118168
0.246004 0.591711 0.118764
0.276612 0.593534 0.119466
0.305197 0.595640 0.120275
0.335997 0.598029 0.121191
0.365790 0.600702 0.122213
0.396752 0.603657 0.123340
0.428933 0.606891 0.124571
0.462209 0.610402 0.125902
0.490108 0.614184 0.127331
0.516445 0.618233 0.128857
0.542983 0.622542 0.130475
0.567337 0.627105 0.132184
0.586179 0.631916 0.133978
0.604823 0.636920 0.136179
0.622924 0.641038 0.138737
0.640840 0.645323 0.141405
0.657274 0.649766 0.144182
0.670557 0.654362 0.147063
0.683622 0.659101 0.150046
0.696480 0.663978 0.153128
0.709136 0.668984 0.156304
0.721598 0.674113 0.159638
0.733874 0.679357 0.163316
0.745970 0.684710 0.167095
0.757893 0.689982 0.170983
0.769649 0.695194 0.175832
0.160232 0.606652 0.121740
0.161383 0.606723 0.121768
0.165470 0.606977 0.121867
0.174132 0.607444 0.122050
0.187330 0.608142 0.122322
0.204543 0.609083 0.122689
0.227800 0.610276 0.123154
0.255645 0.611727 0.123719
0.284029 0.613441 0.124385
0.312194 0.615422 0.125153
0.342183 0.617670 0.126023
0.371402 0.620188 0.126995
0.402027 0.622973 0.128068
0.433904 0.626024 0.129240
0.466904 0.629338 0.130510
0.493460 0.632913 0.131875
0.519575 0.636743 0.133333
0.545915 0.639930 0.134911
0.569283 0.643299 0.137044
0.587987 0.646849 0.139296
0.606472 0.650574 0.141665
0.624464 0.654468 0.144146
0.642282 0.658524 0.146739
0.658302 0.662736 0.149439
0.671517 0.667098 0.152243
0.684522 0.671603 0.155149
0.697325 0.676244 0.158154
0.709931 0.681014 0.161478
0.722349 0.685907 0.164978
0.734583 0.690688 0.168583
0.746641 0.695496 0.172587
0.758529 0.700400 0.177239
0.770253 0.705393 0.182032
0.169327 0.626792 0.126795
0.170662 0.626859 0.126822
0.175548 0.627098 0.126916
0.184387 0.627538 0.127089
0.197273 0.628195 0.127348
0.214953 0.629081 0.127696
0.238176 0.630204 0.128137
0.265690 0.631570 0.128674
0.291718 0.633186 0.129307
0.319465 0.635053 0.130038
0.348401 0.637084 0.130866
0.377245 0.638937 0.131792
0.407528 0.640988 0.132814
0.439094 0.643234 0.133933
0.471376 0.645673 0.135254
0.496960 0.648303 0.136955
0.522847 0.651120 0.138779
0.548982 0.654120 0.140725
0.571316 0.657299 0.142791
0.589878 0.660653 0.144974
0.608199 0.664176 0.147272
0.626077 0.667862 0.149682
0.643793 0.671707 0.152201
0.659378 0.675705 0.154828
0.672524 0.679849 0.157558
0.685466 0.684134 0.160531
0.698212 0.688468 0.163742
0.710766 0.692740 0.167063
0.723136 0.697126 0.170491
0.735327 0.701619 0.174704
0.747345 0.706215 0.179157
0.759197 0.710908 0.183753
0.770887 0.715692 0.188491
0.180192 0.644536 0.131842
0.181526 0.644585 0.131867
0.186285 0.644760 0.131956
0.194904 0.645083 0.132121
0.207544 0.645565 0.132367
0.226037 0.646214 0.132698
0.248945 0.647038 0.133118
0.274883 0.648041 0.133629
0.299672 0.649226 0.134231
0.327002 0.650595 0.134970
0.354846 0.652151 0.135998
0.383313 0.653893 0.137150
0.413249 0.655821 0.138427
0.444499 0.657935 0.139826
0.475281 0.660232 0.141349
0.500604 0.662711 0.142994
0.526258 0.665368 0.144760
0.552182 0.668201 0.146645
0.573437 0.671206 0.148647
0.591851 0.674379 0.150764
0.610002 0.677715 0.152995
0.627763 0.681210 0.155336
0.645373 0.684859 0.157786
0.660504 0.688565 0.160479
0.673577 0.692266 0.163392
0.686454 0.696097 0.166420
0.699140 0.700050 0.169561
0.711640 0.704123 0.173223
0.723961 0.708308 0.177329
0.736106 0.712600 0.181581
0.748083 0.716996 0.185979
0.759897 0.721489 0.190520
0.771507 0.726074 0.195202
0.191327 0.659857 0.137514
0.192626 0.659903 0.137545
0.197265 0.660068 0.137656
0.205676 0.660371 0.137861
0.219283 0.660824 0.138168
0.237499 0.661434 0.138581
0.260101 0.662208 0.139105
0.283522 0.663151 0.139743
0.307881 0.664265 0.140497
0.334798 0.665554 0.141370
0.361513 0.667018 0.142363
0.389600 0.668659 0.143475
0.419187 0.670476 0.144708
0.450116 0.672469 0.146062
0.479332 0.674637 0.147535
0.504390 0.676978 0.149127
0.529805 0.679489 0.150837
0.555513 0.682169 0.152664
0.575643 0.685013 0.154606
0.593906 0.687966 0.156661
0.611880 0.690938 0.158827
0.629520 0.694053 0.161313
0.647021 0.697308 0.163924
