negative-superia-xtra-400/SuperiaXtra400_Modern_ExtraSoft.cube
TITLE "Fuji Superia X-tra 400 Modern ExtraSoft"
# Adobe RGB in/out. REPLACES AgX. Fuji Superia X-tra 400 Modern ExtraSoft.
LUT_3D_SIZE 33
DOMAIN_MIN 0.0 0.0 0.0
DOMAIN_MAX 1.0 1.0 1.0
0.055369 0.061977 0.079302
0.065152 0.066498 0.080812
0.079621 0.072038 0.082583
0.099737 0.078769 0.084208
0.131601 0.087082 0.086376
0.186284 0.096500 0.088533
0.261176 0.110734 0.090728
0.330108 0.127075 0.092752
0.392955 0.147290 0.095157
0.436507 0.171703 0.097767
0.478992 0.201153 0.100134
0.513374 0.234347 0.102868
0.538454 0.267408 0.105572
0.561969 0.303443 0.108082
0.584066 0.333763 0.110422
0.605078 0.364202 0.112798
0.625093 0.394590 0.116140
0.644188 0.414859 0.119327
0.661348 0.434598 0.122363
0.671826 0.453821 0.125259
0.681762 0.472539 0.128664
0.691214 0.490798 0.132089
0.700239 0.508642 0.135399
0.708864 0.523182 0.138599
0.717117 0.535350 0.141969
0.725022 0.547135 0.146116
0.732600 0.558551 0.150160
0.739870 0.569613 0.154104
0.746848 0.580334 0.157950
0.753552 0.590726 0.161700
0.759994 0.600799 0.165355
0.766189 0.610565 0.169915
0.772147 0.617564 0.174412
0.057835 0.068962 0.081061
0.062599 0.068509 0.081051
0.074152 0.072665 0.082528
0.093325 0.079392 0.084154
0.124633 0.087639 0.086329
0.177530 0.096841 0.088476
0.251468 0.111120 0.090673
0.323057 0.127511 0.092704
0.389019 0.147849 0.095111
0.433222 0.172393 0.097737
0.476194 0.201943 0.100112
0.511843 0.235098 0.102848
0.537147 0.268204 0.105557
0.560863 0.304079 0.108071
0.583099 0.334373 0.110413
0.604225 0.364787 0.112789
0.624335 0.394968 0.116131
0.643508 0.415212 0.119320
0.660978 0.434929 0.122357
0.671495 0.454132 0.125254
0.681463 0.472832 0.128659
0.690945 0.491077 0.132086
0.699995 0.508908 0.135397
0.708643 0.523364 0.138597
0.716916 0.535523 0.141969
0.724838 0.547300 0.146116
0.732431 0.558708 0.150161
0.739714 0.569764 0.154106
0.746705 0.580478 0.157953
0.753419 0.590864 0.161704
0.759872 0.600932 0.165360
0.766075 0.610692 0.169922
0.772042 0.617644 0.174420
0.060522 0.078563 0.083283
0.064901 0.077988 0.083254
0.071988 0.077025 0.083258
0.084803 0.081091 0.084187
0.109961 0.089115 0.086253
0.153607 0.097841 0.088332
0.222856 0.112324 0.090521
0.301294 0.129043 0.092574
0.371638 0.149819 0.094983
0.422332 0.174831 0.097649
0.466765 0.204742 0.100050
0.506605 0.237762 0.102786
0.532637 0.271036 0.105510
0.557020 0.306340 0.108035
0.579724 0.336545 0.110386
0.601236 0.366871 0.112764
0.621668 0.396314 0.116103
0.641114 0.416472 0.119297
0.659655 0.436111 0.122339
0.670322 0.455243 0.125239
0.680405 0.473880 0.128644
0.689990 0.492074 0.132075
0.699129 0.509860 0.135390
0.707855 0.524017 0.138594
0.716197 0.536144 0.141968
0.724180 0.547890 0.146119
0.731828 0.559272 0.150168
0.739159 0.570302 0.154116
0.746194 0.580994 0.157965
0.752947 0.591358 0.161718
0.759435 0.601407 0.165377
0.765670 0.611149 0.169946
0.771665 0.617930 0.174446
0.063525 0.091159 0.085631
0.066790 0.090748 0.085604
0.075226 0.089558 0.085535
0.084181 0.088670 0.085585
0.099453 0.091992 0.086498
0.134102 0.100750 0.088338
0.191453 0.114742 0.090443
0.269336 0.131990 0.092489
0.343408 0.153457 0.094881
0.405492 0.179275 0.097569
0.451669 0.209820 0.099988
0.496118 0.242580 0.102720
0.525035 0.276162 0.105458
0.550449 0.310425 0.107993
0.573889 0.340476 0.110352
0.596023 0.370648 0.112731
0.616984 0.398750 0.116066
0.636884 0.418756 0.119267
0.655818 0.438257 0.122314
0.668229 0.457264 0.125219
0.678512 0.475790 0.128624
0.688276 0.493895 0.132062
0.697572 0.511599 0.135383
0.706437 0.525210 0.138593
0.714901 0.537277 0.141973
0.722992 0.548970 0.146130
0.730736 0.560303 0.150184
0.738154 0.571288 0.154137
0.745266 0.581938 0.157991
0.752089 0.592265 0.161748
0.758640 0.602278 0.165410
0.764933 0.611987 0.169993
0.770980 0.618455 0.174498
0.066655 0.109421 0.088248
0.070436 0.108856 0.088218
0.079360 0.107055 0.088124
0.088697 0.104701 0.088028
0.102708 0.103504 0.088119
0.123586 0.107988 0.088980
0.168879 0.121150 0.090715
0.237416 0.138431 0.092641
0.314448 0.159507 0.094982
0.386286 0.186141 0.097611
0.433496 0.217493 0.100001
0.479121 0.249750 0.102719
0.515130 0.283749 0.105448
0.541525 0.316429 0.107980
0.565983 0.346247 0.110338
0.588862 0.376194 0.112715
0.610479 0.402316 0.116047
0.630956 0.422104 0.119250
0.650399 0.441407 0.122299
0.665246 0.460234 0.125207
0.675803 0.478608 0.128614
0.685814 0.496584 0.132059
0.695328 0.514171 0.135387
0.704385 0.526975 0.138602
0.713021 0.538957 0.141994
0.721265 0.550571 0.146158
0.729146 0.561832 0.150219
0.736687 0.572752 0.154178
0.743910 0.583342 0.158037
0.750833 0.593612 0.161799
0.757475 0.603573 0.165469
0.763850 0.613136 0.170071
0.769973 0.619236 0.174581
0.072609 0.151107 0.091903
0.076051 0.149957 0.091848
0.085325 0.145949 0.091649
0.098707 0.139175 0.091307
0.112787 0.131339 0.090949
0.131150 0.128534 0.090911
0.157922 0.132167 0.091461
0.216105 0.149256 0.093178
0.290868 0.170715 0.095453
0.359628 0.197252 0.097895
0.415199 0.228374 0.100177
0.461067 0.259638 0.102870
0.504051 0.294072 0.105546
0.531229 0.324474 0.108045
0.556657 0.353940 0.110382
0.580257 0.383566 0.112750
0.602542 0.407027 0.116080
0.623633 0.426529 0.119274
0.643636 0.445574 0.122318
0.661479 0.464167 0.125222
0.672365 0.482355 0.128636
0.682671 0.500166 0.132085
0.692449 0.517086 0.135416
0.701742 0.529327 0.138637
0.710589 0.541198 0.142047
0.719024 0.552711 0.146218
0.727076 0.563878 0.150284
0.734772 0.574712 0.154249
0.742136 0.585222 0.158114
0.749187 0.595418 0.161881
0.755945 0.605311 0.165580
0.762426 0.614228 0.170188
0.768646 0.620232 0.174704
0.078819 0.211379 0.095928
0.082249 0.212466 0.096035
0.090744 0.205355 0.095715
0.107078 0.190462 0.094942
0.123631 0.175556 0.094026
0.144100 0.166026 0.093603
0.170375 0.163102 0.093662
0.205900 0.166313 0.094259
0.272604 0.186997 0.096366
0.338256 0.213647 0.098503
0.399109 0.242713 0.100587
0.444077 0.273377 0.103253
0.488388 0.306247 0.105816
0.520522 0.334784 0.108238
0.546603 0.363704 0.110522
0.570824 0.392864 0.112894
0.593676 0.412908 0.116210
0.615325 0.432043 0.119375
0.635864 0.450762 0.122398
0.655396 0.469082 0.125291
0.668330 0.487046 0.128717
0.678955 0.504654 0.132162
0.689023 0.520183 0.135493
0.698579 0.532274 0.138713
0.707665 0.544008 0.142154
0.716317 0.555396 0.146327
0.724567 0.566449 0.150396
0.732444 0.577176 0.154365
0.739972 0.587588 0.158233
0.747173 0.597694 0.162005
0.754069 0.607502 0.165744
0.760676 0.615604 0.170358
0.767012 0.621473 0.174880
0.084164 0.275660 0.099618
0.086837 0.276700 0.099697
0.098297 0.273699 0.099650
0.113579 0.255242 0.098842
0.134322 0.236909 0.098006
0.156412 0.221943 0.097380
0.187025 0.212868 0.097120
0.221671 0.210432 0.097279
0.264529 0.213878 0.097810
0.323568 0.235436 0.099440
0.386446 0.261522 0.101471
0.429573 0.291936 0.103920
0.472717 0.320162 0.106306
0.510251 0.347667 0.108603
0.536471 0.375763 0.110798
0.561189 0.401016 0.113237
0.584415 0.420010 0.116480
0.606484 0.438677 0.119590
0.627473 0.457000 0.122574
0.647489 0.475011 0.125442
0.663863 0.492702 0.128890
0.674805 0.510063 0.132320
0.685166 0.523907 0.135640
0.694994 0.535821 0.138852
0.704332 0.547393 0.142338
0.713216 0.558632 0.146508
0.721679 0.569549 0.150576
0.729752 0.580150 0.154543
0.737461 0.590446 0.158412
0.744829 0.600444 0.162185
0.751878 0.610151 0.165977
0.758627 0.617268 0.170595
0.765094 0.622974 0.175121
0.089336 0.340997 0.103734
0.093006 0.341776 0.103817
0.104808 0.336624 0.103568
0.120773 0.321507 0.102687
0.143621 0.304684 0.101707
0.170744 0.286910 0.100848
0.202961 0.272984 0.100387
0.239483 0.265148 0.100266
0.281480 0.263475 0.100458
0.319818 0.266901 0.101013
0.373305 0.286839 0.102725
0.418150 0.312537 0.104881
0.459508 0.337377 0.107042
0.500960 0.363443 0.109170
0.527009 0.390383 0.111238
0.551895 0.410114 0.113797
0.575249 0.428405 0.116928
0.597555 0.446492 0.119954
0.618882 0.464367 0.122880
0.639276 0.481997 0.125705
0.658783 0.499355 0.129187
0.670374 0.516235 0.132586
0.681011 0.528268 0.135882
0.691102 0.539973 0.139076
0.700687 0.551357 0.142628
0.709803 0.562424 0.146785
0.718484 0.573182 0.150844
0.726760 0.583639 0.154804
0.734657 0.593800 0.158668
0.742201 0.603672 0.162437
0.749414 0.613155 0.166298
0.756316 0.619220 0.170916
0.762924 0.624737 0.175442
0.097974 0.401869 0.107857
0.101301 0.400757 0.107782
0.111129 0.394838 0.107332
0.128953 0.381141 0.106620
0.151976 0.364715 0.105779
0.183549 0.348534 0.104967
0.217650 0.334806 0.104325
0.256719 0.324924 0.103955
0.296206 0.319501 0.103909
0.332791 0.318518 0.104191
0.372178 0.321528 0.104764
0.409728 0.335334 0.106105
0.449023 0.358071 0.108017
0.488804 0.382351 0.109945
0.518620 0.403390 0.111900
0.543220 0.420758 0.114603
0.566596 0.438195 0.117587
0.588966 0.455619 0.120506
0.610462 0.472943 0.123348
0.631092 0.490103 0.126199
0.650879 0.507054 0.129641
0.665819 0.521520 0.132990
0.676696 0.533281 0.136246
0.687023 0.544743 0.139409
0.696836 0.555908 0.143053
0.706173 0.566777 0.147185
0.715063 0.577354 0.151223
0.723538 0.587644 0.155168
0.731624 0.597652 0.159020
0.739346 0.607383 0.162778
0.746726 0.615488 0.166727
0.753784 0.621338 0.171339
0.760540 0.626761 0.175862
0.105778 0.439906 0.111161
0.108541 0.438428 0.111056
0.117664 0.433402 0.110699
0.136947 0.425176 0.110117
0.161465 0.414914 0.109400
0.195130 0.404064 0.108660
0.231953 0.393763 0.108008
0.272675 0.381529 0.107536
0.309642 0.372993 0.107302
0.345866 0.368496 0.107334
0.384256 0.367952 0.107627
0.410552 0.370991 0.108154
0.441094 0.382182 0.109202
0.479051 0.401162 0.110917
0.511509 0.416869 0.112853
0.535573 0.433054 0.115675
0.558809 0.449536 0.118488
0.581040 0.466161 0.121270
0.602518 0.482812 0.124002
0.623225 0.499400 0.126925
0.643159 0.515830 0.130279
0.661289 0.527523 0.133557
0.672354 0.538965 0.136756
0.682875 0.550146 0.139871
0.692887 0.561058 0.143639
0.702419 0.571700 0.147732
0.711501 0.582071 0.151738
0.720163 0.592173 0.155657
0.728428 0.602007 0.159486
0.736321 0.611578 0.163227
0.743865 0.618121 0.167285
0.751079 0.623714 0.171885
0.757983 0.629046 0.176397
0.113055 0.475833 0.115233
0.115472 0.474578 0.115095
0.126595 0.470267 0.114624
0.144831 0.463064 0.113841
0.171584 0.453792 0.112845
0.205768 0.443572 0.112054
0.244883 0.433529 0.111360
0.286734 0.424616 0.110848
0.322013 0.417524 0.110506
0.358380 0.412673 0.110372
0.392286 0.410224 0.110457
0.417490 0.410123 0.110756
0.443255 0.412172 0.111247
0.471555 0.417900 0.112146
0.505782 0.432172 0.114431
0.529187 0.447101 0.117022
0.552077 0.462496 0.119641
0.573987 0.478191 0.122260
0.595276 0.494047 0.124858
0.615904 0.509955 0.127883
0.635848 0.523002 0.131124
0.655099 0.534272 0.134310
0.668105 0.545345 0.137432
0.678771 0.556200 0.140484
0.688939 0.566823 0.144414
0.698634 0.577206 0.148451
0.707882 0.587343 0.152411
0.716709 0.597231 0.156290
0.725137 0.606871 0.160087
0.733190 0.615110 0.163800
0.740888 0.620955 0.167993
0.748252 0.626361 0.172572
0.755298 0.631593 0.177067
0.121604 0.510341 0.119676
0.124787 0.509263 0.119563
0.135461 0.505533 0.119170
0.152635 0.499202 0.118508
0.181488 0.490855 0.117644
0.215777 0.481355 0.116679
0.256684 0.471628 0.115725
0.297204 0.462517 0.114883
0.333176 0.454693 0.114237
0.369956 0.448630 0.113847
0.399677 0.444612 0.113750
0.424378 0.442738 0.113958
0.449476 0.442955 0.114460
0.475082 0.445099 0.115231
0.501381 0.449215 0.116272
0.524054 0.462844 0.118627
0.546389 0.477070 0.121038
0.567916 0.491734 0.123477
0.588877 0.506690 0.125959
0.609290 0.520120 0.129085
0.629114 0.531002 0.132192
0.648327 0.541789 0.135264
0.664052 0.552440 0.138290
0.674808 0.562924 0.141374
0.685084 0.573218 0.145399
0.694903 0.583307 0.149363
0.704284 0.593179 0.153261
0.713248 0.602828 0.157088
0.721818 0.612249 0.160840
0.730012 0.618480 0.164515
0.737850 0.623992 0.168873
0.745351 0.629279 0.173421
0.752532 0.634400 0.177889
0.131483 0.535604 0.123815
0.134385 0.534940 0.123720
0.144225 0.532627 0.123389
0.162358 0.528643 0.122825
0.191276 0.523273 0.122075
0.226224 0.516979 0.121214
0.267619 0.508209 0.120329
0.306645 0.499206 0.119507
0.343251 0.491071 0.118823
0.380602 0.484288 0.118334
0.406615 0.479189 0.118082
0.431083 0.475956 0.118090
0.455750 0.474640 0.118362
0.480776 0.475181 0.118888
0.504411 0.477439 0.119645
0.520793 0.481231 0.120606
0.541757 0.493178 0.122659
0.562848 0.506756 0.124910
0.583383 0.519345 0.127586
0.603472 0.529569 0.130535
0.623069 0.539837 0.133489
0.642138 0.550087 0.136429
0.660276 0.560264 0.139342
0.671064 0.570331 0.142692
0.681401 0.580255 0.146612
0.691300 0.590013 0.150486
0.700776 0.599590 0.154307
0.709847 0.608971 0.158067
0.718531 0.616340 0.161762
0.726844 0.621998 0.165387
0.734804 0.627311 0.169943
0.742427 0.632467 0.174449
0.749730 0.637467 0.178881
0.141129 0.558093 0.128231
0.143790 0.557524 0.128128
0.152888 0.555533 0.127769
0.172975 0.552073 0.127149
0.201060 0.547341 0.126313
0.236464 0.541691 0.125433
0.278018 0.535549 0.124627
0.315351 0.529356 0.123848
0.352448 0.523516 0.123162
0.388442 0.518370 0.122623
0.413004 0.513569 0.122272
0.437403 0.509334 0.122137
0.461833 0.506797 0.122232
0.486466 0.505980 0.122557
0.507708 0.506822 0.123103
0.523669 0.509204 0.123850
0.539604 0.512971 0.124776
0.558730 0.521091 0.126751
0.578786 0.530383 0.129465
0.598481 0.539876 0.132227
0.617768 0.549491 0.135014
0.636606 0.559158 0.137808
0.654965 0.568819 0.140593
0.667601 0.578425 0.144268
0.677949 0.587940 0.148066
0.687885 0.597334 0.151834
0.697419 0.606582 0.155562
0.706563 0.614723 0.159241
0.715331 0.620450 0.162865
0.723738 0.625752 0.166707
0.731797 0.630910 0.171221
0.739524 0.635924 0.175673
0.746933 0.640794 0.180058
0.150553 0.579450 0.132942
0.153003 0.578959 0.132854
0.163835 0.577237 0.132545
0.183700 0.574220 0.132009
0.210842 0.570049 0.131277
0.246598 0.564990 0.130405
0.287441 0.559384 0.129465
0.323457 0.553596 0.128531
0.360858 0.547977 0.127675
0.394138 0.542834 0.126959
0.418797 0.538418 0.126434
0.443220 0.534917 0.126137
0.467553 0.532455 0.126092
0.491953 0.531091 0.126307
0.510960 0.530831 0.126783
0.526583 0.531633 0.127507
0.542157 0.533422 0.128459
0.557528 0.536103 0.129616
0.575029 0.542225 0.131572
0.594292 0.550982 0.134143
0.613216 0.559923 0.136757
0.631762 0.568978 0.139395
0.649895 0.578089 0.142450
0.664457 0.587201 0.146108
0.674773 0.596273 0.149768
0.684705 0.605268 0.153414
0.694259 0.613738 0.157035
0.703442 0.619440 0.160620
0.712265 0.624681 0.164162
0.720739 0.629799 0.168282
0.728874 0.634790 0.172722
0.736684 0.639650 0.177109
0.744180 0.644378 0.181436
0.161510 0.599750 0.137412
0.164619 0.599325 0.137337
0.175505 0.597828 0.137071
0.194489 0.595190 0.136607
0.221181 0.591509 0.135966
0.256667 0.586988 0.135192
0.295235 0.581899 0.134342
0.331070 0.576543 0.133477
0.368585 0.571219 0.132660
0.399265 0.566202 0.131945
0.424002 0.561727 0.131379
0.448485 0.557979 0.131001
0.472806 0.555095 0.130836
0.497091 0.553160 0.130900
0.514064 0.552212 0.131198
0.529433 0.552247 0.131728
0.544715 0.553225 0.132477
0.559727 0.555081 0.133430
0.574575 0.557734 0.134567
0.590848 0.562802 0.136262
0.609384 0.571069 0.138701
0.627598 0.579503 0.141261
0.645458 0.588043 0.144718
0.661652 0.596637 0.148210
0.671900 0.605238 0.151719
0.681792 0.613510 0.155231
0.691331 0.619046 0.158732
0.700522 0.624189 0.162211
0.709370 0.629214 0.165716
0.717883 0.634135 0.170105
0.726070 0.638946 0.174458
0.733941 0.643641 0.178768
0.741507 0.648218 0.183026
0.173886 0.616931 0.141922
0.176827 0.616690 0.141832
0.187160 0.615840 0.141517
0.205274 0.614334 0.140962
0.231995 0.611820 0.140401
0.266689 0.607785 0.139716
0.302800 0.603182 0.138952
0.338282 0.598261 0.138160
0.375728 0.593276 0.137392
0.403889 0.588468 0.136698
0.428656 0.584050 0.136120
0.453194 0.580202 0.135694
0.477544 0.577062 0.135448
0.501566 0.574728 0.135399
0.516945 0.573261 0.135559
0.532133 0.572682 0.135929
0.547192 0.572980 0.136507
0.561903 0.574120 0.137280
0.576487 0.576045 0.138236
0.591004 0.578686 0.139356
0.606213 0.582851 0.140827
0.624079 0.590668 0.143976
0.641637 0.598634 0.147245
0.658859 0.606697 0.150564
0.669340 0.614164 0.153915
0.679162 0.619449 0.157283
0.688657 0.624376 0.160654
0.697826 0.629244 0.164016
0.706672 0.634040 0.167903
0.715199 0.638753 0.172182
0.723415 0.643373 0.176437
0.731326 0.647893 0.180658
0.738941 0.652309 0.184837
0.186150 0.628253 0.147518
0.188938 0.628057 0.147440
0.198757 0.627367 0.147163
0.216089 0.626137 0.146676
0.242839 0.624395 0.145994
0.276670 0.622209 0.145153
0.310174 0.619682 0.144206
0.345162 0.616777 0.143210
0.382378 0.613762 0.142228
0.408077 0.609647 0.141319
0.432810 0.605370 0.140651
0.457374 0.601530 0.140203
0.481757 0.598264 0.139905
0.504258 0.595675 0.139777
0.519556 0.593836 0.139832
0.534621 0.592785 0.140077
0.549517 0.592535 0.140511
0.563985 0.593073 0.141194
0.578352 0.594363 0.142291
0.592641 0.596358 0.143615
0.606857 0.598999 0.145150
0.621148 0.602400 0.146931
0.638393 0.609801 0.150013
0.655341 0.615808 0.153157
0.667091 0.620679 0.156345
0.676821 0.625339 0.159563
0.686247 0.629982 0.162797
0.695370 0.634591 0.166198
0.704189 0.639149 0.170359
0.712708 0.643643 0.174519
0.720930 0.648063 0.178665
0.728861 0.652399 0.182788
0.736506 0.656646 0.186878
0.198271 0.638772 0.152893
0.200911 0.638603 0.152825
0.210208 0.638004 0.152584
0.227830 0.636934 0.152156
0.253680 0.635409 0.151553
0.286292 0.633483 0.150804
0.317385 0.631237 0.149952
0.351766 0.628770 0.149044
0.387318 0.626191 0.148134
0.411888 0.623608 0.147273
0.436521 0.621127 0.146509
0.461064 0.618803 0.145883
0.485462 0.616663 0.145431
0.506626 0.614886 0.145180
0.521872 0.613525 0.145150
0.536857 0.612436 0.145354
0.551600 0.611760 0.145799
0.565918 0.611807 0.146482
0.580115 0.612561 0.147398
0.594214 0.613630 0.148536
0.608231 0.614977 0.149883
0.622170 0.616703 0.151421
0.636027 0.618769 0.153134
0.652343 0.622830 0.155970
0.665140 0.627154 0.158995
0.674761 0.631507 0.162061
0.684101 0.635865 0.165152
0.693158 0.640209 0.169063
0.701931 0.644524 0.173084
0.710421 0.648793 0.177115
0.718630 0.653005 0.181143
0.726561 0.657150 0.185158
0.734219 0.661220 0.189150
0.210166 0.648687 0.158055
0.212669 0.648541 0.157995
0.222136 0.648020 0.157784
0.239524 0.647087 0.157409
0.264485 0.645752 0.156877
0.294216 0.644055 0.156213
0.324446 0.642060 0.155450
0.358133 0.639850 0.154628
0.391106 0.637514 0.153793
0.415378 0.635144 0.152990
0.439842 0.632832 0.152261
0.464310 0.630661 0.151644
0.488689 0.628705 0.151173
0.508679 0.627026 0.150875
0.523887 0.625673 0.150772
0.538819 0.624683 0.150877
0.553444 0.624080 0.151199
0.567658 0.623875 0.151743
0.581725 0.624067 0.152506
0.595675 0.624646 0.153481
0.609527 0.625595 0.154659
0.623293 0.626889 0.156028
0.636976 0.628501 0.157572
0.650573 0.630401 0.159278
0.663467 0.633868 0.161848
0.672970 0.637920 0.164761
0.682211 0.641996 0.168356
0.691188 0.646076 0.172196
0.699899 0.650144 0.176071
0.708343 0.654185 0.179967
0.716523 0.658185 0.183870
0.724438 0.662134 0.187770
0.732092 0.666021 0.191656
0.222499 0.658040 0.163007
0.225119 0.657912 0.162955
0.234423 0.657459 0.162771
0.251132 0.656644 0.162442
0.275223 0.655474 0.161975
0.302024 0.653980 0.161388
0.331363 0.652212 0.160708
0.364290 0.650237 0.159969
0.394678 0.648130 0.159211
0.418589 0.645969 0.158470
0.442822 0.643834 0.157787
0.467160 0.641798 0.157194
0.491479 0.639927 0.156724
0.510434 0.638280 0.156402
0.525607 0.636905 0.156249
0.540499 0.635839 0.156283
0.555037 0.635109 0.156512
0.569177 0.634731 0.156944
0.583148 0.634713 0.157579
0.596983 0.635050 0.158416
0.610703 0.635734 0.159447
0.624325 0.636747 0.160663
0.637858 0.638069 0.162054
0.651304 0.639676 0.163607
0.662694 0.641543 0.165308
0.671428 0.644543 0.168276
0.680562 0.648344 0.171902
0.689449 0.652164 0.175584
0.698087 0.655988 0.179311
0.706473 0.659800 0.183067
0.714609 0.663586 0.186840
0.722495 0.667335 0.190620
0.730132 0.671037 0.194394
0.235129 0.666867 0.168417
0.237637 0.666756 0.168359
0.246556 0.666360 0.168152
0.262616 0.665649 0.167782
0.285693 0.664624 0.167255
0.309702 0.663308 0.166589
0.338137 0.661743 0.165814
0.370255 0.659983 0.165075
0.398062 0.658090 0.164392
0.421559 0.656132 0.163717
0.445504 0.654175 0.163086
0.469658 0.652284 0.162528
0.493870 0.650520 0.162073
0.511913 0.648935 0.161746
0.527046 0.647576 0.161566
0.541902 0.646479 0.161550
0.556370 0.645672 0.161711
0.570457 0.645176 0.162056
0.584359 0.645000 0.162588
0.598107 0.645148 0.163309
0.611725 0.645617 0.164214
0.625232 0.646395 0.165297
0.638639 0.647468 0.166864
0.651955 0.648818 0.168685
0.663007 0.650425 0.170702
0.670892 0.652265 0.172902
0.679137 0.654877 0.175687
0.687928 0.658445 0.179214
0.696484 0.662030 0.182791
0.704804 0.665615 0.186406
0.712886 0.669189 0.190046
0.720731 0.672738 0.193701
0.728339 0.676252 0.197358
0.247546 0.675201 0.174308
0.249949 0.675104 0.174256
0.258504 0.674759 0.174075
0.273943 0.674137 0.173751
0.294129 0.673239 0.173287
0.317237 0.672082 0.172699
0.344764 0.670700 0.172011
0.376040 0.669136 0.171254
0.401276 0.667442 0.170464
0.424319 0.665676 0.169680
0.447925 0.663895 0.168937
0.471843 0.662156 0.168273
0.495903 0.660511 0.167721
0.513140 0.659011 0.167310
0.528220 0.657696 0.167066
0.543038 0.656603 0.167008
0.557447 0.655761 0.167154
0.571493 0.655189 0.167514
0.585344 0.654902 0.168096
0.599028 0.654908 0.168903
0.612567 0.655207 0.169935
0.625983 0.655793 0.171188
0.639289 0.656658 0.172656
0.652496 0.657787 0.174329
0.663266 0.659165 0.176197
0.671080 0.660773 0.178248
0.678780 0.662593 0.180470
0.686607 0.664888 0.183067
0.695078 0.668242 0.186497
0.703325 0.671607 0.189971
0.711346 0.674971 0.193477
0.719142 0.678322 0.197005
0.726713 0.681649 0.200967
0.259721 0.683070 0.179989
0.262025 0.682985 0.179944
0.270236 0.682685 0.179786
0.285067 0.682142 0.179503
0.302378 0.681356 0.179097
0.324611 0.680341 0.178580
0.351235 0.679122 0.177974
0.381650 0.677736 0.177304
0.404337 0.676227 0.176600
0.426890 0.674643 0.175895
0.450116 0.673032 0.175224
0.473753 0.671445 0.174617
0.497615 0.669929 0.174105
0.514137 0.668527 0.173716
0.529150 0.667278 0.173474
0.543920 0.666217 0.173399
0.558275 0.665370 0.173506
0.572286 0.664760 0.173810
0.586097 0.664402 0.174317
0.599732 0.664306 0.175034
0.613212 0.664475 0.175962
0.626558 0.664909 0.177100
0.639784 0.665603 0.178444
0.652902 0.666547 0.179986
0.663454 0.667729 0.181720
0.671209 0.669134 0.183635
0.678850 0.670747 0.185721
0.686378 0.672551 0.187966
0.693852 0.674596 0.190413
0.702022 0.677749 0.193748
0.709979 0.680909 0.197121
0.717720 0.684067 0.200942
0.725246 0.687210 0.204963
0.271629 0.690500 0.185460
0.273840 0.690427 0.185422
0.281724 0.690165 0.185285
0.293842 0.689692 0.185039
0.310424 0.689005 0.184686
0.331811 0.688116 0.184236
0.357544 0.687045 0.183706
0.386332 0.685821 0.183118
0.407255 0.684482 0.182497
0.429293 0.683068 0.181873
0.452103 0.681621 0.181275
0.475417 0.680185 0.180731
0.499041 0.678800 0.180269
0.514929 0.677507 0.179913
0.529856 0.676340 0.179688
0.544567 0.675330 0.179611
0.558865 0.674505 0.179700
0.572841 0.673886 0.179966
0.586617 0.673488 0.180420
0.600214 0.673325 0.181068
0.613649 0.673401 0.181914
0.626940 0.673719 0.182957
0.640104 0.674277 0.184195
0.653152 0.675069 0.185626
0.663558 0.676086 0.187241
0.671263 0.677317 0.189034
0.678854 0.678749 0.190996
0.686333 0.680369 0.193117
0.693702 0.682161 0.195388
0.700962 0.684112 0.197798
0.708770 0.686982 0.201462
0.716453 0.689951 0.205316
0.723930 0.692821 0.209207
0.283248 0.696269 0.190722
0.285299 0.696221 0.190689
0.291390 0.696051 0.190572
0.302362 0.695743 0.190360
0.318250 0.695295 0.190056
0.338821 0.694712 0.189668
0.363680 0.694009 0.189209
0.389728 0.693202 0.188698
0.410037 0.692241 0.188158
0.431542 0.690986 0.187613
0.453906 0.689695 0.187089
0.476863 0.688405 0.186612
0.500209 0.687153 0.186205
0.515534 0.685974 0.185893
0.530358 0.684898 0.185696
0.544996 0.683956 0.185632
0.559233 0.683172 0.185717
0.573169 0.682567 0.185964
0.586911 0.682157 0.186383
0.600474 0.681955 0.186981
0.613872 0.681969 0.187763
0.627122 0.682202 0.188730
0.640237 0.682656 0.189883
0.653229 0.683327 0.191219
