negative-superia-xtra-400/SuperiaXtra400_Modern_Normal.cube
TITLE "Fuji Superia X-tra 400 Modern Normal"
# Adobe RGB in/out. REPLACES AgX. Fuji Superia X-tra 400 Modern Normal.
LUT_3D_SIZE 9
DOMAIN_MIN 0.0 0.0 0.0
DOMAIN_MAX 1.0 1.0 1.0
0.070593 0.070461 0.087962
0.124907 0.084403 0.089836
0.426850 0.106480 0.092211
0.718768 0.142091 0.096553
0.840209 0.188922 0.103927
0.891514 0.224177 0.115347
0.914172 0.230257 0.132746
0.926403 0.118266 0.369880
0.922701 0.290258 0.568962
0.074445 0.114399 0.089954
0.089780 0.108253 0.090403
0.302570 0.126068 0.092453
0.643410 0.168917 0.096821
0.810686 0.214042 0.104090
0.881446 0.247459 0.115442
0.910616 0.253244 0.132076
0.924419 0.117246 0.363424
0.921284 0.286470 0.564136
0.079772 0.315985 0.093426
0.090730 0.297564 0.094164
0.168053 0.236208 0.094458
0.431542 0.255657 0.098334
0.707785 0.303431 0.105718
0.834711 0.348168 0.117796
0.890924 0.362743 0.134049
0.918303 0.124563 0.347828
0.916657 0.274889 0.548618
0.085910 0.534249 0.100557
0.094826 0.523374 0.101778
0.154287 0.484490 0.102968
0.312834 0.430813 0.103930
0.558817 0.433232 0.110182
0.757758 0.466239 0.122530
0.857097 0.490561 0.138901
0.896896 0.487094 0.157699
0.909684 0.258924 0.348116
0.092184 0.678609 0.109792
0.099974 0.673378 0.111527
0.147429 0.658665 0.115690
0.277914 0.626206 0.118769
0.465710 0.591948 0.122350
0.671268 0.585970 0.131228
0.806933 0.606822 0.146980
0.875612 0.617534 0.165240
0.897500 0.617884 0.207204
0.097794 0.755384 0.121266
0.103740 0.752789 0.123543
0.144467 0.748362 0.131283
0.251072 0.734059 0.137887
0.419676 0.715525 0.142803
0.602984 0.700935 0.148675
0.750812 0.695202 0.159533
0.847227 0.704257 0.177338
0.884936 0.712506 0.200238
0.098747 0.812643 0.128708
0.103581 0.810973 0.131383
0.135835 0.807932 0.142236
0.227899 0.798897 0.153318
0.380210 0.784545 0.162093
0.554907 0.770248 0.170430
0.709640 0.760760 0.179550
0.817248 0.757348 0.191679
0.874821 0.764835 0.210628
0.087417 0.848879 0.118669
0.090509 0.847421 0.121052
0.119008 0.843458 0.138911
0.198590 0.838346 0.156939
0.336600 0.830995 0.172828
0.508726 0.823279 0.185632
0.671118 0.815047 0.196276
0.790746 0.810104 0.207044
0.868128 0.809537 0.221056
0.070693 0.843454 0.102838
0.070763 0.842588 0.102743
0.117140 0.860579 0.102460
0.115469 0.856720 0.127328
0.266142 0.854320 0.152183
0.446665 0.846735 0.175398
0.621290 0.840854 0.192062
0.754395 0.837546 0.204250
0.867220 0.836899 0.212762
0.073061 0.082124 0.119402
0.104142 0.091082 0.132554
0.395648 0.113645 0.135855
0.723362 0.149475 0.135810
0.838852 0.191748 0.131414
0.888758 0.224927 0.136724
0.912588 0.231707 0.151364
0.925340 0.117732 0.366430
0.921966 0.288295 0.566459
0.078385 0.109800 0.109600
0.095867 0.103477 0.101591
0.293493 0.129525 0.113027
0.647639 0.174164 0.126760
0.811312 0.215579 0.129246
0.879072 0.247400 0.136035
0.908648 0.254283 0.149831
0.923359 0.116733 0.360058
0.920554 0.284532 0.561666
0.087692 0.284910 0.130365
0.101308 0.254446 0.119586
0.184133 0.209042 0.108837
0.453146 0.244013 0.117268
0.712568 0.298603 0.127138
0.834613 0.344218 0.137160
0.889110 0.360329 0.151091
0.917315 0.127110 0.346490
0.915948 0.273208 0.546274
0.095728 0.509026 0.139201
0.106970 0.494531 0.136401
0.175628 0.451629 0.128113
0.332309 0.403622 0.124162
0.572510 0.419143 0.129325
0.760787 0.459282 0.140634
0.856526 0.485735 0.155409
0.895487 0.484697 0.173314
0.908638 0.257351 0.523903
0.100824 0.664694 0.141369
0.109257 0.658844 0.142759
0.165331 0.641564 0.144364
0.296598 0.609726 0.143128
0.480851 0.576255 0.144224
0.677435 0.576452 0.149403
0.808683 0.600904 0.163424
0.874937 0.614208 0.181235
0.896561 0.617275 0.230300
0.103783 0.749085 0.145066
0.110014 0.746451 0.147334
0.156592 0.741175 0.155416
0.265386 0.726845 0.160099
0.431049 0.709300 0.163249
0.612169 0.694358 0.168779
0.754443 0.690709 0.177285
0.847968 0.702095 0.193151
0.884273 0.711580 0.213980
0.103081 0.808917 0.148225
0.108060 0.807208 0.151143
0.144133 0.803783 0.162383
0.237714 0.794573 0.174189
0.390170 0.780568 0.182721
0.562109 0.766961 0.189956
0.714447 0.758216 0.198101
0.819170 0.755678 0.207497
0.874513 0.763978 0.223915
0.089831 0.847270 0.129453
0.092903 0.845902 0.132949
0.123438 0.842081 0.155123
0.205456 0.836940 0.175537
0.343807 0.829701 0.191607
0.515035 0.822180 0.203451
0.674727 0.813611 0.213375
0.793544 0.809036 0.223553
0.868161 0.808955 0.235167
0.070698 0.847342 0.250403
0.070893 0.846477 0.249111
0.116985 0.863908 0.244823
0.115327 0.859212 0.238180
0.270091 0.853909 0.167042
0.450332 0.846361 0.192392
0.624229 0.840586 0.208815
0.756128 0.837392 0.220733
0.867482 0.836838 0.227567
0.075434 0.098735 0.311917
0.120531 0.112184 0.449794
0.386276 0.135602 0.427271
0.731101 0.176444 0.399831
0.838086 0.211068 0.364780
0.885964 0.240324 0.362794
0.910201 0.245824 0.372005
0.923567 0.122921 0.389307
0.920444 0.284241 0.561334
0.083084 0.142801 0.328965
0.123130 0.155767 0.350062
0.336013 0.162505 0.323335
0.660572 0.195111 0.323456
0.811901 0.231204 0.325237
0.876513 0.261724 0.336154
0.904855 0.267203 0.346228
0.921582 0.124118 0.386220
0.919022 0.280572 0.556512
0.092311 0.242956 0.264943
0.106107 0.222178 0.224452
0.189379 0.193305 0.183080
0.457634 0.239193 0.218909
0.719763 0.301027 0.257637
0.834678 0.347634 0.289590
0.886183 0.363718 0.302988
0.914868 0.201607 0.378518
0.914389 0.269535 0.541142
0.109274 0.467592 0.304637
0.123443 0.450719 0.282010
0.196923 0.400362 0.232432
0.346137 0.361131 0.206177
0.592267 0.398066 0.224587
0.768300 0.449425 0.256298
0.855426 0.480016 0.275017
0.892501 0.481912 0.305756
0.906162 0.253827 0.518943
0.122910 0.639940 0.315515
0.137275 0.632372 0.305915
0.202512 0.610181 0.278226
0.331942 0.571659 0.249253
0.510727 0.545012 0.234853
0.696821 0.557823 0.247677
0.813242 0.588511 0.265164
0.873498 0.606749 0.290451
0.894112 0.617287 0.370048
0.131002 0.736611 0.318885
0.142211 0.733509 0.314713
0.199650 0.725462 0.303220
0.311344 0.710588 0.285958
0.469492 0.692279 0.271720
0.642628 0.677616 0.266264
0.767325 0.679850 0.269700
0.849952 0.694737 0.291585
0.882462 0.709256 0.300811
0.126637 0.799603 0.304064
0.135628 0.797713 0.303293
0.182565 0.792844 0.302479
0.280568 0.782906 0.298359
0.426934 0.769711 0.292470
0.591101 0.757902 0.289273
0.732583 0.751175 0.290743
0.825547 0.750817 0.301200
0.873637 0.761551 0.301988
0.109229 0.840615 0.289259
0.115033 0.839679 0.290797
0.155771 0.837044 0.301866
0.240773 0.832146 0.307235
0.379486 0.825407 0.309691
0.541874 0.817177 0.310976
0.691750 0.808966 0.314023
0.804968 0.805564 0.319246
0.868166 0.807193 0.312926
0.070902 0.845895 0.248260
0.117520 0.865414 0.247003
0.116491 0.862517 0.242838
0.114910 0.857932 0.236563
0.294378 0.852194 0.261665
0.468702 0.844997 0.291178
0.638218 0.839634 0.304632
0.764058 0.836841 0.314453
0.867787 0.836681 0.316158
0.077830 0.127401 0.570125
0.103646 0.151487 0.652941
0.383565 0.182781 0.680618
0.730548 0.225708 0.676400
0.846021 0.257309 0.637016
0.887178 0.276874 0.606357
0.909367 0.278825 0.600085
0.920037 0.204566 0.624807
0.919430 0.281566 0.605976
0.084617 0.178656 0.582364
0.115235 0.200043 0.617005
0.390434 0.230148 0.655622
0.689316 0.254356 0.628387
0.820462 0.276023 0.595586
0.877607 0.296855 0.580572
0.903598 0.299688 0.582210
0.917647 0.220731 0.613599
0.917969 0.278031 0.601652
0.100017 0.280142 0.508138
0.119229 0.275663 0.481947
0.253524 0.269385 0.455593
0.506875 0.288276 0.461699
0.733723 0.332183 0.488142
0.836224 0.367819 0.508498
0.884655 0.381874 0.525587
0.908041 0.356122 0.564910
0.913209 0.266787 0.587900
0.116147 0.433556 0.480663
0.131815 0.420029 0.454432
0.203364 0.378522 0.388658
0.346804 0.345955 0.340771
0.597728 0.396426 0.385618
0.769698 0.451441 0.429458
0.853257 0.482993 0.459663
0.889763 0.488769 0.498924
0.904001 0.250844 0.565392
0.140332 0.613643 0.507099
0.155919 0.606580 0.490867
0.221510 0.579405 0.447960
0.346056 0.540905 0.399852
0.516271 0.517523 0.370827
0.700889 0.543889 0.391510
0.813194 0.580136 0.421897
0.870999 0.603105 0.447496
0.891503 0.620938 0.532607
0.154987 0.722394 0.513199
0.168650 0.719355 0.504791
0.227338 0.710838 0.478467
0.338742 0.694312 0.445274
0.491834 0.672734 0.418472
0.657514 0.661358 0.403701
0.773340 0.669882 0.412163
0.848857 0.687626 0.429487
0.880205 0.707783 0.475285
0.154141 0.788824 0.510598
0.165405 0.786888 0.505355
0.215477 0.781445 0.489935
0.315896 0.771438 0.468573
0.457560 0.758990 0.448182
0.615655 0.748610 0.434097
0.743960 0.743771 0.428003
0.828924 0.746102 0.430783
0.872168 0.759272 0.447114
0.131413 0.835447 0.507077
0.139460 0.834603 0.503683
0.186599 0.832117 0.494411
0.274315 0.827310 0.480540
0.410190 0.821022 0.466681
0.565784 0.810940 0.455710
0.707579 0.804003 0.449586
0.812414 0.801888 0.448090
0.867677 0.805504 0.445699
0.091589 0.854773 0.559193
0.116715 0.865417 0.557516
0.115741 0.862641 0.551918
0.169936 0.860033 0.474346
0.331090 0.849328 0.487371
0.494935 0.843000 0.477715
0.657550 0.838326 0.473286
0.775303 0.836069 0.473185
0.867774 0.836644 0.464309
0.080590 0.178089 0.737919
0.093528 0.195567 0.759977
0.364777 0.245200 0.786745
0.711843 0.289917 0.787760
0.858477 0.335048 0.783160
0.892711 0.338146 0.749901
0.911060 0.331724 0.725851
0.919283 0.269547 0.713682
0.919433 0.281575 0.708994
0.085932 0.222441 0.743958
0.104797 0.241418 0.758944
0.367957 0.291812 0.782984
0.700980 0.335234 0.785092
0.834744 0.350108 0.764216
0.883314 0.353850 0.733365
0.905965 0.348545 0.715347
0.916887 0.289431 0.706935
0.917927 0.277932 0.702459
0.112750 0.380704 0.738631
0.140727 0.382656 0.731559
0.317796 0.385781 0.722155
0.576776 0.383584 0.704182
0.756610 0.392870 0.690041
0.845717 0.412273 0.684184
0.886842 0.418157 0.682233
0.907740 0.397375 0.684406
0.913003 0.266318 0.681577
0.125029 0.453186 0.640409
0.143472 0.446939 0.626126
0.232380 0.431048 0.595088
0.415254 0.421135 0.576229
0.635614 0.442317 0.583943
0.779993 0.477531 0.604276
0.855402 0.501348 0.622246
0.889173 0.506740 0.641055
0.904177 0.433098 0.655946
0.149426 0.593209 0.631554
0.165798 0.586423 0.619582
0.230517 0.564577 0.586226
0.352828 0.530145 0.543643
0.513941 0.506565 0.514106
0.704591 0.545284 0.543166
0.813641 0.584177 0.572420
0.869589 0.608132 0.595900
0.889786 0.629143 0.630597
0.171238 0.710047 0.640720
0.184969 0.707387 0.632754
0.243193 0.699373 0.609193
0.353410 0.679385 0.578766
0.501238 0.658492 0.550161
0.658830 0.648308 0.534664
0.774418 0.664110 0.547530
0.846943 0.684999 0.567169
0.878246 0.708492 0.602467
0.174653 0.778621 0.643578
0.186328 0.776858 0.638358
0.236844 0.771622 0.622231
0.337944 0.762172 0.600188
0.476798 0.750556 0.578966
0.629997 0.741112 0.562619
0.749132 0.737742 0.554619
0.829701 0.742828 0.558402
0.870453 0.758362 0.580948
0.149988 0.830957 0.646934
0.159565 0.830149 0.643048
0.208367 0.827662 0.630512
0.298725 0.823114 0.613474
0.431324 0.814963 0.596381
0.583500 0.805639 0.582656
0.719365 0.799810 0.573904
0.816658 0.798993 0.569980
0.866924 0.804954 0.571257
0.097336 0.855940 0.710615
0.100685 0.856844 0.709351
0.108158 0.858164 0.705109
0.207642 0.853652 0.641814
0.350115 0.847163 0.622019
0.511760 0.841430 0.607968
0.667169 0.837266 0.598778
0.783281 0.835559 0.595081
0.867565 0.837066 0.581992
0.084091 0.243487 0.830829
0.092426 0.251797 0.838546
0.346560 0.322755 0.848259
0.691593 0.361694 0.848924
0.858038 0.408158 0.849745
0.899962 0.409365 0.828302
0.914107 0.392185 0.802401
0.920575 0.340403 0.782823
0.920418 0.284172 0.755424
0.088485 0.281544 0.833172
0.100011 0.293225 0.839250
0.349128 0.359000 0.848095
0.684521 0.397009 0.848881
0.850353 0.437673 0.847972
0.891119 0.423177 0.818603
0.910516 0.407500 0.796203
0.918184 0.357855 0.778811
0.918884 0.280239 0.751014
0.119898 0.448627 0.838221
0.146610 0.458548 0.840513
0.363379 0.494071 0.846967
0.628022 0.483225 0.827338
0.783648 0.475080 0.805934
0.860110 0.472005 0.789073
0.892242 0.467594 0.776692
0.909987 0.445937 0.765290
0.913836 0.268254 0.736635
0.141082 0.510755 0.778859
0.161857 0.509440 0.775262
0.276393 0.511143 0.767655
0.480221 0.507755 0.754118
0.682009 0.510987 0.744489
0.799891 0.521501 0.740105
0.863628 0.533902 0.738834
0.891302 0.534584 0.737057
0.904642 0.487767 0.718362
0.159215 0.600395 0.735740
0.175389 0.596162 0.729347
0.247967 0.585591 0.712122
0.386850 0.567547 0.691906
0.565498 0.560643 0.680988
0.726256 0.577959 0.685975
0.819956 0.605588 0.697295
0.870922 0.621002 0.707091
0.889625 0.642109 0.709504
0.179353 0.702306 0.729475
0.193287 0.700326 0.724322
0.252333 0.691511 0.708722
0.362761 0.674788 0.687669
0.508410 0.655152 0.662019
0.656783 0.641835 0.640466
0.776660 0.666580 0.663303
0.846817 0.688956 0.682535
0.877374 0.711965 0.694966
0.185592 0.770497 0.730076
0.197408 0.768978 0.726374
0.248497 0.764434 0.714825
0.349668 0.756029 0.698656
0.486855 0.745342 0.682447
0.636235 0.736145 0.665927
0.749695 0.733407 0.657437
0.829233 0.741778 0.666469
0.869093 0.759111 0.684676
0.160080 0.827288 0.732073
0.170394 0.826559 0.729283
0.219781 0.824255 0.719946
0.311329 0.819647 0.706976
0.443060 0.810609 0.693698
0.593357 0.802123 0.682733
0.725725 0.797085 0.674534
0.818033 0.797316 0.670468
0.865898 0.805412 0.678499
0.099057 0.853928 0.732243
0.101960 0.854683 0.732498
0.107987 0.855591 0.733959
0.211791 0.851945 0.722794
0.356820 0.845750 0.708738
0.518494 0.840471 0.698127
0.671392 0.836811 0.690947
0.787135 0.835561 0.687488
0.867193 0.837782 0.683402
0.088457 0.326656 0.880293
0.095933 0.329788 0.882920
0.301838 0.391780 0.882492
0.679988 0.430271 0.882456
0.854193 0.472066 0.883005
0.907791 0.484759 0.874938
0.918027 0.457070 0.856249
0.922953 0.402229 0.836619
0.922049 0.288496 0.804568
0.092106 0.356674 0.880926
0.101716 0.361542 0.883055
0.310184 0.423059 0.882936
0.675308 0.461230 0.882874
0.850626 0.496764 0.883396
0.899747 0.493311 0.869797
0.914606 0.469128 0.852803
0.920620 0.418677 0.832738
0.920511 0.284389 0.801120
0.122291 0.493748 0.882730
0.144173 0.499247 0.883665
0.342250 0.534923 0.884249
0.664127 0.562232 0.884036
0.808778 0.544220 0.868139
0.873556 0.529488 0.853887
0.899528 0.513947 0.839022
0.912683 0.489892 0.820660
0.915422 0.271778 0.789320
0.161187 0.585146 0.860318
0.182986 0.584142 0.858952
0.309599 0.588678 0.854231
0.534465 0.584293 0.846144
0.721123 0.578690 0.833629
0.820690 0.576518 0.821958
0.873055 0.574199 0.812016
0.895746 0.567238 0.802433
0.906172 0.550675 0.785315
0.173070 0.629376 0.815577
0.189508 0.628048 0.813297
0.271413 0.626900 0.806660
0.430457 0.622338 0.797367
0.619117 0.619763 0.789704
0.753453 0.623865 0.785700
0.832407 0.631652 0.784165
0.875254 0.639914 0.782710
0.891182 0.657564 0.775140
0.186677 0.703651 0.794659
0.200108 0.702332 0.792305
0.261432 0.698246 0.785150
0.380992 0.687919 0.774867
0.537354 0.676377 0.762596
0.686924 0.673556 0.754428
0.789611 0.684439 0.757817
0.851153 0.700333 0.764253
0.878143 0.717926 0.763537
0.188909 0.766059 0.788296
0.200924 0.764905 0.786355
0.253109 0.761380 0.780249
0.355550 0.754451 0.771484
0.494365 0.745227 0.758749
0.642447 0.736348 0.745402
0.747684 0.730753 0.734574
0.830155 0.744109 0.746917
0.868820 0.761969 0.753873
0.159335 0.825165 0.785700
0.169825 0.824517 0.784167
0.220350 0.822409 0.778989
0.313231 0.817221 0.771759
0.446142 0.808975 0.762056
0.596837 0.801072 0.752167
0.727832 0.796323 0.745511
0.817516 0.797021 0.743604
0.864856 0.806942 0.750965
0.098173 0.850599 0.770282
0.103842 0.852791 0.769551
0.110456 0.854275 0.766593
0.196255 0.851983 0.775551
0.349826 0.845352 0.767108
0.513932 0.840377 0.758304
0.669515 0.837077 0.752211
0.785960 0.836231 0.749300
0.866883 0.838943 0.757615
0.096210 0.408050 0.917710
0.104069 0.410065 0.917710
0.323742 0.453403 0.915593
0.696951 0.485472 0.915467
0.862510 0.518468 0.915822
0.914825 0.541844 0.913044
0.922707 0.505244 0.892532
0.926390 0.447599 0.875728
0.923948 0.320547 0.851875
0.100498 0.434087 0.917868
0.109093 0.436962 0.917878
0.334187 0.477561 0.916016
0.692972 0.507763 0.915852
0.859826 0.540256 0.916169
0.910311 0.548368 0.908149
0.919562 0.514656 0.889151
0.924148 0.462882 0.873392
0.922453 0.324123 0.849888
0.137491 0.547793 0.918460
0.158356 0.551245 0.918453
0.379808 0.580077 0.917412
0.683454 0.605461 0.917173
0.834927 0.607479 0.909142
0.886974 0.584208 0.892806
0.908589 0.558529 0.878328
0.916529 0.522190 0.865828
0.917643 0.385480 0.842483
0.188195 0.646403 0.907501
0.210022 0.644784 0.905838
0.369344 0.646957 0.899710
0.593941 0.639916 0.890764
0.760833 0.630389 0.880852
0.845122 0.621534 0.871194
0.883859 0.611759 0.862372
0.902370 0.595620 0.854325
0.909291 0.581211 0.840276
0.193315 0.667709 0.870500
0.210559 0.666949 0.869513
0.314616 0.668511 0.865872
0.487127 0.665434 0.860384
0.673873 0.661466 0.854676
0.786150 0.659563 0.849418
0.850176 0.658939 0.844906
0.882147 0.657791 0.838466
0.894261 0.671793 0.827046
0.195771 0.713816 0.849383
0.209526 0.713095 0.848523
0.283393 0.712319 0.845421
0.413146 0.708619 0.837807
0.581363 0.704549 0.829388
0.724013 0.703459 0.823492
0.810634 0.705877 0.820614
0.861051 0.710342 0.819225
0.880709 0.725135 0.814070
0.189386 0.766639 0.834794
0.201036 0.765803 0.833706
0.258545 0.763746 0.830029
0.364798 0.758673 0.823693
0.513005 0.751755 0.815738
0.665082 0.746011 0.808433
0.767977 0.745477 0.804753
0.837797 0.751558 0.805940
0.870437 0.766794 0.804801
0.146079 0.825780 0.824508
0.155973 0.825139 0.823521
0.209913 0.822924 0.820313
0.306084 0.818365 0.815871
0.443737 0.810705 0.810970
0.598900 0.803452 0.805942
0.730867 0.798723 0.801627
0.815348 0.796377 0.797246
0.864974 0.809715 0.801207
0.094383 0.846077 0.801615
0.109791 0.853310 0.801510
0.111723 0.852588 0.803122
0.175823 0.852181 0.806260
0.323935 0.846578 0.802146
0.495099 0.841596 0.798755
0.660001 0.838431 0.796510
0.778416 0.837741 0.795335
0.866705 0.840546 0.805492
0.203181 0.470873 0.942768
0.237693 0.474382 0.942777
0.530864 0.488352 0.942808
0.816148 0.512071 0.942896
0.897886 0.539546 0.943030
0.928319 0.563117 0.943201
0.931534 0.513474 0.930997
0.931897 0.420381 0.913925
0.925531 0.363670 0.889856
0.214800 0.486995 0.942766
0.249748 0.490558 0.942774
0.532419 0.504713 0.942805
0.814600 0.528639 0.942893
0.897281 0.556215 0.943027
0.924825 0.567418 0.940926
0.928750 0.519414 0.927412
0.929818 0.428449 0.911299
0.924056 0.376865 0.893412
0.272951 0.567138 0.942688
0.310373 0.570567 0.942698
0.546478 0.584044 0.942735
0.808172 0.606318 0.942836
0.891667 0.620047 0.941680
0.912460 0.593838 0.931262
0.919522 0.553972 0.915688
0.922821 0.480504 0.902530
0.919128 0.362164 0.887103
0.348386 0.680202 0.940764
0.378687 0.678002 0.939917
0.540941 0.671636 0.937076
0.755645 0.661871 0.930523
0.846853 0.649221 0.919813
0.884932 0.633505 0.908689
0.902985 0.612738 0.898254
0.912026 0.571963 0.889081
0.912324 0.589737 0.881150
0.308319 0.697082 0.907861
0.331393 0.695749 0.906854
0.451848 0.692179 0.903502
0.662925 0.686722 0.898209
0.782818 0.679812 0.891943
0.845722 0.671965 0.885516
0.878339 0.661627 0.879504
0.894295 0.645750 0.874237
0.899713 0.664445 0.870570
0.263310 0.724680 0.882157
0.282816 0.723864 0.881382
0.377819 0.721747 0.878820
0.553711 0.718505 0.874884
0.710965 0.714795 0.870500
0.799766 0.711775 0.866507
0.848512 0.708810 0.863274
0.876523 0.704580 0.860806
0.885916 0.724795 0.859445
0.216377 0.769279 0.868344
0.230243 0.768402 0.867673
0.303757 0.765909 0.865404
0.450935 0.761598 0.861848
0.624123 0.756367 0.857821
0.746537 0.752380 0.854271
0.817781 0.750210 0.851920
0.859019 0.748638 0.850811
0.875250 0.767774 0.850915
0.136738 0.825143 0.860822
0.145799 0.824600 0.860428
0.197614 0.822805 0.858830
0.320135 0.818630 0.856012
0.493211 0.811463 0.852634
0.667692 0.805227 0.849077
0.776874 0.801598 0.846306
0.840844 0.799744 0.845136
0.868562 0.810991 0.845719
0.089281 0.840851 0.826458
0.111654 0.851948 0.837016
0.111124 0.850335 0.834957
0.123618 0.848437 0.831629
0.259810 0.850007 0.847734
0.459262 0.844326 0.847384
0.645634 0.841062 0.845651
0.775259 0.840500 0.844627
0.866728 0.842589 0.844388
