negative-superia-xtra-400/SuperiaXtra400_Classic_ExtraSoft.cube
TITLE "Fuji Superia X-tra 400 Classic ExtraSoft"
# Adobe RGB in/out. REPLACES AgX. Fuji Superia X-tra 400 Classic ExtraSoft.
LUT_3D_SIZE 9
DOMAIN_MIN 0.0 0.0 0.0
DOMAIN_MAX 1.0 1.0 1.0
0.055369 0.061977 0.079302
0.075717 0.066072 0.081025
0.181234 0.072880 0.083733
0.450078 0.083452 0.087777
0.592677 0.095983 0.092316
0.677770 0.111003 0.098363
0.720937 0.118622 0.105755
0.758671 0.081682 0.213735
0.765495 0.167227 0.422248
0.057018 0.077598 0.081291
0.069093 0.080503 0.082993
0.156638 0.083623 0.085408
0.417512 0.093458 0.088998
0.576657 0.107343 0.093174
0.673839 0.123482 0.099140
0.719565 0.130966 0.106265
0.758672 0.081692 0.213763
0.765495 0.167235 0.422245
0.059651 0.123657 0.085065
0.065632 0.135290 0.086803
0.105301 0.141239 0.089174
0.312187 0.150215 0.092326
0.528249 0.170057 0.096923
0.651299 0.201355 0.102525
0.711628 0.219540 0.109071
0.759057 0.086240 0.217117
0.765495 0.167235 0.422245
0.063046 0.273658 0.089960
0.067083 0.295227 0.091253
0.092442 0.326292 0.094373
0.213805 0.330038 0.098083
0.456114 0.341658 0.102652
0.604974 0.363096 0.108055
0.696265 0.389053 0.114325
0.743524 0.389577 0.123448
0.765496 0.167334 0.247602
0.066233 0.453377 0.095402
0.070274 0.462740 0.097013
0.089170 0.489322 0.100937
0.173831 0.502864 0.105632
0.393752 0.504442 0.109794
0.555919 0.512539 0.115591
0.674280 0.523616 0.123075
0.734312 0.532560 0.132456
0.765225 0.536551 0.157242
0.070213 0.578680 0.101774
0.073027 0.582977 0.103282
0.089659 0.600441 0.108046
0.153534 0.613023 0.112880
0.342840 0.615938 0.119447
0.517597 0.617205 0.125603
0.643885 0.621409 0.134337
0.721587 0.627926 0.144212
0.762754 0.637055 0.160162
0.072184 0.659794 0.107443
0.074673 0.661655 0.108693
0.089202 0.669531 0.113752
0.144069 0.677020 0.121838
0.307552 0.680590 0.129942
0.486192 0.681849 0.138121
0.608947 0.684021 0.147721
0.706576 0.688739 0.159527
0.760650 0.696235 0.175547
0.067016 0.722590 0.106138
0.069422 0.722594 0.107366
0.085753 0.723503 0.115938
0.132159 0.725913 0.126617
0.276021 0.726893 0.138028
0.455089 0.726968 0.150052
0.581648 0.727644 0.161513
0.690650 0.730211 0.174584
0.760400 0.734514 0.191269
0.055411 0.736949 0.098628
0.055433 0.736951 0.098629
0.087474 0.760692 0.098668
0.087475 0.761664 0.115117
0.213166 0.765384 0.131108
0.419929 0.763195 0.148099
0.556873 0.762339 0.162983
0.671797 0.763553 0.177219
0.765379 0.767001 0.188578
0.056167 0.065172 0.095717
0.068616 0.068212 0.099091
0.161442 0.074596 0.100386
0.464308 0.086124 0.102319
0.598928 0.097414 0.102595
0.678568 0.112654 0.105683
0.720820 0.120600 0.111336
0.758672 0.081691 0.213766
0.765495 0.167234 0.422250
0.059872 0.077606 0.097670
0.079061 0.083701 0.101381
0.160315 0.086326 0.100053
0.433135 0.095949 0.102933
0.585888 0.109912 0.103761
0.675158 0.125470 0.106586
0.719532 0.132941 0.111727
0.758674 0.081707 0.213810
0.765495 0.167235 0.422246
0.063812 0.121469 0.100109
0.071591 0.128581 0.100862
0.122540 0.136372 0.102653
0.357810 0.152124 0.105895
0.541006 0.174347 0.107612
0.658117 0.203945 0.110141
0.712350 0.221581 0.115624
0.759168 0.087592 0.218597
0.765495 0.167235 0.422245
0.067004 0.267028 0.103561
0.072726 0.283318 0.104966
0.104848 0.311722 0.107690
0.250891 0.321437 0.110358
0.479169 0.339968 0.112927
0.614307 0.363604 0.116657
0.698576 0.389112 0.122622
0.743689 0.390588 0.130982
0.765496 0.167265 0.422240
0.070381 0.448310 0.106320
0.074332 0.456744 0.107844
0.097897 0.480215 0.111550
0.195400 0.494272 0.116602
0.411956 0.499223 0.121794
0.565501 0.510138 0.125750
0.678002 0.522793 0.132468
0.735183 0.532027 0.140555
0.765181 0.537608 0.174126
0.072902 0.575583 0.109885
0.076505 0.579742 0.111174
0.095860 0.595934 0.117041
0.167160 0.608242 0.123561
0.360770 0.613392 0.130365
0.525821 0.615526 0.137478
0.650466 0.620470 0.145194
0.723476 0.627332 0.155378
0.762805 0.637177 0.170866
0.074232 0.658613 0.114236
0.077591 0.660413 0.116090
0.093444 0.667890 0.122843
0.151555 0.675120 0.131613
0.319935 0.678855 0.140220
0.495207 0.680524 0.150570
0.614771 0.683082 0.160806
0.709024 0.688168 0.172286
0.760884 0.696170 0.187740
0.068868 0.721727 0.110704
0.071198 0.721818 0.112122
0.087676 0.722847 0.123742
0.137450 0.725174 0.136190
0.286225 0.726217 0.149477
0.461249 0.726431 0.162211
0.585674 0.727273 0.175691
0.693034 0.729950 0.189722
0.760803 0.734437 0.205148
0.055413 0.741844 0.186559
0.055482 0.741847 0.186560
0.087474 0.764989 0.186562
0.087476 0.764989 0.186548
0.217993 0.765331 0.139685
0.423493 0.763126 0.159989
0.559082 0.762320 0.177485
0.673194 0.763578 0.192512
0.765828 0.767039 0.203317
0.057213 0.070281 0.138448
0.073246 0.073908 0.187222
0.151094 0.080116 0.176934
0.456648 0.091086 0.176074
0.599355 0.104165 0.178570
0.678821 0.120441 0.189993
0.720272 0.128555 0.207505
0.758880 0.084140 0.235024
0.765495 0.167235 0.422286
0.061195 0.081769 0.143070
0.074403 0.085251 0.152775
0.152972 0.090735 0.159049
0.435018 0.100813 0.165351
0.590017 0.116965 0.171858
0.676245 0.133736 0.184026
0.719193 0.142646 0.197449
0.758960 0.085189 0.237973
0.765495 0.167235 0.422252
0.067473 0.123633 0.149285
0.076944 0.128908 0.148509
0.156232 0.154418 0.163701
0.386481 0.157701 0.160072
0.556750 0.184457 0.167800
0.664663 0.215885 0.180062
0.713729 0.232204 0.188097
0.758364 0.119467 0.249192
0.765495 0.167235 0.422245
0.074128 0.265462 0.160560
0.081774 0.276912 0.160757
0.124307 0.301333 0.161962
0.305753 0.315852 0.164811
0.513453 0.342264 0.173723
0.634545 0.370690 0.184770
0.703395 0.394402 0.191164
0.744193 0.395474 0.212009
0.765495 0.167240 0.422251
0.080469 0.445969 0.169704
0.085611 0.452128 0.170983
0.118113 0.469332 0.174640
0.250023 0.483095 0.179260
0.453358 0.492327 0.184960
0.592938 0.507896 0.195683
0.687367 0.522657 0.202804
0.737634 0.531337 0.220423
0.765017 0.541716 0.298806
0.084567 0.572894 0.182280
0.088379 0.576171 0.183804
0.116730 0.588159 0.189169
0.215863 0.598992 0.195583
0.408212 0.605894 0.203124
0.551762 0.611795 0.212271
0.667061 0.618639 0.221356
0.728618 0.625917 0.239115
0.762975 0.637730 0.247910
0.085539 0.656488 0.187908
0.088717 0.658031 0.189789
0.112750 0.663998 0.196974
0.191708 0.670227 0.207413
0.368913 0.674279 0.218827
0.519181 0.677045 0.230930
0.635777 0.680673 0.243720
0.716834 0.686471 0.261862
0.761605 0.696033 0.263661
0.080895 0.717201 0.195319
0.083814 0.717719 0.197711
0.105258 0.719917 0.211633
0.167176 0.722325 0.227006
0.326900 0.723722 0.242249
0.489223 0.724480 0.256714
0.603309 0.725946 0.271797
0.702290 0.729009 0.287168
0.761927 0.734225 0.287259
0.055485 0.741848 0.186571
0.087473 0.764989 0.186569
0.087474 0.764989 0.186566
0.087492 0.764992 0.186569
0.248017 0.764675 0.212196
0.440361 0.762685 0.248538
0.568975 0.762130 0.271531
0.679308 0.763585 0.290823
0.766588 0.767204 0.299585
0.058564 0.078148 0.268505
0.068437 0.083520 0.356127
0.150017 0.090444 0.385901
0.434472 0.098534 0.381433
0.591629 0.115130 0.386440
0.676358 0.133228 0.396360
0.718735 0.144933 0.418897
0.753326 0.114720 0.471232
0.765495 0.167235 0.474280
0.061839 0.089610 0.280590
0.071991 0.093703 0.316493
0.152745 0.099828 0.359181
0.419536 0.111489 0.361061
0.584026 0.129402 0.373971
0.674159 0.148987 0.387126
0.717755 0.159963 0.410933
0.752758 0.124882 0.467142
0.765495 0.167235 0.474705
0.070627 0.136883 0.292557
0.080024 0.143124 0.293025
0.147604 0.155389 0.309400
0.385884 0.171450 0.322112
0.558109 0.200723 0.341514
0.664806 0.233411 0.361044
0.713149 0.251320 0.386766
0.748224 0.235470 0.436966
0.765495 0.167236 0.476247
0.079843 0.273378 0.307001
0.086855 0.283115 0.305095
0.137901 0.305145 0.305323
0.352547 0.344222 0.334611
0.523618 0.351643 0.331052
0.641955 0.381125 0.347590
0.705060 0.402155 0.368528
0.743886 0.406007 0.402413
0.765496 0.167269 0.476709
0.087610 0.447556 0.333045
0.095342 0.452455 0.331831
0.138233 0.467026 0.331178
0.291683 0.480573 0.333398
0.482008 0.492093 0.339803
0.607978 0.509952 0.354149
0.692697 0.524739 0.370010
0.738671 0.534241 0.388087
0.764715 0.549173 0.470401
0.095065 0.572099 0.355834
0.102309 0.574857 0.355575
0.139572 0.584771 0.356425
0.260753 0.594618 0.358657
0.439215 0.602334 0.363786
0.572218 0.609842 0.371943
0.676300 0.618235 0.383232
0.731788 0.625844 0.393681
0.763020 0.639554 0.435255
0.098536 0.655413 0.379595
0.104487 0.656720 0.379683
0.135817 0.661645 0.381035
0.234771 0.667171 0.383485
0.406005 0.671362 0.387310
0.540341 0.674877 0.392830
0.655523 0.679324 0.399840
0.722820 0.685739 0.408714
0.762143 0.696478 0.424369
0.090870 0.715626 0.403378
0.096198 0.716168 0.403285
0.123457 0.718294 0.404495
0.202512 0.720481 0.406467
0.367665 0.722061 0.410134
0.511614 0.723250 0.415264
0.621193 0.725150 0.421983
0.710755 0.728533 0.429803
0.762871 0.734459 0.433985
0.072005 0.754471 0.488721
0.087471 0.767558 0.488721
0.087474 0.767561 0.488720
0.122870 0.769563 0.422525
0.296841 0.763326 0.445984
0.464634 0.762049 0.448357
0.583305 0.761959 0.454410
0.688012 0.763643 0.462837
0.767123 0.767680 0.460387
0.060080 0.089489 0.458149
0.065280 0.092875 0.482945
0.142561 0.104087 0.519970
0.417346 0.115907 0.521578
0.581156 0.132746 0.523687
0.672984 0.154745 0.530702
0.716692 0.170132 0.540501
0.750002 0.148066 0.555394
0.765495 0.167236 0.575470
0.062530 0.097685 0.466146
0.068851 0.103061 0.481916
0.143823 0.116476 0.514034
0.407514 0.129961 0.517356
0.574780 0.149407 0.520327
0.671016 0.172687 0.528120
0.715795 0.188306 0.538672
0.749561 0.162787 0.554357
0.765495 0.167236 0.572278
0.072044 0.154772 0.475025
0.080213 0.161167 0.478132
0.144458 0.180384 0.495521
0.383994 0.199856 0.504182
0.553614 0.226451 0.509642
0.663090 0.259093 0.519309
0.711820 0.280779 0.531765
0.746737 0.275059 0.549526
0.765496 0.167243 0.562122
0.083689 0.300839 0.481645
0.090361 0.307919 0.481119
0.146432 0.328257 0.484886
0.346971 0.347654 0.492179
0.525867 0.369133 0.498632
0.643658 0.398029 0.509245
0.704953 0.415394 0.521972
0.743238 0.421942 0.541295
0.766767 0.354712 0.562213
0.094361 0.453598 0.491381
0.103790 0.458125 0.490355
0.150776 0.471500 0.489496
0.312661 0.485392 0.491481
0.504690 0.508968 0.504526
0.615599 0.516811 0.505447
0.694996 0.530325 0.516044
0.738844 0.540835 0.531645
0.764314 0.558996 0.565168
0.105817 0.574407 0.506863
0.113107 0.576841 0.505971
0.157102 0.585581 0.504289
0.293016 0.594911 0.503825
0.461122 0.603229 0.505861
0.585455 0.611657 0.509774
0.681686 0.619819 0.518011
0.733499 0.627765 0.527987
0.762887 0.642804 0.560059
0.110471 0.655890 0.524505
0.116528 0.657071 0.523730
0.154732 0.661384 0.521800
0.271368 0.666477 0.520308
0.429990 0.670781 0.520615
0.556263 0.674768 0.522825
0.665451 0.679745 0.526770
0.726632 0.686385 0.532948
0.762339 0.697856 0.553312
0.103047 0.715582 0.549842
0.108435 0.716054 0.548752
0.141532 0.717841 0.545352
0.233890 0.719861 0.542048
0.395898 0.721496 0.540270
0.526519 0.722973 0.540640
0.636173 0.725189 0.542927
0.716872 0.728855 0.546572
0.763411 0.735425 0.552191
0.076117 0.758989 0.627731
0.078734 0.760903 0.627731
0.084034 0.765388 0.627730
0.153202 0.764946 0.585607
0.321637 0.763140 0.579424
0.481782 0.762186 0.575477
0.594086 0.762293 0.574952
0.694602 0.764158 0.578139
0.767483 0.768768 0.569167
0.061641 0.103623 0.588038
0.064992 0.105863 0.596598
0.135337 0.125778 0.609949
0.399084 0.140452 0.611155
0.573072 0.160519 0.612646
0.669693 0.185038 0.615007
0.714658 0.205578 0.618071
0.748087 0.189487 0.620400
0.765495 0.167236 0.613084
0.063541 0.113672 0.590632
0.067089 0.116900 0.597380
0.136355 0.139317 0.609652
0.392775 0.155403 0.611077
0.568094 0.178882 0.612706
0.667976 0.205855 0.615086
0.713871 0.226812 0.618298
0.747698 0.210182 0.620727
0.765495 0.167236 0.613084
0.073098 0.182152 0.596236
0.079521 0.187559 0.598787
0.142007 0.215159 0.607610
0.374774 0.237050 0.610419
0.550562 0.263101 0.612511
0.661186 0.293473 0.615214
0.710494 0.315306 0.618994
0.745528 0.316955 0.622365
0.765496 0.167244 0.613083
0.085754 0.326846 0.598224
0.092502 0.332689 0.598791
0.150592 0.355665 0.603732
0.350612 0.376725 0.608197
0.528086 0.397636 0.611201
0.643612 0.414608 0.614441
0.704554 0.432263 0.619168
0.742595 0.441134 0.624217
0.766235 0.409723 0.615857
0.100615 0.468391 0.601686
0.109200 0.472173 0.601526
0.162929 0.486126 0.602947
0.328619 0.500333 0.606013
0.505987 0.513871 0.609568
0.619498 0.525266 0.613061
0.696068 0.538768 0.618479
0.738858 0.549953 0.625173
0.763938 0.570250 0.628766
0.112737 0.579530 0.608016
0.121769 0.581878 0.607582
0.172496 0.590038 0.606992
0.311410 0.599165 0.607690
0.475004 0.607823 0.610026
0.595900 0.617698 0.615208
0.684822 0.623241 0.618248
0.734430 0.631401 0.624913
0.762775 0.647129 0.633788
0.119091 0.658038 0.618072
0.128214 0.659105 0.617516
0.172374 0.663058 0.616176
0.294901 0.667897 0.615274
0.446283 0.672275 0.615823
0.567115 0.676515 0.617604
0.670658 0.681800 0.620398
0.728910 0.688569 0.625222
0.762445 0.699948 0.636558
0.110105 0.716765 0.633676
0.115578 0.717191 0.632933
0.153036 0.718768 0.630380
0.256455 0.720602 0.627752
0.410950 0.722229 0.626210
0.536806 0.723863 0.626184
0.646491 0.726262 0.627471
0.720570 0.730069 0.629709
0.763672 0.737019 0.636967
0.077855 0.760239 0.652051
0.080016 0.761911 0.653371
0.084355 0.765686 0.658396
0.159731 0.765864 0.654048
0.333563 0.763968 0.648092
0.490882 0.763116 0.645211
0.600133 0.763385 0.644472
0.698371 0.765301 0.645669
0.767620 0.770018 0.644729
0.063531 0.127088 0.669845
0.065839 0.128138 0.673856
0.117627 0.153182 0.673201
0.388750 0.172254 0.673147
0.568877 0.197540 0.673986
0.668200 0.226039 0.674918
0.713722 0.245117 0.675818
0.747045 0.235633 0.674962
0.765495 0.167220 0.664334
0.064875 0.138337 0.670810
0.067737 0.140388 0.674063
0.120929 0.168404 0.673882
0.384428 0.189122 0.673787
0.564997 0.217363 0.674585
0.666814 0.245834 0.675475
0.713018 0.265602 0.676357
0.746706 0.256243 0.675531
0.765494 0.167214 0.663976
0.073656 0.214895 0.673565
0.078995 0.219405 0.674997
0.133629 0.248786 0.675891
0.370037 0.273010 0.675899
0.550846 0.302106 0.676585
0.661162 0.327360 0.677368
0.710087 0.347376 0.678257
0.744957 0.352645 0.677910
0.765487 0.167085 0.662344
0.087122 0.357562 0.674676
0.093766 0.362269 0.675492
0.149491 0.385214 0.677307
0.354456 0.403402 0.678120
0.531623 0.418821 0.678910
0.646265 0.435463 0.679874
0.705005 0.450281 0.680893
0.742499 0.460096 0.681225
0.765278 0.460994 0.673620
0.104503 0.486132 0.675101
0.112374 0.489396 0.675595
0.168232 0.502859 0.677470
0.339662 0.516963 0.679207
0.512301 0.526909 0.680638
0.625101 0.537617 0.681912
0.697639 0.548452 0.683331
0.739298 0.559629 0.684687
0.763776 0.581344 0.680863
0.118326 0.588771 0.676413
0.128623 0.590857 0.676592
0.182328 0.598786 0.677662
0.326707 0.608178 0.679502
0.488560 0.615504 0.681501
0.601453 0.621347 0.683324
0.687647 0.627862 0.685223
0.735437 0.635752 0.687478
0.762846 0.651638 0.686612
0.125091 0.661868 0.679872
0.134473 0.662897 0.679771
0.182488 0.666628 0.679778
0.307703 0.671254 0.680550
0.457071 0.675656 0.682230
0.574602 0.679974 0.684171
0.673927 0.685227 0.685861
0.730608 0.691838 0.689192
0.762684 0.702469 0.691494
0.111618 0.719486 0.687135
0.117547 0.719856 0.686807
0.157546 0.721189 0.685666
0.266048 0.722820 0.684851
0.418463 0.724339 0.684948
0.542580 0.725948 0.685953
0.652582 0.728396 0.687674
0.722528 0.732155 0.689935
0.763912 0.739136 0.695114
0.077635 0.760067 0.683968
0.081725 0.763318 0.683973
0.086306 0.767492 0.684107
0.148380 0.768818 0.696945
0.330007 0.765928 0.693701
0.490492 0.764970 0.692787
0.600554 0.765232 0.692934
0.698589 0.767156 0.693985
0.767742 0.771551 0.701593
0.065902 0.160462 0.728122
0.068589 0.161523 0.728122
0.126297 0.184750 0.724759
0.403888 0.208190 0.724559
0.577966 0.235280 0.725124
0.671641 0.262032 0.725826
0.715281 0.280543 0.726314
0.748140 0.266157 0.726718
0.765623 0.185433 0.710316
0.067292 0.174300 0.728373
0.070380 0.175846 0.728390
0.130434 0.201874 0.725431
0.400319 0.226476 0.725171
0.575027 0.253235 0.725674
0.670620 0.281773 0.726333
0.714776 0.301372 0.726815
0.747846 0.288666 0.727190
0.765665 0.191634 0.710316
0.077460 0.259580 0.729315
0.081924 0.262510 0.729304
0.148526 0.289335 0.727648
0.391826 0.311629 0.727268
0.563172 0.334770 0.727577
0.666055 0.359138 0.728104
0.712437 0.377434 0.728599
0.746371 0.377215 0.728932
0.766128 0.264107 0.710316
0.089881 0.391103 0.730656
0.097666 0.394512 0.730809
0.167398 0.408801 0.730195
0.380012 0.422194 0.729870
0.545818 0.436878 0.730065
0.657549 0.452668 0.730541
0.708543 0.466195 0.731141
0.744374 0.473330 0.731546
0.765443 0.481547 0.724470
0.108643 0.504741 0.731478
0.116069 0.507284 0.731841
0.185518 0.518898 0.732199
0.364498 0.528192 0.732366
0.526428 0.537659 0.732711
0.639003 0.547854 0.733244
0.702569 0.557787 0.733920
0.741756 0.566532 0.734554
0.764298 0.589508 0.730226
0.123372 0.599366 0.731645
0.133399 0.601139 0.732158
0.196129 0.609027 0.733330
0.345976 0.615812 0.734254
0.505545 0.621103 0.734953
0.615285 0.626787 0.735758
0.693685 0.632746 0.736615
0.738501 0.639168 0.737535
0.763596 0.655453 0.734819
0.127747 0.667035 0.730966
0.136831 0.667952 0.731453
0.190455 0.671695 0.733044
0.318701 0.675969 0.734975
0.469745 0.679999 0.736554
0.585709 0.684139 0.737841
0.680037 0.689018 0.739004
0.733949 0.694365 0.740474
0.763477 0.704791 0.738868
0.106003 0.724535 0.731697
0.111885 0.724761 0.731804
0.151874 0.725472 0.732293
0.262454 0.726541 0.733828
0.419820 0.727668 0.736200
0.545822 0.729116 0.738516
0.657446 0.731414 0.740531
0.722821 0.733791 0.740581
0.764440 0.741466 0.742838
0.075156 0.758333 0.720118
0.086073 0.767344 0.720709
0.087392 0.768678 0.724774
0.133963 0.771299 0.731970
0.304289 0.769481 0.732451
0.477544 0.768085 0.733749
0.593657 0.768097 0.735533
0.694200 0.769714 0.737112
0.767872 0.773392 0.749313
0.089956 0.196605 0.774708
0.100255 0.199361 0.774726
0.246840 0.210512 0.774794
0.528401 0.230092 0.774980
0.636118 0.252640 0.775265
0.691433 0.273241 0.775629
0.726559 0.279190 0.776424
0.754287 0.236264 0.777917
0.765496 0.219740 0.767984
0.093356 0.209417 0.774703
0.103687 0.212299 0.774722
0.248287 0.223932 0.774787
0.526791 0.243589 0.774975
0.635035 0.266819 0.775258
0.691107 0.289173 0.775628
0.726397 0.295348 0.776410
0.754141 0.248649 0.777892
0.765496 0.236035 0.774402
0.109776 0.277016 0.774538
0.121004 0.280256 0.774560
0.261560 0.293163 0.774639
0.520129 0.312534 0.774853
0.630164 0.333640 0.775152
0.689606 0.352597 0.775560
0.725576 0.358906 0.776301
0.753405 0.321884 0.777695
0.765496 0.236091 0.774403
0.139184 0.404359 0.774298
0.153131 0.405970 0.774334
0.284185 0.412317 0.774456
0.508429 0.422991 0.774708
0.620219 0.435562 0.775030
0.686333 0.447415 0.775462
0.723898 0.453447 0.776187
0.752187 0.443950 0.777383
0.767394 0.482519 0.778974
0.159339 0.513644 0.774352
0.177615 0.515082 0.774401
0.292156 0.519442 0.774566
0.486444 0.526230 0.774806
0.604774 0.534182 0.775167
0.681083 0.541998 0.775617
0.721321 0.547246 0.776276
0.751128 0.546774 0.777389
0.767601 0.577140 0.780069
0.164384 0.603668 0.774786
0.181432 0.604589 0.774845
0.282183 0.608387 0.775032
0.452594 0.613801 0.775297
0.580409 0.618094 0.775637
0.672127 0.622557 0.776078
0.717189 0.626069 0.776669
0.749667 0.627687 0.777621
0.767161 0.651577 0.779805
0.147038 0.670029 0.775669
0.158513 0.670520 0.775724
0.234977 0.672556 0.775881
0.402893 0.675403 0.776127
0.541689 0.678425 0.776470
0.651518 0.681859 0.776891
0.709363 0.684936 0.777494
0.747446 0.686591 0.778287
0.767143 0.703417 0.780041
0.101452 0.726846 0.776658
0.107184 0.727021 0.776838
0.144284 0.727669 0.777141
0.283686 0.728203 0.777356
0.461309 0.728652 0.777720
0.591162 0.729743 0.778142
0.688531 0.731668 0.778655
0.741594 0.732842 0.779348
0.767467 0.741445 0.780595
0.071492 0.755330 0.749522
0.087474 0.768764 0.760947
0.087474 0.768765 0.760947
0.097711 0.769550 0.760966
0.227634 0.774198 0.777024
0.449007 0.771905 0.779640
0.584399 0.771481 0.780268
0.692450 0.772788 0.780855
0.768032 0.775489 0.781302
