negative-superia-xtra-400/SuperiaXtra400_Classic_Punchy.cube
TITLE "Fuji Superia X-tra 400 Classic Punchy"
# Adobe RGB in/out. REPLACES AgX. Fuji Superia X-tra 400 Classic Punchy.
LUT_3D_SIZE 9
DOMAIN_MIN 0.0 0.0 0.0
DOMAIN_MAX 1.0 1.0 1.0
0.069654 0.083313 0.079745
0.082906 0.083605 0.079745
0.147939 0.087707 0.079765
0.299446 0.101558 0.079871
0.504440 0.137879 0.080265
0.680548 0.211154 0.081162
0.796898 0.322924 0.083372
0.874669 0.457723 0.086656
0.921526 0.571356 0.090729
0.069715 0.085382 0.079745
0.084245 0.086901 0.079745
0.149571 0.093310 0.079797
0.301145 0.110786 0.079913
0.506023 0.153515 0.080358
0.681268 0.230523 0.081447
0.797281 0.343872 0.083724
0.874871 0.475589 0.086932
0.921640 0.584577 0.091017
0.073365 0.109715 0.079835
0.088564 0.112913 0.079851
0.155355 0.125703 0.079920
0.307232 0.158570 0.080213
0.511701 0.214549 0.080804
0.683848 0.301576 0.082369
0.798656 0.416753 0.084899
0.875596 0.524537 0.088187
0.922051 0.622932 0.092407
0.081211 0.207549 0.080293
0.097735 0.213940 0.080341
0.167631 0.236962 0.080571
0.318356 0.279736 0.080981
0.520757 0.347396 0.082298
0.688566 0.434727 0.084202
0.801171 0.521144 0.086779
0.876924 0.609148 0.090277
0.922804 0.679250 0.095558
0.093836 0.407404 0.082049
0.111005 0.413477 0.082177
0.185992 0.435033 0.082614
0.334870 0.474286 0.083473
0.532368 0.519171 0.085145
0.695554 0.577472 0.087137
0.804902 0.635999 0.090023
0.878897 0.693377 0.094226
0.923924 0.756062 0.100419
0.111998 0.603355 0.085866
0.129981 0.606513 0.086012
0.210345 0.617225 0.086521
0.356981 0.636502 0.087611
0.547829 0.664377 0.089303
0.704868 0.700422 0.091352
0.809884 0.743776 0.095453
0.881537 0.793733 0.100744
0.925425 0.823312 0.107898
0.137186 0.743678 0.091121
0.157653 0.746156 0.091267
0.242313 0.754994 0.091990
0.385312 0.771010 0.093659
0.567132 0.794409 0.096046
0.716512 0.810813 0.099402
0.816125 0.829926 0.103948
0.884852 0.851821 0.110699
0.927316 0.874681 0.120108
0.172977 0.842091 0.100966
0.196184 0.843140 0.101236
0.279737 0.846880 0.102196
0.419491 0.853648 0.103925
0.590207 0.863512 0.106949
0.730444 0.874942 0.111505
0.823611 0.885710 0.117989
0.888840 0.898142 0.126251
0.929596 0.912014 0.135660
0.218416 0.899503 0.116454
0.242157 0.900080 0.116862
0.321617 0.902138 0.118320
0.459357 0.905879 0.120978
0.616936 0.911355 0.124899
0.746592 0.918537 0.130097
0.832309 0.927151 0.136498
0.893490 0.933031 0.147883
0.932264 0.939637 0.162278
0.069654 0.083313 0.081920
0.082906 0.083677 0.082051
0.147939 0.087873 0.082498
0.299446 0.101907 0.083291
0.504440 0.138450 0.084990
0.680548 0.211950 0.086954
0.796898 0.323785 0.089868
0.874669 0.458463 0.093983
0.921526 0.571903 0.100149
0.069715 0.085490 0.082170
0.084245 0.087087 0.082296
0.149571 0.093564 0.082725
0.301145 0.111180 0.083645
0.506023 0.154161 0.085293
0.681268 0.231323 0.087312
0.797281 0.344738 0.090170
0.874871 0.476161 0.094458
0.921640 0.585120 0.100677
0.073365 0.110115 0.082989
0.088564 0.113357 0.083098
0.155355 0.126297 0.083706
0.307232 0.159210 0.084829
0.511701 0.215346 0.086318
0.683848 0.302431 0.088540
0.798656 0.417509 0.091214
0.875596 0.525089 0.096117
0.922051 0.623297 0.102538
0.081211 0.208345 0.085081
0.097735 0.214737 0.085238
0.167631 0.237762 0.085782
0.318356 0.280547 0.086719
0.520757 0.348262 0.088441
0.688566 0.435469 0.090589
0.801171 0.521697 0.094206
0.876924 0.609521 0.099326
0.922804 0.679588 0.106105
0.093836 0.408161 0.088101
0.111005 0.414233 0.088275
0.185992 0.435775 0.088885
0.334870 0.475024 0.089954
0.532368 0.519725 0.091439
0.695554 0.578016 0.094726
0.804902 0.636357 0.098868
0.878897 0.693708 0.104425
0.923924 0.756367 0.112618
0.111998 0.603876 0.092585
0.129981 0.606888 0.092838
0.210345 0.617594 0.093740
0.356981 0.636860 0.095349
0.547829 0.664722 0.097640
0.704868 0.700751 0.101299
0.809884 0.744085 0.105950
0.881537 0.794024 0.113014
0.925425 0.823451 0.122876
0.137186 0.743987 0.100871
0.157653 0.746464 0.101141
0.242313 0.755299 0.102103
0.385312 0.771309 0.103835
0.567132 0.794700 0.106828
0.716512 0.810957 0.111388
0.816125 0.830062 0.117848
0.884852 0.851948 0.126115
0.927316 0.874762 0.135530
0.172977 0.842222 0.113283
0.196184 0.843271 0.113636
0.279737 0.847009 0.115116
0.419491 0.853774 0.117812
0.590207 0.863635 0.121786
0.730444 0.875023 0.127052
0.823611 0.885787 0.133571
0.888840 0.898215 0.143296
0.929596 0.912082 0.157682
0.218416 0.899575 0.132150
0.242157 0.900152 0.132529
0.321617 0.902209 0.133876
0.459357 0.905949 0.136336
0.616936 0.911423 0.141287
0.746592 0.918603 0.149079
0.832309 0.927187 0.159003
0.893490 0.933065 0.171705
0.932264 0.939669 0.187228
0.069654 0.083407 0.114600
0.082906 0.083928 0.115011
0.147939 0.088682 0.116481
0.299446 0.103140 0.119161
0.504440 0.140685 0.123112
0.680548 0.214813 0.128349
0.796898 0.326878 0.134817
0.874669 0.461119 0.145242
0.921526 0.573866 0.159632
0.069715 0.086219 0.115394
0.084245 0.087714 0.115804
0.149571 0.094450 0.117269
0.301145 0.112582 0.119939
0.506023 0.156473 0.123878
0.681268 0.234196 0.129098
0.797281 0.347849 0.135537
0.874871 0.478213 0.146371
0.921640 0.587067 0.160763
0.073365 0.111534 0.118224
0.088564 0.114937 0.118628
0.155355 0.128419 0.120075
0.307232 0.161506 0.122714
0.511701 0.218210 0.126606
0.683848 0.305505 0.131769
0.798656 0.420225 0.138319
0.875596 0.527067 0.150425
0.922051 0.624609 0.164938
0.081211 0.211206 0.123341
0.097735 0.217601 0.123736
0.167631 0.240638 0.125152
0.318356 0.283476 0.127735
0.520757 0.351376 0.131548
0.688566 0.438135 0.136553
0.801171 0.523680 0.145771
0.876924 0.610860 0.157891
0.922804 0.680799 0.172949
0.093836 0.410880 0.130794
0.111005 0.416951 0.131178
0.185992 0.438441 0.132548
0.334870 0.477153 0.135022
0.532368 0.521711 0.139224
0.695554 0.579972 0.147013
0.804902 0.637644 0.156934
0.878897 0.694897 0.169485
0.923924 0.757460 0.184991
0.111998 0.605226 0.141993
0.129981 0.608231 0.142576
0.210345 0.618916 0.144670
0.356981 0.638146 0.148526
0.547829 0.665958 0.154298
0.704868 0.701928 0.162106
0.809884 0.745195 0.172672
0.881537 0.795069 0.185746
0.925425 0.823949 0.201205
0.137186 0.745097 0.161180
0.157653 0.747570 0.161764
0.242313 0.756393 0.163912
0.385312 0.772382 0.168047
0.567132 0.795594 0.174249
0.716512 0.811476 0.182661
0.816125 0.830550 0.193388
0.884852 0.852403 0.206342
0.927316 0.875053 0.221931
0.172977 0.842692 0.186261
0.196184 0.843739 0.186893
0.279737 0.847472 0.189165
0.419491 0.854227 0.193333
0.590207 0.864074 0.199495
0.730444 0.875314 0.207842
0.823611 0.886063 0.218581
0.888840 0.898475 0.231845
0.929596 0.912326 0.247671
0.218416 0.899833 0.216176
0.242157 0.900409 0.216813
0.321617 0.902464 0.219102
0.459357 0.906200 0.223318
0.616936 0.911668 0.229638
0.746592 0.918840 0.238200
0.832309 0.927317 0.249128
0.893490 0.933189 0.262531
0.932264 0.939785 0.278788
0.069654 0.083829 0.264840
0.082906 0.084762 0.265488
0.147939 0.090342 0.267815
0.299446 0.105433 0.272102
0.504440 0.145023 0.278796
0.680548 0.220084 0.288428
0.796898 0.332577 0.300642
0.874669 0.466004 0.315627
0.921526 0.577471 0.333564
0.069715 0.087474 0.266093
0.084245 0.089222 0.266741
0.149571 0.095979 0.269069
0.301145 0.115493 0.273357
0.506023 0.160709 0.280187
0.681268 0.239485 0.289827
0.797281 0.353579 0.302033
0.874871 0.481980 0.317029
0.921640 0.590644 0.334978
0.073365 0.114318 0.270597
0.088564 0.117782 0.271245
0.155355 0.132287 0.273577
0.307232 0.165711 0.278074
0.511701 0.223485 0.285193
0.683848 0.311169 0.294819
0.798656 0.425158 0.307039
0.875596 0.530699 0.322073
0.922051 0.627015 0.340067
0.081211 0.216473 0.279211
0.097735 0.222875 0.279930
0.167631 0.245936 0.282516
0.318356 0.288896 0.287284
0.520757 0.357112 0.294405
0.688566 0.443037 0.304004
0.801171 0.527321 0.316283
0.876924 0.613315 0.331387
0.922804 0.683023 0.349331
0.093836 0.415881 0.292997
0.111005 0.421938 0.293713
0.185992 0.443343 0.296288
0.334870 0.480923 0.301036
0.532368 0.525357 0.308159
0.695554 0.583564 0.317827
0.804902 0.640005 0.330192
0.878897 0.697079 0.345398
0.923924 0.759467 0.361069
0.111998 0.607702 0.311592
0.129981 0.610696 0.312315
0.210345 0.621342 0.314916
0.356981 0.640505 0.319709
0.547829 0.668227 0.326901
0.704868 0.704091 0.336659
0.809884 0.747232 0.349060
0.881537 0.796245 0.361803
0.925425 0.824863 0.376925
0.137186 0.747135 0.335500
0.157653 0.749602 0.336232
0.242313 0.758402 0.338863
0.385312 0.774353 0.343712
0.567132 0.796598 0.350602
0.716512 0.812428 0.358803
0.816125 0.831447 0.369232
0.884852 0.853240 0.381968
0.927316 0.875588 0.397084
0.172977 0.843555 0.362303
0.196184 0.844599 0.362917
0.279737 0.848321 0.365121
0.419491 0.855059 0.369177
0.590207 0.864881 0.375244
0.730444 0.875848 0.383440
0.823611 0.886570 0.393863
0.888840 0.898952 0.406593
0.929596 0.912774 0.421701
0.218416 0.900308 0.391547
0.242157 0.900882 0.392160
0.321617 0.902933 0.394363
0.459357 0.906661 0.398417
0.616936 0.912117 0.404480
0.746592 0.919274 0.412671
0.832309 0.927556 0.423087
0.893490 0.933416 0.435810
0.932264 0.939999 0.450859
0.069654 0.085008 0.504525
0.082906 0.086271 0.505006
0.147939 0.092500 0.506735
0.299446 0.109517 0.509913
0.504440 0.151457 0.514657
0.680548 0.227979 0.521050
0.796898 0.341117 0.529154
0.874669 0.473306 0.539013
0.921526 0.582849 0.550659
0.069715 0.089693 0.505456
0.084245 0.091543 0.505937
0.149571 0.098784 0.507666
0.301145 0.119698 0.510842
0.506023 0.166997 0.515584
0.681268 0.247416 0.521974
0.797281 0.362167 0.530074
0.874871 0.487596 0.539929
0.921640 0.595981 0.551495
0.073365 0.118570 0.508798
0.088564 0.121900 0.509279
0.155355 0.137984 0.511004
0.307232 0.171956 0.514175
0.511701 0.231384 0.518909
0.683848 0.319659 0.525290
0.798656 0.432505 0.533377
0.875596 0.536115 0.543217
0.922051 0.630598 0.554308
0.081211 0.224363 0.514933
0.097735 0.230774 0.515412
0.167631 0.253906 0.517133
0.318356 0.297285 0.520294
0.520757 0.365708 0.525015
0.688566 0.450363 0.531377
0.801171 0.532750 0.539442
0.876924 0.616972 0.549254
0.922804 0.686337 0.559465
0.093836 0.423323 0.524077
0.111005 0.429288 0.524554
0.185992 0.450669 0.526267
0.334870 0.486543 0.529415
0.532368 0.530794 0.534115
0.695554 0.588923 0.540450
0.804902 0.643522 0.548482
0.878897 0.700332 0.557240
0.923924 0.762460 0.567141
0.111998 0.611390 0.536370
0.129981 0.614367 0.536845
0.210345 0.624955 0.538548
0.356981 0.644019 0.541678
0.547829 0.671608 0.546352
0.704868 0.707307 0.552426
0.809884 0.750270 0.559287
0.881537 0.797742 0.567619
0.925425 0.826226 0.577439
0.137186 0.750173 0.551784
0.157653 0.752631 0.552189
0.242313 0.761399 0.553643
0.385312 0.777293 0.556314
0.567132 0.798093 0.560299
0.716512 0.813847 0.565663
0.816125 0.832784 0.572452
0.884852 0.854488 0.580697
0.927316 0.876386 0.590401
0.172977 0.844841 0.567945
0.196184 0.845880 0.568345
0.279737 0.849588 0.569780
0.419491 0.856300 0.572417
0.590207 0.866085 0.576350
0.730444 0.876645 0.581647
0.823611 0.887326 0.588352
0.888840 0.899665 0.596427
0.929596 0.913442 0.605946
0.218416 0.901015 0.586865
0.242157 0.901588 0.587259
0.321617 0.903633 0.588672
0.459357 0.907348 0.591247
0.616936 0.912787 0.595090
0.746592 0.919922 0.600264
0.832309 0.927912 0.606815
0.893490 0.933754 0.614775
0.932264 0.940319 0.624163
0.069654 0.087294 0.703154
0.082906 0.088956 0.703404
0.147939 0.095750 0.704300
0.299446 0.115047 0.705946
0.504440 0.160053 0.708401
0.680548 0.238664 0.711703
0.796898 0.352690 0.715881
0.874669 0.481397 0.720950
0.921526 0.590089 0.726919
0.069715 0.092686 0.703637
0.084245 0.094697 0.703887
0.149571 0.103509 0.704782
0.301145 0.125876 0.706427
0.506023 0.175409 0.708880
0.681268 0.258192 0.712180
0.797281 0.373801 0.716355
0.874871 0.495145 0.721420
0.921640 0.603166 0.727386
0.073365 0.124273 0.705369
0.088564 0.129027 0.705618
0.155355 0.146553 0.706511
0.307232 0.180314 0.708151
0.511701 0.242077 0.710598
0.683848 0.331164 0.713890
0.798656 0.442419 0.718054
0.875596 0.543402 0.723107
0.922051 0.635411 0.729058
0.081211 0.235042 0.708543
0.097735 0.241465 0.708791
0.167631 0.264694 0.709680
0.318356 0.308716 0.711313
0.520757 0.377352 0.713748
0.688566 0.460250 0.717025
0.801171 0.540054 0.721170
0.876924 0.621881 0.726200
0.922804 0.690792 0.732125
0.093836 0.433251 0.713265
0.111005 0.439207 0.713511
0.185992 0.460555 0.714394
0.334870 0.494098 0.716015
0.532368 0.538107 0.718434
0.695554 0.596138 0.721688
0.804902 0.648246 0.725805
0.878897 0.704706 0.730802
0.923924 0.766487 0.736687
0.111998 0.616340 0.719593
0.129981 0.619295 0.719836
0.210345 0.629808 0.720711
0.356981 0.648741 0.722318
0.547829 0.676152 0.724714
0.704868 0.711623 0.727939
0.809884 0.754358 0.732019
0.881537 0.799754 0.736971
0.925425 0.828058 0.742805
0.137186 0.754261 0.727557
0.157653 0.756707 0.727798
0.242313 0.765432 0.728663
0.385312 0.781250 0.730251
0.567132 0.800102 0.732620
0.716512 0.815754 0.735808
0.816125 0.834581 0.739843
0.884852 0.856166 0.744740
0.927316 0.877459 0.750510
0.172977 0.846570 0.737165
0.196184 0.847604 0.737402
0.279737 0.851292 0.738255
0.419491 0.857968 0.739822
0.590207 0.867704 0.742159
0.730444 0.877716 0.745304
0.823611 0.888343 0.749284
0.888840 0.900623 0.754117
0.929596 0.914341 0.759813
0.218416 0.901968 0.748402
0.242157 0.902538 0.748636
0.321617 0.904575 0.749475
0.459357 0.908274 0.751017
0.616936 0.913690 0.753317
0.746592 0.920795 0.756414
0.832309 0.928392 0.760333
0.893490 0.934210 0.765092
0.932264 0.940749 0.770702
0.069654 0.091118 0.833918
0.082906 0.092881 0.834047
0.147939 0.100995 0.834510
0.299446 0.122204 0.835361
0.504440 0.170837 0.836631
0.680548 0.252317 0.838340
0.796898 0.367458 0.840503
0.874669 0.491037 0.843130
0.921526 0.599255 0.846225
0.069715 0.096719 0.834167
0.084245 0.099350 0.834296
0.149571 0.110153 0.834759
0.301145 0.135803 0.835610
0.506023 0.186125 0.836879
0.681268 0.271927 0.838587
0.797281 0.388646 0.840749
0.874871 0.504684 0.843373
0.921640 0.609733 0.846467
0.073365 0.134252 0.835063
0.088564 0.138855 0.835191
0.155355 0.157547 0.835653
0.307232 0.192363 0.836502
0.511701 0.255755 0.837768
0.683848 0.345849 0.839472
0.798656 0.455006 0.841629
0.875596 0.552616 0.844248
0.922051 0.641484 0.847334
0.081211 0.248668 0.836705
0.097735 0.255139 0.836833
0.167631 0.278444 0.837293
0.318356 0.323309 0.838138
0.520757 0.392210 0.839399
0.688566 0.472804 0.841096
0.801171 0.549289 0.843244
0.876924 0.628074 0.845852
0.922804 0.696421 0.848926
0.093836 0.445856 0.839148
0.111005 0.451800 0.839276
0.185992 0.473109 0.839733
0.334870 0.503645 0.840573
0.532368 0.547355 0.841825
0.695554 0.604843 0.843512
0.804902 0.654210 0.845647
0.878897 0.710213 0.848239
0.923924 0.771581 0.851294
0.111998 0.622584 0.842426
0.129981 0.625512 0.842552
0.210345 0.635930 0.843006
0.356981 0.654700 0.843839
0.547829 0.681891 0.845081
0.704868 0.717077 0.846754
0.809884 0.759528 0.848871
0.881537 0.802292 0.851442
0.925425 0.830377 0.854471
0.137186 0.759432 0.846556
0.157653 0.761862 0.846681
0.242313 0.770533 0.847129
0.385312 0.786255 0.847953
0.567132 0.802638 0.849183
0.716512 0.818163 0.850838
0.816125 0.836851 0.852933
0.884852 0.858288 0.855475
0.927316 0.878816 0.858473
0.172977 0.848756 0.851543
0.196184 0.849784 0.851666
0.279737 0.853447 0.852109
0.419491 0.860078 0.852922
0.590207 0.869751 0.854135
0.730444 0.879071 0.855768
0.823611 0.889630 0.857836
0.888840 0.901836 0.860347
0.929596 0.915480 0.863308
0.218416 0.903173 0.857377
0.242157 0.903741 0.857499
0.321617 0.905767 0.857935
0.459357 0.909446 0.858736
0.616936 0.914832 0.859931
0.746592 0.921899 0.861541
0.832309 0.929000 0.863579
0.893490 0.934787 0.866054
0.932264 0.941294 0.868973
0.069654 0.095952 0.906562
0.082906 0.098038 0.906622
0.147939 0.108740 0.906838
0.299446 0.133777 0.907234
0.504440 0.183803 0.907826
0.680548 0.269084 0.908623
0.796898 0.385573 0.909632
0.874669 0.502718 0.910858
0.921526 0.608422 0.912305
0.069715 0.103812 0.906678
0.084245 0.106867 0.906739
0.149571 0.118893 0.906954
0.301145 0.148893 0.907350
0.506023 0.202612 0.907941
0.681268 0.288825 0.908738
0.797281 0.405406 0.909746
0.874871 0.516247 0.910972
0.921640 0.617429 0.912418
0.073365 0.147142 0.907095
0.088564 0.152351 0.907155
0.155355 0.170745 0.907370
0.307232 0.208865 0.907766
0.511701 0.272532 0.908356
0.683848 0.363867 0.909151
0.798656 0.470352 0.910157
0.875596 0.563795 0.911381
0.922051 0.648833 0.912824
0.081211 0.265424 0.907860
0.097735 0.271914 0.907920
0.167631 0.295642 0.908134
0.318356 0.341220 0.908528
0.520757 0.408488 0.909116
0.688566 0.485218 0.909908
0.801171 0.560494 0.910911
0.876924 0.635565 0.912130
0.922804 0.703241 0.913569
0.093836 0.461223 0.909000
0.111005 0.467153 0.909059
0.185992 0.485452 0.909272
0.334870 0.515217 0.909664
0.532368 0.558574 0.910249
0.695554 0.612594 0.911037
0.804902 0.661429 0.912035
0.878897 0.716884 0.913247
0.923924 0.777763 0.914678
0.111998 0.630135 0.910530
0.129981 0.633031 0.910588
0.210345 0.643337 0.910800
0.356981 0.661914 0.911189
0.547829 0.688843 0.911770
0.704868 0.723689 0.912552
0.809884 0.765799 0.913543
0.881537 0.805365 0.914747
0.925425 0.833186 0.916168
0.137186 0.765704 0.912460
0.157653 0.768116 0.912518
0.242313 0.776722 0.912728
0.385312 0.792331 0.913114
0.567132 0.805707 0.913689
0.716512 0.821080 0.914464
0.816125 0.839603 0.915446
0.884852 0.860861 0.916640
0.927316 0.880461 0.918049
0.172977 0.851407 0.914794
0.196184 0.852426 0.914852
0.279737 0.856059 0.915060
0.419491 0.862638 0.915441
0.590207 0.872083 0.916011
0.730444 0.880714 0.916778
0.823611 0.891191 0.917749
0.888840 0.903308 0.918930
0.929596 0.916863 0.920324
0.218416 0.904638 0.917534
0.242157 0.905202 0.917591
0.321617 0.907215 0.917796
0.459357 0.910868 0.918172
0.616936 0.916219 0.918735
0.746592 0.923241 0.919492
0.832309 0.929737 0.920451
0.893490 0.935488 0.921618
0.932264 0.941956 0.922995
0.069654 0.103936 0.942629
0.082906 0.107022 0.942650
0.147939 0.119049 0.942724
0.299446 0.149135 0.942862
0.504440 0.202908 0.943067
0.680548 0.289131 0.943344
0.796898 0.405688 0.943694
0.874669 0.516453 0.944120
0.921526 0.617566 0.944624
0.069715 0.113635 0.942669
0.084245 0.117122 0.942690
0.149571 0.131384 0.942765
0.301145 0.164727 0.942902
0.506023 0.222247 0.943107
0.681268 0.309839 0.943384
0.797281 0.424005 0.943734
0.874871 0.529848 0.944160
0.921640 0.626451 0.944663
0.073365 0.163016 0.942814
0.088564 0.168107 0.942834
0.155355 0.186305 0.942909
0.307232 0.228523 0.943046
0.511701 0.292727 0.943251
0.683848 0.385363 0.943527
0.798656 0.485537 0.943877
0.875596 0.577120 0.944302
0.922051 0.657459 0.944805
0.081211 0.285418 0.943079
0.097735 0.292076 0.943100
0.167631 0.316747 0.943174
0.318356 0.362594 0.943311
0.520757 0.427031 0.943515
0.688566 0.499134 0.943790
0.801171 0.573766 0.944139
0.876924 0.644354 0.944563
0.922804 0.711235 0.945064
0.093836 0.478505 0.943475
0.111005 0.483077 0.943495
0.185992 0.499366 0.943569
0.334870 0.528828 0.943705
0.532368 0.571817 0.943909
0.695554 0.621681 0.944183
0.804902 0.669906 0.944530
0.878897 0.724728 0.944952
0.923924 0.785043 0.945451
0.111998 0.638992 0.944006
0.129981 0.641852 0.944027
0.210345 0.652030 0.944100
0.356981 0.670386 0.944236
0.547829 0.697014 0.944438
0.704868 0.731466 0.944710
0.809884 0.773183 0.945055
0.881537 0.808973 0.945475
0.925425 0.836489 0.945971
0.137186 0.773089 0.944678
0.157653 0.775479 0.944698
0.242313 0.784011 0.944771
0.385312 0.797553 0.944906
0.567132 0.809310 0.945106
0.716512 0.824507 0.945376
0.816125 0.842839 0.945719
0.884852 0.863889 0.946135
0.927316 0.882397 0.946627
0.172977 0.854526 0.945491
0.196184 0.855534 0.945511
0.279737 0.859132 0.945584
0.419491 0.865649 0.945717
0.590207 0.874100 0.945916
0.730444 0.882648 0.946183
0.823611 0.893029 0.946523
0.888840 0.905046 0.946936
0.929596 0.918493 0.947423
0.218416 0.906365 0.946447
0.242157 0.906924 0.946467
0.321617 0.908920 0.946539
0.459357 0.912545 0.946671
0.616936 0.917854 0.946867
0.746592 0.924824 0.947132
0.832309 0.930607 0.947468
0.893490 0.936314 0.947876
0.932264 0.942736 0.948359
