negative-superia-xtra-400/SuperiaXtra400_Modern_Normal.cube
TITLE "Fuji Superia X-tra 400 Modern Normal"
# Adobe RGB in/out. REPLACES AgX. Fuji Superia X-tra 400 Modern Normal.
LUT_3D_SIZE 33
DOMAIN_MIN 0.0 0.0 0.0
DOMAIN_MAX 1.0 1.0 1.0
0.070593 0.070461 0.087962
0.076100 0.074365 0.088721
0.077304 0.075426 0.088886
0.086220 0.079388 0.089325
0.124907 0.084403 0.089836
0.160294 0.087458 0.090233
0.246843 0.093981 0.090924
0.366568 0.102166 0.091663
0.426850 0.106480 0.092211
0.511694 0.113103 0.092945
0.616998 0.125679 0.094260
0.677399 0.134892 0.095452
0.718768 0.142091 0.096553
0.757931 0.154334 0.098109
0.797251 0.170948 0.100832
0.820864 0.180040 0.102448
0.840209 0.188922 0.103927
0.858801 0.199859 0.106513
0.873236 0.213409 0.110334
0.883222 0.218744 0.112521
0.891514 0.224177 0.115347
0.898524 0.230618 0.119884
0.905337 0.235092 0.124474
0.911249 0.232408 0.127710
0.914172 0.230257 0.132746
0.916691 0.225331 0.138964
0.920446 0.202438 0.140615
0.921701 0.186003 0.152709
0.926403 0.118266 0.369880
0.924617 0.117272 0.363967
0.922838 0.116333 0.358219
0.921065 0.115407 0.352570
0.922701 0.290258 0.568962
0.071782 0.079408 0.088510
0.074903 0.078423 0.088564
0.078678 0.076531 0.088653
0.089228 0.080117 0.089297
0.129120 0.085452 0.089863
0.161798 0.088078 0.090245
0.243962 0.094798 0.090931
0.359516 0.102827 0.091674
0.419979 0.107236 0.092219
0.504017 0.113746 0.092950
0.610177 0.126612 0.094261
0.672976 0.135769 0.095451
0.714785 0.142997 0.096553
0.755177 0.155335 0.098109
0.794875 0.171940 0.100832
0.819253 0.181041 0.102448
0.838833 0.189900 0.103926
0.857633 0.200814 0.106512
0.872558 0.214363 0.110331
0.882674 0.219668 0.112518
0.891043 0.225081 0.115339
0.898119 0.231513 0.119872
0.904987 0.236109 0.124457
0.911055 0.233298 0.127686
0.914003 0.231141 0.132695
0.916543 0.226215 0.138879
0.920312 0.203322 0.140472
0.921586 0.186831 0.152265
0.926307 0.118216 0.369563
0.924529 0.117226 0.363680
0.922757 0.116290 0.357959
0.920990 0.115378 0.352335
0.922632 0.290076 0.568727
0.072078 0.081363 0.088700
0.073372 0.081369 0.088910
0.075857 0.080077 0.088780
0.083253 0.082629 0.089248
0.111231 0.088424 0.089857
0.152397 0.090440 0.090238
0.233463 0.098087 0.090959
0.345889 0.107006 0.091766
0.402268 0.110519 0.092275
0.481132 0.116831 0.092981
0.587948 0.130538 0.094285
0.657876 0.139236 0.095463
0.700882 0.147098 0.096565
0.745409 0.159189 0.098118
0.786384 0.175715 0.100842
0.813463 0.184908 0.102456
0.833878 0.193572 0.103932
0.853428 0.204381 0.106518
0.870115 0.217909 0.110330
0.880700 0.223093 0.112512
0.889347 0.228419 0.115322
0.896666 0.234940 0.119840
0.903727 0.239855 0.124406
0.910358 0.236942 0.127613
0.913396 0.234460 0.132530
0.916009 0.229462 0.138596
0.919832 0.206573 0.140001
0.921171 0.189878 0.150769
0.925962 0.118037 0.368433
0.924213 0.117060 0.362658
0.922468 0.116139 0.357035
0.920725 0.115281 0.351497
0.922387 0.289421 0.567890
0.073190 0.090722 0.089215
0.073913 0.090961 0.089373
0.076400 0.090273 0.089455
0.079876 0.088481 0.089436
0.093533 0.094495 0.089941
0.115930 0.096042 0.090277
0.185970 0.102827 0.090972
0.295604 0.112923 0.091818
0.363930 0.116228 0.092351
0.446503 0.124036 0.093057
0.555867 0.139323 0.094406
0.624518 0.148561 0.095542
0.677304 0.156120 0.096646
0.727077 0.167422 0.098178
0.770949 0.183892 0.100905
0.802032 0.192861 0.102504
0.824690 0.201017 0.103969
0.845626 0.211529 0.106566
0.865266 0.224948 0.110362
0.877040 0.229841 0.112535
0.886211 0.235107 0.115331
0.893985 0.242262 0.119818
0.901409 0.247145 0.124350
0.908659 0.244165 0.127519
0.912282 0.241608 0.132289
0.915031 0.235984 0.138159
0.918951 0.212874 0.139291
0.920411 0.195803 0.148403
0.925336 0.117713 0.366391
0.923640 0.116759 0.360806
0.921942 0.115864 0.355359
0.920242 0.115107 0.349977
0.921941 0.288225 0.566368
0.074445 0.114399 0.089954
0.075256 0.114733 0.090095
0.077416 0.115272 0.090221
0.082061 0.112669 0.090310
0.089780 0.108253 0.090403
0.100847 0.103587 0.090430
0.141503 0.111572 0.091041
0.229227 0.123114 0.091905
0.302570 0.126068 0.092453
0.393758 0.134116 0.093147
0.511265 0.151976 0.094618
0.580987 0.161258 0.095699
0.643410 0.168917 0.096821
0.697320 0.181132 0.098332
0.748568 0.199682 0.101106
0.781722 0.207096 0.102659
0.810686 0.214042 0.104090
0.833694 0.223805 0.106731
0.855232 0.237267 0.110486
0.871111 0.242131 0.112649
0.881446 0.247459 0.115442
0.889934 0.254342 0.119878
0.897920 0.259097 0.124358
0.905611 0.255962 0.127478
0.910616 0.253244 0.132076
0.913571 0.247559 0.137704
0.917637 0.223150 0.138588
0.919280 0.205521 0.145892
0.924419 0.117246 0.363424
0.922800 0.116319 0.358106
0.921171 0.115462 0.352911
0.919533 0.114888 0.347754
0.921284 0.286470 0.564136
0.075597 0.140356 0.090532
0.076062 0.140221 0.090637
0.077856 0.141263 0.090742
0.081683 0.137474 0.090926
0.087336 0.128789 0.090859
0.097261 0.121588 0.090945
0.119601 0.125401 0.091263
0.184242 0.139366 0.092212
0.241915 0.140211 0.092609
0.328520 0.148729 0.093256
0.445230 0.168197 0.094795
0.529882 0.177324 0.095909
0.595794 0.184806 0.097099
0.664950 0.196885 0.098609
0.722031 0.214700 0.101331
0.757926 0.223284 0.102865
0.789277 0.231694 0.104297
0.816998 0.244856 0.107113
0.841055 0.259210 0.110803
0.861055 0.262613 0.112955
0.874630 0.266898 0.115780
0.884305 0.273124 0.120133
0.893112 0.277513 0.124543
0.901432 0.274050 0.127610
0.907502 0.271007 0.132062
0.911592 0.265205 0.137449
0.915855 0.239596 0.138279
0.917754 0.220548 0.143897
0.923217 0.116648 0.359579
0.921696 0.115745 0.354587
0.920155 0.115070 0.349712
0.921996 0.288278 0.344842
0.920417 0.284167 0.561200
0.076961 0.198310 0.091464
0.077498 0.199778 0.091551
0.079522 0.200239 0.091857
0.083177 0.193527 0.091950
0.089473 0.179987 0.091934
0.099625 0.167039 0.091891
0.114958 0.156817 0.092010
0.155260 0.164314 0.092637
0.202266 0.162357 0.092930
0.273454 0.169597 0.093477
0.383282 0.189640 0.095138
0.468143 0.198541 0.096313
0.542263 0.203922 0.097360
0.617424 0.215416 0.098942
0.688192 0.234324 0.101677
0.732271 0.245025 0.103218
0.765180 0.251480 0.104544
0.798595 0.262984 0.107411
0.825512 0.280001 0.111095
0.846386 0.286727 0.113352
0.864812 0.295114 0.116406
0.876652 0.303638 0.120752
0.886672 0.307437 0.125069
0.895893 0.302950 0.128091
0.902796 0.298961 0.132494
0.908575 0.292452 0.137702
0.913542 0.266918 0.138892
0.915791 0.244935 0.143185
0.921748 0.115967 0.354974
0.920342 0.115150 0.350318
0.918907 0.114611 0.345817
0.920840 0.285285 0.341285
0.919346 0.281361 0.557595
0.078936 0.272070 0.092829
0.079372 0.273623 0.092937
0.081521 0.278502 0.093265
0.085162 0.268208 0.093369
0.091739 0.253416 0.093358
0.103316 0.236099 0.093388
0.119645 0.221057 0.093373
0.147917 0.209184 0.093462
0.176806 0.190754 0.093342
0.232762 0.195048 0.093881
0.329024 0.215913 0.095616
0.410593 0.222596 0.096813
0.484265 0.226595 0.097785
0.565351 0.237961 0.099462
0.652146 0.259077 0.102078
0.698429 0.267582 0.103523
0.739175 0.275117 0.105026
0.773705 0.289199 0.107973
0.807695 0.307921 0.111576
0.830720 0.311945 0.113787
0.851343 0.318314 0.116858
0.868427 0.327132 0.121179
0.879495 0.335250 0.125610
0.889143 0.336934 0.128836
0.896607 0.339810 0.133710
0.903306 0.333809 0.138873
0.910533 0.311908 0.141139
0.913285 0.287044 0.144828
0.920041 0.115440 0.349902
0.918761 0.114587 0.345414
0.917445 0.114081 0.341314
0.919482 0.281701 0.337154
0.918087 0.278314 0.553376
0.079772 0.315985 0.093426
0.080096 0.317351 0.093504
0.081840 0.317299 0.093732
0.085013 0.309946 0.094033
0.090730 0.297564 0.094164
0.100011 0.281009 0.094168
0.113691 0.264611 0.094236
0.135657 0.248918 0.094275
0.168053 0.236208 0.094458
0.208666 0.228239 0.094748
0.287931 0.247462 0.096354
0.360663 0.252962 0.097455
0.431542 0.255657 0.098334
0.514629 0.266434 0.100092
0.601241 0.287721 0.102626
0.663825 0.295678 0.103984
0.707785 0.303431 0.105718
0.748937 0.317150 0.108566
0.785265 0.333914 0.112126
0.813084 0.339773 0.114429
0.834711 0.348168 0.117796
0.855330 0.354442 0.121927
0.871479 0.360814 0.126195
0.882542 0.360926 0.129271
0.890924 0.362743 0.134049
0.897881 0.364677 0.139575
0.905514 0.357163 0.143603
0.910073 0.350718 0.149586
0.918303 0.124563 0.347828
0.916988 0.114198 0.340308
0.915795 0.113531 0.336374
0.917943 0.277968 0.332551
0.916657 0.274889 0.548618
0.081211 0.375180 0.094824
0.081576 0.374133 0.094894
0.082936 0.369629 0.095094
0.085856 0.364972 0.095410
0.091134 0.355783 0.095607
0.099974 0.343436 0.095685
0.112142 0.327991 0.095742
0.132261 0.310898 0.095792
0.161465 0.294165 0.095907
0.198697 0.280499 0.096157
0.260741 0.292208 0.097542
0.321124 0.289473 0.098232
0.386894 0.289782 0.099180
0.463685 0.299752 0.100876
0.554100 0.322046 0.103292
0.618934 0.327817 0.104542
0.674547 0.333299 0.106579
0.721596 0.344301 0.109311
0.761731 0.362165 0.112977
0.792487 0.367779 0.115275
0.818785 0.373006 0.118589
0.840291 0.382928 0.122784
0.859790 0.393469 0.127144
0.874355 0.394440 0.130403
0.884160 0.394178 0.134911
0.892112 0.394590 0.140158
0.900481 0.386140 0.143954
0.905857 0.378491 0.149322
0.910930 0.361577 0.153536
0.913249 0.341141 0.162860
0.915761 0.262612 0.283940
0.916250 0.273927 0.332907
0.915078 0.271154 0.543406
0.083525 0.457802 0.097340
0.083800 0.456036 0.097386
0.085083 0.451399 0.097579
0.088696 0.448948 0.098004
0.094129 0.440741 0.098299
0.103064 0.428029 0.098513
0.116224 0.413170 0.098701
0.137493 0.396176 0.098818
0.167938 0.379261 0.098922
0.205087 0.363745 0.099162
0.247678 0.350915 0.099546
0.297404 0.338370 0.099845
0.348702 0.328619 0.100253
0.421776 0.335991 0.101772
0.510708 0.355632 0.104074
0.574865 0.359695 0.105679
0.636999 0.363648 0.107580
0.690079 0.374043 0.110182
0.738471 0.392346 0.113968
0.769910 0.396209 0.116439
0.800493 0.403208 0.119750
0.824369 0.414324 0.123893
0.846076 0.422065 0.128006
0.865537 0.424252 0.131454
0.876649 0.429302 0.136101
0.885179 0.435766 0.141464
0.894567 0.425968 0.145093
0.900824 0.416605 0.150047
0.907131 0.399056 0.153895
0.910803 0.376185 0.159792
0.913664 0.283200 0.206713
0.914433 0.269644 0.343882
0.913378 0.267190 0.346436
0.084864 0.500028 0.099011
0.085154 0.498790 0.099068
0.086271 0.495305 0.099297
0.089637 0.493040 0.099824
0.094469 0.487059 0.100263
0.102888 0.479341 0.100658
0.115163 0.469345 0.100986
0.134106 0.455220 0.101125
0.161675 0.438278 0.101254
0.196277 0.421769 0.101405
0.235636 0.406598 0.101649
0.283382 0.393991 0.102038
0.326809 0.375537 0.101937
0.386672 0.372646 0.102795
0.469180 0.391698 0.105213
0.535370 0.393925 0.107010
0.595628 0.397000 0.108823
0.660544 0.406820 0.111308
0.710998 0.424268 0.115035
0.747377 0.427498 0.117801
0.778891 0.435382 0.121138
0.808801 0.444326 0.125050
0.831286 0.455045 0.129184
0.851680 0.459595 0.132979
0.868598 0.461592 0.137346
0.878762 0.465137 0.142446
0.888438 0.463388 0.146301
0.895116 0.463008 0.151711
0.901882 0.452602 0.156447
0.906954 0.428174 0.160854
0.911264 0.335332 0.159214
0.912521 0.265212 0.338071
0.911583 0.263064 0.346254
0.085910 0.534249 0.100557
0.086156 0.533183 0.100609
0.087403 0.530039 0.100812
0.090159 0.527167 0.101260
0.094826 0.523374 0.101778
0.102512 0.517392 0.102233
0.112736 0.508237 0.102554
0.129621 0.497012 0.102808
0.154287 0.484490 0.102968
0.186194 0.471067 0.103115
0.222294 0.457603 0.103310
0.264009 0.442944 0.103545
0.312834 0.430813 0.103930
0.366144 0.422939 0.104477
0.434953 0.430465 0.106963
0.498586 0.431540 0.108579
0.558817 0.433232 0.110182
0.623674 0.442282 0.112698
0.683504 0.458877 0.117032
0.724030 0.461046 0.119473
0.757758 0.466239 0.122530
0.789576 0.474308 0.126459
0.816463 0.483996 0.130950
0.838390 0.485558 0.134432
0.857097 0.490561 0.138901
0.870950 0.497370 0.144129
0.882131 0.493582 0.147634
0.889732 0.491368 0.152676
0.896896 0.487094 0.157699
0.902158 0.480809 0.163804
0.906627 0.472734 0.172090
0.910548 0.260863 0.332184
0.909684 0.258924 0.348116
0.087613 0.578334 0.102534
0.087911 0.577404 0.102582
0.089038 0.574563 0.102768
0.091362 0.571459 0.103163
0.096490 0.569813 0.103764
0.103357 0.563841 0.104217
0.112919 0.555950 0.104577
0.129021 0.546422 0.105094
0.152110 0.534945 0.105519
0.181818 0.521997 0.105795
0.216071 0.508976 0.106062
0.255790 0.496586 0.106482
0.302147 0.485132 0.106913
0.351278 0.475468 0.107584
0.417280 0.480093 0.109942
0.466810 0.470531 0.110432
0.527251 0.469266 0.111724
0.588826 0.475459 0.114265
0.657838 0.488478 0.119036
0.698050 0.490149 0.121464
0.737531 0.494480 0.124345
0.770014 0.502400 0.128066
0.801132 0.510763 0.132754
0.824430 0.514091 0.136268
0.844330 0.519699 0.140655
0.862185 0.524386 0.145546
0.875429 0.524963 0.149412
0.883586 0.527470 0.154551
0.891673 0.521774 0.159146
0.897677 0.513789 0.164354
0.902678 0.503700 0.170144
0.905962 0.492823 0.188135
0.907852 0.491194 0.351404
0.090008 0.627866 0.105417
0.090274 0.627254 0.105498
0.091271 0.625339 0.105806
0.093639 0.623010 0.106444
0.099209 0.622645 0.107578
0.105558 0.618000 0.108362
0.115789 0.613460 0.109190
0.131922 0.606872 0.109774
0.154589 0.596731 0.110310
0.184434 0.584674 0.110697
0.218719 0.571905 0.111091
0.257530 0.558955 0.111392
0.303314 0.546619 0.111840
0.350773 0.535504 0.112375
0.402735 0.525877 0.113169
0.449129 0.514327 0.113491
0.498968 0.504497 0.113975
0.558487 0.507336 0.116506
0.625607 0.519418 0.121317
0.673864 0.520206 0.123515
0.714680 0.524056 0.126330
0.751309 0.531558 0.130137
0.783108 0.539248 0.134901
0.810597 0.543315 0.138338
0.831863 0.547671 0.142467
0.850480 0.554832 0.147425
0.868261 0.555841 0.151390
0.877945 0.556197 0.156114
0.886329 0.556254 0.160941
0.892706 0.555597 0.166741
0.898379 0.545317 0.171897
0.902218 0.530571 0.180069
0.904753 0.497918 0.334009
0.091174 0.654391 0.107719
0.091410 0.653891 0.107794
0.092289 0.652293 0.108077
0.094812 0.650181 0.108652
0.099549 0.649161 0.109648
0.105857 0.646460 0.110586
0.115982 0.643582 0.111615
0.129945 0.637074 0.112221
0.150821 0.630022 0.112901
0.178866 0.622065 0.113586
0.210618 0.612830 0.113984
0.246146 0.602551 0.114430
0.290271 0.590408 0.114921
0.335770 0.578697 0.115625
0.384741 0.568306 0.116460
0.434186 0.559235 0.117561
0.481078 0.547914 0.117953
0.535566 0.543714 0.119772
0.596309 0.551613 0.123854
0.650725 0.551885 0.125913
0.691861 0.554604 0.128442
0.733399 0.561500 0.132704
0.765690 0.568840 0.137334
0.795126 0.572088 0.140552
0.819254 0.577155 0.144597
0.839023 0.584426 0.149678
0.858809 0.585579 0.153450
0.871445 0.589295 0.158323
0.880996 0.589283 0.162895
0.888168 0.586472 0.168178
0.894071 0.584639 0.174275
0.898071 0.585010 0.184517
0.901343 0.539105 0.262675
0.092184 0.678609 0.109792
0.092395 0.678173 0.109862
0.093465 0.676755 0.110122
0.095871 0.674767 0.110643
0.099974 0.673378 0.111527
0.106340 0.672178 0.112720
0.114587 0.668437 0.113747
0.127810 0.664081 0.114701
0.147429 0.658665 0.115690
0.173039 0.651917 0.116633
0.202925 0.644046 0.117477
0.236727 0.635170 0.118152
0.277914 0.626206 0.118769
0.321102 0.617394 0.119539
0.368009 0.609050 0.120324
0.416732 0.600405 0.121215
0.465710 0.591948 0.122350
0.519970 0.586705 0.124009
0.575054 0.588967 0.127276
0.622341 0.583611 0.128343
0.671268 0.585970 0.131228
0.712451 0.592054 0.135493
0.748991 0.599154 0.140022
0.778782 0.601870 0.143029
0.806933 0.606822 0.146980
0.827859 0.611702 0.152090
0.848127 0.613969 0.155877
0.864519 0.616146 0.160451
0.875612 0.617534 0.165240
0.883257 0.618750 0.170760
0.889864 0.616626 0.176137
0.894433 0.614426 0.183344
0.897500 0.617884 0.207204
0.093848 0.704363 0.112432
0.094146 0.704107 0.112509
0.095247 0.703267 0.112797
0.097415 0.702036 0.113367
0.101133 0.701002 0.114320
0.107683 0.701102 0.116043
0.115071 0.697353 0.117272
0.128609 0.694501 0.118918
0.146816 0.689526 0.120147
0.170552 0.683329 0.121137
0.199317 0.676481 0.122137
0.232080 0.668877 0.122956
0.271373 0.660980 0.123784
0.313124 0.652764 0.124404
0.358325 0.644914 0.125274
0.405968 0.637129 0.126115
0.453204 0.630100 0.127045
0.503861 0.624107 0.128232
0.559348 0.625075 0.132011
0.602854 0.618227 0.132591
0.651112 0.614871 0.134313
0.692794 0.619157 0.138489
0.733209 0.624118 0.142912
0.763037 0.625824 0.145738
0.792245 0.629885 0.149844
0.816792 0.634454 0.154824
0.837807 0.636904 0.158451
0.855228 0.639370 0.162864
0.869721 0.642543 0.168150
0.878728 0.642185 0.173072
0.885705 0.643104 0.178606
0.890573 0.645666 0.185988
0.894193 0.645420 0.199108
0.096218 0.725356 0.116648
0.096494 0.725144 0.116750
0.097512 0.724439 0.117126
0.099500 0.723378 0.117863
0.103121 0.722389 0.119082
0.109045 0.722280 0.120960
0.117223 0.720440 0.122451
0.130535 0.718670 0.124159
0.147783 0.715667 0.125542
0.172028 0.712398 0.126884
0.200360 0.708237 0.127930
0.232459 0.703515 0.129002
0.269764 0.697436 0.129996
0.311202 0.689626 0.131026
0.354918 0.681814 0.131964
0.402915 0.674541 0.133218
0.448240 0.667714 0.134410
0.497117 0.661409 0.135623
0.545151 0.656189 0.137245
0.587390 0.649359 0.137625
0.632929 0.644703 0.138941
0.674852 0.643238 0.141644
0.714937 0.647681 0.145926
0.748203 0.649050 0.148772
0.777625 0.652223 0.152882
0.805972 0.656473 0.157781
0.827740 0.658538 0.161179
0.845921 0.661659 0.165911
0.863369 0.663809 0.170864
0.873882 0.665399 0.175923
0.881641 0.667163 0.181391
0.887115 0.667630 0.187305
0.890921 0.673096 0.199096
0.096992 0.740338 0.118866
0.097247 0.740149 0.118965
0.098185 0.739513 0.119331
0.100006 0.738524 0.120044
0.103349 0.737500 0.121206
0.108629 0.737043 0.122970
0.116975 0.736114 0.124787
0.128047 0.733924 0.126328
0.145257 0.731827 0.128021
0.167861 0.728956 0.129591
0.193369 0.725032 0.131001
0.223466 0.720797 0.132426
0.258496 0.716144 0.133734
0.299199 0.711225 0.134902
0.341367 0.706264 0.136048
0.387449 0.701314 0.137100
0.432433 0.695090 0.138390
0.479624 0.688892 0.139704
0.528314 0.683137 0.140982
0.573194 0.678405 0.142622
0.617309 0.673200 0.143764
0.663091 0.671289 0.146368
0.698262 0.670382 0.149500
0.734308 0.671035 0.152161
0.763891 0.673807 0.156150
0.792682 0.677527 0.160874
0.817744 0.679568 0.164214
0.836847 0.682765 0.169208
0.855284 0.685181 0.173973
0.868935 0.687428 0.178922
0.877756 0.688997 0.184027
0.883594 0.691880 0.190183
0.887867 0.696071 0.198709
0.097794 0.755384 0.121266
0.098032 0.755220 0.121364
0.098905 0.754662 0.121724
0.100608 0.753772 0.122420
0.103740 0.752789 0.123543
0.108519 0.752164 0.125226
0.117261 0.752022 0.127392
0.126852 0.749672 0.128813
0.144467 0.748362 0.131283
0.163274 0.745109 0.132918
0.189092 0.742049 0.134778
0.218813 0.738422 0.136452
0.251072 0.734059 0.137887
0.290080 0.729432 0.139105
0.330840 0.724780 0.140416
0.375280 0.720121 0.141639
0.419676 0.715525 0.142803
0.464861 0.711243 0.144111
0.513930 0.707421 0.145533
0.557820 0.703865 0.146894
0.602984 0.700935 0.148675
0.650676 0.698428 0.151456
0.686719 0.697183 0.154647
0.719674 0.694031 0.156075
0.750812 0.695202 0.159533
0.779993 0.698604 0.164302
0.808047 0.700398 0.167836
0.828092 0.702258 0.172583
0.847227 0.704257 0.177338
0.863285 0.705558 0.181883
0.873661 0.707460 0.187128
0.880331 0.708969 0.192697
0.884936 0.712506 0.200238
0.098790 0.770644 0.124205
0.099014 0.770506 0.124302
0.099836 0.770035 0.124659
0.101550 0.769274 0.125346
0.104463 0.768401 0.126444
0.108856 0.767756 0.128073
0.117626 0.767898 0.130716
0.127082 0.766014 0.132698
0.142305 0.764357 0.135104
0.161950 0.762064 0.137250
0.187397 0.759450 0.139339
0.213772 0.755874 0.141028
0.245182 0.752100 0.142729
0.283777 0.747931 0.144239
0.323613 0.743506 0.145535
0.366405 0.739104 0.146997
0.410769 0.734700 0.148376
0.454735 0.730481 0.149863
0.501772 0.726511 0.151390
0.547428 0.723040 0.153095
0.590523 0.719837 0.154755
0.635892 0.717174 0.156617
0.675827 0.715797 0.159720
0.708307 0.713599 0.160972
0.739699 0.712256 0.163510
0.767738 0.713178 0.168230
0.796868 0.714517 0.171635
0.819531 0.716156 0.176245
0.839433 0.718089 0.180860
0.856465 0.719504 0.185185
0.869702 0.721335 0.190211
0.877165 0.723165 0.195646
0.882131 0.726942 0.202668
0.099468 0.785795 0.126787
0.099681 0.785676 0.126884
0.100461 0.785269 0.127242
0.102169 0.784601 0.127927
0.104909 0.783804 0.129017
0.109003 0.783136 0.130989
0.117076 0.783013 0.133882
0.127379 0.781997 0.136447
0.140829 0.780153 0.138733
0.161594 0.778631 0.141473
0.183535 0.775739 0.143356
0.210901 0.772848 0.145457
0.242246 0.769552 0.147541
0.277585 0.765543 0.149304
0.316377 0.761391 0.150927
0.357882 0.757186 0.152600
0.402483 0.753015 0.154324
0.445657 0.748929 0.155947
0.491493 0.745033 0.157542
0.537380 0.741386 0.159183
0.580234 0.738221 0.160955
0.623822 0.735378 0.162775
0.665480 0.732991 0.164866
0.697539 0.730674 0.166184
0.730731 0.729044 0.169002
0.757510 0.728295 0.172960
0.785404 0.728297 0.175467
0.811100 0.729722 0.179954
0.832012 0.731524 0.184513
0.849822 0.733053 0.188740
0.865707 0.734707 0.193357
0.873927 0.736828 0.198922
0.879598 0.739952 0.204850
0.099057 0.800061 0.127567
0.099261 0.799951 0.127666
0.100006 0.799569 0.128025
0.101567 0.798930 0.128711
0.104164 0.798131 0.129945
0.108015 0.797362 0.131965
0.115056 0.796937 0.134820
0.125786 0.796479 0.138031
0.137781 0.794482 0.140222
0.157107 0.793028 0.143199
0.178356 0.790442 0.145377
0.205884 0.787894 0.147857
0.233173 0.784493 0.150035
0.268195 0.781021 0.152314
0.307779 0.777243 0.154359
0.347003 0.773182 0.156040
0.390206 0.769156 0.157871
0.432867 0.765204 0.159602
0.477621 0.761420 0.161351
0.524588 0.757853 0.163027
0.566663 0.754584 0.164993
0.609410 0.751704 0.167048
0.654453 0.749248 0.169294
0.687296 0.747201 0.171617
0.719954 0.745221 0.174384
0.748905 0.744106 0.178289
0.776055 0.743282 0.180184
0.802109 0.742952 0.183704
0.824567 0.744590 0.188049
0.843434 0.746122 0.192502
0.860338 0.747768 0.196776
0.870884 0.749538 0.201813
0.877191 0.752775 0.207694
0.098747 0.812643 0.128708
0.098944 0.812549 0.128806
0.099660 0.812225 0.129165
0.101104 0.811675 0.130011
0.103581 0.810973 0.131383
0.107233 0.810261 0.133387
0.113446 0.809774 0.136205
0.124853 0.809872 0.140105
0.135835 0.807932 0.142236
0.152637 0.806308 0.145080
0.175346 0.804450 0.148040
0.199205 0.801749 0.150615
0.227899 0.798897 0.153318
0.261408 0.795689 0.155906
0.297942 0.792062 0.157999
0.337175 0.788348 0.160083
0.380210 0.784545 0.162093
0.423289 0.780715 0.164142
0.466618 0.777012 0.166229
0.512764 0.773505 0.168371
0.554907 0.770248 0.170430
0.596954 0.767308 0.172547
0.640422 0.764681 0.174675
0.676812 0.762542 0.177083
0.709640 0.760760 0.179550
0.740471 0.759235 0.183440
0.767814 0.758528 0.185213
0.793609 0.757429 0.188326
0.817248 0.757348 0.191679
0.837209 0.758712 0.195803
0.855217 0.760379 0.200319
0.868036 0.762029 0.204943
0.874821 0.764835 0.210628
0.098173 0.822933 0.129822
0.098364 0.822887 0.129948
0.099060 0.822725 0.130408
0.100384 0.822448 0.131284
0.102765 0.822087 0.132667
0.106275 0.821706 0.134683
0.111734 0.821408 0.137512
0.121924 0.821354 0.141416
0.134287 0.820651 0.144357
0.149291 0.818992 0.147119
0.173568 0.817716 0.151194
0.194723 0.815015 0.153674
0.224696 0.812563 0.156956
0.253506 0.809347 0.159392
0.291861 0.806120 0.162087
0.329949 0.802618 0.164537
0.370359 0.798994 0.167049
0.413183 0.795340 0.169511
0.455847 0.791725 0.171846
0.501115 0.788288 0.174137
0.544409 0.785058 0.176404
0.585962 0.782107 0.178657
0.628435 0.779436 0.180880
0.667429 0.777078 0.183120
0.699449 0.775209 0.185700
0.732305 0.773660 0.188311
0.759725 0.773129 0.189980
0.785723 0.771765 0.193114
0.811430 0.771378 0.196140
0.831209 0.771091 0.199339
0.850181 0.772442 0.203626
0.864933 0.774071 0.208156
0.872775 0.776595 0.213548
0.095236 0.831933 0.127590
0.095429 0.831885 0.127694
0.096129 0.831716 0.128072
0.097461 0.831421 0.128795
0.099564 0.831015 0.130127
0.102949 0.830539 0.132259
0.107940 0.830068 0.135280
0.117085 0.829720 0.139502
0.130156 0.829175 0.143672
0.143396 0.828061 0.146458
0.164614 0.827053 0.150486
0.188367 0.825716 0.154057
0.214620 0.824120 0.157268
0.244870 0.822375 0.160440
0.281331 0.820316 0.163368
0.318164 0.816898 0.166331
0.359541 0.813432 0.169344
0.402669 0.809890 0.172053
0.443455 0.806354 0.174570
0.487463 0.802963 0.177027
0.532294 0.799779 0.179435
0.573526 0.796839 0.181820
0.615830 0.794187 0.184190
0.658523 0.791850 0.186557
