negative-superia-xtra-400/SuperiaXtra400_Classic_ExtraSoft.cube
TITLE "Fuji Superia X-tra 400 Classic ExtraSoft"
# Adobe RGB in/out. REPLACES AgX. Fuji Superia X-tra 400 Classic ExtraSoft.
LUT_3D_SIZE 5
DOMAIN_MIN 0.0 0.0 0.0
DOMAIN_MAX 1.0 1.0 1.0
0.055369 0.061977 0.079302
0.181234 0.072880 0.083733
0.592677 0.095983 0.092316
0.720937 0.118622 0.105755
0.765495 0.167227 0.422248
0.059651 0.123657 0.085065
0.105301 0.141239 0.089174
0.528249 0.170057 0.096923
0.711628 0.219540 0.109071
0.765495 0.167235 0.422245
0.066233 0.453377 0.095402
0.089170 0.489322 0.100937
0.393752 0.504442 0.109794
0.674280 0.523616 0.123075
0.765225 0.536551 0.157242
0.072184 0.659794 0.107443
0.089202 0.669531 0.113752
0.307552 0.680590 0.129942
0.608947 0.684021 0.147721
0.760650 0.696235 0.175547
0.055411 0.736949 0.098628
0.087474 0.760692 0.098668
0.213166 0.765384 0.131108
0.556873 0.762339 0.162983
0.765379 0.767001 0.188578
0.057213 0.070281 0.138448
0.151094 0.080116 0.176934
0.599355 0.104165 0.178570
0.720272 0.128555 0.207505
0.765495 0.167235 0.422286
0.067473 0.123633 0.149285
0.156232 0.154418 0.163701
0.556750 0.184457 0.167800
0.713729 0.232204 0.188097
0.765495 0.167235 0.422245
0.080469 0.445969 0.169704
0.118113 0.469332 0.174640
0.453358 0.492327 0.184960
0.687367 0.522657 0.202804
0.765017 0.541716 0.298806
0.085539 0.656488 0.187908
0.112750 0.663998 0.196974
0.368913 0.674279 0.218827
0.635777 0.680673 0.243720
0.761605 0.696033 0.263661
0.055485 0.741848 0.186571
0.087474 0.764989 0.186566
0.248017 0.764675 0.212196
0.568975 0.762130 0.271531
0.766588 0.767204 0.299585
0.060080 0.089489 0.458149
0.142561 0.104087 0.519970
0.581156 0.132746 0.523687
0.716692 0.170132 0.540501
0.765495 0.167236 0.575470
0.072044 0.154772 0.475025
0.144458 0.180384 0.495521
0.553614 0.226451 0.509642
0.711820 0.280779 0.531765
0.765496 0.167243 0.562122
0.094361 0.453598 0.491381
0.150776 0.471500 0.489496
0.504690 0.508968 0.504526
0.694996 0.530325 0.516044
0.764314 0.558996 0.565168
0.110471 0.655890 0.524505
0.154732 0.661384 0.521800
0.429990 0.670781 0.520615
0.665451 0.679745 0.526770
0.762339 0.697856 0.553312
0.076117 0.758989 0.627731
0.084034 0.765388 0.627730
0.321637 0.763140 0.579424
0.594086 0.762293 0.574952
0.767483 0.768768 0.569167
0.063531 0.127088 0.669845
0.117627 0.153182 0.673201
0.568877 0.197540 0.673986
0.713722 0.245117 0.675818
0.765495 0.167220 0.664334
0.073656 0.214895 0.673565
0.133629 0.248786 0.675891
0.550846 0.302106 0.676585
0.710087 0.347376 0.678257
0.765487 0.167085 0.662344
0.104503 0.486132 0.675101
0.168232 0.502859 0.677470
0.512301 0.526909 0.680638
0.697639 0.548452 0.683331
0.763776 0.581344 0.680863
0.125091 0.661868 0.679872
0.182488 0.666628 0.679778
0.457071 0.675656 0.682230
0.673927 0.685227 0.685861
0.762684 0.702469 0.691494
0.077635 0.760067 0.683968
0.086306 0.767492 0.684107
0.330007 0.765928 0.693701
0.600554 0.765232 0.692934
0.767742 0.771551 0.701593
0.089956 0.196605 0.774708
0.246840 0.210512 0.774794
0.636118 0.252640 0.775265
0.726559 0.279190 0.776424
0.765496 0.219740 0.767984
0.109776 0.277016 0.774538
0.261560 0.293163 0.774639
0.630164 0.333640 0.775152
0.725576 0.358906 0.776301
0.765496 0.236091 0.774403
0.159339 0.513644 0.774352
0.292156 0.519442 0.774566
0.604774 0.534182 0.775167
0.721321 0.547246 0.776276
0.767601 0.577140 0.780069
0.147038 0.670029 0.775669
0.234977 0.672556 0.775881
0.541689 0.678425 0.776470
0.709363 0.684936 0.777494
0.767143 0.703417 0.780041
0.071492 0.755330 0.749522
0.087474 0.768765 0.760947
0.227634 0.774198 0.777024
0.584399 0.771481 0.780268
0.768032 0.775489 0.781302
