negative-superia-xtra-400/SuperiaXtra400_Classic_Punchy.cube
TITLE "Fuji Superia X-tra 400 Classic Punchy"
# Adobe RGB in/out. REPLACES AgX. Fuji Superia X-tra 400 Classic Punchy.
LUT_3D_SIZE 33
DOMAIN_MIN 0.0 0.0 0.0
DOMAIN_MAX 1.0 1.0 1.0
0.069654 0.083313 0.079745
0.069654 0.083313 0.079745
0.071429 0.083313 0.079745
0.076057 0.083389 0.079745
0.082906 0.083605 0.079745
0.093240 0.083979 0.079745
0.106799 0.084810 0.079745
0.123867 0.085921 0.079745
0.147939 0.087707 0.079765
0.178823 0.090270 0.079788
0.214897 0.093071 0.079810
0.256255 0.096399 0.079841
0.299446 0.101558 0.079871
0.345194 0.107979 0.079918
0.394924 0.115839 0.079969
0.448135 0.124818 0.080115
0.504440 0.137879 0.080265
0.551994 0.153426 0.080420
0.597605 0.169950 0.080641
0.644231 0.187716 0.080851
0.680548 0.211154 0.081162
0.715132 0.236152 0.081724
0.749742 0.262828 0.082264
0.773841 0.291331 0.082784
0.796898 0.322924 0.083372
0.819658 0.356442 0.084230
0.842138 0.391917 0.085061
0.860001 0.424697 0.085870
0.874669 0.457723 0.086656
0.889060 0.488230 0.087641
0.901846 0.515388 0.088692
0.911783 0.543092 0.089721
0.921526 0.571356 0.090729
0.069654 0.083313 0.079745
0.069654 0.083313 0.079745
0.071476 0.083324 0.079745
0.076112 0.083445 0.079745
0.082959 0.083688 0.079745
0.093311 0.084138 0.079745
0.106871 0.084961 0.079745
0.123927 0.086168 0.079745
0.148017 0.087899 0.079767
0.178910 0.090540 0.079789
0.214987 0.093367 0.079812
0.256342 0.096648 0.079843
0.299527 0.101960 0.079873
0.345272 0.108450 0.079919
0.395002 0.116336 0.079972
0.448211 0.125504 0.080120
0.504515 0.138536 0.080269
0.552048 0.154169 0.080427
0.597657 0.170675 0.080647
0.644281 0.188630 0.080856
0.680582 0.212070 0.081175
0.715164 0.237073 0.081737
0.749772 0.263758 0.082276
0.773861 0.292313 0.082794
0.796916 0.323915 0.083389
0.819675 0.357441 0.084245
0.842154 0.392925 0.085076
0.860011 0.425552 0.085883
0.874679 0.458574 0.086668
0.889069 0.488882 0.087657
0.901852 0.516027 0.088708
0.911789 0.543718 0.089736
0.921531 0.571986 0.090743
0.069654 0.083440 0.079745
0.069654 0.083456 0.079745
0.071686 0.083548 0.079745
0.076306 0.083716 0.079745
0.083188 0.084008 0.079745
0.093562 0.084645 0.079745
0.107126 0.085446 0.079745
0.124142 0.086987 0.079751
0.148295 0.088867 0.079772
0.179226 0.091466 0.079795
0.215310 0.094393 0.079818
0.256655 0.097770 0.079848
0.299816 0.103375 0.079881
0.345554 0.110117 0.079926
0.395283 0.118101 0.079984
0.448486 0.127952 0.080139
0.504785 0.141142 0.080286
0.552243 0.156830 0.080451
0.597842 0.173276 0.080668
0.644459 0.191912 0.080875
0.680705 0.215365 0.081225
0.715280 0.240383 0.081782
0.749882 0.267100 0.082316
0.773931 0.295840 0.082831
0.796981 0.327475 0.083450
0.819737 0.361034 0.084301
0.842212 0.396511 0.085128
0.860048 0.428625 0.085931
0.874713 0.461632 0.086713
0.889101 0.491221 0.087716
0.901874 0.518318 0.088763
0.911810 0.545965 0.089788
0.921551 0.574244 0.090792
0.069654 0.083953 0.079745
0.069791 0.084003 0.079745
0.072047 0.084187 0.079745
0.076652 0.084487 0.079745
0.083618 0.084986 0.079745
0.094022 0.085590 0.079745
0.107595 0.086933 0.079745
0.124536 0.088390 0.079763
0.148807 0.090735 0.079782
0.179805 0.093186 0.079803
0.215905 0.096148 0.079829
0.257231 0.100579 0.079857
0.300349 0.106148 0.079894
0.346073 0.113174 0.079937
0.395801 0.121274 0.080021
0.448990 0.132406 0.080172
0.505281 0.146128 0.080315
0.552601 0.161700 0.080494
0.598184 0.178038 0.080706
0.644787 0.197952 0.080909
0.680931 0.221433 0.081315
0.715493 0.246483 0.081863
0.750084 0.273254 0.082391
0.774059 0.302341 0.082899
0.797102 0.334036 0.083560
0.819850 0.367652 0.084403
0.842318 0.402277 0.085222
0.860116 0.434276 0.086019
0.874777 0.467254 0.086795
0.889161 0.495513 0.087824
0.901914 0.522525 0.088865
0.911848 0.550090 0.089884
0.921587 0.578392 0.090882
0.069715 0.085382 0.079745
0.070107 0.085424 0.079745
0.072529 0.085595 0.079745
0.077146 0.086150 0.079745
0.084245 0.086901 0.079745
0.094701 0.087795 0.079745
0.108292 0.089311 0.079761
0.125256 0.091185 0.079778
0.149571 0.093310 0.079797
0.180671 0.095911 0.079817
0.216795 0.099617 0.079844
0.258091 0.104485 0.079871
0.301145 0.110786 0.079913
0.346849 0.118107 0.079953
0.396575 0.126957 0.080077
0.449745 0.138952 0.080221
0.506023 0.153515 0.080358
0.553136 0.168923 0.080556
0.598695 0.185107 0.080762
0.645277 0.207001 0.080963
0.681268 0.230523 0.081447
0.715812 0.255659 0.081983
0.750385 0.282479 0.082500
0.774250 0.312090 0.083000
0.797281 0.343872 0.083724
0.820019 0.377573 0.084554
0.842477 0.410894 0.085363
0.860217 0.442719 0.086150
0.874871 0.475589 0.086932
0.889250 0.501907 0.087985
0.901975 0.528793 0.089016
0.911905 0.556239 0.090026
0.921640 0.584577 0.091017
0.070130 0.088192 0.079745
0.070853 0.088298 0.079745
0.073160 0.088670 0.079745
0.077773 0.089328 0.079748
0.085067 0.090253 0.079757
0.095603 0.091407 0.079768
0.109224 0.092818 0.079782
0.126351 0.094786 0.079798
0.150600 0.096886 0.079815
0.181839 0.100676 0.079839
0.217996 0.104924 0.079862
0.259253 0.110676 0.079898
0.302221 0.117289 0.079937
0.347896 0.124822 0.080006
0.397621 0.135924 0.080148
0.450765 0.148972 0.080283
0.507025 0.163371 0.080431
0.553859 0.178573 0.080637
0.599385 0.197216 0.080834
0.645939 0.219254 0.081104
0.681724 0.242830 0.081621
0.716242 0.268081 0.082142
0.750793 0.295291 0.082645
0.774509 0.325307 0.083132
0.797524 0.357204 0.083941
0.820247 0.391017 0.084755
0.842693 0.422504 0.085549
0.860353 0.454110 0.086324
0.874999 0.484355 0.087160
0.889370 0.510499 0.088199
0.902056 0.537219 0.089217
0.911981 0.564508 0.090216
0.921713 0.592900 0.091196
0.071093 0.092814 0.079767
0.071763 0.092914 0.079768
0.074181 0.093267 0.079771
0.078589 0.093901 0.079776
0.086072 0.094812 0.079784
0.096726 0.095977 0.079794
0.110395 0.097491 0.079806
0.127735 0.100420 0.079822
0.151903 0.103672 0.079842
0.183322 0.107883 0.079863
0.219521 0.112873 0.079894
0.260729 0.118942 0.079929
0.303588 0.126164 0.079976
0.349227 0.136260 0.080102
0.398950 0.148248 0.080232
0.452061 0.161565 0.080357
0.508300 0.175713 0.080541
0.554777 0.192181 0.080735
0.600262 0.212776 0.080923
0.646780 0.234880 0.081317
0.682304 0.258584 0.081835
0.716789 0.283942 0.082337
0.751310 0.312027 0.082824
0.774838 0.342187 0.083395
0.797833 0.374226 0.084210
0.820537 0.406547 0.085006
0.842966 0.437035 0.085782
0.860526 0.468570 0.086541
0.875162 0.495419 0.087446
0.889524 0.521349 0.088468
0.902160 0.547865 0.089471
0.912079 0.575070 0.090455
0.921805 0.603427 0.091422
0.072192 0.099115 0.079798
0.072779 0.099255 0.079799
0.075400 0.099757 0.079801
0.079873 0.100665 0.079806
0.087244 0.101991 0.079812
0.098063 0.103723 0.079824
0.111803 0.106104 0.079838
0.129413 0.109356 0.079854
0.153487 0.113117 0.079871
0.185128 0.117847 0.079902
0.221382 0.123004 0.079932
0.262530 0.131013 0.079974
0.305255 0.140140 0.080087
0.350852 0.151442 0.080208
0.400573 0.163619 0.080326
0.453644 0.176653 0.080479
0.509856 0.191990 0.080666
0.555898 0.211178 0.080848
0.601333 0.231848 0.081105
0.647807 0.254070 0.081591
0.683010 0.277908 0.082085
0.717456 0.304095 0.082567
0.751942 0.332585 0.083035
0.775240 0.362913 0.083740
0.798209 0.395117 0.084531
0.820891 0.424567 0.085304
0.843300 0.454742 0.086061
0.860738 0.483741 0.086801
0.875361 0.508810 0.087789
0.889710 0.534489 0.088791
0.902286 0.560766 0.089775
0.912198 0.588057 0.090743
0.921918 0.612482 0.091831
0.073365 0.109715 0.079835
0.074175 0.109868 0.079836
0.076752 0.110412 0.079839
0.081353 0.111405 0.079844
0.088564 0.112913 0.079851
0.099603 0.115151 0.079860
0.113446 0.117930 0.079874
0.131387 0.121227 0.079896
0.155355 0.125703 0.079920
0.187267 0.132109 0.079945
0.223588 0.139273 0.079998
0.264665 0.148463 0.080105
0.307232 0.158570 0.080213
0.352778 0.169570 0.080321
0.402498 0.181448 0.080457
0.455521 0.196732 0.080632
0.511701 0.214549 0.080804
0.557227 0.233821 0.080994
0.602602 0.254619 0.081422
0.649025 0.276999 0.081900
0.683848 0.301576 0.082369
0.718248 0.328458 0.082828
0.752476 0.357140 0.083358
0.775716 0.387658 0.084136
0.798656 0.416753 0.084899
0.821311 0.445624 0.085648
0.843696 0.475625 0.086382
0.860988 0.499764 0.087192
0.875596 0.524537 0.088187
0.889932 0.549933 0.089166
0.902436 0.576073 0.090129
0.912339 0.603347 0.091078
0.922051 0.622932 0.092407
0.075110 0.123460 0.079878
0.075851 0.123613 0.079879
0.078099 0.124426 0.079883
0.082921 0.125924 0.079890
0.090055 0.128149 0.079900
0.101334 0.131130 0.079913
0.115318 0.134881 0.079929
0.133658 0.139422 0.079947
0.157647 0.145579 0.079982
0.189743 0.152660 0.080065
0.226145 0.160659 0.080155
0.267116 0.169571 0.080248
0.309525 0.179385 0.080343
0.355013 0.191425 0.080475
0.404732 0.206501 0.080635
0.457701 0.222978 0.080795
0.513845 0.240882 0.080953
0.558768 0.260317 0.081334
0.604075 0.281272 0.081790
0.650438 0.304544 0.082239
0.684821 0.329878 0.082682
0.719166 0.356973 0.083117
0.753066 0.385865 0.083833
0.776268 0.413785 0.084579
0.799174 0.441313 0.085312
0.821799 0.470004 0.086034
0.844156 0.494340 0.086744
0.861280 0.518141 0.087670
0.875870 0.542590 0.088638
0.890190 0.567674 0.089592
0.902610 0.593950 0.090532
0.912503 0.615784 0.091459
0.922206 0.634875 0.093072
0.076913 0.146109 0.079939
0.077523 0.146357 0.079940
0.080017 0.147249 0.079943
0.084979 0.148886 0.079949
0.092461 0.151327 0.079961
0.103283 0.154611 0.079984
0.117409 0.158765 0.080034
0.136223 0.163807 0.080093
0.160614 0.169747 0.080160
0.192561 0.176589 0.080233
0.229060 0.184334 0.080310
0.269825 0.195159 0.080395
0.312140 0.207604 0.080534
0.357564 0.221394 0.080676
0.407281 0.236557 0.080820
0.460189 0.253160 0.080974
0.516291 0.271251 0.081333
0.560527 0.290942 0.081759
0.605755 0.313094 0.082183
0.651707 0.336931 0.082603
0.685930 0.362490 0.083019
0.720214 0.389810 0.083631
0.753739 0.415790 0.084351
0.776898 0.441889 0.085063
0.799765 0.469183 0.085766
0.822355 0.492638 0.086460
0.844680 0.515404 0.087251
0.861612 0.538844 0.088200
0.876182 0.562945 0.089139
0.890483 0.588121 0.090066
0.902809 0.611052 0.090981
0.912690 0.629556 0.092178
0.922383 0.648275 0.093823
0.078678 0.173279 0.080091
0.079472 0.173518 0.080094
0.082168 0.174375 0.080104
0.087116 0.175950 0.080122
0.095029 0.178301 0.080148
0.105418 0.181465 0.080183
0.119722 0.185477 0.080226
0.139079 0.191748 0.080276
0.163942 0.199193 0.080333
0.195709 0.207859 0.080401
0.232339 0.217779 0.080512
0.272872 0.228986 0.080630
0.315082 0.241511 0.080752
0.360434 0.255433 0.080878
0.410152 0.270764 0.081067
0.462991 0.287574 0.081420
0.518448 0.306602 0.081810
0.562506 0.327335 0.082202
0.607647 0.349718 0.082595
0.653032 0.373788 0.082987
0.687178 0.399133 0.083537
0.721393 0.422805 0.084224
0.754496 0.447414 0.084907
0.777607 0.473301 0.085585
0.800430 0.494718 0.086256
0.822981 0.516393 0.086938
0.845271 0.538770 0.087862
0.861986 0.561833 0.088778
0.876533 0.585943 0.089686
0.890814 0.608822 0.090585
0.903033 0.626669 0.091474
0.912900 0.644760 0.093035
0.922582 0.663084 0.094653
0.081211 0.207549 0.080293
0.081929 0.207852 0.080296
0.084633 0.208940 0.080304
0.089292 0.210943 0.080319
0.097735 0.213940 0.080341
0.108290 0.217993 0.080370
0.122259 0.223152 0.080421
0.142222 0.229462 0.080491
0.167631 0.236962 0.080571
0.199151 0.245689 0.080660
0.235985 0.255726 0.080756
0.276260 0.267065 0.080859
0.318356 0.279736 0.080981
0.363703 0.294051 0.081248
0.413349 0.310280 0.081590
0.466111 0.328049 0.081941
0.520757 0.347396 0.082298
0.564708 0.368360 0.082659
0.609752 0.390977 0.083023
0.654505 0.412663 0.083555
0.688566 0.434727 0.084202
0.722705 0.457929 0.084850
0.755339 0.480816 0.085496
0.778396 0.500608 0.086139
0.801171 0.521144 0.086779
0.823678 0.542409 0.087631
0.845928 0.564386 0.088519
0.862402 0.587472 0.089401
0.876924 0.609148 0.090277
0.891182 0.626272 0.091146
0.903282 0.643674 0.092399
0.913135 0.661337 0.093978
0.922804 0.679250 0.095558
0.083839 0.249387 0.080543
0.084632 0.249694 0.080546
0.087277 0.250796 0.080557
0.092339 0.252824 0.080579
0.100558 0.255859 0.080610
0.111421 0.259963 0.080651
0.125070 0.265187 0.080702
0.145644 0.271575 0.080762
0.171682 0.279168 0.080831
0.202934 0.288069 0.080908
0.240002 0.298613 0.081036
0.279993 0.310628 0.081257
0.321964 0.324078 0.081541
0.367322 0.339001 0.081838
0.416877 0.355436 0.082148
0.469555 0.373421 0.082466
0.523302 0.392992 0.082793
0.567135 0.411718 0.083124
0.612074 0.431135 0.083685
0.656129 0.451665 0.084287
0.690097 0.473463 0.084893
0.724152 0.491698 0.085502
0.756268 0.510294 0.086111
0.779266 0.529658 0.086721
0.801988 0.549773 0.087511
0.824447 0.570629 0.088364
0.846654 0.592737 0.089215
0.862861 0.612053 0.090063
0.877356 0.628398 0.090907
0.891589 0.645052 0.091924
0.903557 0.661999 0.093452
0.913394 0.679225 0.094994
0.923049 0.696715 0.096535
0.086817 0.296221 0.080830
0.087517 0.296546 0.080833
0.089874 0.297713 0.080843
0.095786 0.299862 0.080861
0.103530 0.303079 0.080887
0.114728 0.307432 0.080923
0.129130 0.312975 0.080979
0.149448 0.319760 0.081092
0.176093 0.327831 0.081244
0.207417 0.337232 0.081444
0.244392 0.348003 0.081663
0.284073 0.360184 0.081901
0.325910 0.373812 0.082154
0.371282 0.388927 0.082422
0.420739 0.404296 0.082702
0.473326 0.419937 0.082992
0.526084 0.436599 0.083383
0.569791 0.454486 0.083924
0.614615 0.473627 0.084476
0.657904 0.489774 0.085036
0.691771 0.506351 0.085603
0.725735 0.523732 0.086175
0.757284 0.541900 0.086749
0.780217 0.560840 0.087507
0.802882 0.580786 0.088320
0.825288 0.601740 0.089134
0.847447 0.617528 0.089948
0.863364 0.633046 0.090761
0.877828 0.648905 0.091610
0.892034 0.665087 0.093084
0.903858 0.681576 0.094580
0.913677 0.698358 0.096080
0.923317 0.715376 0.097581
0.089685 0.350026 0.081303
0.090509 0.350356 0.081310
0.093787 0.351541 0.081335
0.099274 0.353723 0.081381
0.106909 0.356988 0.081448
0.118196 0.361405 0.081539
0.133463 0.367030 0.081652
0.153610 0.373913 0.081787
0.180864 0.382099 0.081944
0.212333 0.391630 0.082120
0.249158 0.401692 0.082315
0.288502 0.412321 0.082527
0.330209 0.424113 0.082755
0.375587 0.436965 0.082996
0.424938 0.451029 0.083312
0.477428 0.466318 0.083780
0.529106 0.481151 0.084265
0.572676 0.494824 0.084764
0.617375 0.509340 0.085276
0.659832 0.524686 0.085798
0.693590 0.540847 0.086328
0.727456 0.557810 0.086867
0.758387 0.575687 0.087619
0.781251 0.594675 0.088386
0.803853 0.611263 0.089159
0.826203 0.625532 0.089934
0.848311 0.640188 0.090712
0.863910 0.655213 0.091491
0.878342 0.670590 0.092879
0.892518 0.686302 0.094323
0.904186 0.702333 0.095774
0.913986 0.718613 0.097230
0.923609 0.735166 0.098926
0.093836 0.407404 0.082049
0.094707 0.407692 0.082055
0.097710 0.408727 0.082077
0.102819 0.410630 0.082117
0.111005 0.413477 0.082177
0.121853 0.417322 0.082257
0.138059 0.422196 0.082356
0.158300 0.428069 0.082476
0.185992 0.435033 0.082614
0.217634 0.443116 0.082771
0.254302 0.452339 0.082946
0.293281 0.462723 0.083136
0.334870 0.474286 0.083473
0.380239 0.484393 0.083860
0.429477 0.495127 0.084270
0.481863 0.506723 0.084699
0.532368 0.519171 0.085145
0.575792 0.532465 0.085607
0.620358 0.546592 0.086082
0.661913 0.561542 0.086568
0.695554 0.577472 0.087137
0.729314 0.594445 0.087845
0.759579 0.609715 0.088563
0.782368 0.622642 0.089290
0.804902 0.635999 0.090023
0.827191 0.649769 0.090761
0.849243 0.663933 0.091504
0.864501 0.678474 0.092840
0.878897 0.693377 0.094226
0.893040 0.708611 0.095622
0.904540 0.724120 0.097027
0.914319 0.739942 0.098607
0.923924 0.756062 0.100419
0.098047 0.461819 0.082756
0.098845 0.462101 0.082762
0.101608 0.463111 0.082781
0.106701 0.464970 0.082817
0.115210 0.467749 0.082869
0.125997 0.471503 0.082940
0.142908 0.476069 0.083029
0.164033 0.480578 0.083135
0.191475 0.485910 0.083327
0.223320 0.492077 0.083576
0.259824 0.499089 0.083854
0.298412 0.506951 0.084158
0.339877 0.515665 0.084488
0.385241 0.525230 0.084841
0.434359 0.535646 0.085216
0.486634 0.546908 0.085610
0.535872 0.559009 0.086021
0.579139 0.571979 0.086449
0.623563 0.586077 0.086893
0.664147 0.601019 0.087530
0.697663 0.612894 0.088182
0.731310 0.624413 0.088848
0.760858 0.636399 0.089525
0.783567 0.648837 0.090212
0.806030 0.661708 0.090908
0.828253 0.674995 0.091680
0.850246 0.688682 0.092969
0.865136 0.702753 0.094292
0.879494 0.717142 0.095628
0.893603 0.731868 0.096977
0.904920 0.746929 0.098476
0.914677 0.762312 0.100223
0.924263 0.778002 0.101987
0.102199 0.509246 0.083629
0.102957 0.509459 0.083638
0.105592 0.510220 0.083668
0.111432 0.511620 0.083724
0.119521 0.513712 0.083808
0.131494 0.516534 0.083920
0.148039 0.520114 0.084060
0.170123 0.524476 0.084229
0.197263 0.529636 0.084427
0.229391 0.535608 0.084652
0.265725 0.542401 0.084903
0.303894 0.550022 0.085180
0.345231 0.558475 0.085481
0.390594 0.567761 0.085804
0.439585 0.578062 0.086148
0.491744 0.589283 0.086510
0.539616 0.601356 0.086895
0.582718 0.611138 0.087451
0.626992 0.620705 0.088028
0.666536 0.630783 0.088623
0.699919 0.641358 0.089235
0.733446 0.652415 0.089861
0.762226 0.663937 0.090500
0.784850 0.675909 0.091151
0.807236 0.688314 0.092042
0.829390 0.701138 0.093265
0.851244 0.714327 0.094520
0.865815 0.727881 0.095792
0.880133 0.741806 0.097080
0.894205 0.756086 0.098534
0.905327 0.770709 0.100212
0.915061 0.785660 0.101910
0.924626 0.798304 0.103627
0.106628 0.555165 0.084770
0.107529 0.555370 0.084777
0.110689 0.556107 0.084805
0.116216 0.557463 0.084855
0.123973 0.559488 0.084931
0.137214 0.562221 0.085031
0.153627 0.565689 0.085158
0.176565 0.569915 0.085311
0.203324 0.575028 0.085490
0.235847 0.580962 0.085695
0.271779 0.587718 0.085924
0.309727 0.595302 0.086176
0.350932 0.603722 0.086451
0.396299 0.610234 0.086748
0.445159 0.617265 0.087138
0.497207 0.624843 0.087609
0.543602 0.632957 0.088104
0.586530 0.641598 0.088622
0.630646 0.650753 0.089161
0.669077 0.660409 0.089718
0.702321 0.670555 0.090292
0.735721 0.681176 0.090882
0.763682 0.692257 0.091485
0.786216 0.703786 0.092568
0.808520 0.715704 0.093725
0.830601 0.728029 0.094908
0.852012 0.740755 0.096112
0.866538 0.753869 0.097336
0.880814 0.767357 0.098781
0.894847 0.781204 0.100386
0.905762 0.795398 0.102014
0.915470 0.802991 0.103664
0.925014 0.810672 0.105421
0.111998 0.603355 0.085866
0.112845 0.603559 0.085873
0.115819 0.604157 0.085898
0.121078 0.605102 0.085944
0.129981 0.606513 0.086012
0.143146 0.608415 0.086103
0.160012 0.610826 0.086219
0.183355 0.613759 0.086358
0.210345 0.617225 0.086521
0.242686 0.621230 0.086707
0.278159 0.625777 0.086931
0.315912 0.630868 0.087256
0.356981 0.636502 0.087611
0.402358 0.642675 0.087995
0.451079 0.649383 0.088406
0.503035 0.656620 0.088843
0.547829 0.664377 0.089303
0.590575 0.672646 0.089786
0.634524 0.681418 0.090290
0.671772 0.690680 0.090812
0.704868 0.700422 0.091352
0.738135 0.710611 0.092217
0.765227 0.721230 0.093262
0.787666 0.732290 0.094345
0.809884 0.743776 0.095453
0.831887 0.755676 0.096586
0.852829 0.767978 0.097742
0.867307 0.780668 0.099217
0.881537 0.793733 0.100744
0.895529 0.801554 0.102298
0.906223 0.808693 0.103877
0.915905 0.815949 0.105624
0.925425 0.823312 0.107898
0.117358 0.638230 0.086939
0.118155 0.638366 0.086948
0.120991 0.638855 0.086980
0.126507 0.639752 0.087039
0.136484 0.641093 0.087126
0.149384 0.642901 0.087243
0.167417 0.645193 0.087391
0.190488 0.647984 0.087569
0.217764 0.651282 0.087779
0.249909 0.655095 0.088019
0.284895 0.659428 0.088290
0.322447 0.664282 0.088590
0.363447 0.669657 0.088918
0.408772 0.675551 0.089273
0.457349 0.681962 0.089655
0.509210 0.688884 0.090061
0.552296 0.696310 0.090490
0.594852 0.704235 0.090941
0.638634 0.712618 0.091413
0.674620 0.721474 0.092210
0.707562 0.730796 0.093140
0.740688 0.740576 0.094112
0.766859 0.750802 0.095116
0.789199 0.761463 0.096149
0.811327 0.772547 0.097209
0.833247 0.784043 0.098423
0.853695 0.795695 0.099838
0.868120 0.802105 0.101285
0.882302 0.808662 0.102761
0.896250 0.815358 0.104265
0.906712 0.822184 0.106067
0.916366 0.829132 0.108248
0.925861 0.836204 0.110472
0.122762 0.673204 0.088374
0.123526 0.673334 0.088382
0.126787 0.673799 0.088412
0.133500 0.674654 0.088465
0.143164 0.675931 0.088545
0.156030 0.677653 0.088653
0.175158 0.679838 0.088789
0.197899 0.682498 0.088953
0.225566 0.685644 0.089146
0.257512 0.689282 0.089368
0.291985 0.693418 0.089618
0.329339 0.698054 0.089895
0.370375 0.703192 0.090200
0.415541 0.708816 0.090530
0.463969 0.714926 0.090884
0.515731 0.721528 0.091263
0.557003 0.728617 0.091776
0.599361 0.736187 0.092542
0.642969 0.744231 0.093358
0.677620 0.752741 0.094214
0.710400 0.761709 0.095106
0.743380 0.771125 0.096031
0.768579 0.780980 0.096988
0.790814 0.791264 0.098015
0.812848 0.798847 0.099308
0.834682 0.804626 0.100638
0.854608 0.810572 0.102002
0.868978 0.816675 0.103399
0.883110 0.822929 0.104827
0.897012 0.829326 0.106750
0.907227 0.835864 0.108833
0.916853 0.842527 0.110964
0.926322 0.849308 0.113139
0.129529 0.708401 0.089767
0.130545 0.708524 0.089775
0.134155 0.708966 0.089802
0.140643 0.709778 0.089851
0.150152 0.710992 0.089925
0.164186 0.712629 0.090024
0.183229 0.714706 0.090149
0.205754 0.717236 0.090301
0.233750 0.720229 0.090480
0.265496 0.723692 0.090685
0.299428 0.727630 0.090917
0.336623 0.732047 0.091174
0.377664 0.736944 0.091457
0.422665 0.742322 0.091958
0.470939 0.748177 0.092558
0.521120 0.754509 0.093210
0.561949 0.761313 0.093906
0.604101 0.768584 0.094644
0.647529 0.776317 0.095419
0.680772 0.784504 0.096232
0.713384 0.793139 0.097081
0.746210 0.798976 0.097999
0.770387 0.803922 0.099163
0.792513 0.809058 0.100368
0.814448 0.814376 0.101612
0.836192 0.819868 0.102893
0.855568 0.825527 0.104208
0.869881 0.831349 0.105734
0.883960 0.837326 0.107667
0.897814 0.843446 0.109652
0.907770 0.849700 0.111686
0.917367 0.856082 0.113831
0.926806 0.862583 0.116511
0.137186 0.743678 0.091121
0.138166 0.743796 0.091128
0.141652 0.744218 0.091153
0.147967 0.744995 0.091199
0.157653 0.746156 0.091267
0.172837 0.747721 0.091359
0.191624 0.749708 0.091475
0.214524 0.752129 0.091689
0.242313 0.754994 0.091990
0.273555 0.758309 0.092335
0.307221 0.762082 0.092727
0.344258 0.766315 0.093170
0.385312 0.771010 0.093659
0.430145 0.776168 0.094192
0.478260 0.781789 0.094768
0.526535 0.787870 0.095387
0.567132 0.794409 0.096046
0.609071 0.798552 0.096745
0.651898 0.802429 0.097482
0.684074 0.806518 0.098372
0.716512 0.810813 0.099402
0.749179 0.815307 0.100476
0.772281 0.819995 0.101593
0.794294 0.824869 0.102751
0.816125 0.829926 0.103948
0.837777 0.835160 0.105211
0.856575 0.840559 0.106985
0.870828 0.846115 0.108815
0.884852 0.851821 0.110699
0.898592 0.857670 0.112635
0.908340 0.863655 0.114904
0.917906 0.869768 0.117471
0.927316 0.874681 0.120108
0.144954 0.779165 0.093194
0.145901 0.779277 0.093206
0.149376 0.779682 0.093249
0.155763 0.780426 0.093328
0.166846 0.781538 0.093445
0.181803 0.783038 0.093603
0.200233 0.784942 0.093804
0.223669 0.787262 0.094047
0.251253 0.790009 0.094334
0.281924 0.793189 0.094665
0.315363 0.796151 0.095040
0.352243 0.798275 0.095458
0.393320 0.800626 0.095919
0.437980 0.803203 0.096423
0.485932 0.806004 0.096968
0.532192 0.809027 0.097554
0.572551 0.812267 0.098275
0.614271 0.815721 0.099121
0.655548 0.819385 0.100015
0.687525 0.823253 0.100957
0.719783 0.827320 0.101944
0.752200 0.831588 0.102975
0.774261 0.836045 0.104047
0.796156 0.840684 0.105183
0.817881 0.845498 0.106792
0.839435 0.850482 0.108462
0.857630 0.855627 0.110189
0.871819 0.860929 0.111971
0.885786 0.866380 0.113881
0.899226 0.871902 0.116259
0.908936 0.875851 0.118711
0.918470 0.879882 0.121235
0.927849 0.883989 0.123829
0.153115 0.805547 0.095589
0.154078 0.805603 0.095601
0.157645 0.805804 0.095641
0.165207 0.806174 0.095715
0.176339 0.806726 0.095826
0.191076 0.807470 0.095975
0.209641 0.808414 0.096164
0.233188 0.809563 0.096393
0.260568 0.810922 0.096664
0.290639 0.812493 0.096976
0.323850 0.814278 0.097329
0.360574 0.816279 0.097725
0.401686 0.818495 0.098252
0.446170 0.820925 0.098860
0.493955 0.823568 0.099519
0.538089 0.826422 0.100229
0.578204 0.829487 0.100989
0.619699 0.832760 0.101798
0.659351 0.836234 0.102654
0.691124 0.839906 0.103555
0.723196 0.843770 0.104502
0.754400 0.847823 0.105642
0.776327 0.852057 0.107086
0.798100 0.856469 0.108591
