negative-superia-xtra-400/SuperiaXtra400_Modern_ExtraPunchy.cube
TITLE "Fuji Superia X-tra 400 Modern ExtraPunchy"
# Adobe RGB in/out. REPLACES AgX. Fuji Superia X-tra 400 Modern ExtraPunchy.
LUT_3D_SIZE 9
DOMAIN_MIN 0.0 0.0 0.0
DOMAIN_MAX 1.0 1.0 1.0
0.069662 0.073299 0.081842
0.073854 0.072844 0.081842
0.302286 0.086586 0.081842
0.652678 0.149969 0.081842
0.824820 0.308347 0.078250
0.904806 0.491337 0.078766
0.946606 0.634361 0.079996
0.964139 0.735216 0.081448
0.977910 0.808491 0.084408
0.069662 0.075480 0.081842
0.069384 0.074063 0.081842
0.183687 0.091202 0.081842
0.590584 0.162631 0.081842
0.800869 0.325849 0.078263
0.894489 0.505947 0.078763
0.942021 0.642686 0.079999
0.962532 0.741816 0.081456
0.976736 0.813226 0.084449
0.068107 0.227141 0.081842
0.076385 0.180012 0.081842
0.147752 0.146812 0.081842
0.461122 0.221984 0.081354
0.732638 0.389690 0.078138
0.865803 0.551836 0.078799
0.928197 0.669826 0.080050
0.957446 0.760677 0.081517
0.972919 0.828056 0.084660
0.072481 0.571894 0.078176
0.086309 0.536170 0.078046
0.207469 0.449768 0.078509
0.434974 0.423552 0.078480
0.669436 0.502222 0.078263
0.831434 0.622423 0.078985
0.910572 0.718904 0.080278
0.950327 0.794218 0.081752
0.967254 0.850021 0.085255
0.081004 0.771448 0.079524
0.105503 0.756543 0.079376
0.261547 0.714352 0.079034
0.490698 0.678108 0.078900
0.665911 0.673959 0.079015
0.799081 0.714011 0.079655
0.887745 0.781423 0.080835
0.937930 0.838203 0.082826
0.961215 0.880586 0.086493
0.098660 0.881358 0.081458
0.134302 0.876131 0.081344
0.298258 0.857150 0.081041
0.524766 0.837047 0.080781
0.684543 0.826572 0.080783
0.799315 0.829997 0.081127
0.873217 0.848806 0.081978
0.927314 0.883753 0.084813
0.956030 0.909930 0.088889
0.130961 0.934952 0.085763
0.168909 0.932467 0.085548
0.327857 0.925030 0.084942
0.544456 0.915903 0.084333
0.695075 0.908854 0.084186
0.805338 0.907375 0.084787
0.873194 0.912717 0.086180
0.920539 0.922667 0.088437
0.952235 0.940957 0.093328
0.167794 0.962271 0.092134
0.207487 0.961401 0.091962
0.352679 0.958702 0.091470
0.553983 0.955142 0.090967
0.697452 0.952220 0.090889
0.806111 0.951191 0.091575
0.872883 0.952688 0.093178
0.919604 0.956704 0.096460
0.949886 0.962809 0.101353
0.207357 0.973675 0.100029
0.247621 0.973493 0.099927
0.372800 0.972923 0.099695
0.556625 0.972158 0.099547
0.693576 0.971538 0.099827
0.801637 0.971388 0.101360
0.869568 0.971920 0.104510
0.917206 0.973197 0.109322
0.948335 0.975155 0.115955
0.069662 0.073299 0.080649
0.075094 0.072360 0.080811
0.302245 0.087366 0.081063
0.636365 0.145072 0.081251
0.814187 0.295721 0.082118
0.899284 0.478781 0.083978
0.944039 0.626174 0.086855
0.963239 0.730121 0.090899
0.977273 0.805508 0.096155
0.069662 0.074365 0.078899
0.068090 0.072322 0.079123
0.166024 0.089302 0.079052
0.570022 0.154077 0.080362
0.789389 0.310476 0.081458
0.888875 0.492455 0.083477
0.939443 0.635898 0.086475
0.961633 0.736988 0.090583
0.976104 0.810231 0.095938
0.067896 0.196625 0.081252
0.074006 0.155121 0.079842
0.122982 0.125445 0.078613
0.417406 0.197221 0.079254
0.714997 0.366563 0.080574
0.860092 0.540333 0.082295
0.925632 0.662698 0.085505
0.956561 0.756538 0.089763
0.972304 0.825821 0.095390
0.071822 0.545039 0.083302
0.083849 0.501521 0.081754
0.187548 0.418763 0.080375
0.401575 0.393177 0.079774
0.654995 0.480078 0.080370
0.823125 0.609380 0.081687
0.906831 0.711383 0.084872
0.949491 0.790030 0.089234
0.966680 0.847836 0.095150
0.080020 0.759796 0.086714
0.101758 0.745195 0.085620
0.247895 0.700442 0.083223
0.475564 0.664537 0.081643
0.655598 0.661587 0.081453
0.792907 0.704896 0.082427
0.884658 0.775994 0.085491
0.936487 0.835305 0.089952
0.960717 0.879165 0.096092
0.096837 0.877473 0.091883
0.131368 0.870754 0.090982
0.291375 0.851960 0.088465
0.516084 0.831967 0.086530
0.678573 0.821309 0.085617
0.794952 0.825680 0.085920
0.871058 0.845701 0.087588
0.926228 0.882098 0.092428
0.955641 0.908778 0.098843
0.129301 0.932899 0.098818
0.166255 0.930440 0.098152
0.323527 0.923070 0.096190
0.539432 0.914009 0.093860
0.691720 0.906781 0.092624
0.802802 0.905473 0.092672
0.871720 0.911148 0.094246
0.919839 0.921701 0.097662
0.951975 0.940272 0.105759
0.166253 0.961526 0.109112
0.205635 0.960665 0.108529
0.350194 0.957993 0.106778
0.551113 0.954469 0.104647
0.695610 0.951589 0.103256
0.804735 0.950619 0.103492
0.872075 0.952204 0.105810
0.919176 0.956335 0.110271
0.949735 0.962568 0.117057
0.206321 0.973510 0.119904
0.246296 0.973330 0.119583
0.371369 0.972767 0.118631
0.555091 0.972014 0.117568
0.692638 0.971409 0.117203
0.800970 0.971278 0.118293
0.869198 0.971834 0.121351
0.917029 0.973141 0.126612
0.948237 0.975132 0.134083
0.069662 0.073299 0.306717
0.075094 0.072601 0.309061
0.319711 0.092088 0.317525
0.659875 0.162722 0.290055
0.812414 0.301249 0.242265
0.894466 0.472754 0.226959
0.940501 0.617504 0.223080
0.961649 0.722535 0.224307
0.975953 0.800066 0.228500
0.069662 0.082108 0.311256
0.075791 0.086815 0.296392
0.241887 0.103401 0.219090
0.584104 0.166664 0.204686
0.784852 0.310964 0.204482
0.883318 0.483628 0.207391
0.935711 0.626091 0.211754
0.960006 0.728968 0.217351
0.974773 0.804644 0.224025
0.067465 0.149239 0.172993
0.071917 0.126418 0.128996
0.091071 0.101808 0.088919
0.380254 0.181284 0.112113
0.696482 0.347119 0.139564
0.852254 0.522924 0.163098
0.921317 0.652220 0.181709
0.954825 0.749272 0.197508
0.970949 0.820844 0.210883
0.070488 0.471968 0.209559
0.079262 0.435844 0.176048
0.153394 0.354874 0.124707
0.336985 0.327118 0.103366
0.620008 0.441364 0.113202
0.807225 0.586342 0.133357
0.899212 0.697133 0.155639
0.946500 0.781454 0.175370
0.965319 0.843010 0.194950
0.077571 0.728420 0.226263
0.094257 0.711545 0.207289
0.217783 0.668782 0.163547
0.432263 0.632635 0.132026
0.623583 0.630942 0.120061
0.778262 0.684064 0.125691
0.877213 0.763416 0.143213
0.932913 0.828438 0.163064
0.959439 0.874934 0.183647
0.093236 0.862637 0.233788
0.123623 0.856326 0.222840
0.273578 0.838393 0.193564
0.493732 0.817537 0.163708
0.662765 0.804174 0.145990
0.783099 0.811172 0.139136
0.865290 0.837609 0.144466
0.923270 0.877729 0.161813
0.954565 0.905705 0.181579
0.124506 0.926942 0.238462
0.159429 0.924589 0.232187
0.311262 0.917495 0.214072
0.525287 0.908174 0.191933
0.682209 0.900986 0.173841
0.795511 0.900093 0.165209
0.867421 0.906548 0.164380
0.917816 0.918988 0.170500
0.951214 0.938333 0.190133
0.162015 0.959262 0.242054
0.200150 0.958434 0.238596
0.342693 0.955863 0.227894
0.542504 0.952470 0.214010
0.690085 0.949729 0.201504
0.800593 0.948931 0.193836
0.869622 0.950764 0.192597
0.917866 0.955233 0.197922
0.949267 0.961849 0.209138
0.203129 0.972989 0.244436
0.242107 0.972817 0.242712
0.366850 0.972280 0.237267
0.550267 0.971568 0.229755
0.689696 0.971012 0.223038
0.798880 0.970941 0.219458
0.868039 0.971573 0.220449
0.916469 0.972972 0.226693
0.947926 0.975068 0.238624
0.069662 0.072332 0.720472
0.075094 0.075784 0.721313
0.319711 0.098830 0.724326
0.689648 0.197322 0.729841
0.835517 0.351632 0.677580
0.899789 0.498380 0.621861
0.940708 0.625651 0.590290
0.961025 0.723343 0.565680
0.975073 0.798411 0.547335
0.069662 0.086764 0.722097
0.076466 0.093999 0.722937
0.326485 0.133679 0.725944
0.658203 0.231234 0.692511
0.806354 0.359491 0.631232
0.887890 0.506986 0.596820
0.935634 0.632897 0.573029
0.959309 0.729111 0.554680
0.973860 0.802700 0.540366
0.067526 0.165681 0.590338
0.073539 0.161103 0.549511
0.158634 0.169736 0.478278
0.463705 0.241672 0.473194
0.713948 0.382183 0.499603
0.853675 0.536371 0.515301
0.920190 0.653605 0.521152
0.953873 0.747572 0.521522
0.969924 0.817925 0.518654
0.069495 0.412442 0.535188
0.076288 0.385607 0.496160
0.134533 0.319136 0.372788
0.272179 0.265908 0.241789
0.604806 0.430076 0.339241
0.799870 0.579767 0.406697
0.894682 0.691360 0.446057
0.943777 0.776789 0.470033
0.964134 0.839742 0.483144
0.075513 0.686729 0.551909
0.087520 0.673114 0.530313
0.189852 0.636481 0.458133
0.386893 0.592692 0.370044
0.586249 0.589787 0.317961
0.760512 0.664987 0.344123
0.870170 0.752781 0.391300
0.929464 0.822569 0.425057
0.958128 0.870591 0.447882
0.088590 0.843620 0.551740
0.113885 0.838077 0.539311
0.248274 0.821667 0.501058
0.466795 0.797068 0.439601
0.640499 0.783964 0.389821
0.766818 0.792330 0.362333
0.858468 0.828571 0.371998
0.919803 0.871104 0.403432
0.953292 0.902397 0.427237
0.117940 0.918763 0.540407
0.150371 0.916621 0.533317
0.295096 0.909767 0.511289
0.506894 0.900401 0.472234
0.669806 0.893641 0.434717
0.785843 0.893182 0.409378
0.861636 0.900564 0.398578
0.915188 0.915669 0.403719
0.950218 0.935983 0.423520
0.156039 0.956001 0.524096
0.192162 0.955239 0.520150
0.331421 0.952862 0.507509
0.530438 0.949720 0.482990
0.682390 0.947222 0.457924
0.794820 0.946667 0.438690
0.866175 0.948820 0.428359
0.916003 0.953747 0.427212
0.948433 0.960926 0.433674
0.198304 0.972210 0.505467
0.235803 0.972053 0.502645
0.360063 0.971564 0.493486
0.543082 0.970922 0.479973
0.685348 0.970449 0.465818
0.795807 0.970471 0.454590
0.866338 0.971213 0.448670
0.915642 0.972746 0.448984
0.947468 0.974995 0.455203
0.069662 0.076994 0.898094
0.075094 0.082264 0.898294
0.319711 0.110181 0.899010
0.689648 0.225694 0.900322
0.859674 0.433101 0.895791
0.912536 0.549951 0.854493
0.945107 0.649481 0.821679
0.961811 0.735599 0.792080
0.975075 0.803003 0.770031
0.069662 0.096005 0.898480
0.076466 0.104629 0.898680
0.326485 0.154445 0.899395
0.691959 0.298550 0.900705
0.841867 0.441305 0.875617
0.901404 0.555803 0.840585
0.939878 0.654476 0.808821
0.960034 0.740744 0.783975
0.973824 0.806969 0.764750
0.067984 0.267509 0.889835
0.079380 0.272501 0.880058
0.265120 0.298441 0.853593
0.576213 0.362389 0.825402
0.762983 0.461879 0.799546
0.865874 0.574048 0.782624
0.923674 0.671475 0.769845
0.954348 0.754881 0.758609
0.969745 0.821037 0.744746
0.069384 0.415920 0.773930
0.076434 0.405811 0.758794
0.155483 0.384277 0.708756
0.388138 0.404917 0.670091
0.648741 0.494039 0.676720
0.811387 0.606318 0.696010
0.897127 0.702435 0.708681
0.943687 0.780616 0.714076
0.963693 0.840511 0.713709
0.073955 0.655360 0.757332
0.084149 0.645607 0.742049
0.172437 0.612888 0.696530
0.362517 0.575018 0.626046
0.545040 0.552374 0.553887
0.752988 0.661615 0.611021
0.867680 0.751779 0.647532
0.927873 0.821269 0.670902
0.957350 0.869363 0.683367
0.085165 0.824724 0.755928
0.105257 0.819296 0.746390
0.224349 0.801139 0.716808
0.436044 0.779309 0.674923
0.616473 0.765647 0.627319
0.744860 0.773555 0.601217
0.852425 0.820997 0.615324
0.916990 0.866605 0.638779
0.952259 0.900314 0.655780
0.110965 0.909433 0.745391
0.140668 0.907330 0.739660
0.278066 0.900861 0.721352
0.487885 0.892540 0.695084
0.656950 0.886375 0.664260
0.775552 0.886169 0.638304
0.855326 0.894370 0.625896
0.912534 0.912651 0.630251
0.949236 0.933992 0.643929
0.149177 0.952251 0.727515
0.182857 0.951582 0.724176
0.318413 0.949493 0.713281
0.516918 0.946728 0.696984
0.673855 0.944574 0.678408
0.788439 0.944303 0.659151
0.862325 0.946785 0.646902
0.913908 0.952203 0.642523
0.947188 0.960222 0.645248
0.192351 0.971285 0.705514
0.228252 0.971149 0.703687
0.351938 0.970727 0.697649
0.534558 0.970185 0.688390
0.680242 0.969826 0.676688
0.792240 0.969967 0.664909
0.864371 0.970838 0.656963
0.914688 0.972526 0.653833
0.946949 0.974953 0.655234
0.069662 0.086076 0.962736
0.075094 0.092967 0.962809
0.319711 0.131546 0.963072
0.689648 0.265923 0.963554
0.866768 0.483555 0.964272
0.923156 0.604608 0.949011
0.950434 0.682272 0.929992
0.963737 0.754157 0.908667
0.975930 0.813820 0.892436
0.069662 0.111129 0.962877
0.076466 0.123487 0.962951
0.326485 0.182957 0.963213
0.691959 0.336948 0.963695
0.864222 0.533581 0.962646
0.915729 0.611314 0.943154
0.946895 0.687139 0.923153
0.961941 0.757902 0.904152
0.974654 0.817525 0.889396
0.068107 0.329133 0.963385
0.082509 0.352558 0.963458
0.350342 0.432248 0.963720
0.653891 0.484957 0.949831
0.804789 0.555873 0.936219
0.883594 0.631451 0.916840
0.930599 0.703253 0.901723
0.956141 0.770866 0.889678
0.970469 0.828588 0.875956
0.070017 0.494632 0.918479
0.079857 0.494170 0.914019
0.206616 0.500355 0.901606
0.496325 0.532504 0.888413
0.703676 0.584950 0.876403
0.837884 0.657351 0.870016
0.906499 0.730976 0.865652
0.946560 0.794013 0.860999
0.964172 0.846128 0.855291
0.073608 0.651262 0.878823
0.083318 0.645995 0.872425
0.176086 0.630718 0.852979
0.395434 0.618498 0.826255
0.614429 0.639342 0.804873
0.776707 0.696742 0.809724
0.873182 0.766964 0.822031
0.929228 0.827972 0.830486
0.957419 0.872680 0.833528
0.082822 0.806599 0.868487
0.098738 0.802104 0.863744
0.207983 0.788484 0.848517
0.418339 0.771396 0.822429
0.603952 0.758682 0.787317
0.723556 0.756276 0.757376
0.850372 0.820677 0.781444
0.916121 0.867315 0.797987
0.951821 0.900641 0.807777
0.104913 0.899928 0.861998
0.131916 0.898232 0.858950
0.260821 0.892958 0.848984
0.471064 0.886024 0.833995
0.643468 0.880650 0.809378
0.763874 0.880220 0.788763
0.848987 0.888561 0.778226
0.909927 0.910334 0.784528
0.948158 0.933003 0.793986
0.142181 0.948454 0.851671
0.173448 0.947901 0.849808
0.305356 0.946171 0.843641
0.503418 0.943883 0.834135
0.665455 0.942036 0.818031
0.782191 0.942083 0.803580
0.858461 0.944926 0.793667
0.911779 0.950803 0.789672
0.946016 0.959757 0.791727
0.185838 0.970310 0.837868
0.220161 0.970199 0.836801
0.343212 0.969861 0.832861
0.525475 0.969444 0.824436
0.674864 0.969224 0.814757
0.788542 0.969501 0.805842
0.862349 0.970511 0.799341
0.913716 0.972359 0.796133
0.946444 0.974973 0.796081
0.069662 0.102282 0.986809
0.075094 0.112025 0.986837
0.319711 0.167356 0.986936
0.689648 0.315896 0.987117
0.866768 0.525398 0.987387
0.932785 0.659680 0.982834
0.954168 0.721224 0.972283
0.966223 0.776747 0.962051
0.977345 0.827735 0.950259
0.069662 0.140763 0.986863
0.076466 0.157682 0.986890
0.326485 0.230362 0.986989
0.691959 0.387214 0.987170
0.867459 0.571240 0.987440
0.925893 0.665803 0.979756
0.951691 0.726337 0.970180
0.964446 0.780413 0.959382
0.976067 0.830360 0.948407
0.068107 0.379154 0.987053
0.082509 0.403076 0.987081
0.350342 0.473937 0.987179
0.699462 0.583802 0.987237
0.838498 0.633258 0.978233
0.901251 0.683959 0.970162
0.938767 0.742464 0.960798
0.958692 0.792956 0.950706
0.971850 0.839558 0.942307
0.071269 0.589627 0.974237
0.084999 0.591863 0.973185
0.269490 0.602105 0.969929
0.573102 0.626696 0.964487
0.753962 0.662750 0.956233
0.857808 0.710919 0.949069
0.916354 0.763734 0.943061
0.950142 0.814839 0.937844
0.965418 0.856011 0.930711
0.074061 0.681514 0.947480
0.085355 0.680145 0.945793
0.200168 0.678172 0.940627
0.460203 0.683869 0.932484
0.668396 0.706894 0.923125
0.805087 0.748704 0.918318
0.884701 0.795202 0.916397
0.933305 0.841195 0.914925
0.958347 0.879745 0.912602
0.081691 0.801751 0.933839
0.096349 0.799055 0.931073
0.204720 0.791148 0.922126
0.425080 0.782632 0.909075
0.622435 0.781458 0.896139
0.760828 0.799161 0.889203
0.858101 0.836913 0.890969
0.918384 0.876063 0.894858
0.952219 0.904191 0.897142
0.100100 0.892992 0.925463
0.125594 0.891743 0.923478
0.246651 0.887855 0.916903
0.456751 0.882754 0.906727
0.635481 0.878873 0.895076
0.757132 0.878567 0.882526
0.842915 0.883490 0.870447
0.908771 0.911025 0.880576
0.947670 0.933893 0.886966
0.135740 0.945085 0.917665
0.164935 0.944658 0.916393
0.293498 0.943327 0.912139
0.491432 0.941126 0.905446
0.658216 0.939187 0.897643
0.776933 0.939738 0.890273
0.855014 0.943541 0.883413
0.909093 0.949678 0.880183
0.945059 0.959670 0.882691
0.179372 0.969377 0.907539
0.212156 0.969296 0.906787
0.334176 0.969051 0.904259
0.516523 0.968776 0.900247
0.669638 0.968714 0.895525
0.785028 0.969139 0.891040
0.860452 0.970286 0.887473
0.912812 0.972283 0.884982
0.946017 0.975085 0.884831
0.069662 0.133425 0.993923
0.075094 0.150249 0.993926
0.319711 0.220083 0.993937
0.689648 0.376696 0.993959
0.866768 0.565166 0.993991
0.940088 0.707197 0.993744
0.957421 0.757147 0.991903
0.968686 0.801689 0.984438
0.978936 0.841392 0.976904
0.069662 0.184903 0.993929
0.076466 0.206978 0.993932
0.326485 0.293106 0.993944
0.691959 0.441054 0.993965
0.867459 0.606987 0.993997
0.933793 0.714194 0.993279
0.955093 0.761397 0.991570
0.966970 0.805399 0.982984
0.977678 0.843951 0.975866
0.068107 0.434461 0.993951
0.082509 0.454134 0.993955
0.350342 0.525039 0.993966
0.700189 0.620548 0.993987
0.855265 0.692130 0.993278
0.914163 0.735009 0.991802
0.946381 0.775080 0.985044
0.961364 0.817986 0.978210
0.973504 0.852870 0.972419
0.072371 0.668044 0.992930
0.091098 0.670378 0.992774
0.315137 0.679288 0.992262
0.619699 0.697149 0.991105
0.788209 0.725627 0.985636
0.874408 0.759465 0.980250
0.924624 0.796923 0.975337
0.952934 0.835173 0.970981
0.967061 0.868654 0.967129
0.075491 0.732517 0.979244
0.089721 0.733133 0.978580
0.234448 0.736711 0.976453
0.513362 0.746005 0.973387
0.706633 0.763441 0.970200
0.831556 0.791192 0.967423
0.897486 0.826651 0.963818
0.938668 0.858338 0.960094
0.959823 0.887762 0.956511
0.082085 0.814563 0.967772
0.097602 0.813570 0.967164
0.214836 0.811222 0.963966
0.453686 0.811139 0.958685
0.654814 0.818861 0.953442
0.787163 0.834950 0.949782
0.869737 0.859723 0.948063
0.922875 0.886977 0.947345
0.953331 0.910593 0.946570
0.097324 0.890574 0.959559
0.122103 0.889810 0.958629
0.240309 0.887507 0.955531
0.454121 0.884840 0.950694
0.639311 0.883906 0.945169
0.767218 0.887281 0.940319
0.853278 0.898413 0.937900
0.912281 0.917540 0.938449
0.948708 0.937421 0.939472
0.130858 0.942653 0.954122
0.158790 0.942356 0.953481
0.284146 0.940904 0.951320
0.482520 0.939132 0.947866
0.653471 0.938248 0.943736
0.774125 0.939579 0.939675
0.853296 0.943527 0.936346
0.906241 0.948929 0.932871
0.944707 0.960343 0.936177
0.173411 0.968585 0.948377
0.205039 0.968533 0.947985
0.325493 0.968387 0.946659
0.508384 0.968256 0.944530
0.665005 0.968369 0.941983
0.782041 0.968951 0.939511
0.858893 0.970224 0.937585
0.912070 0.972339 0.936565
0.945723 0.975311 0.936585
0.069662 0.185705 0.996668
0.075094 0.208040 0.996671
0.319711 0.294157 0.996679
0.689648 0.441966 0.996696
0.866768 0.607632 0.996720
0.944166 0.747968 0.996752
0.959811 0.787449 0.994923
0.970709 0.825712 0.993330
0.980363 0.855686 0.991979
0.069662 0.255985 0.996673
0.076466 0.281019 0.996675
0.326485 0.364447 0.996684
0.691959 0.501598 0.996700
0.867459 0.646453 0.996724
0.938981 0.755241 0.996362
0.957650 0.791977 0.994611
0.969075 0.828532 0.993100
0.979140 0.858219 0.991810
0.068107 0.494976 0.996690
0.082509 0.514735 0.996692
0.350342 0.571631 0.996701
0.700189 0.656749 0.996717
0.865503 0.743654 0.996516
0.921036 0.773104 0.994997
0.950626 0.806507 0.993590
0.963690 0.838019 0.992338
0.975064 0.867006 0.989660
0.073155 0.730100 0.996407
0.096469 0.732510 0.996259
0.349205 0.741123 0.995764
0.653544 0.753832 0.994975
0.809885 0.772850 0.994020
0.887497 0.798183 0.993017
0.931646 0.827579 0.992050
0.955504 0.853912 0.989146
0.968706 0.880979 0.984251
0.077018 0.777726 0.992995
0.095244 0.778744 0.992902
0.269358 0.782853 0.992593
0.557608 0.791834 0.992107
0.737522 0.807418 0.991381
0.848907 0.828436 0.987734
0.908927 0.850515 0.984258
0.943951 0.876466 0.981027
0.961429 0.896820 0.977997
0.083543 0.835867 0.986119
0.102233 0.835944 0.985666
0.233507 0.836735 0.984176
0.485190 0.839939 0.981910
0.678844 0.847776 0.979394
0.806660 0.861832 0.977095
0.880477 0.880841 0.975203
0.927735 0.898699 0.973624
0.954725 0.917705 0.972140
0.097010 0.893747 0.978317
0.121899 0.893450 0.977922
0.242596 0.892705 0.976603
0.463779 0.892505 0.974546
0.652655 0.894528 0.972213
0.780565 0.900605 0.970173
0.862038 0.911969 0.968828
0.916275 0.926204 0.968147
0.949746 0.942598 0.967709
0.127688 0.941216 0.974108
0.154743 0.940959 0.973809
0.278426 0.940230 0.972799
0.478112 0.939588 0.971173
0.652232 0.940037 0.969233
0.775243 0.942604 0.967328
0.855550 0.946420 0.965162
0.910772 0.953118 0.963926
0.945541 0.962337 0.964026
0.168349 0.967686 0.970734
0.199456 0.967632 0.970545
0.318308 0.967516 0.969903
0.501703 0.967585 0.968864
0.661406 0.968267 0.967606
0.779955 0.969013 0.966126
0.857962 0.970412 0.964298
0.911678 0.972607 0.963293
0.945614 0.975674 0.963355
