negative-superia-xtra-400/SuperiaXtra400_Modern_Soft.cube
TITLE "Fuji Superia X-tra 400 Modern Soft"
# Adobe RGB in/out. REPLACES AgX. Fuji Superia X-tra 400 Modern Soft.
LUT_3D_SIZE 9
DOMAIN_MIN 0.0 0.0 0.0
DOMAIN_MAX 1.0 1.0 1.0
0.060829 0.068055 0.085817
0.134824 0.091500 0.092319
0.395684 0.149045 0.101370
0.544907 0.267520 0.111114
0.626173 0.386211 0.122325
0.681276 0.471361 0.134297
0.719731 0.531946 0.147750
0.746801 0.571629 0.162097
0.769758 0.606371 0.177928
0.072564 0.112301 0.094062
0.107219 0.107194 0.093968
0.316041 0.161830 0.101193
0.517047 0.282595 0.110989
0.614741 0.395416 0.122232
0.673616 0.476909 0.134245
0.715993 0.535140 0.147769
0.744130 0.574269 0.162176
0.767787 0.608614 0.178087
0.095544 0.337830 0.109253
0.148442 0.302219 0.107677
0.282378 0.263214 0.106695
0.459421 0.333578 0.112602
0.586931 0.426782 0.123101
0.652304 0.495835 0.134837
0.704728 0.546106 0.148243
0.735713 0.583441 0.162748
0.761396 0.616474 0.178901
0.125766 0.505829 0.125806
0.183194 0.488090 0.123806
0.339739 0.455010 0.120448
0.449132 0.444227 0.120668
0.554422 0.475504 0.127145
0.629308 0.528092 0.137941
0.685556 0.565374 0.150652
0.724017 0.599579 0.164717
0.751965 0.629899 0.181213
0.166889 0.588652 0.143331
0.219185 0.581434 0.141838
0.368900 0.563615 0.138424
0.471517 0.549406 0.136540
0.552413 0.547755 0.138235
0.613882 0.563484 0.144662
0.668609 0.593453 0.156429
0.712660 0.622876 0.169689
0.741945 0.647809 0.186058
0.206906 0.648210 0.162192
0.264777 0.645344 0.161123
0.393010 0.634126 0.158319
0.485925 0.622175 0.155931
0.562995 0.615532 0.155955
0.613995 0.617705 0.159107
0.657820 0.629178 0.165629
0.704007 0.649455 0.179496
0.733378 0.662996 0.194175
0.259757 0.677483 0.183194
0.301078 0.676029 0.182353
0.405760 0.671675 0.179995
0.494003 0.666321 0.177637
0.568938 0.662441 0.177071
0.616884 0.661679 0.179393
0.657802 0.664449 0.184827
0.696878 0.670289 0.193008
0.727142 0.680993 0.206127
0.299927 0.700583 0.202726
0.339755 0.699761 0.202237
0.415122 0.697212 0.200852
0.497854 0.693852 0.199550
0.570264 0.691098 0.199348
0.617254 0.690129 0.201136
0.657571 0.691539 0.205699
0.695800 0.695326 0.212885
0.723296 0.701092 0.224019
0.339639 0.718719 0.221907
0.361552 0.718297 0.221684
0.422677 0.716976 0.221092
0.498915 0.715208 0.220716
0.568093 0.713776 0.221430
0.615110 0.713430 0.224030
0.655109 0.714658 0.229022
0.693036 0.717610 0.236569
0.721140 0.722154 0.247558
0.060829 0.074997 0.154739
0.142028 0.094619 0.156207
0.395657 0.151434 0.158523
0.537727 0.260831 0.160257
0.621113 0.379383 0.166195
0.677176 0.466513 0.176064
0.717638 0.529308 0.187488
0.745304 0.569683 0.199372
0.768688 0.604955 0.212198
0.071506 0.108087 0.136515
0.095319 0.098334 0.117650
0.298094 0.156653 0.138600
0.505623 0.272684 0.151596
0.609216 0.387347 0.162190
0.669448 0.471789 0.173294
0.713893 0.532439 0.185987
0.742639 0.572304 0.198554
0.766726 0.607196 0.211733
0.093010 0.317276 0.160268
0.136114 0.273902 0.146349
0.247574 0.233369 0.132135
0.441826 0.317668 0.140615
0.579884 0.415786 0.154000
0.648045 0.490031 0.166910
0.702633 0.543248 0.182184
0.734253 0.581431 0.196431
0.760369 0.615055 0.210560
0.122110 0.492411 0.172329
0.175952 0.475239 0.164723
0.319869 0.441788 0.151735
0.435082 0.428407 0.145730
0.546170 0.467017 0.151680
0.625368 0.523828 0.164350
0.682780 0.562466 0.179722
0.722650 0.597578 0.195065
0.751012 0.628602 0.210050
0.163314 0.583013 0.186930
0.212479 0.575915 0.182634
0.361688 0.558207 0.171890
0.464910 0.543987 0.163934
0.546516 0.542801 0.162143
0.610912 0.559945 0.167500
0.666316 0.590843 0.182129
0.711484 0.621071 0.196922
0.741120 0.647070 0.212063
0.203345 0.646134 0.202013
0.260374 0.642173 0.199589
0.388399 0.631049 0.193081
0.482309 0.618955 0.186203
0.559615 0.612432 0.182623
0.611897 0.614966 0.183809
0.656216 0.627334 0.190395
0.703120 0.648595 0.203560
0.732738 0.662402 0.218928
0.257238 0.676282 0.218866
0.298333 0.674843 0.217173
0.404133 0.670525 0.212272
0.491957 0.665208 0.207322
0.567048 0.661373 0.204120
0.615668 0.660698 0.204257
0.656707 0.663623 0.208138
0.696070 0.669723 0.215930
0.726716 0.680593 0.230991
0.298331 0.699880 0.236241
0.337948 0.699066 0.235332
0.414169 0.696543 0.232592
0.496698 0.693218 0.229238
0.569238 0.690504 0.227041
0.616595 0.689590 0.227414
0.656971 0.691083 0.231070
0.695307 0.694978 0.238046
0.723049 0.700864 0.249159
0.338634 0.718335 0.253273
0.360893 0.717919 0.252810
0.422149 0.716615 0.251438
0.498299 0.714875 0.249899
0.567565 0.713478 0.249371
0.614789 0.713177 0.250950
0.654835 0.714460 0.255352
0.692832 0.717481 0.262846
0.721061 0.722102 0.273318
0.060829 0.086076 0.386826
0.142028 0.101230 0.388279
0.402686 0.164262 0.393475
0.548965 0.282700 0.378097
0.620267 0.382393 0.353653
0.673599 0.464158 0.345775
0.714755 0.526490 0.343658
0.742665 0.566772 0.344333
0.766473 0.602368 0.346584
0.074565 0.131174 0.389634
0.145491 0.149912 0.381279
0.358683 0.189764 0.341448
0.513463 0.287210 0.333158
0.607024 0.387606 0.333037
0.665321 0.468393 0.334746
0.710852 0.529281 0.337280
0.739944 0.569241 0.340476
0.764498 0.604545 0.344177
0.087523 0.266527 0.313009
0.122623 0.234987 0.266209
0.188034 0.185838 0.194251
0.425741 0.303629 0.241072
0.569729 0.406229 0.279441
0.642199 0.483237 0.303670
0.697776 0.539019 0.319095
0.731395 0.577897 0.328878
0.758110 0.612213 0.336777
0.114511 0.463850 0.336009
0.160583 0.449331 0.315421
0.286885 0.410077 0.260143
0.409067 0.396072 0.227215
0.530439 0.451595 0.243005
0.617787 0.512933 0.272309
0.677123 0.556912 0.296179
0.719644 0.593468 0.314888
0.748758 0.625735 0.327329
0.154437 0.569031 0.345403
0.196430 0.562528 0.334687
0.346103 0.545688 0.304116
0.448016 0.531391 0.270453
0.532039 0.530847 0.253500
0.603832 0.551767 0.261541
0.660787 0.584769 0.283316
0.708573 0.616716 0.303637
0.739004 0.644639 0.320324
0.193709 0.637374 0.349332
0.248559 0.633638 0.343526
0.376220 0.622989 0.326484
0.472827 0.610652 0.304276
0.550617 0.604322 0.286234
0.606176 0.607642 0.278983
0.651922 0.622523 0.284636
0.700032 0.646323 0.302391
0.730967 0.660818 0.319012
0.249915 0.672795 0.351727
0.291600 0.671416 0.348504
0.399438 0.667255 0.338613
0.486140 0.662091 0.325485
0.561675 0.658382 0.313681
0.612166 0.657921 0.305761
0.653511 0.661252 0.304942
0.693739 0.668131 0.310949
0.725468 0.679460 0.324376
0.293589 0.697740 0.353547
0.332431 0.696959 0.351795
0.411263 0.694533 0.346266
0.493209 0.691333 0.338577
0.566126 0.688752 0.331273
0.614609 0.688001 0.326650
0.655149 0.689727 0.325893
0.693796 0.693939 0.329128
0.722284 0.700184 0.335765
0.335434 0.717129 0.354744
0.358794 0.716732 0.353878
0.420472 0.715490 0.351117
0.496356 0.713844 0.347240
0.565907 0.712563 0.343635
0.613786 0.712401 0.341653
0.653972 0.713857 0.342203
0.692187 0.717091 0.345635
0.720807 0.721952 0.351810
0.060829 0.098525 0.574387
0.142028 0.113778 0.574775
0.402686 0.179416 0.576163
0.565879 0.317733 0.578698
0.631238 0.408474 0.553763
0.677551 0.474048 0.528775
0.714923 0.529138 0.514040
0.741630 0.567083 0.502882
0.764999 0.601579 0.494677
0.074565 0.149719 0.575136
0.148843 0.169077 0.575523
0.405246 0.245292 0.576908
0.548008 0.341174 0.560914
0.617370 0.412344 0.533090
0.668717 0.477300 0.517167
0.710789 0.531476 0.506132
0.738790 0.569296 0.497979
0.762970 0.603621 0.491524
0.088179 0.286088 0.514066
0.132505 0.280837 0.495657
0.290985 0.290698 0.465763
0.460306 0.349584 0.463920
0.579311 0.423254 0.473367
0.643259 0.488163 0.480010
0.696476 0.539580 0.482724
0.729830 0.577071 0.482895
0.756403 0.610836 0.481568
0.108150 0.438292 0.489168
0.147955 0.424868 0.472154
0.265090 0.391920 0.419456
0.375247 0.363759 0.353413
0.523583 0.446946 0.403986
0.614261 0.509710 0.434887
0.673759 0.554646 0.453859
0.717425 0.591225 0.462766
0.746791 0.623792 0.467517
0.144103 0.552821 0.496736
0.183355 0.547419 0.486940
0.322159 0.532625 0.458382
0.428683 0.516031 0.418223
0.514651 0.514616 0.393690
0.596726 0.544167 0.406293
0.655556 0.579604 0.427705
0.705762 0.613026 0.444159
0.736839 0.642076 0.454548
0.183451 0.626097 0.496660
0.233649 0.622801 0.491045
0.361876 0.612601 0.473878
0.461360 0.600939 0.451372
0.539555 0.594673 0.427055
0.598914 0.598678 0.414728
0.646834 0.616801 0.419101
0.696029 0.642379 0.433216
0.728877 0.659111 0.445246
0.239857 0.667999 0.491542
0.284483 0.666742 0.488314
0.390899 0.662912 0.478094
0.478446 0.658080 0.463570
0.554633 0.654583 0.448960
0.607503 0.654346 0.436254
0.649197 0.658164 0.430887
0.690714 0.666183 0.433363
0.723839 0.678086 0.443391
0.288965 0.694663 0.484082
0.324442 0.693944 0.482260
0.407067 0.691704 0.476282
0.488268 0.688743 0.467462
0.561777 0.686390 0.458305
0.611833 0.685867 0.450923
0.652581 0.687897 0.445805
0.691651 0.692537 0.445234
0.721220 0.699312 0.448443
0.330560 0.715328 0.475422
0.355589 0.714965 0.474435
0.417928 0.713835 0.471207
0.493445 0.712355 0.466376
0.563450 0.711267 0.461222
0.612308 0.711318 0.457063
0.652703 0.713027 0.454844
0.691235 0.716568 0.454963
0.720433 0.721782 0.457292
0.060829 0.117981 0.672405
0.142028 0.131529 0.672587
0.402686 0.205583 0.673240
0.565879 0.336642 0.674330
0.647733 0.448200 0.670307
0.687665 0.494887 0.641685
0.718509 0.537908 0.622120
0.742933 0.571775 0.607982
0.765002 0.603765 0.597321
0.074565 0.173359 0.672757
0.148843 0.192614 0.672939
0.405246 0.273114 0.673590
0.567182 0.380928 0.674631
0.634451 0.451571 0.655280
0.678750 0.497824 0.632656
0.714247 0.539932 0.616002
0.739989 0.573747 0.604076
0.762909 0.605649 0.594751
0.094115 0.364582 0.664888
0.161008 0.367129 0.658134
0.370940 0.380868 0.641105
0.509079 0.413759 0.623885
0.597584 0.459864 0.611566
0.652357 0.506893 0.603423
0.700499 0.546765 0.597231
0.730610 0.580626 0.591753
0.756104 0.612304 0.585508
0.107226 0.440213 0.599214
0.148684 0.434609 0.591844
0.288529 0.424242 0.568963
0.429231 0.434110 0.550680
0.543182 0.472395 0.553417
0.619777 0.522491 0.562723
0.675575 0.558985 0.568928
0.717352 0.593066 0.571430
0.746059 0.624249 0.571261
0.135675 0.540290 0.591214
0.176866 0.536332 0.584280
0.304699 0.524980 0.562991
0.418852 0.507372 0.530706
0.494240 0.496105 0.497623
0.594102 0.542812 0.523759
0.653704 0.579116 0.540527
0.704463 0.612413 0.551042
0.735554 0.641351 0.556170
0.179973 0.614359 0.590579
0.218746 0.611483 0.586255
0.349617 0.602878 0.572695
0.449571 0.592438 0.552692
0.528851 0.585848 0.531292
0.591251 0.589668 0.519215
0.642326 0.612285 0.525748
0.692788 0.639721 0.536545
0.727181 0.658035 0.544258
0.228812 0.662739 0.585801
0.273338 0.661656 0.583190
0.379327 0.658317 0.574793
0.470297 0.654013 0.562244
0.547291 0.650816 0.548071
0.602517 0.650710 0.536328
0.644490 0.654961 0.530637
0.687663 0.664410 0.532640
0.722233 0.676922 0.538891
0.283526 0.691127 0.577629
0.315214 0.690498 0.576094
0.402191 0.688530 0.571062
0.482658 0.685925 0.563226
0.556936 0.683895 0.554096
0.608758 0.683641 0.545776
0.649710 0.685978 0.540241
0.689242 0.691082 0.538251
0.720205 0.698647 0.539490
0.324629 0.713193 0.567456
0.351674 0.712879 0.566605
0.414838 0.711906 0.563569
0.489963 0.710660 0.558778
0.560561 0.709835 0.553404
0.610591 0.710157 0.548362
0.651236 0.712163 0.544791
0.690139 0.716058 0.543379
0.720010 0.721684 0.544012
0.060829 0.147123 0.733484
0.142028 0.166689 0.733553
0.402686 0.242519 0.733802
0.565879 0.363767 0.734257
0.653024 0.468365 0.734935
0.699900 0.521687 0.720544
0.724192 0.551058 0.697722
0.746131 0.580274 0.680905
0.766435 0.608895 0.667254
0.074565 0.207795 0.733618
0.148843 0.230107 0.733687
0.405246 0.305478 0.733935
0.567182 0.401107 0.734390
0.651125 0.487147 0.733399
0.691336 0.524464 0.712609
0.719966 0.552982 0.692327
0.743149 0.582094 0.677347
0.764297 0.610647 0.664489
0.095544 0.397112 0.734097
0.171884 0.408933 0.734166
0.414225 0.447847 0.734413
0.545537 0.468907 0.721316
0.616621 0.497859 0.702789
0.665526 0.531011 0.687348
0.706689 0.559304 0.675434
0.733562 0.588371 0.664745
0.757309 0.616811 0.655497
0.112021 0.472621 0.688640
0.162724 0.472444 0.685124
0.338928 0.474797 0.675341
0.473944 0.486754 0.663596
0.573686 0.512252 0.655785
0.632356 0.541094 0.651677
0.682533 0.570010 0.648870
0.719693 0.599482 0.645876
0.746854 0.627588 0.642199
0.132955 0.538630 0.657340
0.174335 0.536490 0.653227
0.308411 0.530774 0.640709
0.432423 0.526815 0.624289
0.527932 0.533773 0.614117
0.603078 0.556759 0.616433
0.657793 0.586486 0.622287
0.705569 0.616421 0.626290
0.735668 0.643310 0.627727
0.172831 0.605473 0.650694
0.207046 0.603337 0.647643
0.340198 0.596839 0.637832
0.442218 0.588626 0.622476
0.523195 0.582473 0.605688
0.583695 0.581304 0.591234
0.640795 0.612135 0.602853
0.691787 0.640141 0.610819
0.726463 0.658204 0.615504
0.218130 0.657835 0.646519
0.261204 0.656959 0.644556
0.368483 0.654230 0.638133
0.462923 0.650635 0.627952
0.540864 0.647842 0.616268
0.597894 0.647619 0.606385
0.639762 0.651951 0.601296
0.685078 0.663203 0.604343
0.720996 0.676343 0.608898
0.275354 0.687551 0.639866
0.305731 0.687030 0.638665
0.397132 0.685399 0.634685
0.476974 0.683245 0.628052
0.552153 0.681623 0.620388
0.605737 0.681650 0.613498
0.646829 0.684227 0.608745
0.686796 0.689763 0.606823
0.719250 0.698208 0.607812
0.318176 0.710946 0.630717
0.347383 0.710692 0.629955
0.411466 0.709913 0.627412
0.486218 0.708956 0.623428
0.557509 0.708451 0.618831
0.608807 0.709087 0.614579
0.649728 0.711409 0.611468
0.689021 0.715671 0.609929
0.719599 0.721732 0.609904
0.060829 0.187008 0.772585
0.142028 0.209888 0.772634
0.402686 0.287998 0.772809
0.565879 0.390218 0.773131
0.653024 0.484149 0.773611
0.708469 0.542033 0.765547
0.730315 0.566268 0.747046
0.750254 0.591205 0.732837
0.768809 0.616270 0.721718
0.074565 0.254900 0.772679
0.148843 0.276880 0.772728
0.405246 0.340464 0.772903
0.567182 0.425623 0.773225
0.653539 0.505506 0.773705
0.702846 0.544495 0.760125
0.726249 0.568233 0.743368
0.747311 0.592968 0.730318
0.766664 0.617935 0.719975
0.095544 0.421820 0.773018
0.171884 0.433081 0.773067
0.414225 0.464622 0.773241
0.571370 0.511690 0.773343
0.632646 0.531592 0.757449
0.678637 0.551726 0.743336
0.713342 0.574585 0.731654
0.737770 0.598977 0.722139
0.759612 0.623682 0.711405
0.118877 0.514538 0.750454
0.179464 0.515627 0.748618
0.373413 0.520507 0.742928
0.507344 0.529476 0.735138
0.594442 0.543269 0.727347
0.646342 0.562286 0.720598
0.692055 0.584923 0.712477
0.723714 0.609377 0.705078
0.748920 0.633451 0.698290
0.136577 0.550758 0.718773
0.180557 0.550215 0.716366
0.332449 0.549432 0.709021
0.459105 0.551690 0.699689
0.553830 0.560722 0.692305
0.616764 0.577621 0.688513
0.666349 0.600049 0.686998
0.708893 0.624656 0.685838
0.737200 0.647372 0.684007
0.169405 0.603169 0.700758
0.202031 0.601886 0.698575
0.337032 0.598113 0.691517
0.445040 0.594034 0.681226
0.531526 0.593470 0.670624
0.596836 0.601937 0.664314
0.646560 0.622090 0.665919
0.694393 0.645304 0.669458
0.727116 0.660037 0.671538
0.209499 0.654247 0.694149
0.251582 0.653601 0.692583
0.361070 0.651585 0.687398
0.457916 0.648936 0.679376
0.537335 0.646918 0.669656
0.595549 0.646759 0.659719
0.635232 0.649319 0.651954
0.684220 0.663559 0.658466
0.720598 0.676864 0.662569
0.266721 0.684376 0.687999
0.296884 0.683975 0.686995
0.389827 0.682721 0.683642
0.471834 0.681092 0.678367
0.548016 0.679959 0.671994
0.603187 0.680281 0.665286
0.644257 0.682923 0.660288
0.684458 0.688704 0.658214
0.718470 0.698126 0.659825
0.311726 0.708803 0.680016
0.343035 0.708616 0.679423
0.408060 0.708054 0.677431
0.482493 0.707423 0.674270
0.554537 0.707280 0.670065
0.607109 0.708256 0.665984
0.648314 0.710891 0.662895
0.687982 0.715496 0.661296
0.719250 0.721992 0.661199
0.060829 0.244962 0.806479
0.142028 0.267902 0.806513
0.402686 0.332175 0.806634
0.565879 0.420651 0.806858
0.653024 0.502494 0.807191
0.714418 0.560840 0.804607
0.735672 0.581727 0.784840
0.754343 0.603140 0.768383
0.771484 0.624773 0.755119
0.074565 0.307623 0.806545
0.148843 0.323975 0.806578
0.405246 0.377949 0.806700
0.567182 0.451468 0.806923
0.653539 0.522806 0.807256
0.709291 0.563555 0.799767
0.731836 0.583790 0.781191
0.751493 0.604903 0.765813
0.769368 0.626294 0.753301
0.095544 0.448761 0.806779
0.171884 0.456769 0.806813
0.414225 0.484017 0.806934
0.571770 0.527482 0.807157
0.644445 0.554948 0.799759
0.689534 0.571550 0.783729
0.719547 0.590403 0.769456
0.742193 0.610864 0.757409
0.762374 0.631589 0.747283
0.125106 0.545392 0.796147
0.188100 0.546326 0.794438
0.400935 0.549875 0.788786
0.530300 0.556918 0.780230
0.608647 0.567961 0.770505
0.658704 0.582853 0.760994
0.701598 0.600870 0.752376
0.728288 0.620987 0.744774
0.751644 0.640932 0.738022
0.143996 0.570599 0.759225
0.184782 0.570834 0.758058
0.354892 0.572198 0.754329
0.481169 0.576309 0.748971
0.575308 0.584781 0.743402
0.629366 0.598134 0.738536
0.675842 0.615582 0.734506
0.713261 0.634829 0.730990
0.739641 0.651536 0.727609
0.170604 0.609247 0.739147
0.204997 0.608777 0.738084
0.344503 0.607665 0.734646
0.456720 0.607626 0.729660
0.546066 0.611277 0.724717
0.608141 0.620846 0.721270
0.655235 0.635650 0.719605
0.699575 0.651129 0.718579
0.728940 0.663337 0.717474
0.204494 0.652995 0.730485
0.246220 0.652598 0.729607
0.357885 0.651404 0.726685
0.456894 0.650020 0.722128
0.539030 0.649535 0.715477
0.599052 0.651287 0.708584
0.642963 0.657052 0.705158
0.687372 0.667281 0.705935
0.721445 0.678927 0.707383
0.259601 0.682087 0.725357
0.291106 0.681810 0.724753
0.383498 0.680962 0.722718
0.467961 0.679927 0.719323
0.545296 0.679410 0.713437
0.601823 0.680188 0.707671
0.642976 0.682910 0.702968
0.682341 0.687999 0.699994
0.718183 0.698761 0.702731
0.305693 0.706985 0.719947
0.337352 0.706867 0.719493
0.404874 0.706531 0.717600
0.479074 0.706245 0.714567
0.551896 0.706491 0.710946
0.605664 0.707824 0.707438
0.647151 0.710750 0.704712
0.687130 0.715627 0.703277
0.719011 0.722518 0.703304
0.060829 0.308505 0.835570
0.142028 0.324650 0.835596
0.402686 0.378527 0.835690
0.565879 0.451841 0.835863
0.653024 0.523109 0.836120
0.717742 0.577263 0.836452
0.739621 0.596343 0.817021
0.757710 0.614986 0.800294
0.773886 0.633258 0.785671
0.074565 0.358581 0.835621
0.148843 0.371409 0.835647
0.405246 0.414760 0.835741
0.567182 0.475268 0.835913
0.653539 0.536676 0.836171
0.713516 0.580801 0.832295
0.736050 0.598509 0.813721
0.754989 0.616776 0.797907
0.771827 0.634759 0.783819
0.095544 0.472752 0.835802
0.171884 0.480201 0.835828
0.414225 0.505699 0.835922
0.571770 0.540851 0.836094
0.652080 0.575165 0.833943
0.697452 0.589450 0.817802
0.724507 0.605430 0.803004
0.746054 0.622767 0.789616
0.764985 0.639958 0.777654
0.130028 0.569675 0.832772
0.202354 0.570596 0.831196
0.413788 0.573931 0.825926
0.545338 0.580115 0.817571
0.619059 0.589328 0.807501
0.668425 0.601471 0.797045
0.707542 0.616171 0.786450
0.732513 0.632207 0.776738
0.754377 0.648013 0.768052
0.151621 0.591676 0.796816
0.199068 0.592166 0.795856
0.373339 0.594140 0.792434
0.499309 0.598441 0.787074
0.588662 0.605862 0.780722
0.639702 0.616715 0.774226
0.684335 0.630192 0.768064
0.717567 0.645541 0.762361
0.742300 0.656229 0.757034
0.175021 0.621427 0.771360
0.213332 0.621476 0.770558
0.354407 0.621977 0.767920
0.469125 0.623909 0.763918
0.559768 0.628566 0.759488
0.617517 0.636898 0.755453
0.663212 0.647941 0.752142
0.704351 0.657200 0.749384
0.731231 0.667379 0.746798
0.203809 0.654638 0.757597
0.245906 0.654484 0.756903
0.359040 0.654098 0.754591
0.460331 0.653995 0.750993
0.544897 0.655042 0.746925
0.604949 0.658185 0.743355
0.649496 0.664045 0.740996
0.691965 0.672362 0.739804
0.723067 0.682035 0.739038
0.254781 0.681144 0.750229
0.287948 0.680994 0.749707
0.379576 0.680568 0.747945
0.466031 0.680193 0.745111
0.544712 0.680456 0.741706
0.602367 0.682041 0.738370
0.644657 0.685634 0.735776
0.685705 0.691944 0.734609
0.718862 0.700646 0.734702
0.300501 0.705706 0.744340
0.331728 0.705655 0.744008
0.402151 0.705545 0.742881
0.476246 0.705610 0.741060
0.549841 0.706257 0.738857
0.604653 0.707966 0.736687
0.646456 0.711182 0.734960
0.686680 0.716246 0.734010
0.718922 0.723363 0.734069
