negative-superia-xtra-400/SuperiaXtra400_Classic_ExtraPunchy.cube
TITLE "Fuji Superia X-tra 400 Classic ExtraPunchy"
# Adobe RGB in/out. REPLACES AgX. Fuji Superia X-tra 400 Classic ExtraPunchy.
LUT_3D_SIZE 5
DOMAIN_MIN 0.0 0.0 0.0
DOMAIN_MAX 1.0 1.0 1.0
0.069662 0.073299 0.081842
0.184350 0.108244 0.079865
0.484551 0.220549 0.085382
0.660952 0.385221 0.098979
0.763687 0.528756 0.125318
0.075233 0.173339 0.081082
0.194352 0.203084 0.082371
0.488131 0.306103 0.089107
0.662013 0.436281 0.104165
0.764339 0.556634 0.130190
0.105903 0.431229 0.093941
0.231216 0.446120 0.096225
0.500717 0.495778 0.105118
0.665778 0.564421 0.122685
0.766667 0.633788 0.149553
0.169327 0.626792 0.126795
0.291718 0.633186 0.129307
0.522847 0.651120 0.138779
0.672524 0.679849 0.157558
0.770887 0.715692 0.188491
0.270075 0.742834 0.181930
0.359764 0.745140 0.185276
0.553818 0.753196 0.197137
0.682207 0.767173 0.218373
0.775406 0.786343 0.249776
0.069662 0.079309 0.178613
0.184350 0.111818 0.181979
0.484551 0.224275 0.193907
0.660952 0.387770 0.215251
0.763687 0.530279 0.246670
0.075233 0.176794 0.185104
0.194352 0.206996 0.188432
0.488131 0.309078 0.200229
0.662013 0.438143 0.221364
0.764339 0.557636 0.252754
0.105903 0.433114 0.207842
0.231216 0.447939 0.211046
0.500717 0.497408 0.222427
0.665778 0.565397 0.243490
0.766667 0.634575 0.274281
0.169327 0.627596 0.248488
0.291718 0.633974 0.251632
0.522847 0.651694 0.262838
0.672524 0.680360 0.283114
0.770887 0.716107 0.310687
0.270075 0.743123 0.306125
0.359764 0.745426 0.308450
0.553818 0.753470 0.316716
0.682207 0.767427 0.331582
0.775406 0.786573 0.353069
0.069662 0.094660 0.487674
0.184350 0.126486 0.489050
0.484551 0.237812 0.493965
0.660952 0.396835 0.502890
0.763687 0.535715 0.513322
0.075233 0.189301 0.490332
0.194352 0.220698 0.491702
0.488131 0.319611 0.496592
0.662013 0.444766 0.505474
0.764339 0.561209 0.515141
0.105903 0.439816 0.499774
0.231216 0.454412 0.501119
0.500717 0.503216 0.505924
0.665778 0.568880 0.512372
0.766667 0.637250 0.521589
0.169327 0.630466 0.513865
0.291718 0.636784 0.514805
0.522847 0.653744 0.518160
0.672524 0.682188 0.524239
0.770887 0.717591 0.533118
0.270075 0.744157 0.531372
0.359764 0.746447 0.532261
0.553818 0.754448 0.535436
0.682207 0.768337 0.541195
0.775406 0.787397 0.549625
0.069662 0.120810 0.660502
0.184350 0.154672 0.660905
0.484551 0.262809 0.662348
0.660952 0.411126 0.664982
0.763687 0.543214 0.668870
0.075233 0.215365 0.661281
0.194352 0.245723 0.661683
0.488131 0.338402 0.663122
0.662013 0.456688 0.665747
0.764339 0.567673 0.669624
0.105903 0.451875 0.664061
0.231216 0.466077 0.664458
0.500717 0.513724 0.665881
0.665778 0.575185 0.668478
0.766667 0.641237 0.672312
0.169327 0.635685 0.669095
0.291718 0.640780 0.669485
0.522847 0.657471 0.670879
0.672524 0.685519 0.673425
0.770887 0.720299 0.677186
0.270075 0.746046 0.676442
0.359764 0.748313 0.676821
0.553818 0.756236 0.678175
0.682207 0.769998 0.680649
0.775406 0.788904 0.683931
0.069662 0.161825 0.759678
0.184350 0.190316 0.759824
0.484551 0.296495 0.760348
0.660952 0.430295 0.761308
0.763687 0.553421 0.762733
0.075233 0.252782 0.759961
0.194352 0.282178 0.760107
0.488131 0.365262 0.760630
0.662013 0.473938 0.761588
0.764339 0.577095 0.763010
0.105903 0.469310 0.760972
0.231216 0.482975 0.761117
0.500717 0.529036 0.761637
0.665778 0.584383 0.762588
0.766667 0.647082 0.764000
0.169327 0.641894 0.762815
0.291718 0.646635 0.762958
0.522847 0.662944 0.763472
0.672524 0.690222 0.764412
0.770887 0.724296 0.765806
0.270075 0.748835 0.765530
0.359764 0.751068 0.765671
0.553818 0.758878 0.766175
0.682207 0.772458 0.767097
0.775406 0.791137 0.768467
