negative-superia-xtra-400/SuperiaXtra400_Modern_Punchy.cube
TITLE "Fuji Superia X-tra 400 Modern Punchy"
# Adobe RGB in/out. REPLACES AgX. Fuji Superia X-tra 400 Modern Punchy.
LUT_3D_SIZE 33
DOMAIN_MIN 0.0 0.0 0.0
DOMAIN_MAX 1.0 1.0 1.0
0.068119 0.082999 0.079619
0.075187 0.083950 0.079950
0.078089 0.084453 0.080113
0.094715 0.086202 0.080724
0.141731 0.089583 0.081509
0.174881 0.091520 0.082303
0.253062 0.095891 0.083860
0.364298 0.102638 0.085647
0.424769 0.106103 0.086403
0.515541 0.111908 0.087824
0.615634 0.122218 0.090245
0.674240 0.131207 0.091655
0.716230 0.138767 0.093506
0.759847 0.149952 0.095828
0.794546 0.164970 0.099049
0.818941 0.173146 0.101171
0.840600 0.180469 0.103122
0.858046 0.190533 0.105719
0.871231 0.204815 0.110443
0.882582 0.210463 0.113059
0.891823 0.216230 0.116566
0.899182 0.223085 0.120977
0.904524 0.227700 0.125434
0.909822 0.224994 0.128572
0.913452 0.222700 0.132725
0.916582 0.217457 0.137419
0.921251 0.193244 0.139192
0.922813 0.178074 0.152993
0.928669 0.116165 0.372744
0.926444 0.115458 0.367279
0.924228 0.114787 0.361958
0.922021 0.114125 0.356723
0.924057 0.280310 0.564586
0.068617 0.086218 0.079845
0.072910 0.085518 0.079875
0.080889 0.084849 0.079917
0.099137 0.086783 0.080695
0.145655 0.090251 0.081552
0.176208 0.091939 0.082330
0.250365 0.096321 0.083879
0.357593 0.103270 0.085662
0.417469 0.106768 0.086413
0.507282 0.112469 0.087834
0.609094 0.122900 0.090246
0.669753 0.132127 0.091653
0.712185 0.139644 0.093505
0.757409 0.150861 0.095828
0.792455 0.165863 0.099048
0.817140 0.173990 0.101171
0.839057 0.181271 0.103121
0.857168 0.191537 0.105717
0.870493 0.205823 0.110440
0.881945 0.211443 0.113055
0.891309 0.217191 0.116558
0.898864 0.224039 0.120966
0.904249 0.228654 0.125417
0.909581 0.225943 0.128549
0.913242 0.223643 0.132687
0.916397 0.218398 0.137355
0.921085 0.194174 0.139023
0.922669 0.178754 0.152516
0.928549 0.116129 0.372451
0.926334 0.115425 0.367013
0.924127 0.114757 0.361718
0.921928 0.114097 0.356506
0.923972 0.280138 0.564364
0.068915 0.087526 0.079940
0.070333 0.087530 0.080140
0.074673 0.086752 0.080005
0.088831 0.088325 0.080645
0.125361 0.092211 0.081542
0.167633 0.094002 0.082315
0.240393 0.098734 0.083950
0.344620 0.106566 0.085788
0.398689 0.109648 0.086491
0.482715 0.115143 0.087910
0.587762 0.126649 0.090273
0.654442 0.135766 0.091677
0.698070 0.143379 0.093525
0.747214 0.154351 0.095843
0.784977 0.169260 0.099061
0.810670 0.177174 0.101180
0.833504 0.184275 0.103129
0.854004 0.195289 0.105724
0.867834 0.209578 0.110439
0.879652 0.215079 0.113049
0.889459 0.220742 0.116541
0.897448 0.227557 0.120934
0.903262 0.232169 0.125368
0.908716 0.229436 0.128478
0.912488 0.227107 0.132561
0.915734 0.221853 0.137142
0.920487 0.197598 0.138463
0.922153 0.181253 0.150911
0.928119 0.116002 0.371407
0.925941 0.115306 0.366067
0.923768 0.114649 0.360862
0.921598 0.114000 0.355729
0.923667 0.279522 0.563571
0.070080 0.094154 0.080606
0.071369 0.094282 0.080772
0.075824 0.093912 0.080855
0.083607 0.092256 0.080836
0.105017 0.096162 0.081678
0.131215 0.096974 0.082403
0.197229 0.103270 0.083985
0.296757 0.111750 0.085861
0.361791 0.114712 0.086596
0.445694 0.120869 0.088091
0.556815 0.135857 0.090411
0.622841 0.144710 0.091841
0.674144 0.151572 0.093644
0.724669 0.161791 0.095931
0.771358 0.176338 0.099144
0.798751 0.183694 0.101244
0.823220 0.191751 0.103178
0.846675 0.202828 0.105783
0.862902 0.217050 0.110477
0.875403 0.222258 0.113073
0.886037 0.227714 0.116550
0.894520 0.234427 0.120913
0.901444 0.239005 0.125314
0.907125 0.236211 0.128387
0.911105 0.233813 0.132378
0.914519 0.228537 0.136814
0.919392 0.204249 0.137664
0.921207 0.186278 0.148374
0.927339 0.115772 0.369520
0.925227 0.115092 0.364353
0.923113 0.114452 0.359309
0.920997 0.113824 0.354318
0.923111 0.278397 0.562131
0.072262 0.113111 0.081698
0.073411 0.113447 0.081994
0.078271 0.113990 0.082278
0.087070 0.111528 0.082477
0.099945 0.107661 0.082687
0.113772 0.103895 0.082749
0.156914 0.110569 0.084164
0.236548 0.120112 0.085981
0.303394 0.122518 0.086737
0.390100 0.130395 0.088308
0.515078 0.147813 0.090651
0.580990 0.156223 0.092164
0.640930 0.163139 0.093904
0.694455 0.174065 0.096163
0.751334 0.190348 0.099408
0.780866 0.198149 0.101448
0.807570 0.205484 0.103338
0.833298 0.215835 0.105986
0.855362 0.229741 0.110632
0.868918 0.234304 0.113193
0.880518 0.239299 0.116658
0.890099 0.245747 0.120971
0.898708 0.250220 0.125321
0.904738 0.247272 0.128347
0.909036 0.244718 0.132216
0.912705 0.239392 0.136472
0.917758 0.215139 0.137136
0.919800 0.196490 0.145488
0.926197 0.115439 0.366776
0.924181 0.114778 0.361854
0.922153 0.114164 0.357039
0.920116 0.113603 0.352254
0.922294 0.276746 0.560019
0.074124 0.136943 0.082969
0.075105 0.136801 0.083141
0.079051 0.137896 0.083392
0.086553 0.133916 0.083865
0.096380 0.124823 0.083692
0.109413 0.118855 0.083915
0.135802 0.121990 0.084739
0.195744 0.135902 0.086404
0.248338 0.136790 0.087021
0.328053 0.144863 0.088570
0.444337 0.162490 0.090851
0.531787 0.170706 0.092551
0.595296 0.177090 0.094318
0.661614 0.187412 0.096505
0.719545 0.206180 0.099702
0.759842 0.215282 0.101720
0.787525 0.224232 0.103612
0.814619 0.236859 0.106457
0.841548 0.250327 0.111026
0.859741 0.253527 0.113515
0.872749 0.257555 0.116987
0.883840 0.263561 0.121219
0.893567 0.268017 0.125501
0.901463 0.264501 0.128475
0.906219 0.261416 0.132205
0.910247 0.255964 0.136280
0.915543 0.231926 0.136904
0.917902 0.212377 0.143102
0.924700 0.115012 0.363218
0.922807 0.114367 0.358594
0.920889 0.113787 0.354072
0.923180 0.278447 0.349550
0.921214 0.274579 0.557240
0.077407 0.188907 0.085262
0.078403 0.190448 0.085488
0.082799 0.190933 0.085914
0.088698 0.184238 0.086042
0.099494 0.173098 0.086021
0.112322 0.161445 0.085961
0.130004 0.152203 0.086126
0.170423 0.158985 0.087088
0.211870 0.157217 0.087786
0.276935 0.163752 0.089102
0.380169 0.181058 0.091240
0.468807 0.189150 0.093150
0.543719 0.194806 0.094708
0.616042 0.206938 0.096847
0.685191 0.226979 0.100156
0.730137 0.237018 0.102185
0.766260 0.243066 0.103939
0.795728 0.253876 0.106825
0.824139 0.270544 0.111388
0.847527 0.276988 0.114038
0.862562 0.284876 0.117596
0.874952 0.292996 0.121820
0.886539 0.296703 0.126011
0.896604 0.292324 0.128941
0.902532 0.288492 0.132534
0.907059 0.282372 0.136470
0.912668 0.257574 0.137365
0.915463 0.236932 0.142253
0.922871 0.114526 0.358952
0.921122 0.113867 0.354635
0.919337 0.113324 0.350456
0.921742 0.275631 0.345761
0.919883 0.271925 0.553827
0.081470 0.262492 0.087546
0.082456 0.264068 0.087803
0.086332 0.269021 0.088592
0.092596 0.258786 0.088842
0.102824 0.244880 0.088814
0.116433 0.228645 0.088887
0.135857 0.212917 0.088851
0.163235 0.200351 0.089066
0.189325 0.181970 0.088777
0.239758 0.185486 0.089816
0.328532 0.207465 0.091992
0.407510 0.214550 0.093893
0.486074 0.218801 0.095343
0.565939 0.230393 0.097380
0.649288 0.250201 0.100684
0.695580 0.258198 0.102588
0.739100 0.265584 0.104353
0.773792 0.279314 0.107519
0.804232 0.297176 0.111988
0.829968 0.301104 0.114613
0.852434 0.307322 0.118036
0.865998 0.317024 0.122235
0.878252 0.326172 0.126536
0.889235 0.328074 0.129663
0.897384 0.331326 0.133456
0.902932 0.324546 0.137350
0.908933 0.301068 0.139815
0.912350 0.277286 0.144215
0.920747 0.114149 0.354248
0.919155 0.113300 0.350082
0.917519 0.112790 0.345793
0.920051 0.272258 0.341164
0.918317 0.268830 0.549636
0.083368 0.305048 0.088979
0.084112 0.306382 0.089168
0.086767 0.306331 0.089637
0.092299 0.299153 0.089988
0.101338 0.287179 0.090136
0.112798 0.271568 0.090141
0.128426 0.255405 0.090218
0.151699 0.240666 0.090262
0.181702 0.228747 0.090470
0.217762 0.220551 0.090798
0.289805 0.239301 0.093211
0.358685 0.244454 0.094850
0.429759 0.246984 0.096166
0.518186 0.257119 0.098081
0.600523 0.277923 0.101405
0.660473 0.285406 0.103199
0.705078 0.292793 0.104878
0.751816 0.306185 0.108252
0.783990 0.324664 0.112643
0.810247 0.331284 0.115465
0.834438 0.340802 0.118948
0.855436 0.347939 0.122961
0.869319 0.355209 0.127103
0.881791 0.355336 0.130079
0.891179 0.357413 0.133713
0.898677 0.359625 0.137958
0.904662 0.351041 0.142752
0.908363 0.343700 0.149642
0.918585 0.121302 0.352324
0.916950 0.112908 0.344673
0.915468 0.112281 0.340297
0.918138 0.268479 0.336048
0.916539 0.265353 0.544401
0.085908 0.371673 0.090885
0.086406 0.370470 0.090964
0.088277 0.365299 0.091191
0.093983 0.359964 0.091570
0.101933 0.349467 0.091974
0.112752 0.335432 0.092134
0.126499 0.317990 0.092252
0.148566 0.300082 0.092355
0.175915 0.283984 0.092548
0.208544 0.271050 0.092918
0.265566 0.282143 0.094979
0.321035 0.279571 0.096013
0.383595 0.279862 0.097091
0.464039 0.289236 0.099106
0.555116 0.311312 0.102283
0.617490 0.317795 0.103936
0.671347 0.323970 0.105799
0.719103 0.336413 0.109174
0.763210 0.356752 0.113542
0.790352 0.363178 0.116496
0.816617 0.369174 0.119718
0.840691 0.380594 0.123793
0.858790 0.392779 0.128023
0.872449 0.393904 0.130943
0.883672 0.393601 0.134365
0.892476 0.394078 0.138649
0.900717 0.384302 0.143170
0.904931 0.375482 0.149360
0.909426 0.356080 0.153881
0.912305 0.332833 0.163967
0.915425 0.253526 0.283714
0.916033 0.264376 0.336443
0.914577 0.261564 0.538672
0.089308 0.457799 0.094678
0.089791 0.456027 0.094747
0.092440 0.451373 0.095035
0.098360 0.448914 0.095670
0.105587 0.440677 0.096113
0.116162 0.427922 0.096406
0.131582 0.413013 0.096599
0.153388 0.395917 0.096720
0.181602 0.376369 0.096826
0.214469 0.358559 0.097072
0.253816 0.343924 0.097466
0.298472 0.329697 0.097772
0.347299 0.318697 0.098291
0.419377 0.327009 0.100282
0.514479 0.349295 0.103318
0.575085 0.353931 0.104848
0.634794 0.358448 0.107034
0.687105 0.370366 0.110254
0.738185 0.391478 0.114853
0.770440 0.395955 0.117629
0.797398 0.403019 0.120846
0.822860 0.414171 0.124870
0.847179 0.421938 0.128859
0.863106 0.424132 0.131743
0.874949 0.429199 0.135264
0.884857 0.435685 0.140202
0.895155 0.425853 0.144531
0.900986 0.416459 0.150136
0.905928 0.398854 0.154266
0.909268 0.372829 0.160609
0.912820 0.273669 0.207694
0.913775 0.260136 0.348654
0.912465 0.257830 0.351031
0.092003 0.501756 0.096917
0.092580 0.500569 0.096976
0.094817 0.497229 0.097210
0.099735 0.495057 0.097751
0.105985 0.489320 0.098304
0.115972 0.481913 0.098820
0.130259 0.471432 0.099250
0.150270 0.455208 0.099433
0.176099 0.438206 0.099601
0.206286 0.421640 0.099800
0.242362 0.406420 0.100119
0.285769 0.393384 0.100631
0.326430 0.372083 0.100498
0.383384 0.368761 0.101627
0.469916 0.390728 0.104495
0.537077 0.393308 0.106330
0.595136 0.396792 0.108570
0.657146 0.406643 0.111654
0.708340 0.424148 0.116262
0.749781 0.427389 0.118953
0.778370 0.435299 0.122195
0.805467 0.444276 0.125993
0.830602 0.455032 0.130000
0.852688 0.459599 0.132902
0.866184 0.461859 0.136202
0.877402 0.466232 0.141371
0.888467 0.464074 0.145978
0.895755 0.463605 0.151921
0.901816 0.452580 0.157009
0.905790 0.428067 0.161753
0.909841 0.326265 0.159987
0.911402 0.255970 0.342184
0.910237 0.253951 0.350862
0.094092 0.534500 0.098689
0.094586 0.533481 0.098756
0.096477 0.530476 0.099022
0.100499 0.527731 0.099609
0.106423 0.524104 0.100289
0.115566 0.518382 0.100887
0.127237 0.509619 0.101311
0.146120 0.498865 0.101645
0.169483 0.486855 0.101856
0.197421 0.473563 0.102050
0.230237 0.457599 0.102307
0.268495 0.442888 0.102617
0.313160 0.430715 0.103126
0.363896 0.422814 0.103850
0.433389 0.430365 0.106272
0.501444 0.431445 0.108268
0.559654 0.433142 0.110254
0.622032 0.442224 0.113244
0.680434 0.458878 0.118205
0.721574 0.461188 0.120577
0.759694 0.467593 0.123547
0.787789 0.477080 0.127359
0.814022 0.486381 0.131360
0.838561 0.487880 0.134003
0.856765 0.492680 0.137371
0.868743 0.499208 0.143379
0.881315 0.495577 0.147550
0.889878 0.493453 0.152957
0.897698 0.489354 0.158356
0.902032 0.483322 0.165000
0.905534 0.475568 0.173254
0.908952 0.251882 0.335640
0.907928 0.250058 0.352591
0.096782 0.576543 0.101283
0.097216 0.575657 0.101347
0.098859 0.572952 0.101592
0.102268 0.569996 0.102113
0.108466 0.568428 0.102907
0.116477 0.562737 0.103507
0.127465 0.555214 0.103984
0.145563 0.546123 0.104404
0.167352 0.535164 0.104726
0.193657 0.522787 0.104936
0.224553 0.510327 0.105163
0.261122 0.498457 0.105680
0.302991 0.487471 0.106211
0.349753 0.478194 0.107038
0.414604 0.482635 0.109956
0.467381 0.472899 0.110565
0.529250 0.471334 0.112172
0.588605 0.478185 0.115247
0.654402 0.490682 0.120153
0.695195 0.492284 0.122512
0.736963 0.496437 0.125308
0.770532 0.504028 0.128917
0.797960 0.512037 0.132731
0.822929 0.515223 0.135390
0.845221 0.520590 0.139240
0.860589 0.525072 0.145074
0.873619 0.525623 0.149456
0.883005 0.528021 0.154971
0.891997 0.522574 0.159914
0.898517 0.514934 0.165548
0.902439 0.505273 0.171315
0.905013 0.494849 0.189223
0.906493 0.493286 0.355642
0.100278 0.622309 0.104650
0.100668 0.621777 0.104711
0.102134 0.620113 0.104944
0.105118 0.618088 0.105633
0.111810 0.617770 0.107031
0.118847 0.613728 0.108000
0.131040 0.609773 0.109024
0.148252 0.604029 0.109748
0.169779 0.594044 0.110413
0.195909 0.582577 0.110894
0.226974 0.570421 0.111384
0.262684 0.558080 0.111758
0.304102 0.546311 0.112316
0.349272 0.535698 0.112905
0.399184 0.526497 0.113796
0.448494 0.515449 0.114222
0.501855 0.506037 0.114863
0.559337 0.508756 0.117694
0.623884 0.520321 0.122369
0.670654 0.521075 0.124503
0.712079 0.524756 0.127234
0.753983 0.531928 0.130740
0.782088 0.539274 0.134358
0.807470 0.543158 0.136949
0.831248 0.547316 0.141396
0.851784 0.554148 0.147324
0.865817 0.555110 0.151577
0.876453 0.555450 0.156651
0.886166 0.555504 0.161847
0.893125 0.554878 0.167927
0.899068 0.545068 0.173061
0.902079 0.530985 0.181197
0.904066 0.499733 0.337668
0.101992 0.645730 0.107205
0.102339 0.645269 0.107298
0.103636 0.643797 0.107647
0.106406 0.641852 0.108358
0.112229 0.640913 0.109592
0.119168 0.638437 0.110757
0.131280 0.635945 0.112036
0.146421 0.630304 0.112743
0.166087 0.624183 0.113458
0.191108 0.617265 0.114348
0.219555 0.609224 0.114875
0.252432 0.599576 0.115466
0.291877 0.588032 0.116117
0.334971 0.576888 0.116836
0.381553 0.566992 0.117648
0.432572 0.558347 0.118719
0.482657 0.547547 0.119100
0.537266 0.543538 0.120869
0.595790 0.551077 0.124832
0.647928 0.551337 0.126830
0.688914 0.553930 0.129282
0.731598 0.560506 0.132693
0.766711 0.567501 0.136193
0.792676 0.570595 0.139118
0.817141 0.575421 0.143939
0.839270 0.582341 0.149741
0.858052 0.583439 0.153789
0.869282 0.586973 0.159027
0.879996 0.586962 0.164006
0.888172 0.584287 0.169357
0.894615 0.582544 0.175429
0.898826 0.582897 0.185623
0.901393 0.539137 0.263425
0.103480 0.666934 0.109771
0.103792 0.666559 0.109857
0.104951 0.665337 0.110180
0.107706 0.663622 0.110827
0.112753 0.662425 0.111927
0.119689 0.661389 0.113267
0.129542 0.658161 0.114561
0.144437 0.654400 0.115826
0.162755 0.649665 0.116900
0.186053 0.643451 0.117817
0.212478 0.636347 0.118637
0.243350 0.628652 0.119294
0.280908 0.620866 0.119894
0.321014 0.613200 0.120642
0.365668 0.605928 0.121405
0.414022 0.597536 0.122270
0.466204 0.589497 0.123372
0.522511 0.584509 0.124982
0.575267 0.586661 0.128151
0.620755 0.581566 0.129185
0.668022 0.583810 0.131572
0.709815 0.589597 0.134805
0.751886 0.596348 0.138488
0.778273 0.598930 0.142066
0.803381 0.603984 0.146791
0.826765 0.608241 0.152328
0.849482 0.610217 0.156396
0.862342 0.612113 0.161319
0.873818 0.613322 0.166431
0.882623 0.614381 0.171930
0.890023 0.612532 0.177283
0.895010 0.610615 0.184456
0.898358 0.613626 0.208182
0.105319 0.690784 0.112965
0.105603 0.690462 0.113046
0.106939 0.689401 0.113349
0.109603 0.687848 0.114058
0.114080 0.686544 0.115320
0.121132 0.686671 0.117243
0.130144 0.683057 0.118438
0.145181 0.680608 0.120038
0.162153 0.676331 0.121232
0.183886 0.670999 0.122194
0.209123 0.665100 0.123165
0.239138 0.658541 0.123961
0.275079 0.651720 0.124764
0.313435 0.644231 0.125365
0.356460 0.637099 0.126209
0.402608 0.630351 0.127025
0.452843 0.624250 0.127928
0.507114 0.619041 0.129078
0.560165 0.619883 0.132167
0.602070 0.613925 0.132608
0.648298 0.611002 0.133913
0.689861 0.614735 0.137062
0.731352 0.619051 0.141927
0.764364 0.620535 0.145304
0.790140 0.624063 0.149918
0.814390 0.628030 0.155264
0.837907 0.630156 0.159165
0.855359 0.632294 0.163971
0.867406 0.635045 0.169330
0.877362 0.634734 0.174231
0.885468 0.635531 0.179740
0.890796 0.637750 0.187087
0.894748 0.637537 0.200135
0.108132 0.717399 0.117831
0.108471 0.717129 0.117930
0.109721 0.716232 0.118296
0.112168 0.714882 0.119013
0.116222 0.713624 0.120197
0.122828 0.713486 0.122022
0.132829 0.711146 0.123471
0.146967 0.708898 0.125128
0.163103 0.705088 0.126470
0.185173 0.700945 0.127771
0.210096 0.695679 0.128785
0.239483 0.689715 0.129824
0.273642 0.683129 0.130632
0.311607 0.676417 0.131418
0.353218 0.669695 0.132131
0.399374 0.663427 0.133084
0.447546 0.657537 0.133986
0.499867 0.652091 0.134903
0.546500 0.647385 0.136126
0.587226 0.641095 0.136412
0.630897 0.636916 0.137401
0.671657 0.635647 0.140417
0.712340 0.639549 0.145528
0.750858 0.640810 0.148770
0.777252 0.643733 0.153179
0.802310 0.647646 0.158444
0.826633 0.649548 0.162104
0.847006 0.652307 0.167099
0.861478 0.654165 0.172033
0.871934 0.655538 0.177069
0.880745 0.657061 0.182513
0.887023 0.657465 0.188397
0.891176 0.662182 0.200124
0.109083 0.736528 0.119988
0.109396 0.736286 0.120084
0.110550 0.735473 0.120440
0.112793 0.734207 0.121133
0.116469 0.732896 0.122261
0.122299 0.732312 0.123974
0.132519 0.731123 0.125738
0.144658 0.728325 0.127232
0.160617 0.725648 0.128873
0.181533 0.721985 0.130324
0.203567 0.716987 0.131398
0.231305 0.711600 0.132482
0.263552 0.705692 0.133475
0.300183 0.699460 0.134358
0.340310 0.693185 0.135224
0.384121 0.686938 0.136017
0.430707 0.681113 0.136988
0.481099 0.675786 0.138110
0.530275 0.670834 0.139629
0.573479 0.666758 0.141581
0.615932 0.662271 0.142943
0.659729 0.660623 0.146058
0.695410 0.659840 0.149550
0.732778 0.660404 0.152405
0.765120 0.662795 0.156690
0.790524 0.666001 0.161775
0.815454 0.667760 0.165409
0.836831 0.670513 0.170384
0.855402 0.672594 0.175129
0.866551 0.674527 0.180055
0.876233 0.675876 0.185135
0.883014 0.678355 0.191260
0.887843 0.681956 0.199738
0.110068 0.755853 0.122320
0.110361 0.755641 0.122415
0.111436 0.754922 0.122765
0.113514 0.753777 0.123440
0.116889 0.752512 0.124530
0.122159 0.751708 0.126163
0.132876 0.751525 0.128263
0.143545 0.748503 0.129641
0.159839 0.746820 0.131613
0.177509 0.742645 0.132856
0.199904 0.738721 0.134265
0.227060 0.734076 0.135529
0.256875 0.728497 0.136610
0.291708 0.722592 0.137525
0.330267 0.716666 0.138956
0.372575 0.710741 0.140410
0.417147 0.704907 0.141797
0.465296 0.699483 0.143358
0.517620 0.694647 0.145057
0.558695 0.690156 0.146688
0.602196 0.686460 0.148665
0.647882 0.683980 0.151648
0.683696 0.682912 0.155074
0.717150 0.680204 0.156609
0.753542 0.681210 0.160330
0.779342 0.684132 0.165496
0.804625 0.685783 0.169017
0.827026 0.688128 0.173744
0.848472 0.690651 0.178478
0.861415 0.692294 0.183003
0.871694 0.694697 0.188221
0.879223 0.696604 0.193761
0.884574 0.701082 0.201259
0.111294 0.775565 0.125172
0.111571 0.775386 0.125267
0.112583 0.774776 0.125613
0.114530 0.773790 0.126279
0.117668 0.772660 0.127345
0.122587 0.771825 0.128924
0.133332 0.772009 0.131182
0.143760 0.769572 0.132689
0.157707 0.767430 0.134511
0.176342 0.764467 0.136130
0.198453 0.761094 0.137700
0.222447 0.756484 0.139684
0.251562 0.751625 0.141709
0.286120 0.746267 0.143511
0.323398 0.740588 0.145060
0.364143 0.734948 0.146811
0.407696 0.729317 0.148346
0.454477 0.723930 0.149939
0.504869 0.718870 0.151576
0.548692 0.714451 0.153407
0.590235 0.710380 0.155190
0.633734 0.707000 0.157192
0.672646 0.705253 0.160532
0.705608 0.702467 0.161881
0.739781 0.700765 0.164707
0.768521 0.701932 0.169409
0.794209 0.703629 0.172800
0.817451 0.705708 0.177390
0.839730 0.708161 0.181984
0.856290 0.709958 0.186288
0.867385 0.712284 0.191288
0.875547 0.714610 0.196693
0.881315 0.719418 0.203674
0.112129 0.795247 0.127677
0.112392 0.795092 0.127771
0.113353 0.794561 0.128119
0.115197 0.793691 0.128782
0.118148 0.792655 0.129838
0.122774 0.791785 0.131390
0.132645 0.791625 0.133587
0.144036 0.790302 0.135525
0.156356 0.787904 0.137245
0.176028 0.785927 0.140213
0.195136 0.782171 0.142456
0.219815 0.778420 0.144967
0.248666 0.774150 0.147451
0.280616 0.768962 0.149340
0.316526 0.763598 0.151081
0.356039 0.758174 0.152876
0.398917 0.752803 0.154727
0.444791 0.747548 0.156472
0.493828 0.742547 0.158188
0.539014 0.737871 0.159954
0.580251 0.733819 0.161862
0.622174 0.730183 0.163869
0.662151 0.727134 0.166059
0.694677 0.724176 0.167372
0.728382 0.722097 0.170179
0.759474 0.721143 0.174120
0.784113 0.721145 0.176615
0.808033 0.722962 0.181082
0.831415 0.725261 0.185619
0.851287 0.727213 0.189825
0.863233 0.729326 0.194416
0.871983 0.732037 0.199950
0.878372 0.736035 0.205843
0.111623 0.805042 0.128433
0.111874 0.804967 0.128529
0.112792 0.804709 0.128877
0.114548 0.804275 0.129542
0.117346 0.803732 0.130594
0.121520 0.803209 0.132132
0.130126 0.802921 0.134296
0.142552 0.802610 0.136718
0.153652 0.801252 0.138726
0.172062 0.800263 0.142269
0.190666 0.798502 0.144871
0.215204 0.796765 0.147790
0.240130 0.793551 0.150124
0.272240 0.789033 0.152568
0.308352 0.784124 0.154765
0.345681 0.778853 0.156572
0.386734 0.773637 0.158541
0.431169 0.768524 0.160405
0.478953 0.763636 0.162289
0.526682 0.759034 0.164159
0.567201 0.754822 0.166185
0.608359 0.751116 0.168232
0.651301 0.747959 0.170469
0.684282 0.745329 0.172782
0.717435 0.742788 0.175537
0.751774 0.741358 0.179425
0.775866 0.740302 0.181311
0.798819 0.739878 0.184814
0.823082 0.741979 0.189137
0.844215 0.743944 0.193567
0.859202 0.746057 0.197817
0.868671 0.748331 0.202825
0.875578 0.752493 0.208670
0.111242 0.813559 0.129539
0.111484 0.813496 0.129634
0.112366 0.813276 0.129982
0.114048 0.812905 0.130644
0.116718 0.812431 0.131689
0.120648 0.811949 0.133211
0.128121 0.811620 0.135342
0.141680 0.811687 0.138586
0.151863 0.810375 0.141122
0.167868 0.809276 0.144516
0.188058 0.808018 0.147986
0.209019 0.806188 0.150746
0.235341 0.804252 0.153647
0.266165 0.802073 0.156427
0.298985 0.799605 0.158679
0.336312 0.797075 0.160923
0.377254 0.793618 0.163089
0.420985 0.788636 0.165337
0.467176 0.783823 0.167416
0.516674 0.779273 0.169550
0.555892 0.775052 0.171601
0.596409 0.771246 0.173709
0.638071 0.767849 0.175828
0.673645 0.765085 0.178225
0.706961 0.762784 0.180680
0.740785 0.760816 0.184552
0.768588 0.759905 0.186316
0.791340 0.758487 0.189413
0.814899 0.758383 0.192748
0.837236 0.760141 0.196849
0.855350 0.762292 0.201339
0.865572 0.764422 0.205936
0.872957 0.768048 0.211585
0.110535 0.821552 0.130500
0.110770 0.821499 0.130596
0.111627 0.821315 0.130947
0.113259 0.821001 0.131614
0.115839 0.820592 0.132665
0.119618 0.820159 0.134193
0.125991 0.819821 0.136327
0.138712 0.819760 0.140146
0.150437 0.818963 0.143652
0.164586 0.817840 0.146958
0.186514 0.816980 0.151367
0.204833 0.815160 0.154029
0.232427 0.813505 0.157557
0.259067 0.811332 0.160179
0.293284 0.809149 0.163083
0.329416 0.806776 0.165731
0.367901 0.804318 0.168233
0.410257 0.801836 0.170685
0.455664 0.799376 0.173011
0.504162 0.797034 0.175291
0.545785 0.794287 0.177549
0.585855 0.790446 0.179791
0.626593 0.786973 0.182004
0.664128 0.783910 0.184233
0.696615 0.781483 0.186801
0.730180 0.779474 0.189398
0.761435 0.778785 0.191058
0.784394 0.777017 0.194175
0.808401 0.776516 0.197184
0.830515 0.776144 0.200364
0.851558 0.777894 0.204626
0.862653 0.780006 0.209128
0.870730 0.783282 0.214514
0.106926 0.831770 0.128455
0.107162 0.831716 0.128556
0.108022 0.831524 0.128923
0.109659 0.831189 0.129623
0.112248 0.830727 0.130732
0.116037 0.830187 0.132355
0.121424 0.829652 0.134644
0.132656 0.829256 0.137871
0.146616 0.828637 0.142833
0.158782 0.827372 0.146165
0.178686 0.826227 0.150607
0.199283 0.824710 0.154440
0.223224 0.822899 0.157892
0.251265 0.820919 0.161308
0.283947 0.818731 0.164552
0.318224 0.816429 0.167518
0.357618 0.814092 0.170519
0.399114 0.811699 0.173217
0.442445 0.809307 0.175723
0.489503 0.807010 0.178169
0.534113 0.804851 0.180566
0.573799 0.802855 0.182939
0.614514 0.801052 0.185298
0.655098 0.799461 0.187652
