negative-superia-xtra-400/SuperiaXtra400_Modern_ExtraPunchy.cube
TITLE "Fuji Superia X-tra 400 Modern ExtraPunchy"
# Adobe RGB in/out. REPLACES AgX. Fuji Superia X-tra 400 Modern ExtraPunchy.
LUT_3D_SIZE 33
DOMAIN_MIN 0.0 0.0 0.0
DOMAIN_MAX 1.0 1.0 1.0
0.069662 0.073299 0.081842
0.069662 0.073299 0.081842
0.067812 0.073299 0.081842
0.069061 0.073299 0.081842
0.073854 0.072844 0.081842
0.087832 0.072587 0.081842
0.131973 0.075794 0.081842
0.203521 0.080672 0.081842
0.302286 0.086586 0.081842
0.402564 0.095508 0.081842
0.503792 0.107411 0.081842
0.586048 0.124581 0.081842
0.652678 0.149969 0.081842
0.703177 0.178781 0.080845
0.752483 0.216897 0.079609
0.792054 0.261760 0.078700
0.824820 0.308347 0.078250
0.850674 0.355617 0.078154
0.869574 0.405237 0.078346
0.887618 0.447790 0.078547
0.904806 0.491337 0.078766
0.917581 0.536026 0.078977
0.927695 0.568774 0.079318
0.937363 0.601277 0.079644
0.946606 0.634361 0.079996
0.952111 0.660529 0.080337
0.956310 0.685805 0.080679
0.960316 0.710704 0.081072
0.964139 0.735216 0.081448
0.967812 0.755131 0.081945
0.971326 0.773353 0.082759
0.974689 0.791138 0.083546
0.977910 0.808491 0.084408
0.069662 0.073299 0.081842
0.069662 0.073299 0.081842
0.068615 0.073299 0.081842
0.068390 0.073299 0.081842
0.072906 0.072735 0.081842
0.085249 0.072690 0.081842
0.125261 0.075909 0.081842
0.194633 0.080807 0.081842
0.293754 0.086742 0.081842
0.394602 0.095783 0.081842
0.497834 0.107743 0.081842
0.582110 0.125046 0.081842
0.649108 0.150580 0.081842
0.700747 0.179411 0.080852
0.750296 0.217752 0.079614
0.790664 0.262675 0.078701
0.823573 0.309188 0.078251
0.849969 0.356480 0.078154
0.868940 0.405957 0.078345
0.887047 0.448495 0.078546
0.904289 0.492037 0.078766
0.917279 0.536726 0.078976
0.927422 0.569262 0.079318
0.937115 0.601765 0.079644
0.946380 0.634839 0.079996
0.952008 0.660891 0.080337
0.956217 0.686156 0.080679
0.960230 0.711045 0.081072
0.964061 0.735547 0.081448
0.967739 0.755379 0.081946
0.971260 0.773593 0.082760
0.974628 0.791370 0.083547
0.977853 0.808717 0.084410
0.069662 0.073299 0.081842
0.069662 0.073299 0.081842
0.069368 0.073299 0.081842
0.067660 0.073299 0.081842
0.070475 0.072507 0.081842
0.079056 0.072983 0.081842
0.106508 0.076310 0.081842
0.167614 0.081283 0.081842
0.266543 0.087475 0.081842
0.368909 0.096754 0.081842
0.478102 0.108917 0.081842
0.568745 0.126700 0.081842
0.636870 0.152758 0.081842
0.692332 0.181659 0.080873
0.742681 0.220807 0.079628
0.785794 0.265950 0.078706
0.819194 0.312197 0.078255
0.847479 0.359569 0.078152
0.866705 0.408536 0.078344
0.885023 0.451019 0.078545
0.902455 0.494545 0.078765
0.916207 0.538698 0.078976
0.926453 0.571010 0.079317
0.936233 0.603516 0.079644
0.945577 0.636553 0.079996
0.951643 0.662188 0.080337
0.955883 0.687415 0.080680
0.959925 0.712268 0.081073
0.963782 0.736736 0.081449
0.967481 0.756271 0.081949
0.971022 0.774456 0.082764
0.974408 0.792206 0.083551
0.977650 0.809526 0.084416
0.069662 0.072287 0.081842
0.069662 0.072334 0.081842
0.068371 0.072467 0.081842
0.067599 0.072547 0.081842
0.069030 0.072193 0.081842
0.074197 0.073490 0.081842
0.090071 0.077110 0.081842
0.138096 0.082189 0.081842
0.222372 0.088909 0.081842
0.330563 0.098514 0.081842
0.440608 0.111059 0.081842
0.541127 0.129951 0.081842
0.616531 0.156723 0.081842
0.678045 0.185751 0.080899
0.729597 0.226394 0.079645
0.777317 0.271942 0.078712
0.811513 0.317692 0.078261
0.843077 0.365212 0.078150
0.862736 0.413241 0.078343
0.881413 0.455628 0.078543
0.899175 0.499133 0.078764
0.914283 0.541971 0.078975
0.924709 0.574209 0.079316
0.934642 0.606721 0.079644
0.944125 0.639049 0.079997
0.950981 0.664564 0.080338
0.955280 0.689721 0.080681
0.959373 0.714508 0.081075
0.963274 0.738915 0.081452
0.967011 0.757906 0.081956
0.970589 0.776038 0.082771
0.974009 0.793738 0.083559
0.977280 0.811012 0.084429
0.069662 0.075480 0.081842
0.069662 0.075344 0.081842
0.067841 0.074918 0.081842
0.068042 0.074354 0.081842
0.069384 0.074063 0.081842
0.072760 0.075139 0.081842
0.082896 0.078816 0.081842
0.115625 0.084063 0.081842
0.183687 0.091202 0.081842
0.287923 0.101210 0.081842
0.395261 0.114567 0.081842
0.504070 0.135661 0.081842
0.590584 0.162631 0.081842
0.659215 0.193381 0.080906
0.712028 0.234732 0.079652
0.763375 0.280869 0.078714
0.800869 0.325849 0.078263
0.834466 0.373589 0.078149
0.857121 0.420162 0.078342
0.876277 0.462452 0.078543
0.894489 0.505947 0.078763
0.911519 0.546822 0.078975
0.922194 0.578953 0.079317
0.932341 0.611481 0.079645
0.942021 0.642686 0.079999
0.950019 0.668093 0.080340
0.954399 0.693149 0.080685
0.958565 0.717842 0.081079
0.962532 0.741816 0.081456
0.966324 0.760339 0.081967
0.969954 0.778393 0.082783
0.973422 0.796021 0.083572
0.976736 0.813226 0.084449
0.069140 0.087984 0.081842
0.068220 0.087530 0.081842
0.067711 0.086209 0.081842
0.068954 0.084278 0.081842
0.071024 0.081990 0.081842
0.073794 0.081125 0.081842
0.080173 0.082243 0.081842
0.102470 0.087253 0.081842
0.156540 0.095113 0.081842
0.247199 0.105768 0.081842
0.352659 0.120952 0.081842
0.465272 0.143666 0.081842
0.562294 0.170761 0.081842
0.633073 0.204117 0.080867
0.691541 0.246098 0.079630
0.743881 0.291899 0.078708
0.787921 0.336833 0.078259
0.822420 0.384848 0.078151
0.850101 0.429323 0.078343
0.869799 0.471576 0.078544
0.888548 0.515089 0.078764
0.906384 0.553308 0.078976
0.918965 0.585303 0.079320
0.929378 0.617859 0.079648
0.939296 0.647554 0.080003
0.948739 0.672821 0.080345
0.953252 0.697745 0.080691
0.957510 0.722314 0.081086
0.961560 0.745204 0.081464
0.965421 0.763603 0.081986
0.969119 0.781555 0.082803
0.972648 0.799087 0.083592
0.976019 0.816202 0.084479
0.067902 0.111715 0.081842
0.067511 0.112172 0.081842
0.068228 0.109174 0.081842
0.069904 0.102892 0.081842
0.072767 0.097042 0.081842
0.076494 0.093238 0.081842
0.083307 0.092329 0.081842
0.096316 0.093345 0.081842
0.140672 0.101544 0.081842
0.214797 0.112668 0.081842
0.315943 0.130055 0.081842
0.421293 0.154566 0.081842
0.524109 0.181567 0.081842
0.604631 0.218329 0.080750
0.669887 0.260982 0.079558
0.722764 0.305633 0.078686
0.773507 0.350877 0.078240
0.808796 0.399185 0.078157
0.842014 0.440890 0.078348
0.862298 0.483122 0.078549
0.881588 0.526664 0.078769
0.899944 0.561476 0.078982
0.915121 0.593305 0.079328
0.925836 0.625902 0.079656
0.936019 0.653682 0.080012
0.945711 0.678777 0.080354
0.951858 0.703540 0.080703
0.956224 0.727956 0.081098
0.960372 0.749475 0.081475
0.964317 0.767721 0.082013
0.968094 0.785547 0.082831
0.971697 0.802959 0.083622
0.975135 0.819962 0.084522
0.067597 0.156334 0.081842
0.067858 0.157140 0.081842
0.068912 0.154815 0.081842
0.071176 0.140089 0.081842
0.074248 0.126170 0.081842
0.079820 0.117174 0.081842
0.088153 0.112341 0.081842
0.105797 0.111317 0.081842
0.134336 0.112765 0.081842
0.195294 0.125256 0.081842
0.288261 0.145208 0.081842
0.385872 0.169070 0.081842
0.490512 0.198325 0.081689
0.578030 0.236808 0.080556
0.647266 0.280170 0.079417
0.701463 0.322860 0.078640
0.753273 0.368335 0.078202
0.794348 0.414165 0.078171
0.828732 0.455026 0.078359
0.854102 0.497258 0.078561
0.873898 0.539825 0.078780
0.892763 0.571384 0.078998
0.910714 0.603220 0.079343
0.921820 0.635661 0.079672
0.932281 0.661096 0.080027
0.942239 0.685987 0.080369
0.950250 0.710558 0.080721
0.954735 0.734792 0.081115
0.958991 0.754626 0.081492
0.963035 0.772707 0.082054
0.966896 0.790382 0.082871
0.970582 0.807654 0.083662
0.974096 0.824075 0.084581
0.068107 0.227141 0.081842
0.068362 0.228258 0.081842
0.069607 0.220918 0.081842
0.072363 0.200121 0.081842
0.076385 0.180012 0.081842
0.083408 0.165109 0.081842
0.095045 0.154262 0.081842
0.117043 0.148190 0.081842
0.147752 0.146812 0.081842
0.190475 0.149580 0.081842
0.269293 0.165053 0.081842
0.359326 0.188299 0.081842
0.461122 0.221984 0.081354
0.551928 0.260576 0.080258
0.621777 0.301938 0.079194
0.681179 0.344158 0.078567
0.732638 0.389690 0.078138
0.779806 0.431358 0.078194
0.814624 0.472044 0.078378
0.845567 0.514212 0.078581
0.865803 0.551836 0.078799
0.885112 0.583114 0.079026
0.903506 0.614982 0.079368
0.917455 0.644892 0.079698
0.928197 0.669826 0.080050
0.938416 0.694477 0.080391
0.948135 0.718822 0.080747
0.953076 0.742351 0.081141
0.957446 0.760677 0.081517
0.961596 0.778573 0.082110
0.965545 0.796074 0.082926
0.969322 0.813181 0.083717
0.972919 0.828056 0.084660
0.068879 0.324820 0.080981
0.069232 0.322268 0.081020
0.070703 0.308898 0.081222
0.073499 0.288366 0.081545
0.078533 0.262563 0.081842
0.086879 0.238081 0.081842
0.103392 0.218359 0.081842
0.128880 0.204726 0.081842
0.162045 0.197444 0.081842
0.206936 0.196139 0.081842
0.267432 0.200149 0.081842
0.340502 0.219100 0.081781
0.433814 0.252320 0.080884
0.525016 0.290125 0.079855
0.599656 0.328333 0.078882
0.662769 0.370208 0.078462
0.713382 0.413103 0.078044
0.763613 0.451873 0.078229
0.800842 0.492302 0.078407
0.834691 0.534286 0.078612
0.857619 0.565864 0.078827
0.877263 0.596836 0.079068
0.896033 0.628663 0.079405
0.912876 0.655288 0.079736
0.923884 0.679915 0.080085
0.934346 0.704282 0.080424
0.944307 0.728365 0.080786
0.951285 0.749577 0.081177
0.955771 0.767646 0.081551
0.960028 0.785330 0.082186
0.964072 0.802632 0.083000
0.967939 0.819552 0.083790
0.971623 0.832637 0.084762
0.069709 0.416876 0.079232
0.070195 0.413617 0.079286
0.071917 0.402639 0.079467
0.074857 0.381383 0.079766
0.080994 0.355753 0.080138
0.091660 0.329898 0.080526
0.111998 0.306976 0.080889
0.140728 0.288929 0.081131
0.177723 0.275698 0.081236
0.226041 0.268519 0.081222
0.284148 0.267658 0.081090
0.342317 0.272489 0.080801
0.413850 0.289880 0.080242
0.503920 0.323195 0.079356
0.581252 0.360546 0.078691
0.644823 0.401850 0.078317
0.696245 0.438140 0.078100
0.745646 0.476243 0.078277
0.787882 0.516211 0.078448
0.821750 0.551918 0.078657
0.849606 0.582073 0.078866
0.869473 0.612963 0.079128
0.888529 0.642705 0.079457
0.906738 0.667155 0.079789
0.919457 0.691414 0.080134
0.930136 0.715446 0.080468
0.940319 0.739222 0.080837
0.949404 0.757740 0.081225
0.954001 0.775546 0.081596
0.958364 0.792989 0.082286
0.962507 0.810067 0.083095
0.966458 0.825745 0.083883
0.970231 0.837822 0.084893
0.071076 0.499238 0.078380
0.071541 0.496220 0.078398
0.073177 0.485929 0.078459
0.076660 0.469007 0.078561
0.083638 0.447725 0.078692
0.096259 0.424908 0.078835
0.120764 0.402915 0.079132
0.152338 0.379954 0.079392
0.193287 0.362163 0.079566
0.245236 0.350310 0.079635
0.300824 0.344421 0.079591
0.357829 0.344180 0.079439
0.419233 0.349098 0.079189
0.488076 0.363092 0.078818
0.566663 0.399526 0.078484
0.627594 0.432711 0.078124
0.681573 0.467689 0.078174
0.729814 0.504936 0.078339
0.776104 0.542246 0.078515
0.809744 0.571184 0.078717
0.841997 0.600794 0.078918
0.861991 0.631389 0.079206
0.881200 0.656606 0.079526
0.899625 0.680565 0.079859
0.915027 0.704387 0.080198
0.925898 0.728025 0.080526
0.936263 0.749032 0.080904
0.946149 0.766884 0.081287
0.952175 0.784396 0.081653
0.956636 0.801568 0.082414
0.960875 0.818393 0.083216
0.964907 0.831732 0.084001
0.968766 0.843616 0.085056
0.072481 0.571894 0.078176
0.072928 0.569914 0.078169
0.074513 0.563082 0.078144
0.078744 0.551560 0.078102
0.086309 0.536170 0.078046
0.102275 0.512639 0.078173
0.128855 0.489164 0.078310
0.163084 0.467736 0.078425
0.207469 0.449768 0.078509
0.263784 0.436115 0.078560
0.317225 0.427199 0.078573
0.373655 0.423077 0.078546
0.434974 0.423552 0.078480
0.495487 0.428275 0.078380
0.553141 0.437423 0.078231
0.613934 0.468497 0.078109
0.669436 0.502222 0.078263
0.716306 0.538087 0.078415
0.763409 0.565197 0.078598
0.798927 0.593142 0.078792
0.831434 0.622423 0.078985
0.854972 0.648842 0.079304
0.874223 0.672223 0.079613
0.892768 0.695600 0.079948
0.910572 0.718904 0.080278
0.921717 0.741753 0.080599
0.932227 0.759556 0.080989
0.942275 0.777038 0.081364
0.950327 0.794218 0.081752
0.954879 0.811083 0.082573
0.959205 0.826374 0.083366
0.963321 0.838351 0.084165
0.967254 0.850021 0.085255
0.073839 0.635062 0.078436
0.074263 0.633230 0.078430
0.076523 0.626869 0.078410
0.081199 0.615999 0.078375
0.089994 0.601519 0.078328
0.108534 0.585028 0.078274
0.136748 0.567980 0.078218
0.174058 0.551567 0.078166
0.222139 0.536711 0.078122
0.279186 0.519841 0.078091
0.333244 0.507358 0.078074
0.389471 0.499534 0.078075
0.451216 0.496368 0.078092
0.507619 0.497666 0.078126
0.563202 0.503115 0.078174
0.605343 0.512337 0.078235
0.659700 0.540682 0.078364
0.705111 0.565318 0.078519
0.750938 0.591135 0.078699
0.789437 0.618515 0.078882
0.821494 0.644597 0.079120
0.848544 0.667024 0.079424
0.867737 0.689636 0.079729
0.886303 0.712333 0.080056
0.904181 0.735032 0.080377
0.917676 0.753846 0.080712
0.928297 0.771158 0.081092
0.938465 0.788228 0.081459
0.948188 0.805033 0.081959
0.953123 0.821555 0.082766
0.957527 0.833884 0.083550
0.961719 0.845608 0.084417
0.965718 0.857043 0.085496
0.075814 0.684783 0.078739
0.076424 0.683515 0.078733
0.078825 0.679083 0.078710
0.084017 0.671410 0.078671
0.094222 0.660983 0.078619
0.114974 0.648626 0.078560
0.144976 0.634909 0.078497
0.184820 0.617936 0.078438
0.236028 0.602172 0.078395
0.292516 0.588612 0.078362
0.347750 0.577840 0.078340
0.404754 0.570043 0.078332
0.467319 0.565394 0.078338
0.519920 0.563899 0.078358
0.571545 0.565439 0.078392
0.612915 0.569805 0.078438
0.655196 0.576738 0.078509
0.696072 0.595694 0.078646
0.740571 0.620734 0.078816
0.781312 0.644681 0.078988
0.812797 0.665711 0.079278
0.842787 0.687161 0.079564
0.861852 0.708902 0.079872
0.880332 0.730824 0.080186
0.898202 0.750112 0.080495
0.913844 0.767069 0.080847
0.924537 0.783870 0.081215
0.934783 0.800478 0.081572
0.944607 0.816863 0.082206
0.951396 0.830353 0.082996
0.955867 0.842062 0.083770
0.960126 0.853507 0.084716
0.964186 0.864686 0.085780
0.078075 0.733179 0.079063
0.078862 0.732051 0.079054
0.081537 0.728095 0.079022
0.086921 0.721191 0.078972
0.099098 0.711692 0.078927
0.121930 0.700249 0.078874
0.153053 0.687666 0.078816
0.195150 0.674783 0.078758
0.249144 0.662379 0.078704
0.304880 0.651117 0.078659
0.360800 0.641518 0.078627
0.419146 0.633167 0.078609
0.479736 0.626397 0.078606
0.531922 0.622666 0.078619
0.579844 0.621956 0.078648
0.620643 0.624147 0.078694
0.660540 0.629052 0.078753
0.693442 0.636440 0.078825
0.732145 0.649791 0.078945
0.774507 0.669000 0.079188
0.805345 0.688871 0.079457
0.835795 0.709264 0.079735
0.856599 0.730050 0.080036
0.874919 0.748776 0.080336
0.892708 0.765149 0.080639
0.909914 0.781476 0.081004
0.920995 0.797711 0.081359
0.931283 0.813807 0.081704
0.941174 0.827930 0.082494
0.949726 0.839534 0.083265
0.954249 0.850912 0.084026
0.958563 0.862054 0.085066
0.962680 0.872952 0.086112
0.081004 0.771448 0.079524
0.081719 0.770677 0.079516
0.084703 0.767964 0.079489
0.091383 0.763191 0.079442
0.105503 0.756543 0.079376
0.128843 0.748392 0.079297
0.161037 0.738824 0.079209
0.204742 0.726504 0.079119
0.261547 0.714352 0.079034
0.316294 0.702984 0.078968
0.372779 0.692912 0.078933
0.432442 0.684528 0.078910
0.490698 0.678108 0.078900
0.543289 0.673816 0.078904
0.587828 0.671718 0.078922
0.628252 0.671795 0.078955
0.665911 0.673959 0.079015
0.698256 0.678076 0.079114
0.731130 0.683983 0.079232
0.767905 0.695326 0.079407
0.799081 0.714011 0.079655
0.828939 0.733301 0.079938
0.851994 0.750297 0.080223
0.870098 0.765808 0.080506
0.887745 0.781423 0.080835
0.904859 0.797070 0.081183
0.917712 0.812688 0.081523
0.928012 0.826818 0.082060
0.937930 0.838203 0.082826
0.947463 0.849416 0.083578
0.952693 0.860436 0.084419
0.957051 0.871249 0.085468
0.961215 0.880586 0.086493
0.084264 0.806702 0.079993
0.085060 0.806022 0.079985
0.088211 0.803625 0.079959
0.096045 0.799385 0.079913
0.112024 0.793432 0.079850
0.136021 0.786062 0.079771
0.169414 0.777682 0.079684
0.214834 0.768750 0.079600
0.272628 0.759732 0.079522
0.326824 0.751064 0.079451
0.383698 0.743093 0.079392
0.444555 0.734910 0.079349
0.500698 0.727693 0.079323
0.553791 0.722352 0.079318
0.595292 0.719001 0.079335
0.635510 0.717681 0.079373
0.671128 0.718361 0.079432
0.703032 0.720962 0.079511
0.735409 0.725364 0.079608
0.768261 0.731424 0.079730
0.793905 0.740932 0.079898
0.823153 0.755027 0.080162
0.848023 0.769425 0.080429
0.865881 0.784080 0.080719
0.883328 0.798908 0.081053
0.900302 0.813835 0.081383
0.914711 0.827240 0.081711
0.924993 0.838272 0.082462
0.934905 0.849200 0.083201
0.944459 0.859993 0.083934
0.951217 0.870629 0.084903
0.955606 0.880052 0.085925
0.959805 0.887315 0.086925
0.087774 0.836020 0.080451
0.088982 0.835577 0.080444
0.093226 0.834010 0.080422
0.102461 0.831225 0.080382
0.119354 0.827283 0.080327
0.143900 0.822195 0.080258
0.178379 0.814539 0.080181
0.224987 0.806267 0.080098
0.281593 0.797779 0.080018
0.336754 0.789461 0.079943
0.393611 0.781662 0.079878
0.455480 0.774680 0.079827
0.509728 0.768755 0.079793
0.562816 0.764068 0.079778
0.602101 0.760742 0.079785
0.642238 0.758845 0.079813
0.676043 0.758394 0.079862
0.707618 0.759364 0.079933
0.739597 0.761696 0.080023
0.771828 0.765303 0.080132
0.794955 0.770087 0.080258
0.818341 0.776260 0.080403
0.844648 0.789743 0.080664
0.862242 0.803534 0.080978
0.879453 0.817556 0.081292
0.896249 0.829417 0.081603
0.912005 0.839949 0.082191
0.922240 0.850458 0.082909
0.932120 0.860903 0.083622
0.941670 0.871254 0.084434
0.949832 0.880331 0.085444
0.954241 0.887463 0.086436
0.958465 0.894456 0.087410
0.093016 0.860038 0.080952
0.094157 0.859649 0.080945
0.098687 0.858274 0.080921
0.109503 0.855821 0.080879
0.126782 0.852329 0.080819
0.151892 0.847927 0.080744
0.187383 0.842805 0.080658
0.234982 0.837195 0.080573
0.290115 0.831345 0.080500
0.345271 0.825507 0.080431
0.402599 0.818914 0.080369
0.465263 0.812000 0.080318
0.517737 0.805947 0.080281
0.568800 0.800939 0.080260
0.608178 0.797113 0.080258
0.648317 0.794559 0.080275
0.680540 0.793322 0.080311
0.711884 0.793408 0.080367
0.743561 0.794789 0.080441
0.774380 0.797409 0.080533
0.797199 0.801195 0.080651
0.820018 0.806057 0.080805
0.842183 0.811904 0.080976
0.859136 0.823750 0.081255
0.876095 0.833529 0.081549
0.892688 0.843419 0.082026
0.908865 0.853371 0.082714
0.919761 0.863341 0.083399
0.929590 0.873288 0.084088
0.939108 0.881531 0.085067
0.948299 0.888460 0.086041
0.952966 0.895288 0.087002
0.957204 0.902000 0.087976
0.098660 0.881358 0.081458
0.100282 0.881116 0.081452
0.106076 0.880260 0.081432
0.117071 0.878727 0.081395
0.134302 0.876131 0.081344
0.159982 0.872204 0.081279
0.196408 0.867603 0.081204
0.244849 0.862514 0.081124
0.298258 0.857150 0.081041
0.353060 0.851723 0.080962
0.410749 0.846442 0.080889
0.473030 0.841494 0.080828
0.524766 0.837047 0.080781
0.574016 0.833237 0.080751
0.613493 0.830173 0.080740
0.653556 0.827935 0.080751
0.684543 0.826572 0.080783
0.715735 0.826108 0.080838
0.747192 0.826542 0.080914
0.776752 0.827851 0.081010
0.799315 0.829997 0.081127
0.821862 0.832928 0.081261
0.843172 0.836584 0.081411
0.857301 0.840902 0.081576
0.873217 0.848806 0.081978
0.889593 0.858081 0.082627
0.905586 0.867454 0.083278
0.917551 0.876884 0.083936
0.927314 0.883753 0.084813
0.936780 0.890403 0.085758
0.945941 0.896994 0.086695
0.951786 0.903508 0.087621
0.956030 0.909930 0.088889
0.106294 0.896755 0.082237
0.107868 0.896544 0.082226
0.113582 0.895796 0.082185
0.125030 0.894454 0.082111
0.142748 0.892526 0.082007
0.168485 0.890064 0.081875
0.205115 0.887154 0.081723
0.254611 0.883905 0.081642
0.306071 0.880441 0.081569
0.360325 0.876637 0.081498
0.418150 0.871695 0.081432
0.478920 0.866997 0.081374
0.530880 0.862691 0.081329
0.578497 0.858907 0.081297
0.618050 0.855753 0.081283
0.657067 0.853312 0.081286
0.688007 0.851642 0.081308
0.719102 0.850778 0.081350
0.750407 0.850736 0.081412
0.778877 0.851508 0.081493
0.801236 0.853072 0.081592
0.823558 0.855392 0.081713
0.844091 0.858424 0.082025
0.858059 0.862115 0.082371
0.871888 0.866411 0.082749
0.886930 0.873333 0.083264
0.902728 0.880793 0.083886
0.915600 0.887076 0.084695
0.925285 0.893373 0.085600
0.934683 0.899657 0.086503
0.943799 0.905907 0.087401
0.950704 0.912103 0.088512
0.954945 0.917509 0.089884
0.114064 0.911329 0.083288
0.115777 0.911145 0.083278
0.121902 0.910491 0.083243
0.132977 0.909315 0.083180
0.151289 0.907620 0.083090
0.177798 0.905447 0.082976
0.214623 0.902864 0.082843
0.264274 0.899959 0.082697
0.313592 0.896838 0.082545
0.367126 0.893609 0.082396
0.424881 0.890386 0.082255
0.484112 0.887274 0.082130
0.536149 0.884371 0.082029
0.582288 0.881765 0.081955
0.621875 0.879531 0.081915
0.660004 0.877729 0.081912
0.690914 0.875948 0.081948
0.721947 0.874797 0.082025
0.753148 0.874390 0.082144
0.780704 0.874733 0.082305
0.802906 0.875819 0.082506
0.825047 0.877591 0.082746
0.844904 0.879354 0.083023
0.858734 0.881573 0.083334
0.872427 0.884214 0.083681
0.886006 0.887241 0.084057
0.900257 0.891541 0.084720
0.913893 0.897423 0.085576
0.923490 0.903337 0.086437
0.932810 0.909259 0.087298
0.941870 0.914831 0.088303
0.949721 0.919973 0.089633
0.953952 0.925066 0.090958
0.122577 0.923543 0.084382
0.124219 0.923402 0.084370
0.130116 0.922902 0.084325
0.141732 0.922002 0.084246
0.159892 0.920700 0.084132
0.187196 0.919024 0.084022
0.224391 0.917021 0.083905
0.273047 0.914755 0.083775
0.320848 0.912280 0.083640
0.373516 0.909360 0.083505
0.431015 0.906417 0.083377
0.488679 0.903544 0.083264
0.540650 0.900831 0.083170
0.585444 0.898355 0.083099
0.625007 0.896188 0.083058
0.662386 0.894386 0.083048
0.693265 0.892998 0.083073
0.724253 0.892056 0.083134
0.755380 0.891584 0.083234
0.782201 0.891593 0.083371
0.804284 0.892085 0.083549
0.826282 0.893051 0.083764
0.845581 0.894476 0.084015
0.859295 0.896338 0.084387
0.872871 0.898610 0.084844
0.886331 0.901263 0.085343
0.899641 0.904266 0.085879
0.912409 0.908058 0.086503
0.921914 0.913459 0.087319
0.931151 0.918334 0.088276
0.940145 0.923209 0.089551
0.948835 0.928067 0.090830
0.953050 0.932891 0.092107
0.130961 0.934952 0.085763
0.132565 0.934829 0.085753
0.138803 0.934393 0.085714
0.150660 0.933606 0.085646
0.168909 0.932467 0.085548
0.196614 0.930994 0.085423
0.234169 0.929227 0.085276
0.280605 0.927218 0.085113
0.327857 0.925030 0.084942
0.379533 0.922734 0.084770
0.436614 0.920400 0.084606
0.492688 0.918100 0.084458
0.544456 0.915903 0.084333
0.588017 0.913873 0.084237
0.627494 0.912009 0.084178
0.664240 0.910254 0.084159
0.695075 0.908854 0.084186
0.726018 0.907846 0.084260
0.757087 0.907254 0.084385
0.783346 0.907095 0.084560
0.805338 0.907375 0.084787
0.827227 0.908093 0.085064
0.846095 0.909239 0.085390
0.859716 0.910800 0.085763
0.873194 0.912717 0.086180
0.886552 0.914753 0.086638
0.899760 0.917089 0.087135
0.912152 0.919703 0.087667
0.920539 0.922667 0.088437
0.929692 0.927236 0.089650
0.938612 0.931819 0.090872
0.947280 0.936397 0.092099
0.952235 0.940957 0.093328
0.139902 0.944452 0.087073
0.141651 0.944386 0.087064
0.147948 0.944151 0.087032
0.159596 0.943725 0.086973
0.178686 0.943107 0.086889
0.205685 0.942272 0.086782
0.243927 0.940717 0.086655
0.288019 0.938943 0.086515
0.334778 0.937000 0.086366
0.385209 0.934949 0.086217
0.441729 0.932851 0.086073
0.496195 0.930768 0.085942
0.547634 0.928760 0.085831
0.590062 0.926885 0.085745
0.629387 0.925193 0.085691
0.665600 0.923730 0.085672
0.696368 0.922534 0.085694
0.727257 0.921637 0.085758
0.758269 0.921061 0.085867
0.784131 0.920824 0.086023
0.806052 0.920934 0.086226
0.827856 0.921395 0.086476
0.846428 0.922203 0.086772
0.859975 0.923351 0.087113
0.873373 0.924825 0.087496
0.886647 0.926610 0.087934
0.899769 0.928687 0.088649
0.912101 0.931035 0.089421
0.920371 0.933634 0.090244
0.928505 0.936463 0.091116
0.937258 0.940626 0.092258
0.945863 0.943958 0.093440
0.951503 0.946623 0.095038
0.149176 0.950754 0.088550
0.150893 0.950697 0.088537
0.157074 0.950493 0.088495
0.168889 0.950123 0.088418
0.188479 0.949586 0.088307
0.215621 0.948887 0.088165
0.253634 0.948045 0.087998
0.295278 0.947079 0.087840
0.341181 0.946017 0.087712
0.390567 0.944889 0.087584
0.446403 0.943728 0.087460
0.499250 0.942567 0.087347
0.550246 0.940875 0.087250
0.591629 0.939164 0.087176
0.630734 0.937604 0.087129
0.666501 0.936237 0.087114
0.697174 0.935100 0.087134
0.727988 0.934222 0.087193
0.758937 0.933628 0.087292
0.784554 0.933335 0.087434
0.806418 0.933355 0.087619
0.828155 0.933694 0.087847
0.846566 0.934351 0.088244
