negative-superia-xtra-400/SuperiaXtra400_Modern_ExtraSoft.cube
TITLE "Fuji Superia X-tra 400 Modern ExtraSoft"
# Adobe RGB in/out. REPLACES AgX. Fuji Superia X-tra 400 Modern ExtraSoft.
LUT_3D_SIZE 5
DOMAIN_MIN 0.0 0.0 0.0
DOMAIN_MAX 1.0 1.0 1.0
0.055369 0.061977 0.079302
0.392955 0.147290 0.095157
0.625093 0.394590 0.116140
0.717117 0.535350 0.141969
0.772147 0.617564 0.174412
0.089336 0.340997 0.103734
0.281480 0.263475 0.100458
0.575249 0.428405 0.116928
0.700687 0.551357 0.142628
0.762924 0.624737 0.175442
0.161510 0.599750 0.137412
0.368585 0.571219 0.132660
0.544715 0.553225 0.132477
0.671900 0.605238 0.151719
0.741507 0.648218 0.183026
0.259721 0.683070 0.179989
0.404337 0.676227 0.176600
0.558275 0.665370 0.173506
0.663454 0.667729 0.181720
0.725246 0.687210 0.204963
0.333097 0.721890 0.222501
0.424011 0.720354 0.221626
0.557589 0.717533 0.221988
0.661344 0.718311 0.230147
0.718663 0.724916 0.249045
0.055369 0.080392 0.390834
0.400776 0.162329 0.395921
0.617534 0.389919 0.359424
0.711664 0.529197 0.347453
0.768523 0.614576 0.350951
0.082845 0.266456 0.312071
0.193765 0.187676 0.191737
0.558917 0.411349 0.279773
0.694545 0.543339 0.318618
0.759301 0.621764 0.339299
0.148881 0.577378 0.349539
0.340299 0.550883 0.303527
0.527687 0.534110 0.254716
0.665790 0.595315 0.283508
0.738274 0.645235 0.320049
0.250367 0.677546 0.357112
0.397019 0.671028 0.341457
0.552370 0.660606 0.312716
0.660091 0.663974 0.304321
0.723410 0.685401 0.324775
0.329799 0.720489 0.360734
0.421439 0.719045 0.356381
0.555812 0.716463 0.347426
0.660453 0.717604 0.345716
0.718297 0.724739 0.357211
0.055369 0.114390 0.663761
0.400776 0.207738 0.664364
0.652862 0.447277 0.662246
0.715778 0.542083 0.617218
0.766901 0.615620 0.595178
0.088120 0.367858 0.658015
0.370771 0.388021 0.634763
0.588690 0.459985 0.607850
0.696649 0.552102 0.595097
0.757092 0.621827 0.585512
0.132355 0.544776 0.589761
0.305309 0.527495 0.563195
0.497878 0.499651 0.496512
0.660242 0.588865 0.538921
0.734483 0.642824 0.555798
0.230247 0.665720 0.585731
0.379773 0.660529 0.576543
0.540443 0.651738 0.546803
0.648668 0.656593 0.528595
0.719861 0.682408 0.537212
0.321284 0.717018 0.568044
0.414878 0.715884 0.563800
0.551463 0.714055 0.552605
0.657399 0.716110 0.543376
0.717424 0.724503 0.542561
0.055369 0.188892 0.766951
0.400776 0.289765 0.767150
0.659709 0.486536 0.767860
0.728729 0.574235 0.737376
0.771100 0.624595 0.705421
0.089336 0.424301 0.767335
0.414165 0.465177 0.767533
0.633402 0.534950 0.750590
0.710117 0.583701 0.717919
0.760958 0.629810 0.696046
0.133155 0.556626 0.702140
0.327452 0.555123 0.694072
0.545896 0.567932 0.680200
0.670136 0.612787 0.675786
0.736291 0.647706 0.673295
0.212389 0.655757 0.681733
0.359279 0.652638 0.676118
0.532123 0.647176 0.661775
0.636729 0.649985 0.645371
0.718068 0.682340 0.655748
0.310979 0.713145 0.669970
0.407004 0.712483 0.667814
0.546485 0.711800 0.662071
0.653613 0.714987 0.656066
0.716591 0.724774 0.654409
0.055369 0.310380 0.821412
0.400776 0.385110 0.821517
0.659709 0.525548 0.821895
0.738952 0.608545 0.805115
0.776705 0.636875 0.778090
0.089336 0.474060 0.821616
0.414165 0.510198 0.821721
0.658493 0.584362 0.819984
0.722355 0.616862 0.792773
0.766881 0.641801 0.771441
0.146413 0.603207 0.787317
0.373345 0.606024 0.783656
0.577429 0.617184 0.774011
0.684137 0.634616 0.762944
0.741897 0.658080 0.750062
0.207506 0.656216 0.750779
0.356692 0.655583 0.746955
0.538445 0.656689 0.737221
0.655145 0.667255 0.729714
0.720775 0.688440 0.727238
0.301910 0.710410 0.733946
0.400157 0.710268 0.732099
0.542571 0.710897 0.727010
0.651210 0.715245 0.722088
0.716230 0.725981 0.720964
