LUTs/negative-gold-200/Gold200_Classic_ExtraSoft.cube
TITLE "Kodak Gold 200 Classic ExtraSoft"
# Adobe RGB in/out. REPLACES AgX. Kodak Gold 200 Classic ExtraSoft.
LUT_3D_SIZE 33
DOMAIN_MIN 0.0 0.0 0.0
DOMAIN_MAX 1.0 1.0 1.0
0.058206 0.064417 0.080741
0.060072 0.065025 0.081404
0.060841 0.065207 0.081574
0.065830 0.066109 0.082202
0.086046 0.067659 0.082758
0.099772 0.068291 0.083224
0.148059 0.070003 0.084062
0.262273 0.072166 0.085189
0.330505 0.073371 0.085851
0.411501 0.075108 0.086725
0.497448 0.078452 0.087971
0.536886 0.080399 0.088924
0.569196 0.082136 0.089862
0.603302 0.085259 0.091089
0.636384 0.089398 0.092609
0.660271 0.091793 0.093528
0.673072 0.093971 0.094711
0.684758 0.096506 0.096231
0.695296 0.100502 0.098036
0.704732 0.102848 0.099336
0.712641 0.105436 0.100956
0.719295 0.108595 0.103401
0.725627 0.111075 0.105943
0.731780 0.111265 0.108119
0.736353 0.111682 0.110881
0.740428 0.111329 0.114871
0.745581 0.105408 0.121052
0.748545 0.107064 0.149314
0.755177 0.123713 0.400421
0.755176 0.123693 0.400391
0.755176 0.123692 0.400389
0.755176 0.123692 0.400388
0.758749 0.236197 0.518093
0.058385 0.066647 0.081152
0.059332 0.066640 0.081521
0.061574 0.065602 0.081504
0.067902 0.066617 0.082318
0.086597 0.068078 0.082924
0.098824 0.068664 0.083329
0.143474 0.070417 0.084168
0.250052 0.072566 0.085300
0.320163 0.073688 0.085931
0.404678 0.075490 0.086783
0.491007 0.078772 0.088029
0.533433 0.080668 0.088969
0.566368 0.082425 0.089912
0.601051 0.085623 0.091131
0.634759 0.089732 0.092644
0.659383 0.092096 0.093557
0.672492 0.094247 0.094749
0.684326 0.096763 0.096264
0.694979 0.100890 0.098063
0.704497 0.103215 0.099365
0.712468 0.105842 0.100987
0.719169 0.108987 0.103426
0.725536 0.111457 0.105960
0.731716 0.111636 0.108125
0.736309 0.112040 0.110871
0.740397 0.111671 0.114817
0.745558 0.105696 0.120869
0.748524 0.107083 0.148051
0.755177 0.123713 0.400421
0.755176 0.123693 0.400391
0.755176 0.123692 0.400389
0.755176 0.123692 0.400388
0.758749 0.236199 0.518093
0.058469 0.067475 0.081345
0.058699 0.067581 0.081677
0.059816 0.067474 0.081795
0.064071 0.068251 0.082594
0.075959 0.069971 0.083289
0.089925 0.070262 0.083588
0.128114 0.071916 0.084511
0.217847 0.074225 0.085721
0.287633 0.074997 0.086229
0.378548 0.076947 0.086998
0.467389 0.079977 0.088242
0.520424 0.081837 0.089143
0.555643 0.083896 0.090096
0.592486 0.086977 0.091283
0.628572 0.090966 0.092771
0.654580 0.093209 0.093665
0.670290 0.095262 0.094887
0.682691 0.097703 0.096382
0.693785 0.102314 0.098163
0.703615 0.104636 0.099470
0.711823 0.107328 0.101104
0.718700 0.110422 0.103516
0.725199 0.112853 0.106021
0.731479 0.112993 0.108150
0.736144 0.113351 0.110838
0.740283 0.112925 0.114638
0.745476 0.106772 0.120253
0.748451 0.107247 0.143718
0.755177 0.123715 0.400424
0.755176 0.123693 0.400391
0.755176 0.123692 0.400389
0.755176 0.123693 0.400388
0.758750 0.236201 0.518093
0.059025 0.071297 0.082019
0.059179 0.071453 0.082298
0.060012 0.071611 0.082622
0.061689 0.071359 0.082887
0.068580 0.073793 0.083770
0.076586 0.073165 0.084079
0.098868 0.074690 0.084983
0.154141 0.077494 0.086246
0.221933 0.078019 0.086677
0.318297 0.079558 0.087370
0.425275 0.082778 0.088649
0.491230 0.085165 0.089573
0.533770 0.086965 0.090446
0.574713 0.089661 0.091573
0.615639 0.093387 0.093012
0.644554 0.095377 0.093930
0.665703 0.097225 0.095149
0.679310 0.100557 0.096605
0.691336 0.105219 0.098352
0.701819 0.107637 0.099670
0.710516 0.110187 0.101327
0.717757 0.113175 0.103692
0.724525 0.115745 0.106145
0.731006 0.115828 0.108210
0.735817 0.116175 0.110800
0.740056 0.115509 0.114358
0.745316 0.108928 0.119279
0.748317 0.107946 0.137803
0.755177 0.123718 0.400429
0.755176 0.123694 0.400392
0.755176 0.123692 0.400389
0.755176 0.123695 0.400388
0.758750 0.236203 0.518092
0.059951 0.079523 0.082756
0.060090 0.079732 0.083024
0.060776 0.080283 0.083432
0.062355 0.080208 0.083904
0.065751 0.079771 0.084522
0.070858 0.078093 0.084694
0.083668 0.079683 0.085631
0.112440 0.082057 0.086812
0.152167 0.081913 0.087200
0.238515 0.083465 0.087850
0.370181 0.087953 0.089255
0.440333 0.089720 0.090201
0.502245 0.091230 0.090968
0.545823 0.093817 0.092016
0.591110 0.097430 0.093392
0.626204 0.099648 0.094411
0.655685 0.102013 0.095558
0.673158 0.105462 0.096954
0.686939 0.110400 0.098679
0.698623 0.112494 0.099984
0.708220 0.114804 0.101682
0.716119 0.118379 0.103977
0.723365 0.121230 0.106357
0.730197 0.121159 0.108335
0.735261 0.121339 0.110792
0.739674 0.120502 0.114055
0.745049 0.112569 0.118160
0.748117 0.109912 0.131557
0.755177 0.123725 0.400439
0.755176 0.123694 0.400393
0.755176 0.123693 0.400390
0.755177 0.123714 0.400388
0.758750 0.236203 0.518092
0.060363 0.084264 0.083246
0.060479 0.084425 0.083405
0.060985 0.085461 0.083693
0.061953 0.085785 0.084343
0.064401 0.085357 0.084743
0.068381 0.084710 0.085458
0.076649 0.087147 0.086378
0.093815 0.090455 0.087513
0.115544 0.089068 0.087738
0.164869 0.090156 0.088496
0.284907 0.093889 0.090022
0.382011 0.095247 0.090915
0.447215 0.096323 0.091632
0.513316 0.098751 0.092591
0.563563 0.103853 0.093925
0.602076 0.106656 0.095035
0.634701 0.109589 0.096113
0.662313 0.113782 0.097453
0.679136 0.119353 0.099214
0.693022 0.121308 0.100442
0.704260 0.123696 0.102206
0.713346 0.126899 0.104406
0.721428 0.129493 0.106692
0.728859 0.129184 0.108567
0.734352 0.129116 0.110868
0.739051 0.128074 0.113841
0.744619 0.119280 0.117187
0.747828 0.114120 0.125665
0.755178 0.123739 0.400458
0.755176 0.123696 0.400395
0.755176 0.123693 0.400391
0.758225 0.197134 0.400389
0.758750 0.236203 0.518092
0.061331 0.095589 0.084165
0.061403 0.095687 0.084312
0.061759 0.096508 0.084767
0.062995 0.097164 0.085402
0.064966 0.097185 0.086072
0.068381 0.096686 0.086622
0.073375 0.096076 0.087203
0.086325 0.100050 0.088376
0.099652 0.097111 0.088610
0.129211 0.097473 0.089295
0.206384 0.102549 0.090910
0.301691 0.103898 0.091725
0.389344 0.104484 0.092302
0.461900 0.107616 0.093197
0.529562 0.113499 0.094780
0.570925 0.116684 0.095829
0.610850 0.118915 0.096784
0.645944 0.123252 0.098024
0.670138 0.129802 0.099852
0.685360 0.132584 0.101146
0.697841 0.136883 0.102921
0.708473 0.141463 0.105027
0.718094 0.144179 0.107201
0.726586 0.143307 0.108966
0.732831 0.142749 0.111103
0.738022 0.141122 0.113860
0.743909 0.130579 0.116671
0.747382 0.123701 0.122514
0.755180 0.123776 0.400506
0.755176 0.123700 0.400401
0.755176 0.123695 0.400394
0.758226 0.197183 0.400390
0.758750 0.236203 0.518092
0.062644 0.114546 0.085436
0.062754 0.114686 0.085578
0.063353 0.116654 0.086126
0.064368 0.118294 0.086742
0.065861 0.119104 0.087307
0.069433 0.118695 0.087965
0.073670 0.117339 0.088602
0.082493 0.115861 0.089302
0.090380 0.110599 0.089535
0.110658 0.110446 0.090328
0.157871 0.116616 0.091841
0.231215 0.117153 0.092551
0.315550 0.116837 0.093065
0.406353 0.120104 0.093960
0.489768 0.127092 0.095698
0.537890 0.129404 0.096636
0.579916 0.131663 0.097543
0.620055 0.137477 0.098785
0.656502 0.145621 0.100641
0.676431 0.147577 0.102071
0.691597 0.150777 0.103726
0.703749 0.155746 0.105743
0.714119 0.161099 0.107847
0.723252 0.163148 0.109548
0.730103 0.166136 0.111587
0.736201 0.163652 0.114277
0.742628 0.152511 0.116937
0.746606 0.142416 0.121176
0.755186 0.123919 0.400670
0.755177 0.123712 0.400419
0.755176 0.123700 0.400402
0.758226 0.197186 0.400393
0.758750 0.236204 0.518092
0.063483 0.127970 0.086087
0.063563 0.128096 0.086191
0.063957 0.129339 0.086585
0.064758 0.131371 0.087143
0.065939 0.132861 0.087690
0.068729 0.133095 0.088361
0.072346 0.132247 0.089053
0.078400 0.130817 0.089803
0.086877 0.129403 0.090570
0.100940 0.128575 0.091304
0.135090 0.137074 0.092774
0.182080 0.136371 0.093394
0.253751 0.134592 0.093919
0.345163 0.137490 0.095032
0.436441 0.145896 0.096701
0.503134 0.147800 0.097552
0.546649 0.150039 0.098376
0.591337 0.155384 0.099731
0.633609 0.164547 0.101797
0.664230 0.167978 0.103162
0.681395 0.173414 0.104751
0.696828 0.177922 0.106633
0.709492 0.182743 0.108614
0.720202 0.183508 0.110189
0.728086 0.185611 0.112097
0.734410 0.187900 0.114871
0.740944 0.183314 0.117710
0.745192 0.179809 0.121663
0.755356 0.127671 0.402551
0.755183 0.123862 0.400609
0.755178 0.123733 0.400453
0.758227 0.197191 0.400409
0.758750 0.236204 0.518092
0.064579 0.151768 0.086943
0.064640 0.151898 0.087022
0.064920 0.153033 0.087314
0.065554 0.155839 0.087817
0.066826 0.157981 0.088514
0.069313 0.159290 0.089198
0.072298 0.158836 0.090056
0.077305 0.157412 0.090837
0.084735 0.155563 0.091557
0.094729 0.153812 0.092249
0.120063 0.165385 0.093650
0.153109 0.163278 0.094498
0.205997 0.159065 0.095081
0.290452 0.161387 0.096142
0.390925 0.171814 0.097738
0.453350 0.172887 0.098504
0.513438 0.174333 0.099450
0.559896 0.180072 0.100780
0.606937 0.191300 0.103106
0.644057 0.194633 0.104369
0.671034 0.198235 0.105801
0.688206 0.206585 0.107623
0.702505 0.215960 0.109546
0.715183 0.217203 0.111015
0.724869 0.217710 0.112773
0.732354 0.218966 0.115577
0.739693 0.211679 0.118146
0.744436 0.205501 0.121599
0.749234 0.190726 0.126313
0.752632 0.179396 0.144432
0.756634 0.179234 0.356430
0.758236 0.197877 0.403187
0.758750 0.236204 0.518091
0.066076 0.201275 0.088234
0.066143 0.201484 0.088317
0.066464 0.203020 0.088625
0.067556 0.208762 0.089242
0.069070 0.212951 0.090081
0.071064 0.215250 0.090930
0.073644 0.216005 0.091759
0.079165 0.214526 0.092521
0.085874 0.211746 0.093209
0.095460 0.208402 0.093943
0.112134 0.205538 0.094918
0.137957 0.200999 0.095707
0.174544 0.193819 0.096267
0.243092 0.195285 0.097245
0.338424 0.208591 0.098854
0.410414 0.207891 0.099743
0.472114 0.207725 0.100584
0.528440 0.214137 0.102203
0.577709 0.228586 0.104480
0.618914 0.230172 0.105627
0.656014 0.235053 0.106996
0.677314 0.244182 0.108735
0.695082 0.250820 0.110517
0.709718 0.252621 0.111899
0.720491 0.257416 0.113872
0.728897 0.263781 0.116561
0.737621 0.254560 0.118895
0.743212 0.246062 0.121913
0.748496 0.228794 0.125600
0.752233 0.207786 0.136191
0.756285 0.179883 0.284592
0.758266 0.200146 0.411815
0.758277 0.200972 0.414918
0.067664 0.246481 0.089141
0.067744 0.246668 0.089232
0.068079 0.247913 0.089567
0.068934 0.252850 0.090221
0.070135 0.256953 0.090963
0.071856 0.260851 0.091775
0.074188 0.263207 0.092599
0.079166 0.262653 0.093322
0.085060 0.260555 0.094136
0.092662 0.257509 0.095091
0.106852 0.254013 0.096008
0.127650 0.251187 0.096924
0.154125 0.240782 0.097379
0.209229 0.242020 0.098350
0.296949 0.255555 0.100163
0.370130 0.252604 0.101066
0.431192 0.251075 0.102161
0.498550 0.256685 0.103736
0.548473 0.270318 0.105846
0.590884 0.270680 0.106931
0.631323 0.276158 0.108271
0.665460 0.283350 0.109884
0.685270 0.292796 0.111609
0.702033 0.296468 0.112968
0.715575 0.298360 0.115104
0.725792 0.302222 0.117622
0.735187 0.299792 0.119830
0.741330 0.298914 0.122639
0.747184 0.286165 0.126163
0.751521 0.260261 0.133204
0.755658 0.195354 0.201259
0.758267 0.200164 0.411858
0.758288 0.201763 0.417852
0.069060 0.288667 0.090054
0.069126 0.288833 0.090131
0.069398 0.289871 0.090414
0.070055 0.293769 0.090961
0.071113 0.299069 0.091663
0.072579 0.303223 0.092425
0.074786 0.305361 0.093170
0.079159 0.306001 0.093973
0.084371 0.305221 0.094979
0.090239 0.303028 0.095919
0.102198 0.300277 0.096814
0.117289 0.296534 0.097648
0.143574 0.293630 0.098502
0.184758 0.293555 0.099606
0.261789 0.307061 0.101749
0.328942 0.303241 0.102756
0.397285 0.300363 0.103740
0.459029 0.304383 0.105283
0.521562 0.315308 0.107375
0.562982 0.314298 0.108308
0.605777 0.317302 0.109516
0.646467 0.323896 0.111102
0.673868 0.332632 0.112783
0.693813 0.333112 0.114387
0.709062 0.337622 0.116468
0.720838 0.344360 0.118925
0.732272 0.339397 0.120895
0.739614 0.336320 0.123417
0.746000 0.329950 0.126965
0.750567 0.320833 0.133095
0.754189 0.308663 0.146748
0.758267 0.200277 0.411913
0.758303 0.202953 0.422092
0.070722 0.337280 0.091159
0.070779 0.337413 0.091225
0.071007 0.338170 0.091470
0.071535 0.340796 0.091938
0.072514 0.346299 0.092620
0.073710 0.349824 0.093309
0.076496 0.352589 0.094141
0.080399 0.354303 0.095207
0.085000 0.354362 0.096218
0.090194 0.352698 0.097136
0.100812 0.350193 0.097995
0.114441 0.347331 0.098929
0.136638 0.344217 0.099904
0.168655 0.341766 0.100995
0.233447 0.354165 0.103416
0.297530 0.349535 0.104433
0.362887 0.344798 0.105342
0.425860 0.347521 0.106765
0.494738 0.358386 0.108813
0.537082 0.356771 0.109747
0.579521 0.358644 0.110875
0.622760 0.365077 0.112358
0.661682 0.372502 0.114359
0.683382 0.374560 0.115931
0.701172 0.379636 0.117918
0.715767 0.384013 0.120194
0.728505 0.383353 0.122096
0.736818 0.385139 0.124523
0.744463 0.376496 0.128033
0.749777 0.364407 0.133078
0.753833 0.347612 0.141500
0.756730 0.338721 0.203570
0.759436 0.355002 0.426214
0.072693 0.397708 0.092507
0.072744 0.397813 0.092566
0.072942 0.398336 0.092782
0.073386 0.399942 0.093192
0.074548 0.404129 0.093893
0.076482 0.406277 0.094830
0.079305 0.409049 0.095883
0.082762 0.410625 0.096888
0.086892 0.411207 0.097888
0.092670 0.410732 0.098888
0.103051 0.409469 0.100009
0.115602 0.407569 0.101137
0.136955 0.405411 0.102501
0.165894 0.403336 0.103772
0.213231 0.401568 0.105075
0.270261 0.397401 0.105996
0.330680 0.393507 0.106921
0.399085 0.395142 0.108304
0.462028 0.402106 0.110270
0.513469 0.400115 0.111124
0.554692 0.400908 0.112232
0.598836 0.404944 0.113980
0.641175 0.409424 0.116030
0.671581 0.411218 0.117533
0.692306 0.413560 0.119381
0.708852 0.418345 0.121610
0.723931 0.418050 0.123388
0.734169 0.417395 0.125783
0.742558 0.415868 0.129434
0.748461 0.413171 0.133952
0.753254 0.400692 0.140206
0.756291 0.379805 0.166669
0.759396 0.366385 0.417802
0.074013 0.428751 0.093291
0.074080 0.428841 0.093343
0.074391 0.429275 0.093532
0.075113 0.430554 0.093962
0.076520 0.433774 0.094812
0.078352 0.436656 0.095742
0.080987 0.440101 0.096804
0.083867 0.441294 0.097724
0.087521 0.442217 0.098715
0.092987 0.442450 0.099914
0.102193 0.441445 0.101070
0.113490 0.439856 0.102460
0.131706 0.438025 0.103803
0.155228 0.435850 0.105086
0.194899 0.433961 0.106311
0.248242 0.432345 0.107556
0.305240 0.428118 0.108412
0.373104 0.429022 0.109790
0.434684 0.435892 0.111736
0.488479 0.433392 0.112555
0.531951 0.433184 0.113831
0.575207 0.436707 0.115758
0.619216 0.440853 0.117745
0.659063 0.441854 0.119145
0.681838 0.444647 0.120924
0.700952 0.449466 0.123063
0.718539 0.449149 0.124804
0.730283 0.451093 0.127667
0.740302 0.449431 0.131027
0.747314 0.444843 0.134953
0.752582 0.439222 0.140477
0.755745 0.433771 0.156676
0.759045 0.404242 0.356472
0.076375 0.459987 0.094135
0.076451 0.460064 0.094204
0.076740 0.460424 0.094455
0.077358 0.461447 0.094931
0.078524 0.463946 0.095676
0.080290 0.467458 0.096605
0.082349 0.469625 0.097521
0.085035 0.471709 0.098474
0.088345 0.473131 0.099636
0.093534 0.473554 0.100812
0.101914 0.473129 0.102299
0.112231 0.471923 0.103683
0.128080 0.470263 0.104989
0.148846 0.468404 0.106280
0.181147 0.466365 0.107502
0.227696 0.464586 0.108681
0.286079 0.463192 0.109880
0.346078 0.463769 0.111216
0.412049 0.470051 0.113258
0.461168 0.467016 0.114313
0.512085 0.466506 0.115684
0.553422 0.469374 0.117533
0.597195 0.473316 0.119481
0.638156 0.473780 0.120790
0.670443 0.476763 0.122511
0.692086 0.480836 0.124597
0.711681 0.481955 0.126626
0.725911 0.483154 0.129547
0.737587 0.482995 0.132740
0.745532 0.482145 0.136403
0.751774 0.475796 0.141122
0.755445 0.467145 0.152696
0.758293 0.466589 0.231290
0.079071 0.495808 0.095374
0.079139 0.495884 0.095436
0.079399 0.496216 0.095662
0.079942 0.497101 0.096088
0.080939 0.499148 0.096751
0.082684 0.503308 0.097688
0.084357 0.504701 0.098492
0.086934 0.507545 0.099710
0.089850 0.508975 0.100911
0.095340 0.509522 0.102390
0.103344 0.509530 0.103882
0.112930 0.508740 0.105284
0.127823 0.507477 0.106651
0.146811 0.505629 0.107871
0.175395 0.503822 0.109130
0.216865 0.501945 0.110302
0.269488 0.500240 0.111438
0.325162 0.499060 0.112605
0.393372 0.505036 0.115131
0.438381 0.501702 0.116152
0.490916 0.500498 0.117462
0.533880 0.503080 0.119292
0.576096 0.506634 0.121207
0.617601 0.506671 0.122448
0.658029 0.509641 0.124119
0.682098 0.513450 0.126526
0.703934 0.514793 0.128761
0.720545 0.516186 0.131532
0.733986 0.517615 0.134630
0.743768 0.515738 0.137917
0.750761 0.513098 0.142652
0.754938 0.510383 0.152047
0.757970 0.501242 0.190328
0.082065 0.530593 0.096815
0.082129 0.530653 0.096871
0.082369 0.530902 0.097076
0.082863 0.531505 0.097462
0.083743 0.532790 0.098061
0.085263 0.535358 0.099012
0.086920 0.536926 0.100037
0.089223 0.538832 0.101398
0.092905 0.539960 0.102912
0.098879 0.540936 0.104468
0.106581 0.541147 0.105924
0.115598 0.540883 0.107380
0.130410 0.540068 0.108715
0.148511 0.539010 0.109997
0.175547 0.537686 0.111197
0.215239 0.536479 0.112436
0.263544 0.535298 0.113864
0.316048 0.534111 0.115359
0.374560 0.533445 0.116943
0.419229 0.530928 0.117919
0.467731 0.530023 0.119218
0.516586 0.531389 0.121015
0.556850 0.533675 0.122885
0.597462 0.533524 0.124089
0.638510 0.535159 0.125984
0.671446 0.537912 0.128814
0.695246 0.538702 0.130909
0.714030 0.540587 0.133611
0.730182 0.541371 0.136457
0.741377 0.541365 0.139617
0.749564 0.540547 0.144562
0.754560 0.537096 0.152255
0.757737 0.535566 0.175491
0.084288 0.554406 0.097555
0.084345 0.554453 0.097608
0.084558 0.554646 0.097797
0.084991 0.555111 0.098153
0.085749 0.556090 0.098747
0.087030 0.558029 0.099725
0.088678 0.559990 0.100844
0.090765 0.561188 0.102270
0.095003 0.562679 0.103843
0.100755 0.563642 0.105388
0.107479 0.563787 0.106797
0.115652 0.563652 0.108219
0.129384 0.563097 0.109590
0.146098 0.562210 0.110885
0.169917 0.561143 0.112131
0.204906 0.559861 0.113472
0.248565 0.558744 0.115087
0.299226 0.557754 0.116635
0.351189 0.556760 0.118092
0.403578 0.556275 0.119626
0.448060 0.554998 0.120881
0.501392 0.556312 0.122678
0.539665 0.558215 0.124609
0.578464 0.557934 0.125982
0.619935 0.559283 0.128319
0.660446 0.561648 0.131066
0.685541 0.562472 0.133068
0.706582 0.564512 0.135692
0.725296 0.565661 0.138379
0.738435 0.566443 0.141510
0.748216 0.565723 0.146499
0.753989 0.565039 0.153517
0.757586 0.562667 0.169004
0.086559 0.578878 0.098313
0.086610 0.578919 0.098362
0.086803 0.579084 0.098542
0.087190 0.579469 0.098956
0.087857 0.580255 0.099596
0.088959 0.581770 0.100502
0.090878 0.584058 0.101982
0.093514 0.584815 0.103282
0.097966 0.586597 0.104938
0.102843 0.586965 0.106313
0.109400 0.587532 0.107809
0.117494 0.587630 0.109258
0.130374 0.587113 0.110618
0.145714 0.586282 0.111893
0.167364 0.585358 0.113289
0.199319 0.584273 0.114936
0.238866 0.583091 0.116492
0.287108 0.582035 0.118042
0.335203 0.581226 0.119570
0.388971 0.580440 0.121001
0.431621 0.580115 0.122485
0.481043 0.580769 0.124267
0.524269 0.582574 0.126581
0.561267 0.582303 0.128310
0.601850 0.583305 0.130589
0.643175 0.585480 0.133318
0.675346 0.586277 0.135221
0.698381 0.587997 0.137720
0.719364 0.589790 0.140336
0.735069 0.590452 0.143860
0.746436 0.591245 0.148666
0.753420 0.590373 0.154930
0.757432 0.589776 0.166935
0.088921 0.604122 0.099321
0.088969 0.604165 0.099379
0.089147 0.604330 0.099587
0.089501 0.604694 0.099977
0.090103 0.605393 0.100578
0.091651 0.606667 0.101693
0.094311 0.608920 0.103248
0.096914 0.609807 0.104545
0.101078 0.611047 0.106063
0.106043 0.611921 0.107548
0.112287 0.612576 0.109060
0.120203 0.612556 0.110446
0.132566 0.612332 0.111846
0.147276 0.611709 0.113307
0.167861 0.610801 0.115005
0.197557 0.609878 0.116725
0.234560 0.608809 0.118320
0.279700 0.607768 0.119874
0.324707 0.606781 0.121381
0.377358 0.606142 0.122888
0.418742 0.605570 0.124341
0.463584 0.605381 0.126072
0.510788 0.606653 0.128793
0.545737 0.606447 0.130457
0.584590 0.607198 0.132755
0.625927 0.609090 0.135482
0.665021 0.610035 0.137331
0.689441 0.611593 0.139762
0.712579 0.613303 0.142775
0.730866 0.613987 0.146309
0.744398 0.614683 0.150818
0.752710 0.614745 0.156629
0.757250 0.615198 0.166830
0.091961 0.623961 0.100224
0.092036 0.623986 0.100278
0.092314 0.624084 0.100477
0.092862 0.624292 0.100912
0.093785 0.624676 0.101688
0.095260 0.625346 0.102784
0.097844 0.626490 0.104263
0.100969 0.627345 0.105703
0.104568 0.627886 0.107116
0.109660 0.628668 0.108741
0.114892 0.628806 0.110118
0.124064 0.628979 0.111593
0.136092 0.628963 0.113152
0.149379 0.628559 0.114938
0.169199 0.628031 0.116663
0.197104 0.627448 0.118371
0.232128 0.626842 0.120052
0.274504 0.626210 0.121646
0.317515 0.625607 0.123174
0.365976 0.625051 0.124746
0.409189 0.624741 0.126639
0.450433 0.624529 0.128776
0.497662 0.624518 0.130884
0.531977 0.624352 0.132518
0.568826 0.624676 0.134783
0.609552 0.625651 0.137514
0.651472 0.626323 0.139320
0.679952 0.627230 0.141976
0.705149 0.628456 0.145398
0.725843 0.629394 0.148798
0.741951 0.630148 0.152923
0.751753 0.630846 0.158501
0.757131 0.631135 0.167424
0.095587 0.640368 0.100546
0.095655 0.640385 0.100600
0.095906 0.640451 0.100834
0.096425 0.640591 0.101322
0.097391 0.640850 0.102075
0.098921 0.641303 0.103137
0.101331 0.642079 0.104568
0.104587 0.642980 0.106190
0.107683 0.643257 0.107521
0.112383 0.643849 0.109176
0.117612 0.643965 0.110599
0.127297 0.644091 0.112145
0.137533 0.643891 0.113776
0.150570 0.643627 0.115714
0.170160 0.643171 0.117561
0.195693 0.642567 0.119237
0.227878 0.641963 0.120930
0.266990 0.641348 0.122546
0.308500 0.640775 0.124118
0.353129 0.640258 0.125866
0.398320 0.639849 0.128056
0.436503 0.639625 0.130178
0.480289 0.639599 0.132317
0.519776 0.639757 0.134427
0.554604 0.639843 0.136688
0.593483 0.640569 0.139402
0.635040 0.641295 0.141228
0.670200 0.642033 0.144485
0.696767 0.643210 0.147772
0.720036 0.644297 0.151279
0.738946 0.645255 0.155066
0.750630 0.645933 0.160105
0.756974 0.646850 0.168638
0.099594 0.655237 0.101011
0.099669 0.655253 0.101081
0.099946 0.655312 0.101335
0.100487 0.655432 0.101809
0.101382 0.655643 0.102540
0.102781 0.655992 0.103571
0.104948 0.656559 0.104959
0.108376 0.657472 0.106785
0.111118 0.657637 0.108051
0.115163 0.657977 0.109615
0.122024 0.658259 0.111235
0.130271 0.658206 0.112681
0.140687 0.658111 0.114678
0.153041 0.657876 0.116686
0.171170 0.657468 0.118495
0.195917 0.656991 0.120292
0.226821 0.656447 0.122033
0.263836 0.655867 0.123712
0.303253 0.655330 0.125474
0.344747 0.654860 0.127688
0.390219 0.654475 0.129887
0.425858 0.654219 0.132042
0.466252 0.654078 0.134137
0.508524 0.654192 0.136293
0.541847 0.654454 0.138416
0.578679 0.654850 0.141197
0.619645 0.655685 0.143540
0.660383 0.656141 0.146722
0.687829 0.657195 0.150006
0.713332 0.658170 0.153286
0.735340 0.659276 0.157131
0.749320 0.660067 0.161722
0.756780 0.661013 0.169948
0.103680 0.668882 0.101336
0.103751 0.668898 0.101404
0.104012 0.668957 0.101654
0.104522 0.669072 0.102122
0.105358 0.669262 0.102843
0.106649 0.669559 0.103860
0.108622 0.670011 0.105230
0.111693 0.670701 0.107033
0.114730 0.671057 0.108545
0.119107 0.671273 0.110042
0.127036 0.671653 0.111888
0.134237 0.671526 0.113419
0.144837 0.671458 0.115663
0.155701 0.671163 0.117552
0.174726 0.670826 0.119561
0.198451 0.670377 0.121406
0.226778 0.669884 0.123166
0.261400 0.669339 0.125005
0.299337 0.668784 0.127225
0.338351 0.668305 0.129588
0.383645 0.667906 0.131879
0.417622 0.667625 0.134099
0.455429 0.667453 0.136242
0.498178 0.667408 0.138331
0.530433 0.667637 0.140508
0.565197 0.668000 0.143285
0.604922 0.669033 0.145557
0.645271 0.669327 0.148774
0.678528 0.670276 0.151888
0.705810 0.671177 0.155161
0.730824 0.672296 0.158842
0.747728 0.673313 0.163206
0.756731 0.674365 0.171289
0.108104 0.685191 0.100154
0.108166 0.685197 0.100207
0.108394 0.685218 0.100400
0.108836 0.685258 0.100792
0.109560 0.685320 0.101548
0.110679 0.685413 0.102622
0.112395 0.685551 0.104082
0.115084 0.685769 0.106025
0.119244 0.685939 0.107978
0.123776 0.685898 0.109474
0.130587 0.685895 0.111324
0.138295 0.685743 0.113080
0.147301 0.685447 0.115262
0.159477 0.685068 0.117438
0.177096 0.684582 0.119515
0.199062 0.684080 0.121430
0.226914 0.683537 0.123344
0.259536 0.682968 0.125282
0.295046 0.682403 0.127637
0.331235 0.681894 0.130062
0.373456 0.681478 0.132409
0.409034 0.681170 0.134685
0.444659 0.680996 0.136892
0.484901 0.680970 0.139035
