LUTs/negative-gold-200/Gold200_Modern_Normal.cube
TITLE "Kodak Gold 200 Modern Normal"
# Adobe RGB in/out. REPLACES AgX. Kodak Gold 200 Modern Normal.
LUT_3D_SIZE 5
DOMAIN_MIN 0.0 0.0 0.0
DOMAIN_MAX 1.0 1.0 1.0
0.075187 0.075821 0.088847
0.612640 0.103035 0.093080
0.878899 0.172416 0.106695
0.906451 0.208686 0.143089
0.903572 0.369288 0.670015
0.089620 0.324857 0.093431
0.138322 0.213285 0.095218
0.717966 0.267668 0.107599
0.884897 0.323125 0.137308
0.895413 0.351892 0.647490
0.129510 0.683051 0.104290
0.158224 0.640478 0.111573
0.371899 0.544211 0.119727
0.782877 0.551245 0.143471
0.875562 0.535480 0.302229
0.184350 0.810164 0.112396
0.201860 0.797560 0.122641
0.320561 0.761693 0.143699
0.610028 0.733371 0.162635
0.854525 0.731385 0.202449
0.195701 0.838357 0.093655
0.232616 0.846612 0.093573
0.291765 0.839616 0.106671
0.476483 0.825776 0.138377
0.845161 0.822060 0.149529
0.083328 0.116541 0.322767
0.633046 0.258542 0.586544
0.881442 0.261785 0.468765
0.902129 0.298294 0.497708
0.900524 0.362720 0.661561
0.098933 0.254298 0.248994
0.194293 0.193038 0.192995
0.776263 0.295213 0.276423
0.881570 0.351399 0.342196
0.892356 0.345548 0.639199
0.150444 0.641225 0.262651
0.193812 0.597655 0.246221
0.456177 0.515844 0.225906
0.810203 0.547264 0.258576
0.873304 0.557016 0.489372
0.199768 0.796430 0.227394
0.222988 0.783873 0.236771
0.358825 0.750992 0.248037
0.668316 0.727804 0.258591
0.853262 0.729867 0.293993
0.200524 0.841382 0.111141
0.236847 0.849323 0.110384
0.303195 0.838142 0.157165
0.495200 0.825117 0.214878
0.847195 0.822050 0.228732
0.111088 0.282803 0.742464
0.514542 0.471862 0.827426
0.895811 0.506634 0.822653
0.905464 0.461277 0.777096
0.899522 0.397374 0.762613
0.150826 0.454710 0.737138
0.365711 0.482256 0.758605
0.815944 0.476408 0.732321
0.884215 0.485707 0.727712
0.890820 0.374228 0.733613
0.175181 0.607874 0.591599
0.229849 0.571711 0.559598
0.511841 0.505513 0.511401
0.817788 0.575779 0.582513
0.870636 0.604244 0.688153
0.226480 0.777772 0.575146
0.258877 0.767013 0.562395
0.416952 0.739288 0.535941
0.721618 0.722517 0.525114
0.850830 0.736940 0.600050
0.228924 0.846882 0.635711
0.236147 0.846849 0.628421
0.332273 0.834694 0.533767
0.537095 0.824305 0.523442
0.847503 0.823841 0.526409
0.197505 0.533281 0.886479
0.424763 0.613092 0.897757
0.893265 0.643788 0.898556
0.914063 0.596753 0.870626
0.903396 0.445101 0.834994
0.247731 0.636204 0.889269
0.435725 0.674104 0.896942
0.857716 0.658910 0.881138
0.896662 0.611117 0.854210
0.894438 0.420821 0.819875
0.231560 0.669931 0.812339
0.309328 0.666679 0.810891
0.650044 0.653532 0.801781
0.839453 0.656961 0.799222
0.872623 0.650420 0.798397
0.247641 0.772669 0.771527
0.285568 0.765419 0.765034
0.456533 0.745337 0.748626
0.738863 0.728630 0.734103
0.850417 0.751603 0.772510
0.228993 0.842752 0.724916
0.238345 0.843759 0.720399
0.338526 0.834983 0.730462
0.547865 0.826518 0.719469
0.848459 0.830645 0.752884
0.441542 0.691948 0.944359
0.769447 0.700043 0.944362
0.919684 0.715414 0.944423
0.924022 0.681621 0.934963
0.908680 0.525308 0.898513
0.480705 0.725768 0.944067
0.751440 0.730691 0.944098
0.915883 0.740657 0.943048
0.913828 0.685468 0.919974
0.900083 0.514654 0.893253
0.426960 0.755968 0.911331
0.568519 0.750011 0.906828
0.837563 0.735540 0.894755
0.876706 0.716340 0.881673
0.879294 0.665978 0.871636
0.322803 0.796891 0.869188
0.376083 0.791194 0.866256
0.672665 0.777350 0.858483
0.827688 0.767685 0.852379
0.857424 0.762076 0.851135
0.229039 0.838136 0.811463
0.252247 0.843318 0.820348
0.324695 0.843906 0.838935
0.544412 0.837951 0.845627
0.849873 0.838757 0.844366
