LUTs/negative-gold-200/Gold200_Classic_Punchy.cube
TITLE "Kodak Gold 200 Classic Punchy"
# Adobe RGB in/out. REPLACES AgX. Kodak Gold 200 Classic Punchy.
LUT_3D_SIZE 9
DOMAIN_MIN 0.0 0.0 0.0
DOMAIN_MAX 1.0 1.0 1.0
0.072541 0.084015 0.079839
0.124159 0.087103 0.081192
0.335852 0.092858 0.083766
0.604247 0.102291 0.087412
0.736329 0.116050 0.091367
0.789293 0.131203 0.098661
0.818162 0.139228 0.109886
0.841618 0.154161 0.399576
0.846580 0.251713 0.523348
0.076824 0.098469 0.081189
0.089756 0.098864 0.082693
0.206631 0.102004 0.084997
0.509247 0.112364 0.088380
0.708589 0.126401 0.092123
0.783921 0.143812 0.099386
0.816831 0.151409 0.109762
0.841619 0.154176 0.399595
0.846581 0.251717 0.523346
0.085081 0.159088 0.083982
0.090292 0.164630 0.085514
0.125677 0.160744 0.088032
0.281328 0.166212 0.090908
0.572425 0.180099 0.095793
0.751100 0.201645 0.102447
0.808086 0.212719 0.111577
0.841866 0.158742 0.401786
0.846581 0.251718 0.523346
0.096118 0.290297 0.087580
0.099763 0.297982 0.088989
0.121611 0.303299 0.091521
0.197840 0.293973 0.095960
0.389534 0.298933 0.101438
0.655161 0.314192 0.107996
0.784944 0.332428 0.117043
0.829933 0.325555 0.131603
0.845961 0.227048 0.422076
0.109488 0.460230 0.091033
0.112739 0.464852 0.092247
0.128800 0.475547 0.097164
0.182138 0.472241 0.102684
0.302124 0.463971 0.108500
0.524502 0.467845 0.116030
0.731686 0.478846 0.125688
0.819667 0.484503 0.137610
0.845946 0.467942 0.248549
0.125003 0.594179 0.095710
0.127758 0.595951 0.097121
0.144067 0.604042 0.102633
0.184494 0.604508 0.109522
0.271466 0.599605 0.117075
0.428061 0.595772 0.125647
0.651010 0.599880 0.135373
0.797468 0.606929 0.150234
0.844750 0.606917 0.184936
0.146162 0.687208 0.098717
0.148456 0.687823 0.100241
0.161726 0.690849 0.105980
0.194951 0.691569 0.114734
0.263301 0.689043 0.124956
0.381667 0.686052 0.134642
0.565704 0.686021 0.146986
0.759186 0.690178 0.162548
0.843843 0.695981 0.188137
0.170729 0.775803 0.092629
0.171913 0.774937 0.094017
0.182966 0.770731 0.102605
0.208637 0.768047 0.113309
0.264192 0.764414 0.126363
0.357649 0.761040 0.138085
0.508614 0.760052 0.153551
0.696836 0.763073 0.168424
0.843755 0.768388 0.189933
0.175532 0.797879 0.087249
0.175534 0.797881 0.087249
0.204503 0.810571 0.087259
0.205575 0.811651 0.090622
0.261879 0.813660 0.101897
0.339194 0.810991 0.118087
0.453677 0.809853 0.131619
0.614070 0.810834 0.141022
0.848711 0.814064 0.145793
0.075401 0.088007 0.096520
0.113369 0.099119 0.137228
0.368324 0.097100 0.107476
0.648808 0.107645 0.105798
0.748311 0.119728 0.104656
0.790822 0.135062 0.108764
0.818217 0.143414 0.121110
0.841619 0.154176 0.399597
0.846581 0.251718 0.523349
0.080414 0.098974 0.096355
0.109929 0.105337 0.103206
0.280800 0.107449 0.102047
0.582391 0.118326 0.104778
0.728560 0.132342 0.105231
0.786376 0.148009 0.109355
0.816975 0.155178 0.120113
0.841620 0.154198 0.399627
0.846581 0.251717 0.523346
0.088666 0.155922 0.096922
0.097412 0.159822 0.098903
0.152443 0.161620 0.102203
0.365416 0.172517 0.106344
0.632166 0.186485 0.108889
0.760732 0.206299 0.112669
0.809253 0.216330 0.121604
0.841940 0.160182 0.402745
0.846581 0.251718 0.523346
0.099676 0.283792 0.098978
0.104365 0.289469 0.101124
0.131990 0.296048 0.105383
0.228839 0.293709 0.110472
0.444417 0.303348 0.114684
0.681144 0.318698 0.119305
0.789612 0.335289 0.127785
0.830204 0.328294 0.142966
0.846581 0.251731 0.523342
0.112530 0.452898 0.100661
0.116200 0.457251 0.102648
0.135346 0.467457 0.108503
0.195309 0.467120 0.115163
0.329268 0.463130 0.122532
0.552391 0.469076 0.128601
0.746412 0.480081 0.136232
0.821054 0.485272 0.151559
0.846128 0.474236 0.283894
0.127243 0.589491 0.102944
0.130291 0.591328 0.104566
0.148017 0.599124 0.111428
0.191374 0.600636 0.119895
0.284273 0.597171 0.129105
0.450011 0.595044 0.137601
0.665969 0.600073 0.149707
0.801686 0.607087 0.163995
0.844850 0.607684 0.200121
0.147809 0.685272 0.104439
0.150273 0.685878 0.106179
0.164617 0.688782 0.113351
0.199020 0.689653 0.124105
0.270412 0.687625 0.134830
0.392857 0.685263 0.148047
0.579621 0.685718 0.162118
0.765749 0.690148 0.176821
0.844141 0.696167 0.201402
0.171361 0.774395 0.096069
0.172762 0.773619 0.097524
0.184573 0.769733 0.107793
0.211238 0.767161 0.120742
0.268247 0.763743 0.134725
0.363578 0.760631 0.151128
0.517954 0.759907 0.166962
0.705029 0.763056 0.182587
0.844408 0.768433 0.202801
0.180484 0.803039 0.103380
0.180487 0.803041 0.103380
0.209245 0.815333 0.103380
0.209246 0.815333 0.103378
0.263609 0.813715 0.105530
0.341746 0.811040 0.125174
0.457507 0.809939 0.139846
0.619187 0.810943 0.153041
0.850160 0.814134 0.157786
0.080111 0.095834 0.158407
0.124916 0.135554 0.340206
0.340518 0.136113 0.312017
0.645349 0.141932 0.282640
0.752810 0.154428 0.266679
0.793070 0.171658 0.281339
0.819244 0.185271 0.329095
0.841814 0.159046 0.413724
0.846581 0.251723 0.523372
0.085671 0.108769 0.162591
0.109286 0.118943 0.205791
0.283852 0.130869 0.233170
0.599106 0.144424 0.234043
0.739425 0.160903 0.235926
0.789696 0.177891 0.255896
0.818019 0.191252 0.299659
0.841874 0.160301 0.415665
0.846581 0.251719 0.523350
0.095453 0.161564 0.158724
0.105580 0.165506 0.162677
0.201629 0.186198 0.192005
0.445646 0.187617 0.191017
0.681671 0.208478 0.202675
0.773291 0.231002 0.219689
0.811980 0.241833 0.239434
0.841586 0.190864 0.415109
0.846581 0.251718 0.523346
0.107731 0.284197 0.163294
0.115200 0.288519 0.166695
0.155176 0.296153 0.174952
0.290588 0.301058 0.183855
0.548726 0.318785 0.196176
0.729673 0.338822 0.210229
0.798918 0.353014 0.221224
0.831400 0.349803 0.266482
0.846581 0.251721 0.523349
0.121792 0.449872 0.165884
0.126584 0.453067 0.169313
0.154753 0.461016 0.178646
0.234024 0.464460 0.188880
0.401722 0.466671 0.198693
0.637679 0.477861 0.212423
0.771823 0.488405 0.221773
0.824948 0.492148 0.245548
0.846830 0.493507 0.424300
0.138973 0.584980 0.169959
0.143390 0.586460 0.173099
0.165574 0.592195 0.183524
0.218840 0.594940 0.195590
0.331900 0.594924 0.207153
0.525217 0.596364 0.218516
0.713416 0.603825 0.228384
0.812496 0.609626 0.247326
0.845400 0.612439 0.295181
0.157439 0.681469 0.164411
0.161131 0.682029 0.167673
0.178982 0.684400 0.179561
0.218690 0.685555 0.194525
0.300896 0.684859 0.208964
0.439689 0.684237 0.222511
0.633221 0.686035 0.235555
0.786949 0.691162 0.253262
0.845115 0.697617 0.272114
0.178414 0.766527 0.148533
0.180840 0.766343 0.152505
0.195015 0.765361 0.170859
0.226238 0.763974 0.190677
0.288906 0.761617 0.209441
0.392502 0.759540 0.225833
0.552305 0.759785 0.240674
0.738707 0.763357 0.255673
0.846155 0.768967 0.267657
0.180487 0.803041 0.103384
0.209244 0.815333 0.103383
0.209245 0.815333 0.103381
0.209261 0.815335 0.103383
0.273696 0.813627 0.142335
0.354349 0.811145 0.181652
0.475573 0.810219 0.204216
0.642850 0.811325 0.218455
0.851664 0.814465 0.225463
0.087017 0.112830 0.295762
0.117518 0.162735 0.452434
0.305782 0.180264 0.482467
0.615718 0.188729 0.475567
0.747319 0.205526 0.475667
0.792299 0.224595 0.482908
0.819329 0.239740 0.505302
0.839596 0.223743 0.553289
0.846759 0.259676 0.556906
0.092123 0.128241 0.306962
0.113898 0.157389 0.388404
0.271983 0.183212 0.454356
0.579486 0.194882 0.453832
0.735632 0.213607 0.458990
0.789360 0.233423 0.470230
0.818290 0.248890 0.496065
0.839245 0.231478 0.549936
0.846761 0.259764 0.557225
0.102697 0.184229 0.301205
0.115158 0.191648 0.313167
0.204088 0.210628 0.357360
0.461859 0.228347 0.379627
0.689526 0.252497 0.399114
0.775733 0.276453 0.420476
0.813114 0.294372 0.457974
0.836222 0.296058 0.520064
0.846768 0.260085 0.558385
0.116495 0.296935 0.295425
0.124065 0.301638 0.299089
0.175269 0.312342 0.312454
0.347652 0.342244 0.350169
0.590255 0.345726 0.354553
0.746221 0.367960 0.373077
0.802670 0.386938 0.401450
0.832497 0.396415 0.468308
0.846771 0.260197 0.558734
0.132252 0.455337 0.301010
0.139697 0.458079 0.303528
0.175130 0.466089 0.312645
0.270865 0.472324 0.324842
0.463999 0.478106 0.338382
0.678571 0.489870 0.355372
0.783325 0.501820 0.373298
0.827103 0.508354 0.410029
0.847475 0.517526 0.545664
0.151190 0.585390 0.303591
0.156253 0.586746 0.306036
0.184047 0.591886 0.315082
0.248555 0.595535 0.326551
0.378329 0.597958 0.339188
0.579289 0.602064 0.351886
0.747797 0.609259 0.366259
0.818331 0.615160 0.386024
0.846618 0.625826 0.490038
0.170629 0.680313 0.303872
0.174975 0.680822 0.306298
0.195054 0.682895 0.315712
0.243208 0.684395 0.328499
0.335756 0.684776 0.342070
0.494237 0.685583 0.354618
0.678711 0.688591 0.366276
0.801410 0.694181 0.380666
0.846290 0.703097 0.432809
0.188121 0.763795 0.296581
0.191100 0.763776 0.299117
0.207130 0.763534 0.310893
0.243645 0.762630 0.325436
0.312122 0.761123 0.341161
0.426276 0.760024 0.354945
0.591570 0.761041 0.366944
0.765422 0.765026 0.379094
0.847672 0.771500 0.404062
0.196665 0.810817 0.315408
0.213465 0.817831 0.315408
0.213469 0.817832 0.315406
0.233154 0.818960 0.250366
0.291763 0.813156 0.322408
0.374580 0.811328 0.341573
0.504569 0.810789 0.356280
0.672027 0.812018 0.366909
0.852316 0.815356 0.376060
0.096254 0.144319 0.463143
0.114430 0.180205 0.526381
0.261878 0.225144 0.585555
0.583072 0.238341 0.586536
0.736702 0.254390 0.587564
0.789968 0.273365 0.593515
0.818553 0.286029 0.603681
0.838161 0.270876 0.620267
0.847226 0.280696 0.638766
0.099978 0.162139 0.470542
0.116382 0.189239 0.517561
0.245450 0.234340 0.576696
0.555769 0.248851 0.580105
0.726360 0.265543 0.582286
0.787311 0.284288 0.589507
0.817623 0.297125 0.600959
0.837881 0.281046 0.619024
0.847212 0.280069 0.635993
0.112239 0.223866 0.471733
0.123246 0.236507 0.487171
0.211181 0.270590 0.536723
0.462889 0.289871 0.554755
0.687309 0.308587 0.561930
0.775638 0.331804 0.572835
0.813240 0.347552 0.588685
0.835988 0.344985 0.611562
0.847170 0.278100 0.627179
0.125873 0.331632 0.463291
0.136053 0.337335 0.467647
0.193243 0.355088 0.486899
0.359755 0.373362 0.510217
0.607059 0.391513 0.525684
0.752688 0.413473 0.543760
0.804437 0.431654 0.564848
0.833170 0.438518 0.595779
0.848400 0.360939 0.627258
0.144264 0.470343 0.459518
0.152306 0.473495 0.461289
0.192344 0.481169 0.468932
0.298791 0.488788 0.481532
0.516813 0.506143 0.504347
0.698046 0.510956 0.512743
0.788949 0.524834 0.533760
0.828747 0.535193 0.568240
0.847847 0.540659 0.625079
0.164199 0.592238 0.462583
0.170903 0.593604 0.463588
0.201006 0.598773 0.468227
0.274955 0.603576 0.475751
0.417978 0.606914 0.485571
0.619615 0.611296 0.496237
0.762555 0.619016 0.511703
0.821897 0.626384 0.536678
0.847532 0.639747 0.609208
0.183348 0.682606 0.466815
0.188201 0.683144 0.467528
0.210686 0.685172 0.470869
0.265818 0.687065 0.476537
0.367714 0.688396 0.484006
0.536220 0.690362 0.492497
0.707968 0.694389 0.502071
0.809824 0.700442 0.516497
0.847602 0.712989 0.579486
0.197936 0.764475 0.473750
0.201283 0.764471 0.473961
0.219839 0.764289 0.475993
0.260514 0.763775 0.479776
0.334525 0.762889 0.485376
0.459214 0.762600 0.492172
0.628631 0.764305 0.499680
0.782180 0.768782 0.508361
0.848968 0.777175 0.543293
0.204642 0.814085 0.572492
0.207167 0.815102 0.572492
0.213098 0.817503 0.572489
0.247694 0.816000 0.497845
0.304489 0.813728 0.496496
0.391182 0.812285 0.499291
0.526144 0.811953 0.503600
0.693001 0.813318 0.509087
0.852874 0.817433 0.518389
0.107428 0.191536 0.599503
0.120477 0.221910 0.633921
0.237924 0.273474 0.674509
0.548661 0.287012 0.675932
0.726829 0.303500 0.677191
0.787384 0.320463 0.679575
0.817613 0.332547 0.683389
0.837506 0.318817 0.688225
0.847478 0.292531 0.684362
0.110983 0.208017 0.604291
0.122535 0.234970 0.633236
0.231355 0.284082 0.672189
0.528878 0.298566 0.674807
0.718347 0.315564 0.676349
0.784994 0.332801 0.678884
0.816783 0.344658 0.683022
0.837262 0.330500 0.688159
0.847478 0.292531 0.684362
0.123680 0.279681 0.610668
0.134715 0.293141 0.624769
0.218220 0.331179 0.658620
0.453526 0.348192 0.667165
0.684410 0.365220 0.671291
0.774839 0.382832 0.675667
0.813040 0.396301 0.681034
0.835828 0.392150 0.687604
0.847478 0.292534 0.684361
0.139496 0.378885 0.600339
0.149536 0.385846 0.606367
0.210923 0.410203 0.630841
0.376236 0.428104 0.648959
0.619156 0.443043 0.657962
0.755258 0.458559 0.665725
0.805568 0.473941 0.675721
0.833586 0.476937 0.685467
0.848586 0.413443 0.686273
0.157782 0.495423 0.591531
0.167029 0.498042 0.594036
0.211591 0.508279 0.605928
0.325145 0.519173 0.622449
0.533969 0.529539 0.636727
0.710306 0.540605 0.647834
0.792677 0.554090 0.661963
0.830085 0.562942 0.679394
0.848184 0.564240 0.693951
0.177673 0.605248 0.588214
0.184828 0.606393 0.589294
0.217731 0.610505 0.594429
0.298028 0.615067 0.603762
0.450348 0.619935 0.615754
0.651777 0.628576 0.630452
0.771018 0.634127 0.642317
0.824644 0.642377 0.664504
0.848249 0.653109 0.693087
0.195122 0.688777 0.590756
0.200306 0.689319 0.591097
0.226083 0.691465 0.593354
0.285613 0.693876 0.598188
0.394819 0.696173 0.605692
0.565506 0.699205 0.614611
0.728401 0.703951 0.624668
0.815154 0.710420 0.641472
0.848807 0.723983 0.686597
0.206954 0.768440 0.599868
0.210905 0.768447 0.599578
0.231804 0.768307 0.599299
0.275014 0.767976 0.600362
0.353520 0.767571 0.603647
0.486729 0.767942 0.608821
0.655994 0.770251 0.615246
0.792713 0.775192 0.623478
0.850400 0.786284 0.668085
0.207829 0.815263 0.613729
0.210111 0.816180 0.615961
0.215405 0.818307 0.624452
0.254149 0.817646 0.620725
0.313061 0.815446 0.615999
0.402351 0.814199 0.615554
0.538226 0.814071 0.617369
0.705837 0.815486 0.620556
0.853602 0.821000 0.646795
0.123834 0.265515 0.715167
0.134008 0.286186 0.730722
0.213630 0.323585 0.739147
0.529402 0.337597 0.739794
0.721795 0.353979 0.740864
0.786382 0.370061 0.742250
0.817501 0.379504 0.744304
0.837407 0.366633 0.745734
0.847823 0.311508 0.737174
0.126484 0.279653 0.717120
0.136407 0.297893 0.730252
0.214536 0.334885 0.739079
0.514350 0.349281 0.739893
0.714964 0.365856 0.741003
0.784424 0.382128 0.742404
0.816770 0.391895 0.744498
0.837202 0.378793 0.746065
0.847819 0.311318 0.736687
0.140989 0.346354 0.721055
0.150050 0.356894 0.728003
0.219119 0.385213 0.737397
0.454471 0.399661 0.739503
0.687003 0.413464 0.740957
0.775934 0.427240 0.742549
0.813583 0.436521 0.744914
0.836088 0.432197 0.747182
0.847799 0.310394 0.734469
0.157587 0.435685 0.715219
0.167889 0.441787 0.719866
0.225729 0.462132 0.731113
0.392859 0.476123 0.736624
0.634312 0.486024 0.739319
0.759389 0.496334 0.741759
0.807361 0.504310 0.744764
0.834326 0.504981 0.748338
0.848690 0.477330 0.746190
0.176465 0.528494 0.705432
0.185338 0.531596 0.708448
0.232208 0.543591 0.718996
0.350442 0.554882 0.728638
0.558390 0.564135 0.734448
0.723540 0.573638 0.738409
0.796705 0.582402 0.742703
0.831584 0.588236 0.748298
0.848667 0.587253 0.751329
0.193359 0.621480 0.697355
0.200446 0.622803 0.698964
0.237613 0.628032 0.705687
0.323625 0.634320 0.715645
0.485663 0.640060 0.724747
0.670359 0.645879 0.731433
0.778634 0.652145 0.737554
0.827311 0.658497 0.745555
0.849010 0.665698 0.754094
0.206763 0.699319 0.693455
0.212776 0.699976 0.694099
0.241489 0.702347 0.697183
0.304340 0.705334 0.703283
0.420079 0.708600 0.711547
0.591151 0.712365 0.719708
0.744051 0.717372 0.726626
0.819665 0.723767 0.737724
0.849927 0.734428 0.754510
0.214770 0.776302 0.695667
0.218889 0.776282 0.695622
0.241460 0.776019 0.695923
0.286539 0.775827 0.697748
0.368592 0.775854 0.701701
0.508352 0.776812 0.707187
0.671862 0.779748 0.713532
0.799452 0.785140 0.721373
0.851614 0.796072 0.749959
0.210479 0.816132 0.680167
0.214711 0.817852 0.680177
0.220379 0.820077 0.680432
0.255008 0.821193 0.704819
0.316436 0.818431 0.702428
0.406548 0.817247 0.703143
0.541922 0.817217 0.704966
0.707681 0.818678 0.707286
0.854612 0.825922 0.744259
0.148152 0.352015 0.802420
0.151678 0.355530 0.803597
0.235299 0.372907 0.803120
0.557597 0.386508 0.803205
0.734065 0.401179 0.803670
0.790642 0.414103 0.804357
0.819497 0.420420 0.805266
0.838694 0.406012 0.807231
0.848361 0.342682 0.796100
0.149959 0.362627 0.802324
0.153729 0.366164 0.803443
0.237856 0.384114 0.803271
0.546153 0.397571 0.803364
0.729130 0.410979 0.803813
0.789251 0.423981 0.804491
0.818992 0.430481 0.805414
0.838538 0.416518 0.807366
0.848401 0.345325 0.796100
0.163224 0.417601 0.801913
0.169525 0.420065 0.802701
0.249759 0.432767 0.803318
0.501857 0.443174 0.803596
0.706985 0.455471 0.804066
0.782707 0.467820 0.804762
0.816580 0.474881 0.805773
0.837717 0.465699 0.807642
0.848846 0.374161 0.796100
0.182495 0.490533 0.800473
0.190098 0.492440 0.801350
0.257118 0.501113 0.802842
0.438860 0.508258 0.803571
0.669346 0.516601 0.804205
0.770484 0.525458 0.805016
0.812140 0.531525 0.806205
0.836507 0.528736 0.808096
0.849373 0.503043 0.806747
0.201401 0.569863 0.797271
0.209625 0.571904 0.798434
0.263574 0.580105 0.801116
0.390392 0.586909 0.802837
0.603933 0.593946 0.804006
0.748349 0.601796 0.805065
0.804333 0.607010 0.806416
0.834662 0.607915 0.808470
0.849619 0.605189 0.808999
0.216351 0.644849 0.789224
0.224510 0.646237 0.791421
0.267348 0.651584 0.797290
0.357254 0.656154 0.800694
0.531447 0.660147 0.802912
0.700714 0.664751 0.804578
0.790365 0.669311 0.806231
0.831753 0.672260 0.808557
0.850232 0.676402 0.810270
0.223946 0.714577 0.776981
0.230679 0.715396 0.778790
0.263740 0.718752 0.785683
0.329935 0.722481 0.794447
0.455066 0.725584 0.799706
0.628873 0.728733 0.802781
0.762807 0.732665 0.805115
0.826029 0.736763 0.808114
0.851273 0.743475 0.810982
0.221919 0.789792 0.768084
0.226430 0.789653 0.768644
0.250556 0.788862 0.771497
0.298121 0.788720 0.777655
0.384457 0.789393 0.786714
0.527966 0.791133 0.795608
0.688118 0.794299 0.800439
0.804752 0.796317 0.802652
0.852636 0.801097 0.811039
0.213296 0.816836 0.744396
0.225492 0.821596 0.745436
0.228161 0.822511 0.752585
0.255185 0.824850 0.765250
0.312978 0.823040 0.766912
0.402285 0.821805 0.770320
0.535335 0.821835 0.774496
0.695821 0.823226 0.777591
0.855482 0.830716 0.810484
0.222256 0.403084 0.844396
0.255240 0.404604 0.844398
0.503427 0.410648 0.844406
0.721515 0.421173 0.844465
0.781814 0.433580 0.844599
0.809666 0.443845 0.844866
0.828600 0.445043 0.845605
0.842924 0.414956 0.847162
0.848828 0.377496 0.842219
0.225648 0.410564 0.844239
0.257170 0.412126 0.844244
0.497032 0.418322 0.844260
0.718466 0.429069 0.844336
0.780872 0.441660 0.844485
0.809294 0.452047 0.844770
0.828488 0.453142 0.845513
0.842881 0.421586 0.847081
0.848950 0.388706 0.847143
0.243458 0.449472 0.843467
0.270064 0.451029 0.843489
0.473827 0.457120 0.843566
0.704011 0.467635 0.843735
0.776316 0.478824 0.843970
0.807516 0.486663 0.844344
0.827910 0.487502 0.845101
0.842685 0.460046 0.846638
0.848950 0.388729 0.847143
0.266608 0.517837 0.842399
0.287237 0.518759 0.842452
0.435623 0.522364 0.842632
0.674867 0.528770 0.842926
0.766431 0.536428 0.843268
0.803574 0.543073 0.843735
0.826673 0.544443 0.844535
0.842466 0.529568 0.845907
0.851074 0.507592 0.848144
0.275360 0.597062 0.841754
0.290998 0.597760 0.841834
0.392159 0.600575 0.842101
0.621379 0.605134 0.842440
0.749359 0.609643 0.842872
0.797047 0.613719 0.843403
0.824651 0.615051 0.844181
0.842463 0.608440 0.845491
0.851789 0.591352 0.848188
0.274615 0.664136 0.841619
0.286132 0.664453 0.841722
0.354077 0.665812 0.842057
0.540649 0.668366 0.842470
0.708633 0.671765 0.842920
0.785290 0.675213 0.843469
0.821077 0.676807 0.844198
0.842342 0.672899 0.845366
0.852504 0.671606 0.847764
0.267892 0.734214 0.842018
0.275438 0.734322 0.842137
0.316780 0.734831 0.842495
0.434142 0.735730 0.842956
0.627470 0.737413 0.843458
0.759275 0.739853 0.844007
0.813206 0.741620 0.844760
0.841789 0.739579 0.845756
0.853487 0.742060 0.847785
0.252834 0.802292 0.841252
0.257175 0.802304 0.841919
0.279093 0.801951 0.843127
0.338006 0.801008 0.843862
0.465624 0.800358 0.844529
0.657997 0.800609 0.845136
0.784361 0.801692 0.845798
0.837932 0.801892 0.846668
0.854742 0.802221 0.848179
0.215910 0.817033 0.794460
0.237587 0.824855 0.806897
0.237588 0.824855 0.806897
0.243746 0.825403 0.806926
0.308841 0.831706 0.832741
0.408353 0.831995 0.846094
0.542059 0.831678 0.847437
0.710294 0.832888 0.848242
0.856242 0.835341 0.848793
