LUTs/negative-gold-200/Gold200_Modern_Normal.cube
TITLE "Kodak Gold 200 Modern Normal"
# Adobe RGB in/out. REPLACES AgX. Kodak Gold 200 Modern Normal.
LUT_3D_SIZE 9
DOMAIN_MIN 0.0 0.0 0.0
DOMAIN_MAX 1.0 1.0 1.0
0.075187 0.075821 0.088847
0.188460 0.085242 0.090584
0.612640 0.103035 0.093080
0.816520 0.133298 0.097866
0.878899 0.172416 0.106695
0.899013 0.203235 0.120404
0.906451 0.208686 0.143089
0.910158 0.223240 0.560504
0.903572 0.369288 0.670015
0.078772 0.116378 0.090444
0.087870 0.104523 0.091006
0.316415 0.119076 0.093223
0.718196 0.153619 0.097917
0.853658 0.193168 0.106526
0.889883 0.221606 0.119800
0.901784 0.225655 0.140345
0.907685 0.219979 0.554303
0.901657 0.365148 0.664676
0.089620 0.324857 0.093431
0.094276 0.288435 0.094482
0.138322 0.213285 0.095218
0.386408 0.225589 0.099084
0.717966 0.267668 0.107599
0.848198 0.310505 0.120032
0.884897 0.323125 0.137308
0.899287 0.217207 0.537011
0.895413 0.351892 0.647490
0.107494 0.540646 0.098175
0.111143 0.519436 0.099775
0.140679 0.458815 0.102166
0.246607 0.389845 0.103947
0.486494 0.387337 0.111000
0.742726 0.416166 0.122535
0.851897 0.440883 0.138548
0.880511 0.428737 0.162739
0.885732 0.300419 0.520298
0.129510 0.683051 0.104290
0.133058 0.672058 0.106406
0.158224 0.640478 0.111573
0.229405 0.591203 0.115168
0.371899 0.544211 0.119727
0.593358 0.534597 0.127754
0.782877 0.551245 0.143471
0.861178 0.558564 0.163248
0.875562 0.535480 0.302229
0.157676 0.756409 0.110811
0.160406 0.751579 0.112650
0.181851 0.738868 0.119828
0.232972 0.716238 0.126416
0.335688 0.688105 0.132762
0.494434 0.661234 0.140265
0.692719 0.652225 0.151350
0.827420 0.660101 0.169042
0.865618 0.657561 0.207823
0.184350 0.810164 0.112396
0.186376 0.806918 0.114132
0.201860 0.797560 0.122641
0.242150 0.781201 0.133055
0.320561 0.761693 0.143699
0.441381 0.744518 0.153094
0.610028 0.733371 0.162635
0.775474 0.728658 0.176036
0.854525 0.731385 0.202449
0.207220 0.843849 0.100906
0.207464 0.841998 0.102170
0.218799 0.835246 0.112939
0.249616 0.826904 0.126563
0.310367 0.814877 0.142001
0.406430 0.799632 0.155382
0.541269 0.788442 0.167063
0.716061 0.782764 0.179255
0.846948 0.780706 0.198006
0.195701 0.838357 0.093655
0.194862 0.837521 0.093635
0.232616 0.846612 0.093573
0.228280 0.843125 0.096433
0.291765 0.839616 0.106671
0.370492 0.831724 0.124203
0.476483 0.825776 0.138377
0.626990 0.822532 0.147237
0.845161 0.822060 0.149529
0.078008 0.088542 0.126318
0.159965 0.129645 0.270806
0.657281 0.121832 0.162541
0.834038 0.147849 0.148321
0.880047 0.180643 0.139322
0.896915 0.207889 0.144627
0.904400 0.213702 0.169048
0.908933 0.221499 0.557185
0.902580 0.367141 0.667246
0.081317 0.112295 0.111060
0.098917 0.104184 0.104403
0.415118 0.128239 0.120055
0.760949 0.166642 0.133193
0.859874 0.200523 0.134975
0.888284 0.225363 0.142259
0.899778 0.229762 0.163059
0.906248 0.218277 0.551032
0.900672 0.363031 0.661944
0.093852 0.292439 0.123113
0.102014 0.249770 0.117541
0.167156 0.196218 0.110739
0.469755 0.223985 0.120016
0.749489 0.270866 0.128651
0.851791 0.311568 0.139424
0.883496 0.324066 0.156458
0.897919 0.217829 0.534759
0.894458 0.349900 0.644891
0.112650 0.513434 0.125779
0.117600 0.491488 0.125902
0.155899 0.429355 0.123927
0.279948 0.372864 0.122921
0.532792 0.381261 0.128232
0.758435 0.413622 0.139742
0.852997 0.438894 0.155599
0.879348 0.428482 0.181271
0.885189 0.331050 0.620057
0.134144 0.667002 0.124997
0.138600 0.656174 0.127005
0.167900 0.624966 0.131986
0.245557 0.575324 0.134865
0.397966 0.534417 0.138603
0.618673 0.529540 0.144896
0.791562 0.548209 0.159390
0.860673 0.556366 0.179754
0.874894 0.539381 0.342125
0.160590 0.749723 0.124828
0.163917 0.745021 0.127001
0.186974 0.732270 0.136329
0.241406 0.710368 0.144266
0.347940 0.680949 0.150569
0.512841 0.656431 0.157761
0.704570 0.649474 0.167035
0.829886 0.658134 0.184541
0.864832 0.657030 0.224009
0.186095 0.806258 0.122654
0.188417 0.803042 0.124905
0.204868 0.793685 0.135376
0.247085 0.777587 0.148065
0.327373 0.758637 0.159146
0.450912 0.742177 0.169029
0.622972 0.731709 0.179493
0.781868 0.727649 0.190834
0.854183 0.730821 0.216141
0.207306 0.842335 0.104335
0.207874 0.840541 0.106434
0.220414 0.833985 0.120674
0.252356 0.825744 0.137676
0.314170 0.813197 0.154705
0.411418 0.798296 0.169158
0.548107 0.787483 0.181863
0.723400 0.782103 0.193865
0.847121 0.780301 0.211066
0.201960 0.842779 0.111433
0.201101 0.841944 0.111255
0.238603 0.850652 0.110661
0.232718 0.846165 0.109720
0.293332 0.839319 0.111375
0.372763 0.831470 0.131999
0.479626 0.825615 0.148608
0.631899 0.822463 0.158590
0.846166 0.822034 0.160735
0.083328 0.116541 0.322767
0.201501 0.256780 0.617765
0.633046 0.258542 0.586544
0.842465 0.258273 0.530502
0.881442 0.261785 0.468765
0.895621 0.283968 0.462674
0.902129 0.298294 0.497708
0.906501 0.226626 0.565274
0.900524 0.362720 0.661561
0.090516 0.165095 0.332614
0.144235 0.200188 0.418288
0.486677 0.210259 0.421079
0.779652 0.228872 0.403352
0.864043 0.257445 0.393589
0.887213 0.286213 0.411853
0.897357 0.300873 0.452588
0.903792 0.225306 0.560740
0.898603 0.358616 0.656234
0.098933 0.254298 0.248994
0.108528 0.226254 0.222819
0.194293 0.193038 0.192995
0.535516 0.235877 0.233926
0.776263 0.295213 0.276423
0.856318 0.337838 0.313140
0.881570 0.351399 0.342196
0.894955 0.269293 0.540200
0.892356 0.345548 0.639199
0.121131 0.474432 0.266357
0.129962 0.453422 0.252955
0.180647 0.391607 0.223748
0.325976 0.346217 0.205503
0.609304 0.376593 0.226593
0.787585 0.420952 0.259060
0.854969 0.448003 0.283161
0.877128 0.445162 0.344529
0.883089 0.326880 0.614538
0.150444 0.641225 0.262651
0.157340 0.630488 0.258586
0.193812 0.597655 0.246221
0.287380 0.547936 0.232081
0.456177 0.515844 0.225906
0.683129 0.523503 0.239770
0.810203 0.547264 0.258576
0.859770 0.556934 0.294060
0.873304 0.557016 0.489372
0.178719 0.736830 0.253101
0.183499 0.732172 0.252869
0.210577 0.718756 0.252798
0.276188 0.697088 0.248731
0.395550 0.665941 0.244734
0.569227 0.646354 0.245430
0.742200 0.644945 0.251928
0.835926 0.655432 0.277973
0.862869 0.658840 0.330839
0.199768 0.796430 0.227394
0.203102 0.793311 0.229290
0.222988 0.783873 0.236771
0.271910 0.768445 0.243729
0.358825 0.750992 0.248037
0.492441 0.736442 0.252109
0.668316 0.727804 0.258591
0.802812 0.725593 0.273002
0.853262 0.729867 0.293993
0.215045 0.835862 0.189210
0.217146 0.834411 0.193278
0.234055 0.829460 0.212616
0.269934 0.821980 0.229155
0.335580 0.808068 0.242252
0.437746 0.794394 0.252269
0.581534 0.784836 0.261742
0.749247 0.780365 0.271687
0.847444 0.779366 0.279526
0.200524 0.841382 0.111141
0.240515 0.852091 0.110966
0.236847 0.849323 0.110384
0.231150 0.844942 0.109471
0.303195 0.838142 0.157165
0.384959 0.830625 0.195792
0.495200 0.825117 0.214878
0.655167 0.822280 0.225257
0.847195 0.822050 0.228732
0.092571 0.180776 0.568026
0.174297 0.334279 0.731768
0.582112 0.380319 0.761532
0.841408 0.401019 0.754757
0.887593 0.394292 0.718123
0.898083 0.388525 0.690802
0.902346 0.384679 0.686370
0.904232 0.340732 0.705839
0.899255 0.370144 0.690648
0.103003 0.234183 0.580828
0.161751 0.320488 0.677519
0.531195 0.388180 0.733695
0.803936 0.387513 0.709660
0.871306 0.381968 0.679042
0.889534 0.386567 0.660942
0.897453 0.388123 0.666703
0.901179 0.345647 0.697056
0.897285 0.365960 0.686947
0.112731 0.315897 0.489591
0.130435 0.310635 0.479646
0.279762 0.309417 0.488617
0.598664 0.329712 0.510062
0.793080 0.367275 0.534892
0.859549 0.400012 0.556406
0.881307 0.417884 0.587446
0.890408 0.409761 0.646180
0.890873 0.352646 0.673821
0.129582 0.451302 0.443639
0.140222 0.433941 0.426583
0.196713 0.384586 0.379362
0.351009 0.347648 0.347054
0.643925 0.394458 0.398293
0.795700 0.444953 0.446280
0.854616 0.474982 0.490574
0.875604 0.484616 0.557726
0.881361 0.333195 0.647513
0.163643 0.618573 0.449159
0.172294 0.609212 0.439483
0.212881 0.574556 0.412709
0.314587 0.528883 0.377906
0.491893 0.501191 0.360017
0.706991 0.522441 0.385209
0.814797 0.552635 0.421740
0.857586 0.568752 0.468232
0.871634 0.580146 0.605830
0.193141 0.723915 0.438787
0.199075 0.719664 0.434275
0.231069 0.707042 0.421746
0.304020 0.680980 0.401798
0.430904 0.652810 0.384583
0.611978 0.637102 0.378267
0.762042 0.642367 0.391836
0.836763 0.655402 0.420308
0.860999 0.670581 0.530651
0.213897 0.786252 0.417736
0.218308 0.783327 0.416142
0.242605 0.774292 0.411946
0.297326 0.759873 0.404028
0.391995 0.743836 0.395126
0.534430 0.730961 0.389606
0.700425 0.724186 0.389991
0.813038 0.724226 0.400068
0.851978 0.731515 0.453772
0.225930 0.830855 0.380944
0.229014 0.829559 0.381172
0.248255 0.825197 0.385522
0.288045 0.816601 0.387479
0.358035 0.802983 0.387949
0.466547 0.790611 0.387921
0.618189 0.782272 0.389600
0.771676 0.778897 0.394394
0.847183 0.779495 0.415713
0.220574 0.846511 0.371688
0.243482 0.852281 0.370124
0.239926 0.849627 0.364918
0.259140 0.846460 0.286496
0.321150 0.836084 0.354157
0.403810 0.829409 0.362951
0.520084 0.824528 0.369374
0.679498 0.822127 0.373901
0.847435 0.822438 0.378225
0.111088 0.282803 0.742464
0.163560 0.380161 0.791352
0.514542 0.471862 0.827426
0.822884 0.492279 0.828036
0.895811 0.506634 0.822653
0.904115 0.480918 0.794379
0.905464 0.461277 0.777096
0.904665 0.408784 0.769039
0.899522 0.397374 0.762613
0.119850 0.332736 0.749800
0.170303 0.402084 0.785946
0.484372 0.486121 0.821884
0.806915 0.508308 0.824023
0.880624 0.496578 0.803737
0.895713 0.479192 0.781605
0.900510 0.464247 0.768938
0.901554 0.415468 0.761709
0.897483 0.391821 0.755700
0.150826 0.454710 0.737138
0.182668 0.463788 0.741340
0.365711 0.482256 0.758605
0.671156 0.477140 0.746279
0.815944 0.476408 0.732321
0.868351 0.484497 0.726931
0.884215 0.485707 0.727712
0.891028 0.468764 0.734366
0.890820 0.374228 0.733613
0.148812 0.483580 0.616130
0.163266 0.477112 0.607529
0.240266 0.461941 0.592929
0.435079 0.451794 0.589358
0.684512 0.469772 0.606062
0.808694 0.499545 0.634320
0.857931 0.521760 0.663133
0.875909 0.526460 0.692097
0.881578 0.443899 0.712331
0.175181 0.607874 0.591599
0.184959 0.599604 0.583108
0.229849 0.571711 0.559598
0.335697 0.532118 0.530301
0.511841 0.505513 0.511401
0.721768 0.540699 0.545562
0.817788 0.575779 0.582513
0.857089 0.597078 0.626982
0.870636 0.604244 0.688153
0.205177 0.714404 0.586581
0.212012 0.710783 0.581104
0.248168 0.699614 0.565414
0.324808 0.672720 0.544263
0.456070 0.646395 0.525701
0.636434 0.632644 0.517931
0.770901 0.645975 0.536086
0.836364 0.663599 0.567705
0.859419 0.683784 0.648698
0.226480 0.777772 0.575146
0.231922 0.775187 0.571881
0.258877 0.767013 0.562395
0.316952 0.753920 0.549013
0.416952 0.739288 0.535941
0.563630 0.727684 0.526955
0.721618 0.722517 0.525114
0.817178 0.725280 0.535997
0.850830 0.736940 0.600050
0.235877 0.826906 0.560287
0.239557 0.825714 0.558064
0.260753 0.821681 0.552103
0.303325 0.811688 0.543536
0.378110 0.799241 0.534961
0.492705 0.788085 0.528321
0.651145 0.780900 0.525014
0.787264 0.778747 0.526051
0.846814 0.782207 0.553852
0.228924 0.846882 0.635711
0.231394 0.847094 0.634035
0.236147 0.846849 0.628421
0.273789 0.841504 0.544278
0.332273 0.834694 0.533767
0.417058 0.828674 0.527295
0.537095 0.824305 0.523442
0.698248 0.822402 0.522402
0.847503 0.823841 0.526409
0.141934 0.406878 0.836056
0.184959 0.466813 0.852196
0.470505 0.545066 0.866811
0.801907 0.564905 0.867511
0.895510 0.588013 0.868130
0.910843 0.562876 0.852914
0.910277 0.527763 0.832402
0.907363 0.477318 0.814403
0.900995 0.415761 0.794180
0.152320 0.441245 0.838992
0.192595 0.487092 0.851944
0.458378 0.560632 0.865954
0.786777 0.581186 0.866957
0.889883 0.599210 0.865933
0.903519 0.560689 0.846540
0.905709 0.530269 0.825720
0.904240 0.482801 0.810054
0.898923 0.410698 0.791033
0.196921 0.554193 0.842882
0.230222 0.573641 0.848816
0.434008 0.620881 0.861142
0.708022 0.602817 0.849737
0.837662 0.579323 0.832044
0.877601 0.562941 0.815625
0.889730 0.548155 0.804129
0.893780 0.520698 0.795741
0.892114 0.394418 0.780732
0.188867 0.565941 0.776229
0.205705 0.565587 0.775680
0.308586 0.570693 0.778274
0.517856 0.566556 0.775497
0.730875 0.565560 0.771265
0.826207 0.571028 0.769747
0.866007 0.577712 0.770683
0.878401 0.571062 0.772592
0.882424 0.496484 0.765788
0.195123 0.624299 0.718232
0.205405 0.620137 0.714130
0.262324 0.609427 0.705009
0.384577 0.589832 0.694116
0.578581 0.580676 0.689938
0.746377 0.595352 0.699851
0.825884 0.616005 0.716590
0.859701 0.626785 0.734402
0.870926 0.626173 0.748650
0.216751 0.711251 0.701513
0.225084 0.708509 0.697805
0.264559 0.699874 0.687194
0.344908 0.677918 0.670549
0.479225 0.654146 0.650116
0.651083 0.638199 0.635828
0.778247 0.661427 0.667389
0.837698 0.681515 0.695467
0.859006 0.698607 0.725938
0.237010 0.772615 0.692679
0.243044 0.770395 0.689954
0.272119 0.763381 0.681954
0.332710 0.751957 0.667822
0.436157 0.738844 0.652497
0.584661 0.727973 0.641253
0.733151 0.723793 0.639279
0.819047 0.730231 0.658970
0.850090 0.743808 0.704883
0.243306 0.824341 0.684825
0.247411 0.823272 0.682692
0.270188 0.818924 0.675368
0.314667 0.809207 0.662614
0.393460 0.797929 0.650208
0.512718 0.787867 0.640691
0.668937 0.781642 0.635757
0.795748 0.780638 0.637219
0.846627 0.787726 0.680571
0.229398 0.845000 0.675813
0.231578 0.845180 0.676714
0.235646 0.844881 0.679955
0.277988 0.840631 0.667765
0.338312 0.834239 0.652097
0.424661 0.828745 0.641330
0.546777 0.824908 0.634554
0.708981 0.823443 0.631510
0.847778 0.826600 0.654698
0.197505 0.533281 0.886479
0.228280 0.563702 0.893821
0.424763 0.613092 0.897757
0.787181 0.627400 0.898058
0.893265 0.643788 0.898556
0.915529 0.637565 0.890036
0.914063 0.596753 0.870626
0.910720 0.537307 0.855257
0.903396 0.445101 0.834994
0.205903 0.554151 0.887406
0.234896 0.580252 0.893600
0.426587 0.624652 0.897725
0.775929 0.639125 0.898104
0.890203 0.655454 0.898621
0.910983 0.634894 0.884299
0.911146 0.598582 0.866736
0.908204 0.542314 0.852648
0.901316 0.439443 0.831567
0.247731 0.636204 0.889269
0.273864 0.646668 0.892544
0.435725 0.674104 0.896942
0.738894 0.687662 0.897693
0.857716 0.658910 0.881138
0.887867 0.634203 0.866319
0.896662 0.611117 0.854210
0.897978 0.574583 0.843880
0.894438 0.420821 0.819875
0.251684 0.663337 0.862409
0.270137 0.664148 0.862588
0.371098 0.667393 0.861580
0.582979 0.658327 0.855535
0.767115 0.647234 0.848035
0.846670 0.638682 0.839341
0.873842 0.629978 0.830556
0.882694 0.615467 0.823173
0.884410 0.564858 0.812336
0.231560 0.669931 0.812339
0.244184 0.668567 0.811787
0.309328 0.666679 0.810891
0.446352 0.659632 0.806758
0.650044 0.653532 0.801781
0.776889 0.653741 0.799256
0.839453 0.656961 0.799222
0.865546 0.657643 0.800171
0.872623 0.650420 0.798397
0.237164 0.719488 0.784462
0.245993 0.717724 0.783062
0.289466 0.712740 0.779563
0.378925 0.704102 0.774271
0.527107 0.691722 0.767843
0.692740 0.686188 0.763617
0.795045 0.694668 0.769912
0.842973 0.703998 0.777607
0.860485 0.710089 0.783886
0.247641 0.772669 0.771527
0.254276 0.770934 0.770134
0.285568 0.765419 0.765034
0.349048 0.756221 0.756936
0.456533 0.745337 0.748626
0.606260 0.735347 0.740633
0.738863 0.728630 0.734103
0.822068 0.739986 0.753445
0.850417 0.751603 0.772510
0.248126 0.823879 0.760522
0.252479 0.822922 0.758615
0.276542 0.818905 0.752727
0.322571 0.810243 0.744865
0.403927 0.800200 0.737431
0.526546 0.791159 0.731806
0.679561 0.785602 0.729180
0.800084 0.785427 0.732048
0.846703 0.794513 0.761444
0.228993 0.842752 0.724916
0.233787 0.843742 0.723829
0.238345 0.843759 0.720399
0.275301 0.841497 0.740416
0.338526 0.834983 0.730462
0.425496 0.829919 0.723820
0.547865 0.826518 0.719469
0.709172 0.825468 0.717480
0.848459 0.830645 0.752884
0.268309 0.641842 0.927922
0.278663 0.645321 0.928708
0.465662 0.662298 0.928398
0.807999 0.675336 0.928456
0.898719 0.689889 0.928752
0.921021 0.695328 0.925849
0.918150 0.648530 0.904550
0.913662 0.590235 0.887893
0.906185 0.485135 0.866091
0.273596 0.652300 0.927856
0.284755 0.655755 0.928617
0.470381 0.673057 0.928501
0.800003 0.685978 0.928564
0.896533 0.700293 0.928837
0.917022 0.691978 0.920453
0.915467 0.648958 0.900768
0.911808 0.594721 0.885223
0.904156 0.483048 0.864137
0.308857 0.704774 0.927576
0.323609 0.706430 0.928113
0.492298 0.714878 0.928533
0.768508 0.721689 0.928708
0.878324 0.715457 0.920395
0.899939 0.691505 0.903351
0.904588 0.659188 0.888491
0.903165 0.619341 0.876355
0.897596 0.495025 0.857648
0.329375 0.733447 0.914248
0.342578 0.731822 0.912999
0.453793 0.728281 0.907976
0.668547 0.718177 0.899292
0.813143 0.706598 0.889195
0.868440 0.692778 0.879300
0.883309 0.674313 0.870443
0.888332 0.649534 0.862954
0.887331 0.604826 0.854196
0.292843 0.722926 0.873004
0.304274 0.722088 0.872501
0.377302 0.720416 0.870205
0.527356 0.714622 0.865470
0.713071 0.708324 0.860037
0.813700 0.703515 0.855145
0.855954 0.698670 0.851184
0.871699 0.688024 0.848069
0.875428 0.672851 0.843673
0.275506 0.741414 0.847681
0.285121 0.740499 0.847446
0.334122 0.738207 0.846349
0.431045 0.732077 0.842075
0.592135 0.725322 0.835419
0.740728 0.721672 0.830548
0.817713 0.721216 0.828550
0.851719 0.721038 0.828596
0.863917 0.721468 0.827758
0.267080 0.780695 0.825294
0.274217 0.779557 0.824979
0.309998 0.776275 0.824450
0.378173 0.769779 0.822186
0.494071 0.761242 0.817510
0.654535 0.753829 0.812202
0.767444 0.751424 0.809791
0.831152 0.754518 0.812467
0.852671 0.760396 0.815570
0.252306 0.826812 0.808993
0.256825 0.825927 0.808322
0.282984 0.822782 0.806673
0.331577 0.816665 0.804993
0.416253 0.808204 0.803895
0.542258 0.800565 0.802538
0.693325 0.795335 0.800914
0.803077 0.792036 0.798728
0.847481 0.801572 0.808472
0.228940 0.840496 0.781499
0.243416 0.844356 0.781542
0.244161 0.843402 0.784182
0.272104 0.842631 0.789103
0.331598 0.837412 0.785595
0.418622 0.832693 0.783210
0.538842 0.829671 0.782028
0.696447 0.828868 0.781396
0.849126 0.834694 0.806257
0.441542 0.691948 0.944359
0.502368 0.693589 0.944360
0.769447 0.700043 0.944362
0.893140 0.707173 0.944381
0.919684 0.715414 0.944423
0.930548 0.722125 0.944507
0.924022 0.681621 0.934963
0.917239 0.609015 0.918041
0.908680 0.525308 0.898513
0.447824 0.699959 0.944309
0.505909 0.701072 0.944311
0.765612 0.705259 0.944316
0.891775 0.712434 0.944340
0.919312 0.720704 0.944387
0.927512 0.719960 0.942411
0.921649 0.680373 0.931908
0.915506 0.609121 0.915270
0.906751 0.531301 0.899849
0.480705 0.725768 0.944067
0.528265 0.726774 0.944074
0.751440 0.730691 0.944098
0.885253 0.737380 0.944151
0.915883 0.740657 0.943048
0.916746 0.717102 0.935059
0.913828 0.685468 0.919974
0.909732 0.622949 0.906010
0.900083 0.514654 0.893253
0.513206 0.769447 0.942087
0.541251 0.767136 0.941319
0.702861 0.759789 0.938745
0.846612 0.748584 0.934573
0.884634 0.734880 0.924202
0.895366 0.719562 0.912519
0.897431 0.701512 0.901518
0.895778 0.660247 0.891792
0.890827 0.615213 0.883584
0.426960 0.755968 0.911331
0.446881 0.754519 0.910291
0.568519 0.750011 0.906828
0.755959 0.743341 0.901321
0.837563 0.735540 0.894755
0.867687 0.726910 0.888009
0.876706 0.716340 0.881673
0.880200 0.699589 0.876061
0.879294 0.665978 0.871636
0.363907 0.765465 0.884076
0.377675 0.764173 0.883286
0.455355 0.760183 0.880673
0.639603 0.754488 0.876615
0.768835 0.748527 0.872047
0.828300 0.743170 0.867862
0.853628 0.737497 0.864454
0.865655 0.728313 0.861809
0.868404 0.721426 0.860032
0.322803 0.796891 0.869188
0.330646 0.795548 0.868519
0.376083 0.791194 0.866256
0.494830 0.784476 0.862644
0.672665 0.777350 0.858483
0.778029 0.771685 0.854781
0.827688 0.767685 0.852379
0.849488 0.762702 0.851255
0.857424 0.762076 0.851135
0.287462 0.833369 0.860014
0.291834 0.832696 0.859878
0.313822 0.830053 0.858735
0.374892 0.825438 0.856092
0.495598 0.820056 0.852726
0.674045 0.812783 0.849308
0.788345 0.808179 0.846606
0.836300 0.805033 0.845431
0.850808 0.804528 0.845881
0.229039 0.838136 0.811463
0.254446 0.844869 0.822304
0.252247 0.843318 0.820348
0.255881 0.841287 0.817188
0.324695 0.843906 0.838935
0.422529 0.840971 0.846992
0.544412 0.837951 0.845627
0.709692 0.837204 0.844643
0.849873 0.838757 0.844366
