LUTs/negative-gold-200/Gold200_Modern_ExtraSoft.cube
TITLE "Kodak Gold 200 Modern ExtraSoft"
# Adobe RGB in/out. REPLACES AgX. Kodak Gold 200 Modern ExtraSoft.
LUT_3D_SIZE 5
DOMAIN_MIN 0.0 0.0 0.0
DOMAIN_MAX 1.0 1.0 1.0
0.058206 0.064417 0.080741
0.576335 0.084336 0.090202
0.793945 0.137207 0.107397
0.819261 0.174451 0.134288
0.816615 0.376008 0.626748
0.070203 0.320209 0.090959
0.103965 0.179874 0.093567
0.663887 0.249649 0.108087
0.799455 0.318071 0.130102
0.809117 0.353946 0.613276
0.097607 0.640719 0.105360
0.116637 0.614895 0.111104
0.373873 0.538244 0.117550
0.710351 0.543438 0.134563
0.790880 0.531774 0.288601
0.138823 0.732701 0.111725
0.153944 0.724655 0.119717
0.307189 0.701548 0.134728
0.574537 0.679953 0.149296
0.771884 0.678225 0.182502
0.148603 0.758346 0.091446
0.189984 0.767217 0.091266
0.268193 0.759697 0.107379
0.475712 0.744857 0.130878
0.763081 0.740880 0.138744
0.065062 0.094154 0.313452
0.590318 0.238269 0.574120
0.796281 0.242297 0.469079
0.815288 0.288804 0.491131
0.813813 0.367647 0.621712
0.076680 0.233024 0.230953
0.147386 0.156771 0.173592
0.705426 0.284800 0.259959
0.796399 0.353325 0.337340
0.806309 0.345968 0.608275
0.111847 0.615353 0.245192
0.146970 0.577300 0.228063
0.456276 0.517123 0.205852
0.731548 0.540500 0.240919
0.788806 0.547687 0.484864
0.152127 0.723931 0.207518
0.178217 0.715874 0.218067
0.356591 0.694592 0.229955
0.617739 0.675108 0.240934
0.770697 0.676903 0.279232
0.152783 0.761594 0.110777
0.195290 0.769971 0.110204
0.285375 0.758115 0.144554
0.493595 0.744152 0.194246
0.764993 0.740870 0.209016
0.085307 0.268816 0.678790
0.508103 0.471975 0.749570
0.809483 0.508075 0.745123
0.818354 0.461005 0.702761
0.812893 0.406304 0.691127
0.112090 0.455301 0.675510
0.365668 0.482756 0.688681
0.736945 0.476690 0.672538
0.798829 0.486338 0.669687
0.804897 0.382321 0.673336
0.130983 0.585213 0.578995
0.186542 0.558456 0.548125
0.506467 0.506910 0.501584
0.738679 0.561425 0.570233
0.786355 0.582053 0.640057
0.182380 0.711945 0.563127
0.223597 0.704995 0.550824
0.418628 0.685101 0.525289
0.666056 0.670503 0.514833
0.768410 0.683058 0.584330
0.185396 0.767506 0.606164
0.194408 0.767471 0.601737
0.322119 0.754414 0.523189
0.523433 0.743283 0.513217
0.765282 0.742786 0.516084
0.150165 0.530140 0.807802
0.426136 0.590132 0.819668
0.807143 0.616924 0.820509
0.828567 0.576649 0.791163
0.816453 0.447160 0.756624
0.209122 0.611907 0.810736
0.436664 0.635342 0.818809
0.774885 0.626149 0.802192
0.810265 0.588269 0.773983
0.808221 0.426466 0.742533
0.188668 0.632824 0.735513
0.293034 0.630859 0.734165
0.601873 0.622877 0.725680
0.758254 0.624964 0.723297
0.788181 0.620980 0.722529
0.209007 0.708652 0.697581
0.259579 0.703963 0.692602
0.456617 0.690361 0.682574
0.677431 0.675826 0.673638
0.768022 0.694990 0.698494
0.185482 0.763067 0.667955
0.197180 0.764149 0.665152
0.330159 0.754725 0.671388
0.531092 0.745652 0.664574
0.766181 0.750073 0.685183
0.442246 0.646042 0.864731
0.700343 0.650892 0.864736
0.836795 0.664314 0.864823
0.843168 0.639862 0.851286
0.821310 0.524202 0.820463
0.479748 0.673334 0.864312
0.686873 0.677621 0.864357
0.831227 0.686292 0.862851
0.828223 0.642168 0.840288
0.813409 0.516231 0.814926
0.428247 0.697830 0.833978
0.545667 0.693953 0.829227
0.756688 0.681841 0.816507
0.791930 0.665121 0.802754
0.794308 0.630435 0.792222
0.310033 0.724226 0.789657
0.379446 0.720576 0.786585
0.622014 0.711673 0.778450
0.747989 0.705430 0.772070
0.774610 0.701796 0.770770
0.185539 0.758108 0.734697
0.214946 0.763675 0.742975
0.312439 0.764307 0.760284
0.528641 0.757910 0.765020
0.767511 0.758775 0.763801
