LUTs/negative-gold-200/Gold200_Classic_Punchy.cube
TITLE "Kodak Gold 200 Classic Punchy"
# Adobe RGB in/out. REPLACES AgX. Kodak Gold 200 Classic Punchy.
LUT_3D_SIZE 5
DOMAIN_MIN 0.0 0.0 0.0
DOMAIN_MAX 1.0 1.0 1.0
0.072541 0.084015 0.079839
0.335852 0.092858 0.083766
0.736329 0.116050 0.091367
0.818162 0.139228 0.109886
0.846580 0.251713 0.523348
0.085081 0.159088 0.083982
0.125677 0.160744 0.088032
0.572425 0.180099 0.095793
0.808086 0.212719 0.111577
0.846581 0.251718 0.523346
0.109488 0.460230 0.091033
0.128800 0.475547 0.097164
0.302124 0.463971 0.108500
0.731686 0.478846 0.125688
0.845946 0.467942 0.248549
0.146162 0.687208 0.098717
0.161726 0.690849 0.105980
0.263301 0.689043 0.124956
0.565704 0.686021 0.146986
0.843843 0.695981 0.188137
0.175532 0.797879 0.087249
0.204503 0.810571 0.087259
0.261879 0.813660 0.101897
0.453677 0.809853 0.131619
0.848711 0.814064 0.145793
0.080111 0.095834 0.158407
0.340518 0.136113 0.312017
0.752810 0.154428 0.266679
0.819244 0.185271 0.329095
0.846581 0.251723 0.523372
0.095453 0.161564 0.158724
0.201629 0.186198 0.192005
0.681671 0.208478 0.202675
0.811980 0.241833 0.239434
0.846581 0.251718 0.523346
0.121792 0.449872 0.165884
0.154753 0.461016 0.178646
0.401722 0.466671 0.198693
0.771823 0.488405 0.221773
0.846830 0.493507 0.424300
0.157439 0.681469 0.164411
0.178982 0.684400 0.179561
0.300896 0.684859 0.208964
0.633221 0.686035 0.235555
0.845115 0.697617 0.272114
0.180487 0.803041 0.103384
0.209245 0.815333 0.103381
0.273696 0.813627 0.142335
0.475573 0.810219 0.204216
0.851664 0.814465 0.225463
0.096254 0.144319 0.463143
0.261878 0.225144 0.585555
0.736702 0.254390 0.587564
0.818553 0.286029 0.603681
0.847226 0.280696 0.638766
0.112239 0.223866 0.471733
0.211181 0.270590 0.536723
0.687309 0.308587 0.561930
0.813240 0.347552 0.588685
0.847170 0.278100 0.627179
0.144264 0.470343 0.459518
0.192344 0.481169 0.468932
0.516813 0.506143 0.504347
0.788949 0.524834 0.533760
0.847847 0.540659 0.625079
0.183348 0.682606 0.466815
0.210686 0.685172 0.470869
0.367714 0.688396 0.484006
0.707968 0.694389 0.502071
0.847602 0.712989 0.579486
0.204642 0.814085 0.572492
0.213098 0.817503 0.572489
0.304489 0.813728 0.496496
0.526144 0.811953 0.503600
0.852874 0.817433 0.518389
0.123834 0.265515 0.715167
0.213630 0.323585 0.739147
0.721795 0.353979 0.740864
0.817501 0.379504 0.744304
0.847823 0.311508 0.737174
0.140989 0.346354 0.721055
0.219119 0.385213 0.737397
0.687003 0.413464 0.740957
0.813583 0.436521 0.744914
0.847799 0.310394 0.734469
0.176465 0.528494 0.705432
0.232208 0.543591 0.718996
0.558390 0.564135 0.734448
0.796705 0.582402 0.742703
0.848667 0.587253 0.751329
0.206763 0.699319 0.693455
0.241489 0.702347 0.697183
0.420079 0.708600 0.711547
0.744051 0.717372 0.726626
0.849927 0.734428 0.754510
0.210479 0.816132 0.680167
0.220379 0.820077 0.680432
0.316436 0.818431 0.702428
0.541922 0.817217 0.704966
0.854612 0.825922 0.744259
0.222256 0.403084 0.844396
0.503427 0.410648 0.844406
0.781814 0.433580 0.844599
0.828600 0.445043 0.845605
0.848828 0.377496 0.842219
0.243458 0.449472 0.843467
0.473827 0.457120 0.843566
0.776316 0.478824 0.843970
0.827910 0.487502 0.845101
0.848950 0.388729 0.847143
0.275360 0.597062 0.841754
0.392159 0.600575 0.842101
0.749359 0.609643 0.842872
0.824651 0.615051 0.844181
0.851789 0.591352 0.848188
0.267892 0.734214 0.842018
0.316780 0.734831 0.842495
0.627470 0.737413 0.843458
0.813206 0.741620 0.844760
0.853487 0.742060 0.847785
0.215910 0.817033 0.794460
0.237588 0.824855 0.806897
0.308841 0.831706 0.832741
0.542059 0.831678 0.847437
0.856242 0.835341 0.848793
