LUTs/negative-gold-200/Gold200_Modern_Soft.cube
TITLE "Kodak Gold 200 Modern Soft"
# Adobe RGB in/out. REPLACES AgX. Kodak Gold 200 Modern Soft.
LUT_3D_SIZE 5
DOMAIN_MIN 0.0 0.0 0.0
DOMAIN_MAX 1.0 1.0 1.0
0.062396 0.069107 0.086480
0.585113 0.089355 0.096488
0.790271 0.135283 0.113924
0.814369 0.174062 0.141513
0.811851 0.370965 0.630046
0.075969 0.318110 0.097270
0.110991 0.178667 0.099965
0.654331 0.248460 0.114617
0.795519 0.316243 0.137206
0.804717 0.352738 0.615121
0.105088 0.638134 0.111874
0.124871 0.603173 0.117649
0.376705 0.534673 0.123941
0.709251 0.539283 0.141797
0.787352 0.528922 0.290846
0.147453 0.731867 0.118273
0.164702 0.722688 0.126270
0.312293 0.696413 0.141966
0.583730 0.675493 0.155890
0.765600 0.674021 0.187727
0.158596 0.761213 0.097774
0.192378 0.771367 0.097588
0.274794 0.762764 0.113905
0.473710 0.745759 0.138005
0.756845 0.741211 0.146096
0.070733 0.098169 0.316364
0.595827 0.236624 0.570523
0.792496 0.240811 0.467186
0.810589 0.286686 0.491222
0.809186 0.364178 0.624463
0.083294 0.231178 0.231677
0.157206 0.158547 0.179331
0.704905 0.283086 0.261323
0.792608 0.352001 0.336638
0.802044 0.343298 0.609589
0.119397 0.603789 0.245922
0.156731 0.569232 0.228808
0.456349 0.512624 0.208488
0.727914 0.536676 0.241394
0.785118 0.543052 0.484416
0.162623 0.721864 0.209803
0.183368 0.712689 0.219071
0.361642 0.688527 0.230687
0.617010 0.671364 0.241410
0.764419 0.672895 0.281180
0.163374 0.764941 0.117321
0.197994 0.773438 0.116746
0.288597 0.760949 0.151563
0.489443 0.744953 0.198740
0.758747 0.741200 0.210983
0.091627 0.268450 0.687447
0.505608 0.470879 0.754639
0.805065 0.503897 0.751198
0.813506 0.460805 0.715825
0.808310 0.400029 0.702032
0.119677 0.455560 0.683577
0.369207 0.480760 0.699137
0.732656 0.475202 0.680072
0.794923 0.484039 0.676714
0.800700 0.376072 0.681013
0.138561 0.576203 0.574654
0.188737 0.552590 0.548109
0.503356 0.502834 0.502590
0.734179 0.555215 0.567226
0.781921 0.573421 0.643715
0.184341 0.708221 0.561189
0.228123 0.700325 0.550649
0.418979 0.679877 0.526575
0.657009 0.667435 0.516699
0.762144 0.678138 0.581546
0.187527 0.771573 0.607255
0.197060 0.771548 0.602364
0.330778 0.756705 0.524590
0.525216 0.743959 0.515172
0.759034 0.743390 0.517881
0.160380 0.527469 0.815768
0.425548 0.580532 0.829017
0.802838 0.605901 0.829957
0.823218 0.568658 0.797224
0.811697 0.448067 0.760086
0.212715 0.599648 0.819042
0.436302 0.630810 0.828058
0.768584 0.618343 0.809511
0.805809 0.578893 0.778120
0.803864 0.424338 0.749193
0.190985 0.627390 0.743554
0.295044 0.624722 0.742431
0.604635 0.613923 0.735360
0.752044 0.616742 0.733371
0.784302 0.611363 0.732730
0.212592 0.704479 0.709679
0.265763 0.699153 0.703779
0.456697 0.684351 0.691916
0.671086 0.671977 0.681369
0.761759 0.688978 0.710762
0.187617 0.766632 0.674674
0.199996 0.767874 0.671018
0.340850 0.757061 0.678717
0.534063 0.746669 0.670232
0.759928 0.751731 0.695000
0.442005 0.645406 0.876036
0.699622 0.649893 0.876041
0.831040 0.662149 0.876131
0.837095 0.636964 0.860523
0.816317 0.521586 0.829906
0.477267 0.669851 0.875604
0.682817 0.673506 0.875650
0.825747 0.680890 0.874096
0.822892 0.640111 0.848388
0.808801 0.511498 0.823721
0.427704 0.692196 0.841901
0.550952 0.687803 0.838517
0.750487 0.677102 0.825486
0.788352 0.662839 0.810138
0.790617 0.624147 0.798403
0.315778 0.722200 0.795547
0.381789 0.718042 0.792129
0.620440 0.707912 0.783083
0.742347 0.700819 0.775995
0.768310 0.696694 0.774551
0.187677 0.760941 0.742874
0.218939 0.767329 0.749535
0.318732 0.768056 0.762919
0.531230 0.760713 0.768170
0.761250 0.761706 0.766818
