LUTs/negative-gold-200/Gold200_Classic_ExtraSoft.cube
TITLE "Kodak Gold 200 Classic ExtraSoft"
# Adobe RGB in/out. REPLACES AgX. Kodak Gold 200 Classic ExtraSoft.
LUT_3D_SIZE 9
DOMAIN_MIN 0.0 0.0 0.0
DOMAIN_MAX 1.0 1.0 1.0
0.058206 0.064417 0.080741
0.086046 0.067659 0.082758
0.330505 0.073371 0.085851
0.569196 0.082136 0.089862
0.673072 0.093971 0.094711
0.712641 0.105436 0.100956
0.736353 0.111682 0.110881
0.755177 0.123713 0.400421
0.758749 0.236197 0.518093
0.059951 0.079523 0.082756
0.065751 0.079771 0.084522
0.152167 0.081913 0.087200
0.502245 0.091230 0.090968
0.655685 0.102013 0.095558
0.708220 0.114804 0.101682
0.735261 0.121339 0.110792
0.755177 0.123725 0.400439
0.758750 0.236203 0.518092
0.063483 0.127970 0.086087
0.065939 0.132861 0.087690
0.086877 0.129403 0.090570
0.253751 0.134592 0.093919
0.546649 0.150039 0.098376
0.681395 0.173414 0.104751
0.728086 0.185611 0.112097
0.755356 0.127671 0.402551
0.758750 0.236204 0.518092
0.069060 0.288667 0.090054
0.071113 0.299069 0.091663
0.084371 0.305221 0.094979
0.143574 0.293630 0.098502
0.397285 0.300363 0.103740
0.605777 0.317302 0.109516
0.709062 0.337622 0.116468
0.746000 0.329950 0.126965
0.758303 0.202953 0.422092
0.076375 0.459987 0.094135
0.078524 0.463946 0.095676
0.088345 0.473131 0.099636
0.128080 0.470263 0.104989
0.286079 0.463192 0.109880
0.512085 0.466506 0.115684
0.670443 0.476763 0.122511
0.737587 0.482995 0.132740
0.758293 0.466589 0.231290
0.086559 0.578878 0.098313
0.087857 0.580255 0.099596
0.097966 0.586597 0.104938
0.130374 0.587113 0.110618
0.238866 0.583091 0.116492
0.431621 0.580115 0.122485
0.601850 0.583305 0.130589
0.719364 0.589790 0.140336
0.757432 0.589776 0.166935
0.099594 0.655237 0.101011
0.101382 0.655643 0.102540
0.111118 0.657637 0.108051
0.140687 0.658111 0.114678
0.226821 0.656447 0.122033
0.390219 0.654475 0.129887
0.541847 0.654454 0.138416
0.687829 0.657195 0.150006
0.756780 0.661013 0.169948
0.117135 0.710298 0.095968
0.118258 0.709856 0.097027
0.128885 0.707706 0.104909
0.154027 0.706331 0.113528
0.228123 0.704466 0.122952
0.359935 0.702732 0.133074
0.501894 0.702223 0.142779
0.644559 0.703777 0.154426
0.756716 0.706506 0.171639
0.121710 0.722621 0.089676
0.121712 0.722622 0.089676
0.150199 0.734858 0.089687
0.151189 0.735900 0.093533
0.224751 0.737838 0.104199
0.334975 0.735263 0.117275
0.454259 0.734165 0.126981
0.576094 0.735112 0.134851
0.760282 0.738228 0.137708
0.059257 0.068509 0.099026
0.078940 0.079931 0.132373
0.374585 0.078600 0.109138
0.600270 0.087212 0.107918
0.679828 0.096674 0.106965
0.713898 0.108441 0.110071
0.736398 0.114521 0.119501
0.755177 0.123725 0.400441
0.758750 0.236204 0.518094
0.061399 0.079839 0.098871
0.076667 0.085250 0.105511
0.252945 0.087045 0.104350
0.553743 0.095644 0.107087
0.668670 0.106323 0.107505
0.710240 0.118411 0.110498
0.735380 0.124591 0.118835
0.755178 0.123745 0.400469
0.758750 0.236203 0.518092
0.065302 0.125233 0.099407
0.069791 0.128605 0.101198
0.104498 0.130162 0.104506
0.370579 0.141551 0.108316
0.588730 0.157026 0.110162
0.689105 0.178630 0.112902
0.729044 0.189479 0.119828
0.755409 0.128917 0.403476
0.758750 0.236204 0.518092
0.071064 0.279620 0.101273
0.073350 0.287521 0.103425
0.089834 0.296442 0.107616
0.178813 0.293274 0.111303
0.446093 0.305275 0.114640
0.629711 0.322313 0.118213
0.712903 0.340819 0.123878
0.746222 0.333005 0.136019
0.758750 0.236222 0.518088
0.078386 0.453696 0.102961
0.080808 0.457433 0.104953
0.091939 0.466175 0.109882
0.141044 0.465887 0.115012
0.321747 0.462472 0.120440
0.532293 0.467559 0.124453
0.678760 0.478123 0.131416
0.738725 0.483843 0.141171
0.758424 0.471966 0.270861
0.087615 0.575231 0.105249
0.089043 0.576661 0.106874
0.101040 0.582718 0.111991
0.137135 0.583891 0.118668
0.258268 0.581202 0.124832
0.451029 0.579550 0.132732
0.615674 0.583454 0.140025
0.722829 0.589964 0.151122
0.757504 0.590624 0.181246
0.100878 0.653960 0.106747
0.102801 0.654360 0.108196
0.112989 0.656275 0.113569
0.144758 0.656849 0.121474
0.237296 0.655512 0.130068
0.400264 0.653954 0.139045
0.551775 0.654254 0.149662
0.693245 0.657175 0.160647
0.756994 0.661135 0.182457
0.117734 0.709580 0.098600
0.119066 0.709183 0.099977
0.130451 0.707195 0.109368
0.157010 0.705877 0.119257
0.234087 0.704122 0.129966
0.368052 0.702521 0.140861
0.507302 0.702148 0.153337
0.652315 0.703769 0.164886
0.757186 0.706529 0.183777
0.126476 0.727595 0.105685
0.126479 0.727596 0.105685
0.154591 0.739452 0.105686
0.154592 0.739452 0.105684
0.227272 0.737891 0.107723
0.338398 0.735311 0.122176
0.457630 0.734248 0.134141
0.579676 0.735216 0.142368
0.761324 0.738295 0.146188
0.061314 0.076883 0.146686
0.086518 0.108824 0.332069
0.336750 0.109259 0.301254
0.597878 0.113521 0.269515
0.682564 0.123943 0.251434
0.715748 0.140598 0.268118
0.737240 0.155902 0.319883
0.755319 0.127934 0.414053
0.758750 0.236211 0.518115
0.063818 0.088168 0.150040
0.076242 0.096098 0.186603
0.257620 0.105176 0.214797
0.565574 0.115329 0.215765
0.674822 0.129541 0.217858
0.712972 0.147553 0.239239
0.736236 0.161896 0.287854
0.755361 0.129020 0.415922
0.758750 0.236205 0.518096
0.068683 0.130113 0.146941
0.073881 0.133819 0.150109
0.147386 0.156771 0.173592
0.447179 0.158031 0.172660
0.630209 0.181085 0.183659
0.699464 0.208221 0.199927
0.731282 0.222872 0.221766
0.755154 0.161469 0.415386
0.758750 0.236204 0.518092
0.075213 0.280182 0.150597
0.080148 0.286195 0.153138
0.106640 0.296585 0.159267
0.268062 0.302741 0.165918
0.529652 0.322409 0.177524
0.669302 0.344772 0.190799
0.720555 0.360693 0.201611
0.747201 0.357086 0.251210
0.758750 0.236208 0.518095
0.084490 0.451095 0.152533
0.087305 0.453841 0.155087
0.106309 0.460661 0.161991
0.185697 0.463610 0.170647
0.408197 0.465502 0.179899
0.592561 0.475678 0.192876
0.698254 0.487300 0.202214
0.741916 0.491432 0.228161
0.758929 0.492932 0.424232
0.094342 0.571716 0.155567
0.097440 0.572870 0.157896
0.113608 0.577335 0.165607
0.166718 0.579469 0.176971
0.325241 0.579457 0.187891
0.512607 0.580576 0.198642
0.660036 0.586363 0.209497
0.731705 0.592772 0.230015
0.757900 0.595887 0.283015
0.108340 0.651447 0.151433
0.110733 0.651817 0.153867
0.125026 0.653384 0.162664
0.166540 0.654146 0.175967
0.284369 0.653687 0.189603
0.441917 0.653276 0.203025
0.589463 0.654463 0.217445
0.710712 0.657843 0.236276
0.757695 0.662087 0.257819
0.124478 0.705551 0.139332
0.126821 0.705457 0.141935
0.140751 0.704953 0.156235
0.175638 0.704241 0.172340
0.265439 0.703029 0.190054
0.399946 0.701959 0.206682
0.532231 0.702085 0.223090
0.674416 0.703923 0.238989
0.758443 0.706803 0.252577
0.126480 0.727596 0.105690
0.154590 0.739452 0.105688
0.154591 0.739452 0.105687
0.154607 0.739454 0.105689
0.242200 0.737806 0.135640
0.355437 0.735411 0.164200
0.473487 0.734518 0.185114
0.596147 0.735585 0.198576
0.762607 0.738615 0.206273
0.064582 0.091598 0.283643
0.081676 0.131128 0.451305
0.290821 0.150225 0.482477
0.577248 0.159128 0.476429
0.679270 0.177762 0.476516
0.715114 0.199707 0.482863
0.737310 0.220016 0.502416
0.753720 0.198584 0.544261
0.758878 0.246778 0.547883
0.066789 0.103256 0.295765
0.079289 0.126501 0.389643
0.239636 0.153561 0.453581
0.551679 0.165898 0.452960
0.672678 0.186550 0.459077
0.712696 0.211467 0.471744
0.736458 0.232479 0.494364
0.753467 0.208857 0.541059
0.758880 0.246896 0.548203
0.072616 0.154717 0.289526
0.080120 0.162332 0.302504
0.149815 0.183403 0.352925
0.461457 0.204678 0.381168
0.637642 0.237233 0.399975
0.701477 0.269501 0.420553
0.732212 0.294171 0.457871
0.751149 0.296456 0.515246
0.758885 0.247324 0.549365
0.081002 0.297646 0.283279
0.085984 0.303382 0.287237
0.121458 0.315247 0.301728
0.346355 0.348605 0.343369
0.559320 0.352510 0.349186
0.678653 0.377529 0.374045
0.723637 0.397502 0.402227
0.748100 0.404717 0.470054
0.758886 0.247475 0.549714
0.089956 0.455790 0.289316
0.094822 0.458143 0.292042
0.121325 0.465004 0.301936
0.237970 0.470334 0.315231
0.463337 0.475948 0.330066
0.627277 0.488916 0.350276
0.707729 0.502123 0.374344
0.743682 0.509358 0.410494
0.759393 0.518477 0.537376
0.103517 0.572036 0.292110
0.107486 0.573093 0.294760
0.129938 0.577094 0.304587
0.205723 0.579931 0.317099
0.387216 0.581813 0.330951
0.551539 0.584998 0.345644
0.679539 0.592367 0.364844
0.736492 0.598899 0.387346
0.758777 0.610730 0.489101
0.117040 0.650626 0.292414
0.121177 0.650987 0.295044
0.140790 0.652390 0.305273
0.198274 0.653381 0.319230
0.330377 0.653632 0.334119
0.489793 0.654165 0.349272
0.627409 0.656149 0.364867
0.722603 0.659829 0.382171
0.758540 0.665810 0.432414
0.133926 0.704149 0.284527
0.136864 0.704139 0.287267
0.152628 0.704014 0.300032
0.198880 0.703550 0.315880
0.299089 0.702774 0.333119
0.430038 0.702208 0.349707
0.560250 0.702732 0.365765
0.692976 0.704781 0.380652
0.759535 0.708100 0.404745
0.142399 0.735095 0.304942
0.159838 0.741863 0.304942
0.159843 0.741864 0.304940
0.184523 0.742953 0.233187
0.269901 0.737352 0.312573
0.383241 0.735588 0.333573
0.498787 0.735068 0.351486
0.621087 0.736254 0.365718
0.763305 0.739475 0.377720
0.069137 0.115239 0.464009
0.079640 0.150158 0.520722
0.224749 0.200432 0.576587
0.554227 0.218113 0.577570
0.673283 0.239740 0.578601
0.713196 0.265275 0.582676
0.736674 0.282727 0.589209
0.752686 0.261883 0.599787
0.759214 0.275338 0.611471
0.071234 0.130612 0.472018
0.080928 0.159687 0.513073
0.201387 0.212701 0.567708
0.534722 0.232428 0.571125
0.667420 0.254658 0.573311
0.711010 0.280308 0.580089
0.735911 0.297905 0.587463
0.752484 0.275820 0.598997
0.759204 0.274473 0.609727
0.078194 0.198745 0.473064
0.085446 0.215627 0.486594
0.156938 0.261494 0.529657
0.462361 0.288084 0.545730
0.635543 0.311081 0.552915
0.701398 0.336924 0.563840
0.732316 0.354559 0.579558
0.750958 0.351678 0.594247
0.759174 0.271762 0.604166
0.086970 0.336732 0.464185
0.092408 0.343108 0.469369
0.138988 0.363026 0.486356
0.362812 0.383631 0.506692
0.571174 0.400983 0.520118
0.682463 0.419606 0.535734
0.725089 0.435381 0.555838
0.748651 0.441312 0.584134
0.760058 0.369612 0.604216
0.098119 0.468642 0.459703
0.104391 0.471334 0.461806
0.138096 0.479321 0.470604
0.281007 0.487722 0.481658
0.506467 0.506910 0.501584
0.645704 0.512242 0.508888
0.712358 0.524310 0.527102
0.745029 0.532550 0.559236
0.759661 0.536885 0.602837
0.112719 0.577368 0.463344
0.117300 0.578431 0.464539
0.146758 0.582446 0.469983
0.244090 0.586170 0.476591
0.422666 0.589773 0.485194
0.579976 0.594620 0.494514
0.690610 0.603173 0.507984
0.739416 0.611350 0.529619
0.759434 0.621576 0.592744
0.129257 0.652199 0.468379
0.134005 0.652554 0.469228
0.156313 0.653894 0.472305
0.230508 0.655143 0.477280
0.373743 0.656021 0.483824
0.520608 0.657316 0.491249
0.655098 0.659966 0.499601
0.729512 0.663940 0.512149
0.759484 0.672756 0.570504
0.143671 0.704498 0.474834
0.147037 0.704496 0.475019
0.167914 0.704403 0.476803
0.222769 0.704138 0.480119
0.328736 0.703683 0.485023
0.459132 0.703534 0.490965
0.586269 0.704411 0.497517
0.706787 0.706708 0.505078
0.760467 0.710999 0.535331
0.150326 0.738247 0.563496
0.152663 0.739229 0.563496
0.159371 0.741547 0.563493
0.204516 0.740095 0.495917
0.289143 0.737904 0.494740
0.398763 0.736511 0.497178
0.513283 0.736191 0.500934
0.640930 0.737508 0.505710
0.763903 0.741479 0.513792
0.075012 0.162209 0.586528
0.083625 0.196278 0.608423
0.190996 0.265424 0.633795
0.529606 0.284094 0.635027
0.667686 0.305443 0.636116
0.711070 0.324277 0.638178
0.735903 0.337754 0.641476
0.752201 0.322445 0.645656
0.759395 0.291681 0.642317
0.077364 0.180564 0.589599
0.084979 0.213550 0.607991
0.182106 0.280022 0.632292
0.515274 0.299864 0.634053
0.662854 0.318827 0.635387
0.709103 0.338038 0.637580
0.735222 0.351312 0.641159
0.752001 0.335468 0.645599
0.759395 0.291681 0.642317
0.085732 0.273938 0.593677
0.091521 0.292505 0.602641
0.165946 0.336227 0.623883
0.454126 0.355277 0.629185
0.632801 0.374438 0.631737
0.700739 0.394350 0.634797
0.732151 0.404617 0.639440
0.750827 0.401466 0.645119
0.759395 0.291686 0.642316
0.094688 0.389880 0.587065
0.102225 0.396670 0.590928
0.156612 0.416759 0.606480
0.385331 0.432308 0.617860
0.579655 0.445213 0.623474
0.684586 0.458555 0.628293
0.726018 0.471714 0.634844
0.748991 0.474662 0.643273
0.760192 0.419580 0.643969
0.108563 0.495049 0.581396
0.114549 0.497944 0.583011
0.157457 0.509275 0.590648
0.316265 0.519793 0.601171
0.518975 0.528057 0.610189
0.657312 0.536842 0.617156
0.715424 0.547499 0.625960
0.746125 0.554466 0.638021
0.759903 0.555486 0.650603
0.123764 0.587930 0.579252
0.130700 0.589197 0.579951
0.165315 0.593745 0.583264
0.279792 0.598797 0.589260
0.451326 0.604192 0.596918
0.602576 0.613495 0.606234
0.697590 0.617515 0.613701
0.741667 0.623474 0.627536
0.759950 0.631196 0.649856
0.140858 0.656272 0.580896
0.146052 0.656629 0.581116
0.175449 0.658043 0.582571
0.260333 0.659629 0.585683
0.402022 0.661138 0.590496
0.541705 0.663130 0.596191
0.668579 0.666410 0.602578
0.733886 0.670955 0.613171
0.760351 0.680448 0.644249
0.152465 0.706532 0.586763
0.156589 0.706536 0.586576
0.182708 0.706465 0.586397
0.244179 0.706295 0.587079
0.354310 0.706087 0.589187
0.483242 0.706278 0.592497
0.606565 0.707460 0.596595
0.715454 0.709986 0.601823
0.761496 0.715632 0.629755
0.153276 0.739384 0.595629
0.155587 0.740270 0.597050
0.162319 0.742323 0.602440
0.213627 0.741684 0.600078
0.300319 0.739561 0.597074
0.408760 0.738358 0.596791
0.522063 0.738234 0.597946
0.653080 0.739600 0.599970
0.764682 0.744922 0.616506
0.085833 0.254620 0.666374
0.091052 0.282945 0.676225
0.160049 0.327754 0.681533
0.515655 0.343402 0.681940
0.664821 0.361778 0.682613
0.710246 0.379902 0.683483
0.735811 0.390580 0.684772
0.752119 0.376032 0.685670
0.759643 0.314322 0.680292
0.087258 0.273899 0.667614
0.092642 0.298948 0.675928
0.161206 0.340368 0.681490
0.505072 0.356500 0.682002
0.660921 0.375155 0.682700
0.708634 0.393552 0.683580
0.735211 0.401273 0.684894
0.751951 0.389775 0.685877
0.759641 0.314110 0.679985
0.095677 0.353214 0.670110
0.102626 0.365058 0.674508
0.167052 0.396187 0.680432
0.454958 0.407557 0.681757
0.635254 0.419599 0.682671
0.701642 0.431560 0.683671
0.732597 0.439587 0.685155
0.751040 0.435850 0.686577
0.759626 0.313085 0.678588
0.108436 0.438865 0.666406
0.115105 0.444131 0.669357
0.175018 0.461617 0.676472
0.400266 0.473765 0.679945
0.590222 0.484673 0.681641
0.687996 0.496057 0.683174
0.727490 0.504879 0.685061
0.749597 0.505622 0.687302
0.760267 0.475094 0.685956
0.122604 0.527225 0.660173
0.131199 0.529693 0.662097
0.183250 0.539206 0.668805
0.350131 0.548123 0.674909
0.536606 0.555403 0.678575
0.665815 0.562855 0.681069
0.718736 0.569705 0.683767
0.747352 0.574253 0.687276
0.760250 0.573488 0.689174
0.139103 0.605906 0.653541
0.146193 0.607374 0.654930
0.190571 0.613100 0.660336
0.314248 0.617655 0.666677
0.482311 0.621802 0.672449
0.619584 0.625997 0.676674
0.703866 0.630504 0.680531
0.743852 0.635061 0.685557
0.760497 0.640213 0.690903
0.152288 0.663204 0.650173
0.158961 0.663635 0.650730
0.195894 0.665282 0.653393
0.288949 0.667383 0.658656
0.424534 0.669677 0.664071
0.559954 0.672319 0.669257
0.677431 0.675826 0.673638
0.737585 0.680297 0.680638
0.761156 0.687728 0.691163
0.161505 0.710553 0.652083
0.166777 0.710543 0.652045
0.195853 0.710409 0.652305
0.261765 0.710311 0.653880
0.374954 0.710325 0.657291
0.501748 0.710813 0.661293
0.620932 0.712310 0.665334
0.720993 0.715051 0.670312
0.762554 0.720879 0.688317
0.156051 0.740224 0.638690
0.161430 0.741883 0.638698
0.168560 0.744031 0.638920
0.214852 0.745109 0.659782
0.304750 0.742442 0.657919
0.412507 0.741299 0.658535
0.524738 0.741271 0.659876
0.654826 0.742680 0.661356
0.765764 0.749675 0.684745
0.101145 0.359570 0.722633
0.103899 0.363522 0.723669
0.187422 0.383117 0.723249
0.536036 0.397174 0.723324
0.671791 0.408885 0.723734
0.713750 0.420155 0.724339
0.737448 0.425646 0.725139
0.753070 0.413105 0.726868
0.760030 0.349096 0.716925
0.102555 0.371514 0.722549
0.105505 0.375503 0.723534
0.190903 0.395348 0.723383
0.527796 0.405729 0.723464
0.668993 0.417435 0.723859
0.712606 0.428736 0.724456
0.737034 0.434366 0.725269
0.752958 0.422255 0.726986
0.760059 0.352060 0.716925
0.112088 0.423197 0.722187
0.116161 0.425338 0.722881
0.207413 0.436344 0.723424
0.496428 0.445327 0.723669
0.654167 0.455905 0.724082
0.707220 0.466485 0.724695
0.735056 0.472516 0.725584
0.752366 0.464671 0.727229
0.760379 0.384535 0.716925
0.128428 0.489648 0.720919
0.135874 0.491753 0.721692
0.217872 0.501341 0.723005
0.441184 0.509252 0.723646
0.618683 0.517738 0.724205
0.697150 0.524807 0.724919
0.731413 0.529636 0.725965
0.751383 0.527417 0.727629
0.760758 0.503477 0.726441
0.147156 0.559898 0.717950
0.154974 0.561497 0.719047
0.227220 0.567912 0.721485
0.398055 0.573220 0.723000
0.568974 0.578697 0.724029
0.679849 0.584790 0.724962
0.725004 0.589879 0.726150
0.749873 0.590879 0.727958
0.760935 0.587866 0.728424
0.163534 0.625255 0.712696
0.173540 0.626255 0.714049
0.232759 0.630101 0.717967
0.359396 0.633381 0.721114
0.517142 0.636242 0.723066
0.648230 0.639536 0.724533
0.713523 0.642792 0.725988
0.747491 0.644895 0.728034
0.761375 0.647845 0.729542
0.172856 0.673869 0.705137
0.181201 0.674443 0.706256
0.227463 0.676792 0.710514
0.322631 0.679399 0.715910
0.455482 0.681566 0.720245
0.586438 0.683762 0.722951
0.690818 0.686501 0.725005
0.742802 0.689351 0.727645
0.762189 0.693643 0.730169
0.170410 0.717410 0.699620
0.175871 0.717340 0.699967
0.208536 0.716939 0.701739
0.279940 0.716867 0.705554
0.392727 0.717208 0.711149
0.514610 0.718089 0.716623
0.636309 0.719690 0.720889
0.725348 0.721116 0.722837
0.763647 0.725722 0.730218
0.159623 0.740903 0.684830
0.174731 0.745497 0.685483
0.177983 0.746381 0.689960
0.215105 0.748640 0.697858
0.300211 0.746892 0.698892
0.408701 0.745699 0.701008
0.519966 0.745728 0.703598
0.643599 0.747071 0.705514
0.766696 0.754306 0.729731
0.170816 0.410549 0.760917
0.215183 0.411876 0.760918
0.497794 0.417147 0.760923
0.664662 0.426299 0.760962
0.706486 0.437046 0.761050
0.729383 0.445904 0.761225
0.744908 0.446937 0.761710
0.756118 0.420897 0.762731
0.760366 0.388307 0.759152
0.174920 0.417074 0.760813
0.217947 0.418434 0.760816
0.492227 0.423823 0.760828
0.662922 0.433144 0.760877
0.705710 0.444021 0.760975
0.729077 0.452965 0.761162
0.744816 0.453905 0.761650
0.756086 0.426658 0.762678
0.760454 0.398849 0.762719
0.198621 0.450751 0.760307
0.236780 0.452090 0.760321
0.471958 0.457321 0.760372
0.651351 0.466327 0.760483
0.701957 0.476739 0.760637
0.727617 0.485378 0.760883
0.744343 0.486304 0.761379
0.755945 0.459830 0.762388
0.760454 0.398866 0.762719
0.231669 0.518726 0.759322
0.262847 0.519463 0.759371
0.438321 0.522340 0.759542
0.623773 0.527445 0.759820
0.693808 0.533530 0.760143
0.724381 0.538796 0.760483
0.743330 0.539881 0.761008
0.755788 0.528080 0.761908
0.761981 0.508514 0.763375
0.244700 0.581118 0.758713
0.268704 0.581659 0.758788
0.399639 0.583843 0.759040
0.581209 0.587805 0.759360
0.680417 0.592791 0.759769
0.719017 0.597304 0.760265
0.741672 0.598779 0.760775
0.755786 0.591460 0.761635
0.762741 0.576679 0.763404
0.243578 0.639097 0.758585
0.261136 0.639323 0.758682
0.355067 0.640294 0.758999
0.523817 0.642118 0.759389
0.655727 0.644543 0.759814
0.709347 0.646999 0.760308
0.738744 0.648133 0.760787
0.755699 0.645351 0.761553
0.763506 0.644429 0.763126
0.233563 0.687579 0.758962
0.244816 0.687654 0.759074
0.305204 0.688008 0.759412
0.437009 0.688633 0.759848
0.585460 0.689803 0.760301
0.687903 0.691498 0.760661
0.732288 0.692678 0.761155
0.755300 0.691308 0.761809
0.764560 0.692907 0.763140
0.211757 0.726874 0.758239
0.217954 0.726885 0.758869
0.250345 0.726545 0.760010
0.333384 0.725637 0.760566
0.464764 0.725010 0.761004
0.608460 0.725252 0.761402
0.708582 0.726296 0.761836
0.752521 0.726489 0.762407
0.765904 0.726806 0.763398
0.162968 0.741093 0.715918
0.190536 0.748644 0.726573
0.190536 0.748644 0.726574
0.199020 0.749173 0.726599
0.294803 0.755262 0.750202
0.414116 0.755541 0.762031
0.524837 0.755235 0.762912
0.657300 0.756404 0.763439
0.767511 0.758775 0.763801
