LUTs/negative-gold-200/Gold200_Modern_ExtraSoft.cube
TITLE "Kodak Gold 200 Modern ExtraSoft"
# Adobe RGB in/out. REPLACES AgX. Kodak Gold 200 Modern ExtraSoft.
LUT_3D_SIZE 9
DOMAIN_MIN 0.0 0.0 0.0
DOMAIN_MAX 1.0 1.0 1.0
0.058206 0.064417 0.080741
0.142355 0.070672 0.084439
0.576335 0.084336 0.090202
0.737486 0.105783 0.097591
0.793945 0.137207 0.107397
0.812425 0.168085 0.118054
0.819261 0.174451 0.134288
0.822867 0.192158 0.549000
0.816615 0.376008 0.626748
0.061210 0.094068 0.084042
0.068756 0.085503 0.085616
0.301945 0.095472 0.090509
0.664024 0.121564 0.097664
0.771069 0.156892 0.107268
0.804036 0.189906 0.117604
0.814972 0.195506 0.132305
0.820394 0.187854 0.543016
0.814855 0.370733 0.623570
0.070203 0.320209 0.090959
0.073416 0.276040 0.092603
0.103965 0.179874 0.093567
0.390331 0.195413 0.099018
0.663887 0.249649 0.108087
0.765936 0.304001 0.117777
0.799455 0.318071 0.130102
0.812677 0.184537 0.526322
0.809117 0.353946 0.613276
0.082961 0.535606 0.098033
0.085339 0.519813 0.099695
0.105603 0.458771 0.102523
0.207681 0.399791 0.104902
0.485281 0.397617 0.110671
0.680334 0.422477 0.119638
0.769413 0.443577 0.131002
0.795426 0.433232 0.149386
0.800222 0.291575 0.510180
0.097607 0.640719 0.105360
0.100169 0.634108 0.107176
0.116637 0.614895 0.111104
0.185992 0.572634 0.114133
0.373873 0.538244 0.117550
0.563008 0.531118 0.123490
0.710351 0.543438 0.134563
0.778141 0.548825 0.149827
0.790880 0.531774 0.288601
0.116285 0.698116 0.110527
0.118471 0.694974 0.111917
0.136680 0.684736 0.117625
0.190428 0.665033 0.122506
0.326503 0.643746 0.126780
0.492864 0.627560 0.132248
0.641746 0.622081 0.139901
0.747737 0.626873 0.154172
0.781937 0.625329 0.187576
0.138823 0.732701 0.111725
0.140562 0.730633 0.113110
0.153944 0.724655 0.119717
0.202001 0.714154 0.126995
0.307189 0.701548 0.134728
0.442091 0.689649 0.141019
0.574537 0.679953 0.149296
0.704838 0.675851 0.159351
0.771884 0.678225 0.182502
0.159902 0.764246 0.100850
0.160190 0.762256 0.102529
0.173525 0.755007 0.112135
0.211547 0.746066 0.122614
0.294337 0.735700 0.133503
0.408519 0.725980 0.143006
0.526406 0.718810 0.152699
0.662754 0.715160 0.161723
0.764761 0.713836 0.178312
0.148603 0.758346 0.091446
0.147878 0.757448 0.091402
0.189984 0.767217 0.091266
0.184600 0.763467 0.095542
0.268193 0.759697 0.107379
0.372004 0.751230 0.120873
0.475712 0.744857 0.130878
0.586181 0.741385 0.137268
0.763081 0.740880 0.138744
0.060546 0.073203 0.122434
0.118100 0.102733 0.253838
0.607314 0.096894 0.149214
0.753767 0.117063 0.137975
0.795000 0.145345 0.131564
0.810497 0.173516 0.135395
0.817376 0.180369 0.154176
0.821542 0.189758 0.545796
0.815703 0.373270 0.625101
0.063486 0.091265 0.110716
0.076667 0.085250 0.105511
0.416864 0.101591 0.117794
0.693993 0.131713 0.127096
0.776914 0.164943 0.128400
0.802567 0.195100 0.133689
0.813128 0.201342 0.149663
0.819074 0.185816 0.539859
0.813950 0.368042 0.621940
0.073237 0.281206 0.120067
0.079045 0.227305 0.115916
0.124168 0.159992 0.110473
0.469276 0.193188 0.117765
0.685410 0.253669 0.124110
0.769314 0.305138 0.131639
0.798168 0.319233 0.143940
0.811419 0.185280 0.524148
0.808240 0.351438 0.611711
0.086225 0.515146 0.122037
0.089117 0.492340 0.122127
0.115264 0.433760 0.120669
0.251851 0.380576 0.119924
0.520362 0.391347 0.123840
0.692112 0.420294 0.131869
0.770448 0.441886 0.143195
0.794358 0.433015 0.163203
0.799724 0.327877 0.596636
0.100952 0.631054 0.121460
0.104165 0.624486 0.122939
0.124798 0.601321 0.126211
0.206339 0.561093 0.128319
0.400366 0.530984 0.131043
0.580482 0.527356 0.135589
0.716808 0.541198 0.146484
0.777666 0.547209 0.162090
0.790266 0.534668 0.337252
0.118626 0.693765 0.121335
0.121430 0.690086 0.122936
0.141076 0.678995 0.129389
0.201057 0.659915 0.135135
0.342355 0.639458 0.139405
0.507073 0.624642 0.145071
0.653425 0.620402 0.152679
0.750057 0.625677 0.165641
0.781438 0.625006 0.203732
0.140321 0.730211 0.119726
0.142318 0.728159 0.121392
0.157137 0.722173 0.128693
0.208294 0.711826 0.137812
0.315851 0.699564 0.146272
0.451231 0.687614 0.154162
0.583430 0.678507 0.161897
0.709601 0.674973 0.171558
0.771563 0.677733 0.195442
0.160004 0.762618 0.105421
0.160674 0.760690 0.107198
0.175330 0.753654 0.118255
0.215089 0.744823 0.130369
0.299116 0.734632 0.142418
0.413320 0.725125 0.154258
0.531264 0.718194 0.163638
0.667113 0.714735 0.174410
0.764924 0.713575 0.190640
0.154031 0.763096 0.110998
0.153285 0.762198 0.110864
0.197507 0.771147 0.110414
0.190111 0.766736 0.109701
0.270394 0.759378 0.110954
0.375022 0.750957 0.126221
0.478716 0.744685 0.138158
0.589535 0.741312 0.145791
0.764026 0.740853 0.147650
0.065062 0.094154 0.313452
0.153632 0.236088 0.595233
0.590318 0.238269 0.574120
0.760748 0.237936 0.520037
0.796281 0.242297 0.469079
0.809308 0.270307 0.462801
0.815288 0.288804 0.491131
0.819306 0.196858 0.553603
0.813813 0.367647 0.621712
0.070944 0.130508 0.325513
0.107884 0.164556 0.417122
0.485455 0.176301 0.419990
0.707950 0.200091 0.403474
0.780836 0.236911 0.394720
0.801583 0.273184 0.411079
0.810903 0.292167 0.452408
0.816817 0.195021 0.549227
0.812048 0.362442 0.618526
0.076680 0.233024 0.230953
0.083697 0.196339 0.202405
0.147386 0.156771 0.173592
0.522307 0.209663 0.214857
0.705426 0.284800 0.259959
0.773570 0.336323 0.301750
0.796399 0.353325 0.337340
0.808697 0.251689 0.529401
0.806309 0.345968 0.608275
0.091794 0.474640 0.249084
0.097933 0.454211 0.235061
0.135650 0.401317 0.203442
0.314070 0.346808 0.185384
0.574038 0.385352 0.206621
0.713853 0.426578 0.241426
0.772302 0.449622 0.267327
0.792318 0.447212 0.340232
0.797794 0.322710 0.593256
0.111847 0.615353 0.245192
0.116093 0.606523 0.240930
0.146970 0.577300 0.228063
0.262088 0.540997 0.212778
0.456276 0.517123 0.205852
0.632305 0.522854 0.221356
0.731548 0.540500 0.240919
0.776817 0.547626 0.279306
0.788806 0.547687 0.484864
0.134001 0.682963 0.235204
0.138093 0.678910 0.234978
0.163877 0.667227 0.234909
0.246724 0.649106 0.230678
0.398236 0.630412 0.226515
0.546164 0.618495 0.227239
0.679939 0.617633 0.234014
0.755332 0.624034 0.261652
0.779732 0.626107 0.323332
0.152127 0.723931 0.207518
0.155071 0.721933 0.209643
0.178217 0.715874 0.218067
0.240937 0.705922 0.225470
0.356591 0.694592 0.229955
0.490961 0.682625 0.234203
0.617739 0.675108 0.240934
0.725151 0.673182 0.256229
0.770697 0.676903 0.279232
0.169220 0.755667 0.170029
0.171683 0.754111 0.173858
0.191783 0.748803 0.192107
0.238279 0.740795 0.209491
0.326365 0.731365 0.223934
0.438604 0.722627 0.234370
0.554778 0.716493 0.244237
0.685228 0.713616 0.254797
0.765228 0.712973 0.263348
0.152783 0.761594 0.110777
0.199930 0.772421 0.110645
0.195290 0.769971 0.110204
0.188158 0.765420 0.109512
0.285375 0.758115 0.144554
0.389075 0.750052 0.176226
0.493595 0.744152 0.194246
0.605339 0.741116 0.205126
0.764993 0.740870 0.209016
0.072647 0.145468 0.556258
0.130230 0.331889 0.672196
0.555181 0.390135 0.690468
0.759873 0.409450 0.686329
0.801932 0.403640 0.663738
0.811570 0.398647 0.642295
0.815488 0.395311 0.638551
0.817221 0.339937 0.654984
0.812648 0.377101 0.642165
0.079753 0.207540 0.568607
0.119604 0.314822 0.631199
0.519221 0.398348 0.673386
0.725984 0.397770 0.658204
0.786971 0.392256 0.632354
0.803715 0.396949 0.621342
0.810991 0.398299 0.624778
0.814415 0.346093 0.647575
0.810837 0.371766 0.639039
0.086273 0.309771 0.485029
0.098275 0.304141 0.477519
0.251597 0.302838 0.484294
0.566687 0.326218 0.500373
0.717935 0.373441 0.524276
0.776609 0.408582 0.545045
0.796158 0.423949 0.574990
0.804518 0.416977 0.612488
0.804946 0.354897 0.629008
0.097659 0.452417 0.443194
0.105310 0.437670 0.425648
0.149479 0.395230 0.381921
0.346355 0.348605 0.343369
0.597723 0.403784 0.398940
0.719879 0.447034 0.445913
0.771970 0.475211 0.485769
0.790918 0.485206 0.546319
0.796207 0.330541 0.613290
0.121199 0.595297 0.448877
0.128527 0.586474 0.438917
0.166625 0.560533 0.411844
0.299641 0.526867 0.380608
0.490438 0.502419 0.359561
0.655812 0.522061 0.387186
0.735866 0.544463 0.420670
0.774763 0.556293 0.468530
0.787272 0.564606 0.587900
0.146390 0.671721 0.438201
0.151526 0.668018 0.433558
0.188057 0.657015 0.420675
0.286403 0.639477 0.402082
0.432035 0.622438 0.386623
0.575880 0.612753 0.380934
0.694810 0.616053 0.393145
0.756025 0.624016 0.419198
0.777972 0.633217 0.520181
0.167842 0.717403 0.416554
0.172977 0.715522 0.414917
0.202578 0.709700 0.411162
0.276457 0.700366 0.404079
0.395166 0.689056 0.396099
0.521533 0.677856 0.391141
0.649339 0.671957 0.391487
0.734212 0.671992 0.400532
0.769490 0.678338 0.453628
0.181703 0.750298 0.383347
0.185507 0.748910 0.383552
0.209796 0.744237 0.387468
0.263010 0.736797 0.389229
0.355553 0.728121 0.389652
0.466206 0.720202 0.389626
0.580150 0.714844 0.391136
0.702006 0.712671 0.395442
0.764982 0.713056 0.414527
0.175509 0.767108 0.374267
0.203692 0.772589 0.372290
0.199182 0.770240 0.365722
0.223942 0.767053 0.270985
0.307935 0.755905 0.352222
0.405996 0.748749 0.363247
0.511451 0.743522 0.371342
0.628733 0.740952 0.376995
0.765219 0.741285 0.380896
0.085307 0.268816 0.678790
0.121129 0.389931 0.716028
0.508103 0.471975 0.749570
0.743471 0.493161 0.750139
0.809483 0.508075 0.745123
0.817114 0.481368 0.718846
0.818354 0.461005 0.702761
0.817619 0.416138 0.695266
0.812893 0.406304 0.691127
0.090550 0.329970 0.683294
0.126835 0.410368 0.710997
0.483253 0.486767 0.744406
0.728458 0.509816 0.746399
0.795530 0.497626 0.727502
0.809393 0.479577 0.706957
0.813801 0.464082 0.695172
0.814760 0.421878 0.690576
0.811019 0.401503 0.686906
0.112090 0.455301 0.675510
0.137380 0.463607 0.678098
0.365668 0.482756 0.688681
0.620530 0.477449 0.681134
0.736945 0.476690 0.672538
0.784257 0.485082 0.669203
0.798829 0.486338 0.669687
0.805088 0.468764 0.673800
0.804897 0.382321 0.673336
0.110808 0.484130 0.594232
0.120881 0.477420 0.588948
0.199614 0.461692 0.579914
0.436043 0.452833 0.576834
0.633667 0.469809 0.588043
0.730129 0.500707 0.605320
0.775087 0.521551 0.622650
0.791199 0.525061 0.643389
0.796406 0.446140 0.660132
0.130983 0.585213 0.578995
0.139346 0.578708 0.570806
0.186542 0.558456 0.548125
0.326516 0.529275 0.519842
0.506467 0.506910 0.501584
0.666145 0.535645 0.534577
0.738679 0.561425 0.570233
0.774295 0.576883 0.600862
0.786355 0.582053 0.640057
0.157500 0.663434 0.574156
0.165586 0.660277 0.568873
0.209684 0.650618 0.553738
0.312583 0.634507 0.533323
0.456173 0.618520 0.515400
0.592628 0.608554 0.507893
0.701428 0.618263 0.525428
0.755694 0.628994 0.555948
0.776486 0.641159 0.614003
0.182380 0.711945 0.563127
0.189119 0.710278 0.559977
0.223597 0.704995 0.550824
0.302623 0.696498 0.537909
0.418628 0.685101 0.525289
0.542230 0.675002 0.516611
0.666056 0.670503 0.514833
0.738105 0.672910 0.525343
0.768410 0.683058 0.584330
0.194069 0.746067 0.548791
0.198715 0.744791 0.546645
0.226065 0.740475 0.540892
0.285537 0.733671 0.532622
0.382153 0.725730 0.524342
0.491213 0.718581 0.517930
0.602618 0.713960 0.514736
0.713614 0.712574 0.515738
0.764636 0.714802 0.542580
0.185396 0.767506 0.606164
0.188461 0.767734 0.605147
0.194408 0.767471 0.601737
0.243473 0.761725 0.533338
0.322119 0.754414 0.523189
0.418729 0.747961 0.516939
0.523433 0.743283 0.513217
0.647194 0.741247 0.512212
0.765282 0.742786 0.516084
0.106410 0.414498 0.757614
0.139345 0.466741 0.771878
0.469994 0.538876 0.787166
0.724481 0.553477 0.787900
0.809206 0.570322 0.788548
0.823865 0.551990 0.772629
0.823040 0.526032 0.754208
0.820099 0.477633 0.737436
0.814247 0.422129 0.718661
0.113040 0.443885 0.760321
0.145919 0.487775 0.771615
0.458385 0.550343 0.786269
0.713252 0.565363 0.787320
0.804036 0.578423 0.786246
0.816566 0.550385 0.765972
0.818579 0.527899 0.747981
0.817229 0.483321 0.733385
0.812342 0.417783 0.715732
0.149659 0.545610 0.762841
0.187004 0.559865 0.768348
0.435015 0.597472 0.781232
0.656830 0.581025 0.769310
0.756770 0.564007 0.753875
0.792753 0.552038 0.738574
0.803895 0.541158 0.727867
0.807617 0.520758 0.720114
0.806086 0.403749 0.706144
0.142705 0.554236 0.701955
0.158119 0.553977 0.701444
0.292104 0.557713 0.703857
0.510107 0.554686 0.701274
0.671536 0.553957 0.697337
0.746596 0.557957 0.695925
0.782183 0.562834 0.696796
0.793488 0.557982 0.698571
0.797183 0.497528 0.693062
0.148104 0.600692 0.663806
0.157767 0.596771 0.661253
0.228139 0.586677 0.654284
0.388745 0.571640 0.645093
0.552716 0.564991 0.641565
0.683075 0.575636 0.649934
0.746292 0.592877 0.662784
0.776751 0.603035 0.673823
0.786622 0.602458 0.682589
0.171244 0.660685 0.651336
0.180664 0.658295 0.648208
0.231103 0.650784 0.639247
0.338416 0.637637 0.627066
0.478333 0.623251 0.614855
0.602576 0.613495 0.606234
0.706904 0.627677 0.625186
0.756800 0.639798 0.646234
0.776098 0.650010 0.668589
0.195496 0.708617 0.643881
0.203136 0.707183 0.641579
0.241218 0.702642 0.634817
0.322679 0.695220 0.625444
0.437078 0.684714 0.616286
0.556959 0.675254 0.609516
0.673133 0.671614 0.608323
0.739863 0.677220 0.620163
0.767714 0.689032 0.654178
0.203469 0.743322 0.637244
0.208712 0.742177 0.635442
0.238621 0.738272 0.629925
0.299742 0.732092 0.622340
0.396431 0.724891 0.614911
0.506999 0.718440 0.609177
0.618349 0.714438 0.606191
0.719915 0.713792 0.607077
0.764460 0.718350 0.633648
0.185983 0.765483 0.630189
0.188690 0.765676 0.630723
0.193779 0.765355 0.633127
0.249174 0.760787 0.625410
0.329883 0.753926 0.616045
0.426038 0.748037 0.609562
0.530320 0.743928 0.605462
0.657775 0.742360 0.603615
0.765541 0.745739 0.617606
0.150165 0.530140 0.807802
0.184599 0.552595 0.815523
0.426136 0.590132 0.819668
0.713553 0.603614 0.819985
0.807143 0.616924 0.820509
0.830710 0.613105 0.811542
0.828567 0.576649 0.791163
0.823687 0.533130 0.775077
0.816453 0.447160 0.756624
0.158352 0.545579 0.808776
0.192837 0.564683 0.815292
0.427888 0.601025 0.819634
0.705177 0.614064 0.820033
0.804330 0.624048 0.820577
0.824070 0.610673 0.805512
0.824307 0.577970 0.787088
0.820872 0.536841 0.772351
0.814541 0.442353 0.753430
0.209122 0.611907 0.810736
0.243574 0.618687 0.814181
0.436664 0.635342 0.818809
0.677454 0.643481 0.819600
0.774885 0.626149 0.802192
0.802184 0.610022 0.786651
0.810265 0.588269 0.773983
0.811474 0.560553 0.763486
0.808221 0.426466 0.742533
0.214218 0.628835 0.782558
0.238552 0.629327 0.782745
0.372809 0.631291 0.781689
0.555786 0.625795 0.775368
0.698602 0.619033 0.767533
0.764500 0.613792 0.760548
0.789300 0.606042 0.752488
0.797431 0.592369 0.745607
0.799008 0.553442 0.735510
0.188668 0.632824 0.735513
0.204586 0.632000 0.734998
0.293034 0.630859 0.734165
0.446859 0.626588 0.730315
0.601873 0.622877 0.725680
0.705893 0.623005 0.723329
0.758254 0.624964 0.723297
0.781891 0.625379 0.724181
0.788181 0.620980 0.722529
0.195690 0.667864 0.709615
0.206895 0.666327 0.708312
0.264986 0.661983 0.705057
0.383242 0.654451 0.700133
0.516294 0.645907 0.694312
0.641767 0.642599 0.691739
0.719393 0.647664 0.696078
0.761169 0.654360 0.703236
0.777489 0.659672 0.709079
0.209007 0.708652 0.697581
0.217582 0.707531 0.696284
0.259579 0.703963 0.692602
0.343797 0.697994 0.687662
0.456617 0.690361 0.682574
0.571938 0.681673 0.677663
0.677431 0.675826 0.673638
0.742703 0.685708 0.685527
0.768022 0.694990 0.698494
0.209630 0.742827 0.689852
0.215248 0.741803 0.688688
0.247205 0.738260 0.685087
0.309738 0.732752 0.680265
0.406108 0.726343 0.675691
0.515892 0.720554 0.672219
0.628795 0.716985 0.670596
0.723130 0.716873 0.672369
0.764531 0.722703 0.690414
0.185482 0.763067 0.667955
0.191447 0.764130 0.667281
0.197180 0.764149 0.665152
0.245521 0.761717 0.677529
0.330159 0.754725 0.671388
0.426840 0.749295 0.667276
0.531092 0.745652 0.664574
0.657963 0.744528 0.663338
0.766181 0.750073 0.685183
0.236102 0.615731 0.846041
0.250094 0.617863 0.846550
0.465359 0.628206 0.846344
0.729477 0.636084 0.846381
0.812155 0.644813 0.846582
0.838758 0.648058 0.844571
0.834547 0.619825 0.826825
0.827980 0.571932 0.809289
0.819016 0.485744 0.786413
0.243213 0.622126 0.845999
0.258456 0.624231 0.846484
0.469875 0.634710 0.846409
0.723070 0.642473 0.846450
0.810146 0.651103 0.846644
0.832895 0.646060 0.840637
0.830619 0.620087 0.822839
0.825274 0.575180 0.806482
0.817152 0.483578 0.784366
0.292444 0.655037 0.845821
0.311058 0.656482 0.846163
0.490824 0.663847 0.846430
0.699642 0.669782 0.846550
0.793417 0.664352 0.840595
0.813276 0.645778 0.825561
0.817548 0.626318 0.809917
0.816240 0.596021 0.797171
0.811123 0.496012 0.777577
0.318408 0.680019 0.836109
0.335395 0.678605 0.835196
0.453992 0.675523 0.830438
0.617965 0.666722 0.821284
0.734311 0.656627 0.810658
0.784339 0.646538 0.800261
0.797996 0.635467 0.790972
0.802611 0.620439 0.783128
0.801691 0.582472 0.773968
0.269701 0.670860 0.793656
0.286719 0.670129 0.793129
0.381072 0.668673 0.790722
0.516473 0.663624 0.785761
0.660974 0.658133 0.780075
0.734835 0.653938 0.774959
0.773228 0.650047 0.770821
0.787332 0.643697 0.767569
0.790757 0.634586 0.763353
0.245799 0.686950 0.767164
0.258962 0.686155 0.766918
0.324491 0.684161 0.765773
0.432171 0.678827 0.762318
0.562159 0.672947 0.757021
0.678833 0.669767 0.752481
0.738607 0.669370 0.750618
0.769246 0.669215 0.750661
0.780718 0.669589 0.749880
0.234459 0.713828 0.747583
0.244052 0.713095 0.747290
0.293874 0.710980 0.746797
0.382236 0.706784 0.744687
0.492517 0.701255 0.740330
0.604912 0.696438 0.735386
0.698847 0.694873 0.733140
0.751248 0.696887 0.735632
0.770142 0.700706 0.738523
0.215024 0.745967 0.732397
0.220907 0.745019 0.731771
0.256016 0.741653 0.730236
0.321226 0.736837 0.728671
0.417955 0.731452 0.727649
0.527110 0.726576 0.726385
0.642344 0.723230 0.724873
0.725348 0.721116 0.722837
0.765262 0.727220 0.731911
0.185415 0.760642 0.706858
0.203609 0.764790 0.706898
0.204557 0.763765 0.709354
0.241198 0.762936 0.713934
0.321253 0.757331 0.710670
0.420233 0.752268 0.708450
0.524679 0.749029 0.707351
0.645419 0.748169 0.706762
0.766809 0.754414 0.729849
0.442246 0.646042 0.864731
0.500437 0.647021 0.864732
0.700343 0.650892 0.864736
0.807028 0.657130 0.864762
0.836795 0.664314 0.864823
0.850241 0.670162 0.864943
0.843168 0.639862 0.851286
0.833212 0.586288 0.838878
0.821310 0.524202 0.820463
0.448271 0.650838 0.864660
0.502861 0.651807 0.864662
0.697479 0.655460 0.864670
0.805774 0.661717 0.864704
0.836250 0.668924 0.864771
0.847568 0.668275 0.861938
0.839679 0.639112 0.848879
0.830675 0.586388 0.836855
0.819536 0.528667 0.821871
0.479748 0.673334 0.864312
0.517124 0.674211 0.864322
0.686873 0.677621 0.864357
0.799782 0.683441 0.864433
0.831227 0.686292 0.862851
0.832490 0.665786 0.851422
0.828223 0.642168 0.840288
0.822276 0.599420 0.828365
0.813409 0.516231 0.814926
0.507294 0.706570 0.861473
0.526394 0.705074 0.860373
0.651740 0.700312 0.856688
0.764446 0.693022 0.850817
0.799213 0.681266 0.843370
0.809073 0.667929 0.834846
0.810971 0.652191 0.823629
0.809453 0.626961 0.813389
0.804903 0.592130 0.804760
0.428247 0.697830 0.833978
0.447366 0.696887 0.832881
0.545667 0.693953 0.829227
0.690259 0.688625 0.823421
0.756688 0.681841 0.816507
0.783647 0.674329 0.809411
0.791930 0.665121 0.802754
0.795140 0.650602 0.796863
0.794308 0.630435 0.792222
0.363285 0.703992 0.805278
0.381571 0.703155 0.804447
0.455489 0.700567 0.801704
0.594785 0.696867 0.797444
0.699886 0.692985 0.792653
0.748564 0.688477 0.788268
0.771041 0.683543 0.784698
0.781960 0.675551 0.781929
0.784305 0.669553 0.780070
0.310033 0.724226 0.789657
0.320034 0.723367 0.788956
0.379446 0.720576 0.786585
0.493242 0.716262 0.782803
0.622014 0.711673 0.778450
0.706742 0.708017 0.774580
0.747989 0.705430 0.772070
0.767149 0.702202 0.770896
0.774610 0.701796 0.770770
0.262202 0.752993 0.780052
0.268289 0.752272 0.779909
0.298677 0.749439 0.778713
0.377858 0.744495 0.775950
0.493976 0.738990 0.772432
0.623370 0.734368 0.768862
0.714417 0.731436 0.766041
0.755642 0.729430 0.764815
0.768390 0.729108 0.765285
0.185539 0.758108 0.734697
0.217803 0.765342 0.744797
0.214946 0.763675 0.742975
0.219674 0.761492 0.740030
0.312439 0.764307 0.760284
0.423989 0.761152 0.766444
0.528641 0.757910 0.765020
0.658476 0.757107 0.763993
0.767511 0.758775 0.763801
