LUTs/negative-gold-200/Gold200_Classic_Punchy.cube
TITLE "Kodak Gold 200 Classic Punchy"
# Adobe RGB in/out. REPLACES AgX. Kodak Gold 200 Classic Punchy.
LUT_3D_SIZE 33
DOMAIN_MIN 0.0 0.0 0.0
DOMAIN_MAX 1.0 1.0 1.0
0.072541 0.084015 0.079839
0.077178 0.084707 0.080331
0.078883 0.084909 0.080446
0.089961 0.085646 0.080726
0.124159 0.087103 0.081192
0.146389 0.087832 0.081598
0.202295 0.089536 0.082305
0.286867 0.091787 0.083166
0.335852 0.092858 0.083766
0.405420 0.094588 0.084564
0.503030 0.096972 0.085780
0.558781 0.099865 0.086623
0.604247 0.102291 0.087412
0.652545 0.105347 0.088486
0.688197 0.110214 0.089815
0.713828 0.113096 0.090617
0.736329 0.116050 0.091367
0.755467 0.119499 0.092973
0.768235 0.124170 0.095344
0.779685 0.127637 0.096847
0.789293 0.131203 0.098661
0.797384 0.135259 0.101100
0.805092 0.138447 0.103637
0.812587 0.138692 0.106073
0.818162 0.139228 0.109886
0.823132 0.138774 0.114982
0.829421 0.131167 0.123462
0.833040 0.133293 0.161683
0.841618 0.154161 0.399576
0.841617 0.154138 0.399545
0.841617 0.154137 0.399543
0.841617 0.154138 0.399542
0.846580 0.251713 0.523348
0.073139 0.086200 0.080201
0.075550 0.086194 0.080410
0.081086 0.085256 0.080398
0.094076 0.086175 0.080791
0.125083 0.087592 0.081339
0.145172 0.088131 0.081688
0.197740 0.089879 0.082394
0.278900 0.092131 0.083264
0.328073 0.093198 0.083839
0.397786 0.094857 0.084617
0.495631 0.097276 0.085831
0.553975 0.100296 0.086663
0.600233 0.102661 0.087456
0.649938 0.105776 0.088523
0.686480 0.110606 0.089845
0.712494 0.113506 0.090643
0.735304 0.116425 0.091389
0.754943 0.119849 0.093016
0.767851 0.124742 0.095381
0.779400 0.128180 0.096877
0.789083 0.131724 0.098693
0.797232 0.135763 0.101125
0.804981 0.138938 0.103653
0.812509 0.139169 0.106081
0.818108 0.139743 0.109871
0.823095 0.139214 0.114913
0.829393 0.131536 0.123184
0.833015 0.133318 0.160108
0.841618 0.154162 0.399577
0.841617 0.154139 0.399545
0.841617 0.154137 0.399543
0.841617 0.154138 0.399542
0.846580 0.251714 0.523348
0.073319 0.086889 0.080291
0.073992 0.087012 0.080516
0.076448 0.086889 0.080564
0.086116 0.087795 0.080970
0.108859 0.089509 0.081653
0.132187 0.089750 0.081910
0.182172 0.091509 0.082684
0.257101 0.093772 0.083647
0.303325 0.094510 0.084111
0.371193 0.095878 0.084813
0.468616 0.099193 0.086020
0.535967 0.101908 0.086810
0.585066 0.104039 0.087617
0.637570 0.107369 0.088656
0.679941 0.112055 0.089957
0.707421 0.115016 0.090737
0.731417 0.117805 0.091468
0.752964 0.121181 0.093170
0.766403 0.126846 0.095512
0.778329 0.130176 0.096988
0.788299 0.133632 0.098809
0.796661 0.137607 0.101215
0.804571 0.140944 0.103715
0.812220 0.141151 0.106116
0.817907 0.141681 0.109826
0.822955 0.141050 0.114682
0.829293 0.132918 0.122248
0.832925 0.133528 0.154717
0.841618 0.154163 0.399579
0.841617 0.154139 0.399545
0.841617 0.154137 0.399543
0.841617 0.154138 0.399542
0.846580 0.251716 0.523347
0.074671 0.090821 0.080653
0.075155 0.090994 0.080778
0.077002 0.091170 0.081009
0.081528 0.090890 0.081307
0.095271 0.093310 0.082066
0.109807 0.092637 0.082319
0.145228 0.094269 0.083047
0.208760 0.096260 0.084127
0.259936 0.096624 0.084520
0.326673 0.098526 0.085152
0.420912 0.103031 0.086380
0.495887 0.105237 0.087159
0.554444 0.107355 0.087924
0.612100 0.110522 0.088909
0.665929 0.115258 0.090167
0.696831 0.117962 0.090915
0.723343 0.120478 0.091696
0.747389 0.124250 0.093463
0.763435 0.130924 0.095761
0.776148 0.134028 0.097199
0.786711 0.137306 0.099031
0.795514 0.141420 0.101390
0.803751 0.144909 0.103838
0.811644 0.145005 0.106199
0.817508 0.145409 0.109773
0.822679 0.144633 0.114322
0.829097 0.135688 0.120774
0.832762 0.134426 0.145953
0.841618 0.154168 0.399585
0.841617 0.154139 0.399546
0.841617 0.154137 0.399544
0.841617 0.154141 0.399542
0.846581 0.251717 0.523346
0.076824 0.098469 0.081189
0.077231 0.098802 0.081425
0.078737 0.099681 0.081776
0.083105 0.099561 0.082171
0.089756 0.098864 0.082693
0.099310 0.096676 0.082838
0.120542 0.098724 0.083565
0.163768 0.102189 0.084644
0.206631 0.102004 0.084997
0.271231 0.103650 0.085673
0.365127 0.108516 0.086884
0.437898 0.110593 0.087709
0.509247 0.112364 0.088380
0.571267 0.115842 0.089297
0.635590 0.120758 0.090499
0.677436 0.123142 0.091193
0.708589 0.126401 0.092123
0.736481 0.131236 0.093921
0.758108 0.137580 0.096152
0.772271 0.140414 0.097532
0.783921 0.143812 0.099386
0.793522 0.147972 0.101675
0.802338 0.151283 0.104050
0.810658 0.151201 0.106370
0.816831 0.151409 0.109762
0.822212 0.150438 0.113932
0.828771 0.140524 0.119236
0.832518 0.136953 0.136379
0.841619 0.154176 0.399595
0.841617 0.154140 0.399547
0.841617 0.154138 0.399544
0.841618 0.154163 0.399543
0.846581 0.251717 0.523346
0.077960 0.104370 0.081616
0.078178 0.104514 0.081753
0.079256 0.105585 0.082000
0.082347 0.105966 0.082542
0.086697 0.105462 0.082880
0.094920 0.104770 0.083407
0.109901 0.107568 0.084248
0.138177 0.111455 0.085295
0.168569 0.109827 0.085572
0.217386 0.111104 0.086245
0.301232 0.115939 0.087552
0.373693 0.117785 0.088334
0.445687 0.119249 0.088961
0.526191 0.122253 0.089799
0.596257 0.129126 0.090912
0.651249 0.132769 0.091576
0.686418 0.136537 0.092819
0.717400 0.142318 0.094577
0.747081 0.149104 0.096718
0.765478 0.151373 0.098068
0.779112 0.154142 0.099908
0.790150 0.157849 0.102103
0.799981 0.160848 0.104384
0.809029 0.160491 0.106689
0.815722 0.160412 0.109868
0.821453 0.159208 0.113657
0.828247 0.149018 0.117973
0.832164 0.142820 0.130215
0.841619 0.154192 0.399615
0.841617 0.154142 0.399550
0.841617 0.154139 0.399546
0.845851 0.222609 0.399543
0.846581 0.251717 0.523346
0.080155 0.118251 0.082392
0.080429 0.118384 0.082516
0.081798 0.119501 0.082900
0.084225 0.120395 0.083356
0.087854 0.120424 0.083968
0.094920 0.119744 0.084470
0.104424 0.118913 0.085000
0.124583 0.123541 0.086139
0.146236 0.120323 0.086346
0.183301 0.120817 0.086915
0.249027 0.127193 0.088330
0.314107 0.129192 0.089043
0.380694 0.129980 0.089547
0.462364 0.134002 0.090328
0.548600 0.141900 0.091407
0.606706 0.146001 0.092447
0.660554 0.148595 0.093698
0.698298 0.153628 0.095328
0.731148 0.161204 0.097392
0.756195 0.164376 0.098851
0.771322 0.168296 0.100621
0.784228 0.172437 0.102722
0.795924 0.174876 0.104892
0.806260 0.174095 0.107238
0.813868 0.173594 0.110194
0.820197 0.172130 0.113681
0.827380 0.162102 0.117306
0.831620 0.154147 0.125691
0.841622 0.154234 0.399665
0.841617 0.154146 0.399555
0.841617 0.154141 0.399549
0.845853 0.222649 0.399545
0.846581 0.251717 0.523346
0.083610 0.143451 0.083388
0.083803 0.143659 0.083517
0.084853 0.145966 0.084017
0.086638 0.147873 0.084579
0.090067 0.148815 0.085095
0.096778 0.148339 0.085775
0.105096 0.146763 0.086339
0.118758 0.145044 0.086921
0.133038 0.137836 0.087126
0.161016 0.137639 0.087820
0.211918 0.145922 0.089144
0.266300 0.146547 0.089764
0.324606 0.146180 0.090214
0.399659 0.149976 0.090932
0.494209 0.158072 0.092276
0.560181 0.160745 0.093504
0.619530 0.163353 0.094695
0.670888 0.168836 0.096265
0.709451 0.176167 0.098336
0.742276 0.177912 0.099773
0.763752 0.180753 0.101425
0.778491 0.185134 0.103437
0.791089 0.190527 0.105701
0.802200 0.192389 0.108041
0.810543 0.195097 0.110866
0.817977 0.192847 0.114218
0.825816 0.182286 0.117649
0.830673 0.173294 0.123651
0.841630 0.154400 0.399835
0.841618 0.154161 0.399575
0.841617 0.154146 0.399557
0.845854 0.222652 0.399548
0.846581 0.251718 0.523346
0.085081 0.159088 0.083982
0.085221 0.159234 0.084077
0.085915 0.160670 0.084436
0.087354 0.163015 0.084945
0.090292 0.164630 0.085514
0.095534 0.164843 0.086126
0.102084 0.164026 0.086737
0.112551 0.162376 0.087360
0.125677 0.160744 0.088032
0.147889 0.159787 0.088675
0.189303 0.168470 0.089959
0.231336 0.167831 0.090500
0.281328 0.166212 0.090908
0.346770 0.168848 0.091574
0.433500 0.176413 0.093590
0.510849 0.178110 0.094707
0.572425 0.180099 0.095793
0.635916 0.184816 0.097264
0.685264 0.193659 0.099500
0.720758 0.196760 0.100861
0.751100 0.201645 0.102447
0.770094 0.205669 0.104326
0.785466 0.210002 0.106754
0.798489 0.210728 0.108927
0.808086 0.212719 0.111577
0.815793 0.214883 0.114982
0.823762 0.210544 0.118652
0.828947 0.207347 0.124392
0.841866 0.158742 0.401786
0.841627 0.154335 0.399772
0.841619 0.154185 0.399610
0.845854 0.222655 0.399564
0.846581 0.251718 0.523346
0.087011 0.181629 0.084763
0.087119 0.181745 0.084835
0.087745 0.182747 0.085101
0.089277 0.185216 0.085644
0.092187 0.187560 0.086261
0.096567 0.188877 0.086846
0.101977 0.188462 0.087582
0.110893 0.186919 0.088266
0.122164 0.184974 0.088896
0.139557 0.183433 0.089500
0.173808 0.194417 0.090724
0.207648 0.192508 0.091244
0.248751 0.188671 0.091625
0.305498 0.190789 0.092856
0.382452 0.200211 0.094952
0.452646 0.201173 0.095962
0.526357 0.202467 0.096968
0.591069 0.207580 0.098486
0.656387 0.217830 0.100806
0.696306 0.220565 0.102066
0.732728 0.223478 0.103495
0.759643 0.229778 0.105394
0.776982 0.236753 0.108039
0.792384 0.237670 0.110071
0.804169 0.238044 0.112519
0.813287 0.238968 0.115892
0.822235 0.233580 0.119218
0.828023 0.228965 0.124294
0.833883 0.217357 0.130925
0.838087 0.206980 0.155603
0.843641 0.206836 0.359985
0.845867 0.223206 0.402445
0.846581 0.251718 0.523345
0.090641 0.225782 0.086013
0.090811 0.225940 0.086087
0.091553 0.227099 0.086359
0.093468 0.231407 0.086875
0.096136 0.234525 0.087604
0.099676 0.236228 0.088348
0.105036 0.236786 0.089072
0.113710 0.235692 0.089738
0.123897 0.233630 0.090339
0.140662 0.231138 0.090922
0.163296 0.228992 0.091486
0.192204 0.225573 0.092287
0.225338 0.219899 0.093020
0.274291 0.221099 0.094303
0.341766 0.231279 0.096338
0.404203 0.230756 0.097277
0.474006 0.230631 0.098260
0.547046 0.235404 0.099905
0.616376 0.245995 0.102177
0.669606 0.247149 0.103321
0.708936 0.250845 0.104687
0.743844 0.257732 0.106921
0.767976 0.262693 0.109381
0.785741 0.264032 0.111301
0.798841 0.267584 0.113697
0.809074 0.272270 0.117163
0.819708 0.265470 0.120195
0.826530 0.259140 0.124774
0.832981 0.246147 0.130128
0.837546 0.230677 0.143253
0.843157 0.207413 0.296641
0.845909 0.224928 0.411400
0.845924 0.225553 0.414622
0.093658 0.259454 0.086809
0.093798 0.259594 0.086868
0.094389 0.260525 0.087154
0.095896 0.264201 0.087727
0.098023 0.267242 0.088376
0.101088 0.270117 0.089087
0.106183 0.271849 0.089806
0.113711 0.271442 0.090438
0.122659 0.269899 0.091034
0.136437 0.267653 0.091635
0.155446 0.265065 0.092682
0.181695 0.262965 0.093882
0.208743 0.255176 0.094480
0.251047 0.256108 0.095759
0.310486 0.266207 0.097721
0.365090 0.264019 0.098771
0.427577 0.262882 0.099863
0.504297 0.267044 0.101434
0.574982 0.277049 0.103540
0.635264 0.277313 0.104622
0.682848 0.281290 0.106282
0.722917 0.286478 0.108505
0.756086 0.293356 0.110897
0.776409 0.296067 0.112736
0.792860 0.297461 0.115282
0.805293 0.300589 0.118538
0.816740 0.298514 0.121608
0.824232 0.297868 0.125884
0.831378 0.288498 0.130768
0.836676 0.269683 0.138298
0.842286 0.221155 0.220903
0.845909 0.224941 0.411445
0.845939 0.226150 0.417670
0.096118 0.290297 0.087580
0.096236 0.290420 0.087648
0.096717 0.291190 0.087896
0.097882 0.294075 0.088374
0.099763 0.297982 0.088989
0.102613 0.301494 0.089654
0.107086 0.303425 0.090305
0.113701 0.304004 0.090940
0.121611 0.303299 0.091521
0.132855 0.301318 0.092564
0.149501 0.298870 0.093737
0.170892 0.296116 0.094833
0.197840 0.293973 0.095960
0.233328 0.293917 0.097132
0.286555 0.304960 0.099453
0.334680 0.301510 0.100457
0.389534 0.298933 0.101438
0.459097 0.302542 0.102978
0.537536 0.312396 0.105066
0.595434 0.311487 0.106334
0.655161 0.314192 0.107996
0.698851 0.320121 0.110193
0.737737 0.327960 0.112534
0.766438 0.328389 0.114359
0.784944 0.332428 0.117043
0.799262 0.338453 0.120241
0.813187 0.334016 0.123223
0.822140 0.331263 0.127076
0.829933 0.325555 0.131603
0.835511 0.317368 0.138119
0.840246 0.306406 0.158483
0.845910 0.225027 0.411502
0.845961 0.227048 0.422076
0.099066 0.332122 0.088547
0.099167 0.332242 0.088606
0.099573 0.332918 0.088819
0.100515 0.335268 0.089228
0.102465 0.340186 0.089825
0.105189 0.343331 0.090426
0.109670 0.345797 0.091037
0.115580 0.347324 0.091757
0.122567 0.347377 0.092957
0.132766 0.345894 0.094161
0.147725 0.343660 0.095291
0.166862 0.341106 0.096416
0.190871 0.338326 0.097448
0.220458 0.336135 0.098700
0.267814 0.347202 0.101115
0.310930 0.343073 0.102130
0.359810 0.338845 0.103036
0.421571 0.341276 0.104457
0.499915 0.350961 0.107028
0.559054 0.349523 0.108316
0.618965 0.351190 0.109878
0.673796 0.356911 0.111941
0.716294 0.363503 0.114322
0.753800 0.365328 0.116349
0.775364 0.369826 0.118921
0.793093 0.373700 0.122159
0.808597 0.373116 0.125053
0.818729 0.374695 0.128694
0.828057 0.367044 0.132713
0.834546 0.356316 0.138090
0.839753 0.341357 0.151966
0.843775 0.333412 0.223006
0.847535 0.347948 0.426361
0.102872 0.387208 0.089726
0.102987 0.387345 0.089778
0.103438 0.388033 0.089966
0.104447 0.390144 0.090325
0.106727 0.395661 0.090893
0.109649 0.398198 0.091435
0.113922 0.401368 0.092518
0.119167 0.403171 0.093835
0.125708 0.403838 0.095149
0.136449 0.403294 0.096373
0.150593 0.401847 0.097558
0.168658 0.399674 0.098842
0.191192 0.397208 0.100202
0.218179 0.394614 0.101470
0.253871 0.392284 0.102770
0.291993 0.386805 0.103690
0.335983 0.382088 0.104613
0.391541 0.383843 0.106327
0.462509 0.392993 0.109039
0.526400 0.390372 0.110223
0.583726 0.391415 0.111764
0.646734 0.396674 0.113836
0.693260 0.401797 0.116477
0.733695 0.403849 0.118422
0.764610 0.406533 0.120928
0.784689 0.412023 0.124311
0.803027 0.411685 0.127031
0.815499 0.410932 0.130372
0.825731 0.409181 0.134171
0.832938 0.406087 0.139533
0.838950 0.391131 0.150013
0.843165 0.369976 0.184654
0.847479 0.358074 0.417618
0.105861 0.423999 0.090411
0.105990 0.424103 0.090456
0.106489 0.424604 0.090621
0.107579 0.426078 0.090933
0.109707 0.429797 0.091425
0.112478 0.433128 0.092334
0.116473 0.437116 0.093724
0.120844 0.438498 0.094933
0.127042 0.439567 0.096191
0.136928 0.439838 0.097458
0.149495 0.438673 0.098775
0.165391 0.436833 0.100162
0.185857 0.434712 0.101501
0.209826 0.432196 0.102781
0.240768 0.430013 0.104004
0.277707 0.428147 0.105301
0.316808 0.423269 0.106475
0.367251 0.424311 0.108375
0.431516 0.432245 0.111073
0.492730 0.429356 0.112214
0.551916 0.429115 0.113644
0.612805 0.433188 0.116126
0.669945 0.437987 0.118697
0.712156 0.439147 0.120572
0.751891 0.442386 0.123266
0.775097 0.447982 0.126533
0.796465 0.447613 0.129067
0.810763 0.449869 0.132333
0.822979 0.447941 0.135828
0.831538 0.442613 0.141191
0.838017 0.436098 0.150474
0.842407 0.429793 0.171452
0.846991 0.395810 0.360017
0.109488 0.460230 0.091033
0.109601 0.460319 0.091073
0.110039 0.460739 0.091219
0.110974 0.461933 0.091494
0.112739 0.464852 0.092247
0.115415 0.468958 0.093463
0.118538 0.471493 0.094666
0.122621 0.473935 0.095922
0.128800 0.475547 0.097164
0.137753 0.475931 0.098517
0.149137 0.475545 0.100001
0.163445 0.474185 0.101382
0.182138 0.472241 0.102684
0.203074 0.470065 0.103974
0.230639 0.467680 0.105227
0.263900 0.465600 0.106846
0.302124 0.463971 0.108500
0.347447 0.464645 0.110351
0.406034 0.471992 0.113034
0.461531 0.468441 0.114264
0.524502 0.467845 0.116030
0.581938 0.471200 0.118422
0.644362 0.475715 0.121080
0.690070 0.476136 0.123064
0.731686 0.478846 0.125688
0.764344 0.482544 0.128793
0.788127 0.483559 0.131250
0.805438 0.484647 0.134288
0.819667 0.484503 0.137610
0.829362 0.483731 0.143607
0.836985 0.477968 0.151497
0.841990 0.468592 0.166102
0.845946 0.467942 0.248549
0.113567 0.496110 0.091931
0.113670 0.496178 0.091996
0.114064 0.496479 0.092232
0.114888 0.497279 0.092786
0.116399 0.499131 0.093655
0.119047 0.502891 0.094886
0.121590 0.504149 0.095946
0.125797 0.506717 0.097242
0.132024 0.508008 0.098617
0.140480 0.508502 0.100091
0.150969 0.508508 0.101580
0.164526 0.507796 0.102979
0.181873 0.506656 0.104343
0.201060 0.504987 0.105733
0.226039 0.503355 0.107464
0.256416 0.501659 0.109084
0.291500 0.500118 0.110659
0.331840 0.499051 0.112285
0.385175 0.504451 0.115317
0.435691 0.501439 0.116635
0.495527 0.500351 0.118330
0.554597 0.502684 0.120795
0.614073 0.505894 0.123697
0.668131 0.505928 0.125591
0.711064 0.508609 0.128156
0.752247 0.512045 0.131145
0.778716 0.513256 0.133471
0.798906 0.514661 0.136354
0.815276 0.516448 0.140656
0.827208 0.514107 0.146145
0.835748 0.511728 0.153394
0.841286 0.509278 0.165233
0.845497 0.501023 0.209730
0.118109 0.532729 0.093738
0.118205 0.532805 0.093812
0.118570 0.533118 0.094082
0.119320 0.533877 0.094589
0.120657 0.535495 0.095378
0.122968 0.538733 0.096505
0.125768 0.540711 0.097588
0.130676 0.543118 0.099102
0.136804 0.544544 0.100612
0.145242 0.545777 0.102164
0.155101 0.546045 0.103617
0.168653 0.545710 0.105071
0.184531 0.544680 0.106893
0.202742 0.543343 0.108661
0.226164 0.541671 0.110325
0.255280 0.540147 0.112049
0.287687 0.538657 0.113687
0.324981 0.537160 0.115611
0.368307 0.536321 0.117658
0.414116 0.533151 0.118922
0.469006 0.532012 0.120682
0.530682 0.533731 0.123405
0.586768 0.536610 0.126260
0.644749 0.536420 0.128109
0.690444 0.538482 0.130582
0.733455 0.541956 0.133525
0.768174 0.542954 0.135705
0.790982 0.545337 0.138970
0.810640 0.546327 0.143697
0.824290 0.546320 0.149015
0.834285 0.545286 0.155764
0.840762 0.540926 0.165512
0.845174 0.538996 0.194020
0.121485 0.562866 0.094712
0.121571 0.562925 0.094780
0.121895 0.563172 0.095030
0.122553 0.563762 0.095498
0.123707 0.565010 0.096225
0.126001 0.567480 0.097258
0.129510 0.569981 0.098549
0.133575 0.571510 0.099971
0.139971 0.573413 0.101541
0.147652 0.574644 0.103083
0.156244 0.574828 0.104489
0.168735 0.574656 0.106211
0.183479 0.573947 0.108099
0.200352 0.572814 0.109892
0.221509 0.571452 0.111624
0.247972 0.569816 0.113252
0.277919 0.568391 0.115260
0.312227 0.567129 0.117259
0.351222 0.565863 0.119147
0.396557 0.565245 0.121298
0.446645 0.563619 0.123202
0.507711 0.565292 0.125943
0.562655 0.567717 0.128809
0.617455 0.567359 0.130579
0.670753 0.569079 0.133010
0.714133 0.572096 0.135869
0.756414 0.573149 0.138074
0.781932 0.575756 0.142421
0.804689 0.577225 0.146922
0.820700 0.578225 0.151979
0.832639 0.577304 0.158174
0.839969 0.576429 0.167203
0.844964 0.573398 0.187135
0.125003 0.594179 0.095710
0.125112 0.594232 0.095775
0.125519 0.594445 0.096008
0.126339 0.594940 0.096445
0.127758 0.595951 0.097121
0.130111 0.597902 0.098148
0.133745 0.600851 0.099685
0.137723 0.601828 0.100982
0.144067 0.604042 0.102633
0.150328 0.604374 0.104006
0.159073 0.604888 0.105647
0.171108 0.604976 0.107642
0.184494 0.604508 0.109522
0.199970 0.603721 0.111293
0.219380 0.602528 0.113065
0.243960 0.601129 0.115066
0.271466 0.599605 0.117075
0.302919 0.598244 0.119082
0.339365 0.597202 0.121214
0.380279 0.596190 0.123384
0.428061 0.595772 0.125647
0.484211 0.596613 0.128353
0.541274 0.598939 0.131203
0.593007 0.598590 0.133001
0.651010 0.599880 0.135373
0.695373 0.602685 0.138486
0.740354 0.603714 0.141637
0.771977 0.605308 0.145813
0.797468 0.606929 0.150234
0.816597 0.607529 0.154892
0.830466 0.608246 0.160875
0.839179 0.607457 0.169101
0.844750 0.606917 0.184936
0.130029 0.619872 0.096831
0.130132 0.619910 0.096892
0.130514 0.620059 0.097112
0.131275 0.620387 0.097524
0.132570 0.621017 0.098251
0.134911 0.622165 0.099397
0.138927 0.624195 0.100948
0.142712 0.624994 0.102241
0.148066 0.626111 0.103756
0.154415 0.626898 0.105291
0.163532 0.627488 0.107368
0.173956 0.627470 0.109282
0.186735 0.627268 0.111226
0.201521 0.626707 0.113083
0.219795 0.625890 0.115155
0.242691 0.625059 0.117376
0.268567 0.624095 0.119443
0.297970 0.623158 0.121674
0.331498 0.622268 0.123963
0.370333 0.621692 0.126265
0.413568 0.621177 0.128453
0.464281 0.621007 0.130673
0.522724 0.622153 0.133504
0.571147 0.621967 0.135235
0.626222 0.622644 0.137625
0.677144 0.624349 0.142071
0.722145 0.625200 0.145160
0.761139 0.626603 0.149260
0.789217 0.628312 0.153546
0.811474 0.629255 0.157937
0.827978 0.630215 0.163590
0.838195 0.630301 0.171389
0.844496 0.630926 0.184824
0.135380 0.643052 0.097785
0.135493 0.643087 0.097847
0.135911 0.643223 0.098115
0.136739 0.643512 0.098617
0.138132 0.644044 0.099391
0.140360 0.644975 0.100485
0.143910 0.646563 0.101960
0.147926 0.647751 0.103397
0.152533 0.648504 0.104807
0.159474 0.649590 0.106929
0.167559 0.649783 0.108829
0.177984 0.650023 0.110875
0.190319 0.650001 0.112925
0.203616 0.649438 0.115068
0.220912 0.648704 0.117295
0.242364 0.647894 0.119509
0.266920 0.647052 0.121943
0.294690 0.646175 0.124366
0.326085 0.645336 0.126702
0.362065 0.644565 0.128990
0.402832 0.644135 0.131263
0.449335 0.643841 0.133486
0.503276 0.643826 0.135679
0.551953 0.643595 0.137379
0.603723 0.644044 0.140909
0.659151 0.645398 0.145468
0.704139 0.646332 0.148512
0.748533 0.647591 0.152556
0.780191 0.649296 0.156804
0.805355 0.650601 0.161040
0.824990 0.651649 0.166406
0.836959 0.652622 0.173916
0.844332 0.653024 0.185456
0.140853 0.665916 0.098208
0.140955 0.665939 0.098280
0.141335 0.666032 0.098540
0.142081 0.666228 0.099027
0.143326 0.666589 0.099777
0.145296 0.667224 0.100837
0.148390 0.668311 0.102265
0.152557 0.669574 0.103883
0.156503 0.669962 0.105253
0.163679 0.670792 0.107528
0.171232 0.670954 0.109495
0.181331 0.671132 0.111643
0.191776 0.670852 0.113574
0.204905 0.670481 0.116069
0.221711 0.669842 0.118458
0.241344 0.668996 0.120711
0.264024 0.668149 0.123276
0.289902 0.667287 0.125741
0.319282 0.666485 0.128154
0.352651 0.665761 0.130459
0.390688 0.665189 0.132738
0.433570 0.664875 0.134944
0.483349 0.664839 0.137170
0.535073 0.665060 0.140320
0.583602 0.665180 0.144084
0.639008 0.666197 0.148651
0.686777 0.667214 0.151630
0.731258 0.668247 0.155669
0.770019 0.669897 0.159760
0.798286 0.671421 0.164205
0.821324 0.672764 0.169284
0.835587 0.673717 0.176087
0.844113 0.675004 0.186746
0.146162 0.687208 0.098717
0.146258 0.687232 0.098786
0.146613 0.687321 0.099039
0.147308 0.687504 0.099512
0.148456 0.687823 0.100241
0.150248 0.688353 0.101270
0.153017 0.689212 0.102655
0.157494 0.690598 0.104477
0.161726 0.690849 0.105980
0.167979 0.691365 0.108133
0.175860 0.691794 0.110377
0.184389 0.691713 0.112391
0.194951 0.691569 0.114734
0.207575 0.691211 0.117325
0.222550 0.690593 0.119671
0.241506 0.689868 0.122307
0.263301 0.689043 0.124956
0.287875 0.688162 0.127530
0.315297 0.687349 0.129961
0.346461 0.686635 0.132354
0.381667 0.686052 0.134642
0.421569 0.685665 0.136884
0.467319 0.685451 0.139840
0.519625 0.685624 0.143422
0.565704 0.686021 0.146986
0.617761 0.686620 0.151591
0.670426 0.687888 0.154495
0.714023 0.688579 0.158451
0.759186 0.690178 0.162548
0.790133 0.691658 0.166894
0.816926 0.693339 0.172065
0.833987 0.694542 0.178281
0.843843 0.695981 0.188137
0.151397 0.707468 0.099040
0.151488 0.707491 0.099109
0.151823 0.707574 0.099358
0.152474 0.707738 0.099824
0.153540 0.708009 0.100543
0.155187 0.708432 0.101558
0.157874 0.709076 0.102925
0.162613 0.710059 0.104724
0.167310 0.710566 0.106659
0.172805 0.710874 0.108724
0.181061 0.711415 0.111285
0.188437 0.711234 0.113198
0.199098 0.711138 0.116003
0.210201 0.710717 0.118447
0.225488 0.710237 0.121201
0.243336 0.709597 0.124000
0.263271 0.708894 0.126691
0.286303 0.708118 0.129335
0.312311 0.707328 0.131873
0.341711 0.706647 0.134331
0.374871 0.706079 0.136715
0.412311 0.705679 0.139776
0.455006 0.705434 0.143338
0.503869 0.705370 0.146842
0.549809 0.705696 0.150526
0.598572 0.706213 0.154179
0.654257 0.707683 0.157002
0.697588 0.708102 0.161010
0.745999 0.709453 0.165021
0.780994 0.710737 0.169412
0.811422 0.712333 0.174377
0.832043 0.713784 0.180298
0.843776 0.715284 0.189562
0.157076 0.730784 0.097711
0.157171 0.730792 0.097768
0.157522 0.730823 0.098010
0.158203 0.730880 0.098497
0.159320 0.730970 0.099252
0.161048 0.731102 0.100323
0.163698 0.731300 0.101780
0.167857 0.731614 0.103718
0.172949 0.731858 0.105880
0.177685 0.731799 0.107939
0.184713 0.731795 0.110501
0.192545 0.731577 0.112852
0.201546 0.731151 0.115486
0.213181 0.730608 0.118299
0.227435 0.729909 0.121131
0.243776 0.729190 0.124037
0.263364 0.728410 0.126964
0.285096 0.727595 0.129704
0.309028 0.726785 0.132301
0.336398 0.726055 0.134824
0.367505 0.725458 0.137266
0.402658 0.725018 0.140747
0.442792 0.724768 0.144425
0.488630 0.724730 0.148030
