LUTs/negative-gold-200/Gold200_Classic_ExtraSoft.cube
TITLE "Kodak Gold 200 Classic ExtraSoft"
# Adobe RGB in/out. REPLACES AgX. Kodak Gold 200 Classic ExtraSoft.
LUT_3D_SIZE 5
DOMAIN_MIN 0.0 0.0 0.0
DOMAIN_MAX 1.0 1.0 1.0
0.058206 0.064417 0.080741
0.330505 0.073371 0.085851
0.673072 0.093971 0.094711
0.736353 0.111682 0.110881
0.758749 0.236197 0.518093
0.063483 0.127970 0.086087
0.086877 0.129403 0.090570
0.546649 0.150039 0.098376
0.728086 0.185611 0.112097
0.758750 0.236204 0.518092
0.076375 0.459987 0.094135
0.088345 0.473131 0.099636
0.286079 0.463192 0.109880
0.670443 0.476763 0.122511
0.758293 0.466589 0.231290
0.099594 0.655237 0.101011
0.111118 0.657637 0.108051
0.226821 0.656447 0.122033
0.541847 0.654454 0.138416
0.756780 0.661013 0.169948
0.121710 0.722621 0.089676
0.150199 0.734858 0.089687
0.224751 0.737838 0.104199
0.454259 0.734165 0.126981
0.760282 0.738228 0.137708
0.061314 0.076883 0.146686
0.336750 0.109259 0.301254
0.682564 0.123943 0.251434
0.737240 0.155902 0.319883
0.758750 0.236211 0.518115
0.068683 0.130113 0.146941
0.147386 0.156771 0.173592
0.630209 0.181085 0.183659
0.731282 0.222872 0.221766
0.758750 0.236204 0.518092
0.084490 0.451095 0.152533
0.106309 0.460661 0.161991
0.408197 0.465502 0.179899
0.698254 0.487300 0.202214
0.758929 0.492932 0.424232
0.108340 0.651447 0.151433
0.125026 0.653384 0.162664
0.284369 0.653687 0.189603
0.589463 0.654463 0.217445
0.757695 0.662087 0.257819
0.126480 0.727596 0.105690
0.154591 0.739452 0.105687
0.242200 0.737806 0.135640
0.473487 0.734518 0.185114
0.762607 0.738615 0.206273
0.069137 0.115239 0.464009
0.224749 0.200432 0.576587
0.673283 0.239740 0.578601
0.736674 0.282727 0.589209
0.759214 0.275338 0.611471
0.078194 0.198745 0.473064
0.156938 0.261494 0.529657
0.635543 0.311081 0.552915
0.732316 0.354559 0.579558
0.759174 0.271762 0.604166
0.098119 0.468642 0.459703
0.138096 0.479321 0.470604
0.506467 0.506910 0.501584
0.712358 0.524310 0.527102
0.759661 0.536885 0.602837
0.129257 0.652199 0.468379
0.156313 0.653894 0.472305
0.373743 0.656021 0.483824
0.655098 0.659966 0.499601
0.759484 0.672756 0.570504
0.150326 0.738247 0.563496
0.159371 0.741547 0.563493
0.289143 0.737904 0.494740
0.513283 0.736191 0.500934
0.763903 0.741479 0.513792
0.085833 0.254620 0.666374
0.160049 0.327754 0.681533
0.664821 0.361778 0.682613
0.735811 0.390580 0.684772
0.759643 0.314322 0.680292
0.095677 0.353214 0.670110
0.167052 0.396187 0.680432
0.635254 0.419599 0.682671
0.732597 0.439587 0.685155
0.759626 0.313085 0.678588
0.122604 0.527225 0.660173
0.183250 0.539206 0.668805
0.536606 0.555403 0.678575
0.718736 0.569705 0.683767
0.760250 0.573488 0.689174
0.152288 0.663204 0.650173
0.195894 0.665282 0.653393
0.424534 0.669677 0.664071
0.677431 0.675826 0.673638
0.761156 0.687728 0.691163
0.156051 0.740224 0.638690
0.168560 0.744031 0.638920
0.304750 0.742442 0.657919
0.524738 0.741271 0.659876
0.765764 0.749675 0.684745
0.170816 0.410549 0.760917
0.497794 0.417147 0.760923
0.706486 0.437046 0.761050
0.744908 0.446937 0.761710
0.760366 0.388307 0.759152
0.198621 0.450751 0.760307
0.471958 0.457321 0.760372
0.701957 0.476739 0.760637
0.744343 0.486304 0.761379
0.760454 0.398866 0.762719
0.244700 0.581118 0.758713
0.399639 0.583843 0.759040
0.680417 0.592791 0.759769
0.741672 0.598779 0.760775
0.762741 0.576679 0.763404
0.233563 0.687579 0.758962
0.305204 0.688008 0.759412
0.585460 0.689803 0.760301
0.732288 0.692678 0.761155
0.764560 0.692907 0.763140
0.162968 0.741093 0.715918
0.190536 0.748644 0.726574
0.294803 0.755262 0.750202
0.524837 0.755235 0.762912
0.767511 0.758775 0.763801
