LUTs/negative-gold-200/Gold200_Modern_Soft.cube
TITLE "Kodak Gold 200 Modern Soft"
# Adobe RGB in/out. REPLACES AgX. Kodak Gold 200 Modern Soft.
LUT_3D_SIZE 33
DOMAIN_MIN 0.0 0.0 0.0
DOMAIN_MAX 1.0 1.0 1.0
0.062396 0.069107 0.086480
0.067159 0.070358 0.087752
0.068891 0.070793 0.088158
0.082340 0.072584 0.089219
0.151471 0.075484 0.090277
0.223971 0.077460 0.091351
0.403592 0.081542 0.093075
0.532364 0.086978 0.095244
0.585113 0.089355 0.096488
0.631514 0.093204 0.098170
0.685697 0.099956 0.100494
0.714307 0.104691 0.102539
0.733132 0.108607 0.104333
0.752241 0.115848 0.106580
0.770880 0.125489 0.109616
0.782762 0.130008 0.111853
0.790271 0.135283 0.113924
0.796003 0.147321 0.116429
0.800858 0.159232 0.119491
0.804895 0.163876 0.121833
0.807865 0.168630 0.124432
0.809982 0.174338 0.128045
0.811871 0.178161 0.131874
0.813626 0.175793 0.135708
0.814369 0.174062 0.141513
0.814790 0.170365 0.149200
0.815874 0.152908 0.162206
0.815589 0.154476 0.224327
0.817799 0.190272 0.548932
0.815682 0.186043 0.543817
0.813575 0.182886 0.538785
0.811476 0.179846 0.533807
0.811851 0.370965 0.630046
0.063083 0.072963 0.087420
0.064377 0.071911 0.087549
0.069038 0.071139 0.087661
0.083791 0.073043 0.089145
0.142960 0.076099 0.090314
0.203892 0.077916 0.091373
0.381002 0.081987 0.093081
0.515158 0.087422 0.095254
0.572159 0.089708 0.096493
0.623542 0.093596 0.098169
0.679219 0.100360 0.100485
0.710574 0.105143 0.102522
0.730112 0.109010 0.104318
0.749818 0.116462 0.106566
0.768958 0.125958 0.109598
0.781393 0.130446 0.111836
0.789463 0.136299 0.113907
0.795348 0.148111 0.116412
0.800325 0.160030 0.119472
0.804455 0.164652 0.121807
0.807497 0.169391 0.124403
0.809672 0.175093 0.128007
0.811608 0.178913 0.131828
0.813401 0.176534 0.135627
0.814174 0.174782 0.141397
0.814619 0.171051 0.148971
0.815722 0.153451 0.161665
0.815451 0.154376 0.221310
0.817684 0.190038 0.548656
0.815577 0.185885 0.543567
0.813479 0.182744 0.538557
0.811388 0.179726 0.533599
0.811770 0.370758 0.629875
0.063309 0.074282 0.087592
0.063667 0.074043 0.087924
0.064994 0.072997 0.087739
0.071959 0.074499 0.088994
0.096021 0.078050 0.090248
0.145915 0.079524 0.091296
0.293326 0.083920 0.093102
0.458039 0.089477 0.095401
0.525981 0.091384 0.096575
0.595436 0.095222 0.098202
0.656110 0.102129 0.100474
0.694781 0.106924 0.102486
0.719058 0.110926 0.104284
0.740935 0.118655 0.106532
0.761916 0.127740 0.109547
0.776228 0.132097 0.111786
0.786512 0.140139 0.113857
0.792967 0.151068 0.116359
0.798394 0.163005 0.119413
0.802861 0.167537 0.121722
0.806169 0.172210 0.124308
0.808557 0.177883 0.127877
0.810663 0.181769 0.131669
0.812592 0.179264 0.135350
0.813476 0.177437 0.140997
0.814009 0.173588 0.148301
0.815181 0.155515 0.159833
0.814960 0.154252 0.211826
0.817275 0.189205 0.547674
0.815204 0.185323 0.542673
0.813137 0.182236 0.537744
0.811074 0.179299 0.532858
0.811481 0.370017 0.629265
0.064344 0.081399 0.088601
0.064610 0.081222 0.088954
0.065682 0.079984 0.089215
0.068145 0.078244 0.089258
0.077687 0.081579 0.090339
0.094074 0.082460 0.091334
0.158721 0.087143 0.093071
0.339142 0.092709 0.095429
0.436867 0.094742 0.096670
0.532542 0.098764 0.098307
0.615236 0.106690 0.100536
0.659287 0.111483 0.102529
0.696084 0.116493 0.104299
0.723764 0.123184 0.106525
0.748300 0.131433 0.109512
0.765277 0.138901 0.111737
0.778919 0.147795 0.113798
0.788433 0.157034 0.116289
0.794748 0.168949 0.119327
0.799871 0.173254 0.121593
0.803695 0.177765 0.124157
0.806492 0.183553 0.127666
0.808920 0.187989 0.131407
0.811107 0.184883 0.134889
0.812196 0.182765 0.140326
0.812893 0.178569 0.147231
0.814194 0.159762 0.156880
0.814068 0.154996 0.198608
0.816533 0.187704 0.545893
0.814525 0.184307 0.541052
0.812514 0.181317 0.536268
0.810502 0.178525 0.531510
0.810953 0.368667 0.628154
0.066292 0.098079 0.089903
0.066560 0.097858 0.090230
0.067577 0.096792 0.090677
0.070019 0.093558 0.091125
0.074578 0.090158 0.091535
0.081582 0.087625 0.091703
0.105526 0.091682 0.093144
0.183296 0.097973 0.095505
0.305883 0.099557 0.096806
0.433135 0.103578 0.098433
0.554172 0.113223 0.100745
0.613068 0.119126 0.102717
0.654501 0.123626 0.104424
0.695494 0.129809 0.106615
0.726000 0.145566 0.109595
0.747330 0.152477 0.111770
0.764789 0.158675 0.113794
0.779320 0.167384 0.116252
0.788979 0.179102 0.119257
0.795200 0.183069 0.121466
0.799881 0.187890 0.123994
0.803343 0.195670 0.127418
0.806285 0.200995 0.131086
0.808878 0.197035 0.134314
0.810288 0.193816 0.139474
0.811236 0.187565 0.145875
0.812734 0.167206 0.153335
0.812762 0.158354 0.182903
0.815447 0.185755 0.543297
0.813530 0.182825 0.538682
0.811601 0.180018 0.534106
0.809663 0.177424 0.529531
0.810177 0.366687 0.626523
0.067877 0.116398 0.091294
0.068028 0.115593 0.091571
0.068768 0.114078 0.091945
0.070790 0.108433 0.092512
0.073566 0.101995 0.092501
0.078715 0.097684 0.092793
0.090677 0.099279 0.093654
0.126573 0.106259 0.096069
0.183360 0.106668 0.097048
0.314376 0.110687 0.098583
0.458432 0.122686 0.100899
0.546735 0.127538 0.102946
0.606286 0.131113 0.104689
0.653540 0.141596 0.106820
0.700008 0.158441 0.109734
0.724720 0.166113 0.111870
0.744866 0.173641 0.113875
0.762298 0.184509 0.116320
0.778117 0.200422 0.119269
0.788291 0.204406 0.121420
0.794368 0.209382 0.123887
0.798886 0.216663 0.127211
0.802619 0.221699 0.130783
0.805817 0.217134 0.133744
0.807698 0.213250 0.138592
0.809004 0.206314 0.144459
0.810780 0.179445 0.149899
0.811037 0.166724 0.168133
0.814023 0.183651 0.539914
0.812223 0.180895 0.535582
0.810400 0.178383 0.531272
0.810659 0.321673 0.526930
0.809153 0.364086 0.624374
0.070793 0.167218 0.093299
0.071051 0.167747 0.093597
0.071914 0.164489 0.094233
0.073292 0.152765 0.094581
0.075828 0.132707 0.094814
0.080603 0.124270 0.094928
0.087894 0.117097 0.095364
0.106594 0.120774 0.096901
0.136147 0.119309 0.097661
0.206009 0.123320 0.098987
0.361730 0.132912 0.101298
0.460668 0.142417 0.103361
0.539732 0.148182 0.104918
0.605589 0.158330 0.107011
0.657770 0.175123 0.110014
0.695671 0.183815 0.112153
0.722322 0.190458 0.114033
0.744197 0.203820 0.116383
0.762645 0.223999 0.119296
0.777033 0.231550 0.121448
0.786764 0.240821 0.123900
0.792601 0.250381 0.127152
0.797603 0.254545 0.130609
0.801728 0.248875 0.133347
0.804312 0.243856 0.137881
0.806131 0.236015 0.143264
0.808289 0.205495 0.147583
0.808877 0.183381 0.159548
0.812282 0.181144 0.535820
0.810621 0.178695 0.531801
0.808924 0.176392 0.527797
0.809294 0.318482 0.523740
0.807890 0.360899 0.621730
0.074211 0.265173 0.095941
0.074437 0.265956 0.096231
0.075422 0.266663 0.097156
0.076696 0.243042 0.097635
0.079392 0.213753 0.097858
0.083898 0.185227 0.098152
0.090544 0.167669 0.098296
0.102006 0.154897 0.098644
0.116378 0.135080 0.098484
0.158216 0.138941 0.099557
0.267156 0.158440 0.101989
0.379541 0.164167 0.103904
0.461354 0.167670 0.105370
0.544940 0.177351 0.107375
0.613636 0.197952 0.110364
0.655549 0.207959 0.112388
0.693353 0.216997 0.114271
0.720812 0.233277 0.116614
0.743295 0.254670 0.119454
0.761640 0.259332 0.121549
0.776083 0.266616 0.123915
0.786024 0.276956 0.127107
0.791813 0.286115 0.130527
0.796616 0.287376 0.133197
0.799828 0.289978 0.137589
0.802437 0.282218 0.142614
0.805130 0.254285 0.146733
0.806215 0.226003 0.154854
0.810259 0.178613 0.531181
0.808751 0.176192 0.527414
0.807195 0.174089 0.523755
0.807690 0.314652 0.520016
0.806404 0.357179 0.618629
0.075969 0.318110 0.097270
0.076179 0.318515 0.097483
0.076838 0.314842 0.098060
0.077978 0.298370 0.098601
0.080316 0.275195 0.098970
0.083700 0.245494 0.099188
0.089010 0.217232 0.099449
0.097234 0.193484 0.099643
0.110991 0.178667 0.099965
0.133646 0.170493 0.100377
0.197745 0.185752 0.102960
0.294594 0.191027 0.104637
0.394380 0.193718 0.105989
0.475410 0.205934 0.107836
0.563106 0.230609 0.110901
0.613812 0.239587 0.112821
0.654331 0.248460 0.114617
0.693636 0.264334 0.116884
0.722329 0.284398 0.119721
0.742838 0.291233 0.121809
0.759684 0.301033 0.124162
0.774434 0.308461 0.127252
0.785089 0.315636 0.130541
0.791415 0.315171 0.133068
0.795519 0.316243 0.137206
0.798497 0.317234 0.142128
0.801466 0.306566 0.146653
0.802911 0.297080 0.154180
0.808105 0.182755 0.527552
0.806651 0.173662 0.522662
0.805246 0.171573 0.519258
0.805875 0.309298 0.515835
0.804717 0.352738 0.615121
0.079134 0.386136 0.099032
0.079217 0.384275 0.099134
0.079571 0.376600 0.099453
0.080721 0.366174 0.099970
0.082537 0.348275 0.100386
0.085657 0.323502 0.100719
0.090122 0.297591 0.101077
0.097229 0.271550 0.101387
0.108572 0.246686 0.101772
0.126466 0.227563 0.102326
0.172675 0.238735 0.104437
0.233815 0.234195 0.105557
0.322244 0.233563 0.106695
0.413165 0.244267 0.108439
0.503222 0.270047 0.111586
0.568617 0.276589 0.113372
0.615448 0.282955 0.115088
0.657479 0.295976 0.117268
0.697957 0.316933 0.120185
0.722366 0.322201 0.122200
0.743142 0.327111 0.124394
0.759933 0.337788 0.127498
0.773558 0.351147 0.130766
0.784355 0.351595 0.133191
0.790283 0.350338 0.137106
0.794202 0.349656 0.141723
0.797872 0.336031 0.145840
0.799814 0.326106 0.152124
0.801672 0.304871 0.161065
0.802602 0.282954 0.193854
0.804106 0.279367 0.474333
0.803887 0.304459 0.513580
0.802856 0.346144 0.611267
0.083742 0.464745 0.101495
0.083777 0.462831 0.101587
0.084078 0.457140 0.102009
0.085352 0.450856 0.102892
0.087155 0.437606 0.103642
0.089896 0.417083 0.104263
0.094479 0.394803 0.104783
0.102091 0.371991 0.105199
0.113542 0.349752 0.105560
0.130864 0.326141 0.106017
0.160858 0.310055 0.106577
0.197705 0.292655 0.107027
0.264939 0.279611 0.107561
0.357866 0.287293 0.109213
0.446390 0.310138 0.112416
0.515899 0.314571 0.114091
0.576195 0.318168 0.115658
0.621861 0.327976 0.117737
0.664918 0.350156 0.120766
0.700263 0.354622 0.122665
0.723702 0.360853 0.124851
0.743341 0.370816 0.127924
0.760603 0.377620 0.131014
0.774500 0.379012 0.133423
0.783555 0.382894 0.137270
0.788930 0.387831 0.141726
0.793646 0.377040 0.145503
0.796293 0.366615 0.150820
0.798621 0.344345 0.157930
0.799896 0.317263 0.175451
0.801581 0.274401 0.399702
0.801766 0.301268 0.516341
0.800532 0.298782 0.516152
0.086729 0.504016 0.103487
0.086759 0.502368 0.103576
0.086985 0.497263 0.103923
0.087948 0.491309 0.104671
0.089427 0.480835 0.105387
0.092134 0.467844 0.106096
0.096676 0.452617 0.106745
0.103288 0.432708 0.107178
0.113237 0.410395 0.107573
0.127872 0.390049 0.107956
0.152547 0.372354 0.108395
0.183387 0.358178 0.108947
0.230360 0.333153 0.109023
0.303073 0.328999 0.110342
0.402545 0.351526 0.113382
0.464599 0.353503 0.114895
0.527908 0.355860 0.116400
0.587862 0.364534 0.118391
0.632786 0.380308 0.121398
0.668935 0.383046 0.123239
0.703222 0.390027 0.125513
0.726117 0.398026 0.128419
0.745526 0.407514 0.131466
0.761682 0.411047 0.133972
0.774443 0.412406 0.137591
0.783009 0.415445 0.141815
0.789138 0.411546 0.145439
0.792293 0.409046 0.150358
0.795132 0.395341 0.156831
0.796927 0.368954 0.166739
0.798761 0.291384 0.281101
0.799516 0.294893 0.510660
0.798427 0.293807 0.513653
0.089055 0.532329 0.104885
0.089087 0.531337 0.104963
0.089299 0.528170 0.105265
0.090133 0.524011 0.105897
0.091662 0.516026 0.106664
0.094047 0.504923 0.107408
0.098112 0.490759 0.108026
0.104004 0.475015 0.108568
0.112699 0.458751 0.109014
0.125007 0.442361 0.109547
0.144973 0.422964 0.110102
0.173161 0.405945 0.110671
0.211177 0.392232 0.111412
0.276365 0.383172 0.112337
0.358376 0.388965 0.114484
0.420661 0.388885 0.115865
0.482137 0.389635 0.117214
0.545864 0.397414 0.119146
0.602045 0.412333 0.122357
0.639008 0.414009 0.123990
0.674689 0.419509 0.126182
0.707456 0.428383 0.129074
0.729254 0.439039 0.132083
0.748584 0.440188 0.134552
0.763142 0.444765 0.138133
0.774125 0.449926 0.142307
0.783695 0.445219 0.145578
0.788373 0.441122 0.149973
0.791682 0.432554 0.155972
0.793761 0.420712 0.164526
0.795306 0.405321 0.187217
0.797195 0.288557 0.504581
0.796249 0.289174 0.511954
0.092503 0.560574 0.106667
0.092533 0.559721 0.106738
0.092712 0.556938 0.107008
0.093353 0.552997 0.107561
0.095095 0.548814 0.108392
0.097657 0.541503 0.109158
0.101324 0.532578 0.110039
0.107010 0.522052 0.110867
0.115079 0.506477 0.111569
0.126173 0.490408 0.112125
0.144065 0.475099 0.112639
0.169399 0.461193 0.113235
0.199647 0.448812 0.113805
0.254721 0.436958 0.114531
0.333647 0.440603 0.116490
0.390217 0.428258 0.117033
0.442527 0.425655 0.118157
0.506404 0.431868 0.120064
0.570182 0.445562 0.123296
0.610564 0.446532 0.124960
0.647072 0.449880 0.127130
0.682939 0.456389 0.129859
0.712659 0.463266 0.132727
0.733714 0.465618 0.135385
0.750786 0.469886 0.138846
0.764572 0.473220 0.142752
0.776355 0.472346 0.145955
0.783000 0.472983 0.150175
0.788026 0.465371 0.155492
0.790683 0.454790 0.162458
0.792587 0.439089 0.176543
0.793799 0.427567 0.270008
0.794781 0.441719 0.509974
0.097778 0.595646 0.108955
0.097823 0.594912 0.109046
0.098056 0.592475 0.109389
0.098805 0.588835 0.110078
0.100858 0.585550 0.111259
0.103087 0.578661 0.112189
0.107078 0.571152 0.113206
0.112748 0.561917 0.114044
0.120767 0.551687 0.114827
0.132110 0.540875 0.115475
0.150777 0.530073 0.116100
0.174606 0.517988 0.116617
0.203819 0.504403 0.117215
0.253994 0.492497 0.117801
0.309324 0.482415 0.118511
0.364144 0.471047 0.118901
0.412949 0.461480 0.119376
0.469945 0.463089 0.121305
0.534353 0.472902 0.124377
0.584388 0.472924 0.126051
0.620964 0.475715 0.128174
0.657431 0.481755 0.130821
0.692733 0.487975 0.133666
0.717961 0.490919 0.136385
0.737840 0.494101 0.139636
0.753538 0.499591 0.143487
0.767619 0.499160 0.146517
0.776937 0.497984 0.150473
0.783509 0.495526 0.155509
0.787321 0.491485 0.161723
0.789729 0.476526 0.171479
0.791147 0.457315 0.209309
0.792508 0.445508 0.496021
0.101338 0.617444 0.110511
0.101379 0.616802 0.110595
0.101581 0.614644 0.110905
0.102231 0.611289 0.111521
0.104050 0.607836 0.112554
0.106442 0.602478 0.113585
0.110481 0.596402 0.114739
0.115386 0.587605 0.115533
0.122688 0.578277 0.116337
0.133214 0.568462 0.117128
0.149871 0.558051 0.117710
0.170818 0.547847 0.118291
0.194554 0.538284 0.118873
0.239079 0.529365 0.119460
0.289223 0.520741 0.120245
0.347868 0.511239 0.121177
0.396869 0.500110 0.121656
0.441236 0.495479 0.122966
0.501885 0.501544 0.125729
0.551561 0.500933 0.127355
0.596302 0.502579 0.129279
0.633484 0.507985 0.131854
0.669048 0.513810 0.134942
0.702177 0.515987 0.137491
0.723772 0.519758 0.140634
0.741900 0.524833 0.144348
0.758373 0.524666 0.147179
0.769182 0.525956 0.151196
0.778109 0.524305 0.155832
0.783405 0.518816 0.161205
0.786855 0.511634 0.169335
0.788454 0.504379 0.192112
0.790042 0.471252 0.431791
0.105088 0.638134 0.111874
0.105131 0.637569 0.111950
0.105335 0.635652 0.112232
0.105917 0.632579 0.112786
0.107367 0.629133 0.113701
0.109920 0.625086 0.114826
0.113240 0.618699 0.115809
0.118016 0.611434 0.116772
0.124871 0.603173 0.117649
0.134576 0.594006 0.118435
0.149714 0.584377 0.119153
0.168573 0.574599 0.119860
0.188156 0.565116 0.120613
0.226966 0.556240 0.121415
0.275532 0.548034 0.122198
0.325942 0.540830 0.123010
0.376705 0.534673 0.123941
0.421540 0.530661 0.125230
0.476170 0.531407 0.127695
0.522645 0.527510 0.128653
0.571134 0.528339 0.130531
0.610632 0.531533 0.132976
0.646622 0.535373 0.136368
0.680017 0.536505 0.138755
0.709251 0.539283 0.141797
0.729716 0.542644 0.145313
0.748062 0.543631 0.148057
0.761222 0.544452 0.151968
0.771822 0.544061 0.156374
0.778645 0.542948 0.161380
0.783243 0.537626 0.167922
0.785952 0.530409 0.183669
0.787352 0.528922 0.290846
0.109616 0.655856 0.113551
0.109666 0.655549 0.113622
0.109892 0.654497 0.113883
0.110497 0.652769 0.114390
0.111927 0.650709 0.115216
0.114987 0.648896 0.116438
0.117572 0.644103 0.117300
0.122782 0.638114 0.118409
0.129290 0.630448 0.119317
0.138949 0.621865 0.120313
0.152983 0.612924 0.121358
0.170740 0.603667 0.122271
0.188565 0.594533 0.123158
0.223754 0.585572 0.123879
0.267975 0.577334 0.124731
0.312894 0.569763 0.125649
0.362606 0.563028 0.126599
0.408426 0.557341 0.127693
0.457767 0.557368 0.130093
0.499207 0.551274 0.130652
0.543008 0.548032 0.131788
0.590005 0.550833 0.134525
0.625782 0.554225 0.137898
0.658759 0.555006 0.140149
0.691701 0.557701 0.143092
0.716863 0.560808 0.146453
0.737255 0.561983 0.149092
0.752621 0.563105 0.152960
0.764879 0.564317 0.157229
0.773595 0.562100 0.161705
0.779343 0.559649 0.167578
0.782488 0.556945 0.180164
0.784623 0.549518 0.228308
0.115693 0.671200 0.115610
0.115746 0.670956 0.115676
0.115974 0.670114 0.115921
0.116547 0.668706 0.116392
0.117871 0.666956 0.117152
0.120821 0.665311 0.118287
0.123859 0.662390 0.119254
0.129009 0.659016 0.120644
0.135611 0.654677 0.121913
0.146584 0.650023 0.123176
0.160017 0.643897 0.124250
0.177463 0.635192 0.125413
0.194683 0.626254 0.126447
0.228361 0.617549 0.127429
0.269342 0.609149 0.128329
0.311987 0.601496 0.129364
0.358683 0.594515 0.130323
0.402903 0.588158 0.131268
0.440358 0.582908 0.132397
0.480422 0.576401 0.132863
0.523360 0.571954 0.134009
0.566607 0.570284 0.136206
0.605910 0.573247 0.139465
0.638999 0.573777 0.141625
0.671807 0.575901 0.144427
0.703767 0.578957 0.147701
0.725917 0.579960 0.150410
0.743258 0.581838 0.154165
0.758005 0.582466 0.158071
0.768041 0.582141 0.162361
0.775169 0.580841 0.167842
0.779279 0.576820 0.178002
0.781618 0.574462 0.206552
0.119949 0.681898 0.116326
0.120003 0.681680 0.116390
0.120229 0.680922 0.116623
0.120779 0.679634 0.117070
0.121967 0.677971 0.117785
0.124396 0.676259 0.118840
0.127945 0.673980 0.120100
0.132113 0.670751 0.121427
0.139634 0.667351 0.122882
0.149637 0.663395 0.124223
0.161134 0.658627 0.125419
0.176862 0.653554 0.126682
0.191813 0.648321 0.127855
0.222650 0.641158 0.128920
0.260068 0.633060 0.129939
0.297991 0.625276 0.130878
0.346584 0.618221 0.131899
0.388411 0.611862 0.132902
0.422573 0.606053 0.134104
0.464746 0.601260 0.135623
0.505244 0.596182 0.136775
0.547343 0.594013 0.138899
0.588571 0.592760 0.141211
0.620461 0.592651 0.143138
0.653167 0.594407 0.145850
0.685917 0.597012 0.149030
0.713977 0.598015 0.151838
0.733343 0.600020 0.155461
0.750408 0.601009 0.159129
0.762218 0.601473 0.163157
0.770821 0.600330 0.168239
0.775842 0.599039 0.177410
0.778821 0.595967 0.197039
0.124509 0.692522 0.117070
0.124560 0.692329 0.117132
0.124772 0.691656 0.117357
0.125272 0.690497 0.117786
0.126442 0.688960 0.118466
0.128780 0.687280 0.119460
0.132741 0.685540 0.121132
0.136808 0.682416 0.122352
0.145020 0.679566 0.124014
0.152813 0.675618 0.125273
0.164244 0.671652 0.126786
0.179621 0.667366 0.128186
0.192847 0.662763 0.129419
0.220874 0.657843 0.130514
0.255219 0.652978 0.131625
0.291277 0.648263 0.132659
0.336264 0.642266 0.133786
0.374261 0.635721 0.135156
0.412056 0.629923 0.136571
0.448556 0.624637 0.137908
0.488801 0.620253 0.139415
0.530715 0.617218 0.141462
0.572386 0.615640 0.143716
0.603868 0.612425 0.144902
0.635749 0.612848 0.147284
0.668339 0.615174 0.150715
0.701733 0.616093 0.153355
0.723037 0.617747 0.156776
0.742126 0.619323 0.160322
0.756250 0.619679 0.163977
0.766292 0.619990 0.169045
0.772362 0.618569 0.177138
0.775976 0.617235 0.192493
0.129873 0.703132 0.117981
0.129933 0.702965 0.118041
0.130173 0.702380 0.118260
0.130716 0.701362 0.118675
0.131803 0.699986 0.119329
0.133935 0.698420 0.120537
0.138968 0.696950 0.122304
0.143218 0.694244 0.123589
0.149960 0.691409 0.125195
0.158241 0.688107 0.126839
0.169650 0.684515 0.128470
0.182720 0.680456 0.129845
0.195957 0.676284 0.131224
0.222911 0.671958 0.132481
0.254763 0.667602 0.133745
0.289032 0.663417 0.135321
0.329550 0.659199 0.136731
0.366269 0.655119 0.138133
0.404794 0.651338 0.139524
0.437637 0.648036 0.140987
0.475599 0.644281 0.142385
0.515952 0.640257 0.143879
0.555113 0.637977 0.146079
0.590852 0.634638 0.147162
0.620222 0.632491 0.149032
0.651560 0.633160 0.152378
0.684936 0.634138 0.154908
0.712338 0.635575 0.158202
0.733332 0.637201 0.161581
0.749761 0.637896 0.164971
0.761743 0.638457 0.169933
0.768930 0.637961 0.177363
0.773105 0.637857 0.190203
0.135751 0.713571 0.118641
0.135829 0.713424 0.118700
0.136131 0.712906 0.118916
0.136801 0.711997 0.119324
0.138098 0.710746 0.120118
0.140505 0.709272 0.121348
0.144917 0.707778 0.123055
0.149825 0.705631 0.124616
0.155488 0.702878 0.126283
0.164327 0.700088 0.128252
0.173989 0.696553 0.129735
0.183381 0.692951 0.131345
0.201464 0.689154 0.132919
0.225500 0.685053 0.134564
0.254984 0.680937 0.136194
0.287511 0.676910 0.137813
0.324664 0.673035 0.139419
0.361122 0.669335 0.140923
0.399356 0.665872 0.142370
0.428121 0.662671 0.143810
0.465347 0.659772 0.145286
0.502356 0.657111 0.146760
0.539732 0.654848 0.148256
0.577574 0.652646 0.149387
0.607018 0.651065 0.151565
0.636985 0.650228 0.154427
0.668649 0.649853 0.156386
0.701015 0.650611 0.159572
0.724202 0.651586 0.162861
0.742762 0.652227 0.166078
0.757035 0.652620 0.170861
0.765505 0.652875 0.177926
0.770474 0.652672 0.188793
0.141816 0.723404 0.118417
0.141886 0.723269 0.118476
0.142160 0.722789 0.118692
0.142757 0.721939 0.119099
0.143901 0.720746 0.119815
0.145992 0.719292 0.121033
0.149766 0.717719 0.122715
0.155160 0.715894 0.124600
0.159860 0.713207 0.126194
0.168293 0.710555 0.128289
0.177363 0.707303 0.129928
0.184117 0.703947 0.131736
0.201640 0.700254 0.133237
0.225333 0.696511 0.135321
0.253885 0.692659 0.137239
0.284671 0.688780 0.138874
0.316616 0.685036 0.140559
0.353733 0.681443 0.142147
0.389620 0.678067 0.143703
0.418239 0.674928 0.145178
0.452739 0.672077 0.146665
0.487670 0.669573 0.148121
0.525002 0.667422 0.149832
0.561502 0.665599 0.151725
0.594874 0.663879 0.153880
0.624086 0.662838 0.156701
0.654435 0.661927 0.158275
0.685565 0.661411 0.160860
0.714441 0.662250 0.163969
0.735273 0.662939 0.167245
0.752028 0.663453 0.171942
0.762164 0.663663 0.178243
0.767974 0.663988 0.188152
0.147453 0.731867 0.118273
0.147523 0.731748 0.118333
0.147790 0.731326 0.118548
0.148363 0.730574 0.118953
0.149431 0.729506 0.119615
0.151333 0.728176 0.120820
0.154682 0.726684 0.122476
0.160637 0.725184 0.124713
0.164702 0.722688 0.126270
0.172119 0.720122 0.128272
0.181967 0.717320 0.130319
0.186957 0.714081 0.132026
0.205118 0.710733 0.134007
0.227441 0.707238 0.136294
0.252236 0.703613 0.138228
0.282908 0.699991 0.140139
0.312293 0.696413 0.141966
0.349407 0.692930 0.143713
0.381591 0.689637 0.145319
0.411623 0.686568 0.146910
0.441848 0.683745 0.148418
0.475910 0.681212 0.150167
0.511678 0.678950 0.151980
0.546464 0.677080 0.153930
0.583730 0.675493 0.155890
0.611467 0.674167 0.158702
0.641588 0.673359 0.160187
0.671796 0.672331 0.162521
0.704386 0.671998 0.165009
0.727181 0.672619 0.168275
0.746671 0.673295 0.173016
0.758832 0.673626 0.178683
0.765600 0.674021 0.187727
0.152818 0.739687 0.117921
0.152887 0.739583 0.117981
0.153151 0.739214 0.118199
0.153706 0.738551 0.118608
0.154716 0.737601 0.119246
0.156474 0.736396 0.120376
0.159501 0.735002 0.122038
0.164774 0.733525 0.124272
0.170122 0.731464 0.126239
0.176495 0.729047 0.128185
0.183371 0.726604 0.130677
0.191473 0.723561 0.132318
0.210255 0.720492 0.134814
0.228896 0.717177 0.136981
0.254111 0.713831 0.139330
0.282827 0.710425 0.141392
0.308708 0.707055 0.143317
0.345237 0.703739 0.145183
0.374586 0.700538 0.146941
0.405989 0.697542 0.148626
0.432930 0.694765 0.150587
0.466219 0.692245 0.152534
0.499599 0.689975 0.154422
0.533706 0.687966 0.156285
0.569097 0.686343 0.158315
0.599719 0.684972 0.160342
0.629345 0.684313 0.161742
0.658825 0.683118 0.164088
0.692226 0.682598 0.166356
0.718626 0.682126 0.169313
0.740675 0.682688 0.173727
0.755412 0.683194 0.179049
0.763527 0.683664 0.187444
0.158768 0.749818 0.115716
0.158824 0.749717 0.115781
0.159036 0.749358 0.116016
0.159484 0.748707 0.116460
0.160310 0.747754 0.117153
0.161766 0.746511 0.118149
0.164313 0.745005 0.119525
0.169189 0.743294 0.121988
0.175337 0.741287 0.124417
0.180649 0.738874 0.126369
0.183481 0.736322 0.128915
0.195681 0.733504 0.131148
0.211105 0.730465 0.133198
0.230547 0.727303 0.135921
0.253469 0.724032 0.138454
0.279917 0.720771 0.140705
0.304782 0.717526 0.142951
0.340853 0.714335 0.144979
0.366706 0.711248 0.146849
0.399560 0.708324 0.148645
0.423226 0.705609 0.150728
0.455514 0.703122 0.152786
0.487276 0.700889 0.154785
0.521640 0.698920 0.156739
0.554716 0.697236 0.158681
