LUTs/negative-gold-200/Gold200_Modern_Normal.cube
TITLE "Kodak Gold 200 Modern Normal"
# Adobe RGB in/out. REPLACES AgX. Kodak Gold 200 Modern Normal.
LUT_3D_SIZE 33
DOMAIN_MIN 0.0 0.0 0.0
DOMAIN_MAX 1.0 1.0 1.0
0.075187 0.075821 0.088847
0.079513 0.078110 0.089545
0.081536 0.078759 0.089657
0.097435 0.081267 0.090125
0.188460 0.085242 0.090584
0.255863 0.087543 0.090941
0.397942 0.093339 0.091545
0.545794 0.099775 0.092520
0.612640 0.103035 0.093080
0.686989 0.109342 0.093889
0.754526 0.119808 0.095609
0.790590 0.127322 0.096858
0.816520 0.133298 0.097866
0.839692 0.141898 0.099688
0.860171 0.156795 0.102614
0.871338 0.165030 0.104275
0.878899 0.172416 0.106695
0.885450 0.181559 0.109969
0.891001 0.193734 0.114006
0.895617 0.198439 0.116833
0.899013 0.203235 0.120404
0.901434 0.208961 0.124766
0.903595 0.212780 0.129632
0.905602 0.210417 0.135312
0.906451 0.208686 0.143089
0.906933 0.204978 0.154192
0.908173 0.187289 0.171844
0.907848 0.188892 0.241882
0.910158 0.223240 0.560504
0.907954 0.220244 0.554875
0.905543 0.217328 0.549341
0.903142 0.214459 0.543870
0.903572 0.369288 0.670015
0.075794 0.081656 0.089314
0.076951 0.080522 0.089387
0.081695 0.079189 0.089475
0.099620 0.081738 0.090084
0.179730 0.085985 0.090598
0.241243 0.088129 0.090949
0.375437 0.093948 0.091547
0.525333 0.100382 0.092524
0.594624 0.103643 0.093083
0.676602 0.109926 0.093888
0.747583 0.120551 0.095602
0.784894 0.127987 0.096848
0.812863 0.133991 0.097858
0.836752 0.142549 0.099674
0.858116 0.157644 0.102600
0.870195 0.165836 0.104262
0.877975 0.173184 0.106674
0.884702 0.182371 0.109947
0.890392 0.194544 0.113982
0.895113 0.199224 0.116798
0.898592 0.204000 0.120365
0.901080 0.209716 0.124721
0.903294 0.213530 0.129550
0.905344 0.211156 0.135205
0.906228 0.209406 0.142932
0.906738 0.205667 0.153904
0.908000 0.187845 0.171038
0.907690 0.188789 0.238933
0.910075 0.223080 0.560201
0.907834 0.220099 0.554600
0.905433 0.217197 0.549091
0.903042 0.214339 0.543642
0.903479 0.369088 0.669756
0.076023 0.083334 0.089420
0.076342 0.082968 0.089597
0.077562 0.081691 0.089535
0.084706 0.083684 0.090001
0.117181 0.088300 0.090574
0.182771 0.090280 0.090922
0.308008 0.096393 0.091555
0.457951 0.103202 0.092591
0.538025 0.106638 0.093119
0.632296 0.112356 0.093913
0.720392 0.123559 0.095595
0.764261 0.130618 0.096828
0.797858 0.136690 0.097839
0.825977 0.145854 0.099640
0.850586 0.160882 0.102563
0.865887 0.168881 0.104225
0.874603 0.176065 0.106608
0.881980 0.185406 0.109877
0.888184 0.197559 0.113903
0.893291 0.202134 0.116681
0.897074 0.206830 0.120233
0.899805 0.212503 0.124564
0.902213 0.216294 0.129268
0.904420 0.213879 0.134836
0.905430 0.212058 0.142392
0.906040 0.208211 0.152914
0.907381 0.189951 0.168317
0.907127 0.188663 0.229687
0.909776 0.222510 0.559119
0.907407 0.219581 0.553617
0.905042 0.216727 0.548197
0.902683 0.213914 0.542828
0.903148 0.368370 0.668830
0.076929 0.093145 0.089789
0.077107 0.092903 0.089979
0.078329 0.091180 0.090123
0.080496 0.088549 0.090146
0.091368 0.093390 0.090608
0.114776 0.094594 0.090935
0.195828 0.100001 0.091544
0.337470 0.108605 0.092603
0.436302 0.111638 0.093162
0.546011 0.117625 0.093990
0.665969 0.130271 0.095640
0.724728 0.137281 0.096852
0.765656 0.142592 0.097847
0.805077 0.152926 0.099632
0.834908 0.167655 0.102536
0.854180 0.175140 0.104189
0.868128 0.182046 0.106532
0.876798 0.191499 0.109785
0.884016 0.203555 0.113790
0.889872 0.207876 0.116505
0.894245 0.212385 0.120025
0.897443 0.217945 0.124312
0.900219 0.221675 0.128896
0.902721 0.219174 0.134224
0.903967 0.217217 0.141489
0.904764 0.213187 0.151268
0.906252 0.194272 0.163960
0.906107 0.189422 0.214729
0.908927 0.221478 0.557160
0.906630 0.218642 0.551834
0.904331 0.215875 0.546574
0.902029 0.213143 0.541348
0.902545 0.367064 0.667146
0.078772 0.116378 0.090444
0.078967 0.115976 0.090567
0.079957 0.114436 0.090706
0.082724 0.109869 0.090862
0.087870 0.104523 0.091006
0.096250 0.100660 0.091065
0.130190 0.107079 0.091583
0.221514 0.116185 0.092638
0.316415 0.119076 0.093223
0.432496 0.125685 0.094084
0.572472 0.139125 0.095756
0.663054 0.146585 0.096958
0.718196 0.153619 0.097917
0.765025 0.164665 0.099725
0.807886 0.180083 0.102598
0.833732 0.186848 0.104213
0.853658 0.193168 0.106526
0.868462 0.201980 0.109736
0.877422 0.213718 0.113697
0.884533 0.217498 0.116332
0.889883 0.221606 0.119800
0.893841 0.226911 0.124015
0.897206 0.230661 0.128447
0.900171 0.227833 0.133461
0.901784 0.225655 0.140345
0.902868 0.221383 0.149191
0.904582 0.201801 0.159401
0.904613 0.192841 0.197014
0.907685 0.219979 0.554303
0.905492 0.217272 0.549228
0.903286 0.214630 0.544199
0.901070 0.212045 0.539179
0.901657 0.365148 0.664676
0.080219 0.142478 0.090921
0.080351 0.141629 0.091019
0.081402 0.140029 0.091150
0.083376 0.133000 0.091349
0.086570 0.123363 0.091345
0.092229 0.115660 0.091447
0.109620 0.118567 0.091849
0.160581 0.129635 0.092892
0.222824 0.130240 0.093331
0.321902 0.136436 0.094195
0.458415 0.152144 0.095837
0.563351 0.160513 0.097087
0.653253 0.167065 0.098066
0.716887 0.177150 0.099934
0.769860 0.192930 0.102702
0.806338 0.200699 0.104287
0.830743 0.208264 0.106632
0.850994 0.218828 0.109826
0.867457 0.230250 0.113713
0.876635 0.233100 0.116269
0.883582 0.237014 0.119652
0.888746 0.242843 0.123766
0.893014 0.246842 0.128058
0.896671 0.243219 0.132706
0.898821 0.240118 0.139162
0.900316 0.234540 0.147076
0.902346 0.214060 0.155071
0.902640 0.201315 0.180417
0.906056 0.218036 0.550583
0.903997 0.215484 0.545820
0.901912 0.213001 0.541086
0.902208 0.328161 0.536330
0.900486 0.362631 0.661427
0.083378 0.201813 0.091676
0.083663 0.202345 0.091821
0.084654 0.199060 0.092132
0.086236 0.187143 0.092297
0.089475 0.170011 0.092376
0.094722 0.154631 0.092414
0.105761 0.143437 0.092574
0.131851 0.149154 0.093265
0.172674 0.146870 0.093605
0.242809 0.153139 0.094494
0.358912 0.170392 0.096119
0.461052 0.177759 0.097321
0.554785 0.182444 0.098194
0.651898 0.192817 0.100130
0.722657 0.209747 0.102909
0.765214 0.218188 0.104497
0.802862 0.223367 0.106837
0.829932 0.232683 0.109909
0.851365 0.248659 0.113749
0.866604 0.254589 0.116307
0.874891 0.261792 0.119671
0.881562 0.269138 0.123696
0.887279 0.272311 0.127848
0.891996 0.267986 0.132181
0.894950 0.264133 0.138210
0.897030 0.258068 0.145455
0.899498 0.233878 0.151809
0.900170 0.217786 0.167896
0.904065 0.215715 0.546082
0.902165 0.213312 0.541667
0.900223 0.211014 0.537280
0.900647 0.325202 0.532834
0.899041 0.359546 0.657436
0.087398 0.280344 0.092834
0.087688 0.280933 0.092965
0.088955 0.281463 0.093379
0.090360 0.263506 0.093593
0.092844 0.240521 0.093693
0.099762 0.219491 0.093876
0.109415 0.202267 0.093982
0.124744 0.189321 0.094240
0.146194 0.172263 0.094122
0.195317 0.175170 0.094917
0.286528 0.192929 0.096547
0.374234 0.198734 0.097626
0.461862 0.202267 0.098452
0.561153 0.211972 0.100502
0.663817 0.228472 0.103170
0.719626 0.235868 0.104702
0.762731 0.243109 0.107147
0.800546 0.255937 0.110211
0.828838 0.272406 0.113957
0.850290 0.275941 0.116445
0.865732 0.281428 0.119691
0.874060 0.289950 0.123642
0.880661 0.297805 0.127750
0.886151 0.298884 0.131983
0.889823 0.301105 0.137821
0.892806 0.294469 0.144575
0.895886 0.272113 0.150504
0.897126 0.250239 0.161323
0.901751 0.213230 0.540987
0.900026 0.210815 0.536860
0.898247 0.208713 0.532850
0.898813 0.321698 0.528750
0.897342 0.355944 0.652763
0.089620 0.324857 0.093431
0.089833 0.325233 0.093526
0.090504 0.321837 0.093807
0.091641 0.308246 0.094209
0.094276 0.288435 0.094482
0.099500 0.265393 0.094643
0.107438 0.243297 0.094837
0.118542 0.225430 0.094980
0.138322 0.213285 0.095218
0.170058 0.205107 0.095523
0.236661 0.219976 0.097095
0.309032 0.223756 0.098037
0.386408 0.225589 0.099084
0.478500 0.234233 0.100975
0.583458 0.253852 0.103569
0.664053 0.260838 0.105263
0.717966 0.267668 0.107599
0.763034 0.279714 0.110566
0.802873 0.296336 0.114238
0.828283 0.302175 0.116801
0.848198 0.310505 0.120032
0.863970 0.316786 0.123817
0.873280 0.322561 0.127766
0.880206 0.322130 0.131763
0.884897 0.323125 0.137308
0.888301 0.324045 0.143918
0.891696 0.315186 0.150381
0.893348 0.307151 0.160470
0.899287 0.217207 0.537011
0.897625 0.208285 0.531651
0.896017 0.206191 0.527919
0.896738 0.317492 0.524167
0.895413 0.351892 0.647490
0.092561 0.383956 0.094528
0.092628 0.382157 0.094604
0.093120 0.374738 0.094839
0.094907 0.364652 0.095222
0.097745 0.348900 0.095529
0.102337 0.329855 0.095743
0.108860 0.307585 0.095963
0.118536 0.285292 0.096182
0.134941 0.266308 0.096424
0.160437 0.251465 0.096738
0.209263 0.260179 0.097924
0.263009 0.256652 0.098642
0.326919 0.256160 0.099806
0.409764 0.264449 0.101592
0.511680 0.283997 0.104077
0.590251 0.289635 0.105978
0.666254 0.295101 0.108213
0.722260 0.306212 0.111071
0.767663 0.323765 0.114700
0.802930 0.328650 0.117335
0.828652 0.333197 0.120351
0.848464 0.341818 0.124111
0.863034 0.350827 0.128037
0.872668 0.351127 0.131975
0.878912 0.350284 0.137176
0.883391 0.349827 0.143371
0.887586 0.340625 0.149138
0.889807 0.332267 0.157872
0.891931 0.313754 0.170145
0.892995 0.295100 0.209359
0.894715 0.292023 0.477241
0.894464 0.313405 0.521842
0.893286 0.347467 0.641711
0.099556 0.465415 0.096259
0.099602 0.463404 0.096319
0.100001 0.456741 0.096559
0.101871 0.448674 0.097056
0.104626 0.433603 0.097479
0.108571 0.413828 0.097827
0.115314 0.392328 0.098118
0.124876 0.370280 0.098351
0.141940 0.349891 0.098646
0.166327 0.332299 0.099112
0.197988 0.318130 0.099685
0.236631 0.303387 0.100146
0.284998 0.292232 0.100693
0.355088 0.298813 0.102314
0.446014 0.318199 0.104739
0.526079 0.321639 0.106913
0.599614 0.324911 0.108958
0.674469 0.333997 0.111688
0.732247 0.350162 0.115376
0.770134 0.353468 0.117973
0.804980 0.359501 0.120947
0.828893 0.369143 0.124621
0.849180 0.375724 0.128347
0.864041 0.377070 0.132282
0.872000 0.380823 0.137394
0.877366 0.385594 0.143376
0.882756 0.375164 0.148622
0.885782 0.365079 0.156229
0.888443 0.346254 0.165504
0.889900 0.324071 0.188633
0.891827 0.287751 0.400647
0.892039 0.310703 0.524722
0.890628 0.308596 0.524515
0.103974 0.506760 0.097392
0.104021 0.505021 0.097442
0.104366 0.499639 0.097636
0.105844 0.493364 0.098055
0.107970 0.482335 0.098468
0.111873 0.468672 0.099193
0.117916 0.450932 0.099857
0.126722 0.428886 0.100301
0.141483 0.407377 0.100705
0.162319 0.387737 0.101097
0.189558 0.370631 0.101548
0.223391 0.356912 0.102113
0.260506 0.338666 0.102172
0.314586 0.334943 0.103153
0.396551 0.351080 0.105991
0.465695 0.352403 0.107961
0.540368 0.354667 0.109931
0.617846 0.363065 0.112552
0.688709 0.378323 0.116239
0.736556 0.380970 0.118761
0.773705 0.387715 0.121737
0.808027 0.395440 0.125214
0.831544 0.404599 0.128978
0.850335 0.408007 0.133008
0.863980 0.409317 0.137823
0.871544 0.412249 0.143495
0.877603 0.408488 0.148525
0.881210 0.406077 0.155648
0.884454 0.392848 0.163888
0.886507 0.367342 0.178638
0.888603 0.302304 0.293923
0.889467 0.305292 0.519070
0.888222 0.304368 0.521911
0.107494 0.540646 0.098175
0.107535 0.539140 0.098219
0.107807 0.534341 0.098388
0.108874 0.528061 0.098990
0.111143 0.519436 0.099775
0.114740 0.507717 0.100536
0.119525 0.492785 0.101170
0.127830 0.476211 0.101725
0.140679 0.458815 0.102166
0.158430 0.438181 0.102562
0.181803 0.419497 0.102975
0.209712 0.403084 0.103398
0.246607 0.389845 0.103947
0.292836 0.381091 0.104636
0.355593 0.386689 0.107425
0.419045 0.386612 0.109229
0.486494 0.387337 0.111000
0.562284 0.394850 0.113550
0.645024 0.409247 0.117551
0.697133 0.410863 0.119795
0.742726 0.416166 0.122535
0.780143 0.424720 0.126002
0.811824 0.434983 0.130004
0.835253 0.436089 0.133778
0.851897 0.440883 0.138548
0.863640 0.447480 0.144160
0.872117 0.441462 0.148736
0.876729 0.436988 0.155163
0.880511 0.428737 0.162739
0.882887 0.417327 0.175311
0.884653 0.402482 0.201874
0.886813 0.299892 0.513293
0.885732 0.300419 0.520298
0.112446 0.584109 0.099777
0.112493 0.582781 0.099851
0.112770 0.578453 0.100127
0.113767 0.572342 0.100693
0.116134 0.565878 0.101544
0.119016 0.554642 0.102273
0.123565 0.541025 0.102928
0.132501 0.525801 0.103543
0.144243 0.509356 0.104064
0.160045 0.492414 0.104476
0.180869 0.476300 0.105027
0.206230 0.461684 0.105800
0.238084 0.446054 0.106541
0.277887 0.432979 0.107486
0.334062 0.436489 0.110048
0.383000 0.424599 0.110762
0.442074 0.422091 0.112243
0.515498 0.428077 0.114580
0.592182 0.441900 0.118839
0.659691 0.443139 0.121077
0.708082 0.447421 0.123670
0.751570 0.455775 0.126945
0.788074 0.463862 0.131154
0.817226 0.466333 0.134884
0.837926 0.470818 0.139503
0.853426 0.474324 0.144761
0.866023 0.473405 0.149313
0.871537 0.474074 0.155417
0.876333 0.466074 0.162130
0.879369 0.453721 0.172220
0.881545 0.435031 0.189860
0.882931 0.423933 0.284133
0.884053 0.437564 0.518418
0.119151 0.631358 0.102121
0.119201 0.630468 0.102189
0.119462 0.627519 0.102444
0.120301 0.623118 0.102957
0.122747 0.619150 0.103834
0.126411 0.610836 0.104524
0.132607 0.600672 0.105763
0.140753 0.586204 0.106851
0.152316 0.570314 0.107872
0.167998 0.553680 0.108719
0.187752 0.537224 0.109537
0.211044 0.521508 0.110215
0.241189 0.507168 0.111001
0.277377 0.494615 0.111773
0.318645 0.483998 0.112710
0.361301 0.472039 0.113226
0.409499 0.461986 0.113854
0.472021 0.463676 0.116112
0.548219 0.473990 0.120328
0.611269 0.474013 0.122380
0.673330 0.476948 0.124921
0.722194 0.483304 0.128103
0.762066 0.489851 0.132603
0.796179 0.492953 0.136214
0.822224 0.496306 0.140562
0.841267 0.502092 0.145757
0.856684 0.501638 0.150173
0.866533 0.500398 0.155792
0.871961 0.497807 0.162152
0.875527 0.493549 0.171124
0.878279 0.477801 0.184172
0.879900 0.456967 0.226835
0.881455 0.441832 0.503601
0.123589 0.657815 0.103279
0.123661 0.657034 0.103341
0.124016 0.654408 0.103572
0.125091 0.650331 0.104028
0.127902 0.646136 0.104917
0.131615 0.639635 0.106255
0.137643 0.632273 0.107758
0.144703 0.621632 0.108795
0.154945 0.610374 0.109848
0.169479 0.596445 0.110887
0.186826 0.580183 0.111654
0.207545 0.564387 0.112419
0.234261 0.549718 0.113189
0.266798 0.536151 0.113965
0.303832 0.524416 0.114760
0.345192 0.514382 0.115936
0.388770 0.502640 0.116591
0.440757 0.497758 0.118386
0.510078 0.504152 0.121995
0.569267 0.503508 0.123939
0.633957 0.505244 0.126248
0.689652 0.510947 0.129597
0.736677 0.517095 0.134295
0.772183 0.519394 0.137689
0.805089 0.523378 0.141904
0.827146 0.529301 0.146924
0.846795 0.529049 0.151189
0.858355 0.530996 0.156703
0.867450 0.528504 0.162561
0.871875 0.522382 0.170353
0.874994 0.514799 0.181766
0.876822 0.507142 0.207394
0.878637 0.472254 0.432257
0.129510 0.683051 0.104290
0.129577 0.682361 0.104346
0.129893 0.680017 0.104556
0.130799 0.676264 0.105218
0.133058 0.672058 0.106406
0.136895 0.667122 0.107870
0.141488 0.659342 0.109156
0.148558 0.650506 0.110419
0.158224 0.640478 0.111573
0.171038 0.629372 0.112610
0.186665 0.617733 0.113559
0.205463 0.605941 0.114376
0.229405 0.591203 0.115168
0.258033 0.577369 0.116261
0.292268 0.564677 0.117332
0.329246 0.553610 0.118447
0.371899 0.544211 0.119727
0.420140 0.538116 0.121399
0.479402 0.539247 0.124346
0.533971 0.533343 0.125496
0.593358 0.534597 0.127754
0.659782 0.539438 0.131598
0.707470 0.545277 0.136191
0.748438 0.547003 0.139381
0.782877 0.551245 0.143471
0.812385 0.556390 0.148332
0.834620 0.557905 0.152539
0.849843 0.559165 0.157676
0.861178 0.558564 0.163248
0.867898 0.556857 0.170613
0.871739 0.548713 0.180181
0.874000 0.537733 0.197877
0.875562 0.535480 0.302229
0.136491 0.707503 0.106211
0.136558 0.707120 0.106303
0.136858 0.705807 0.106642
0.137664 0.703652 0.107302
0.139568 0.701084 0.108380
0.144104 0.698131 0.109981
0.147951 0.690353 0.111113
0.155074 0.683027 0.112575
0.164219 0.673662 0.113777
0.175583 0.663197 0.114828
0.190002 0.652318 0.116184
0.207473 0.641077 0.117432
0.229717 0.630010 0.118649
0.255708 0.619176 0.119642
0.287092 0.609237 0.120804
0.320949 0.598489 0.121900
0.359779 0.587938 0.123035
0.403907 0.579078 0.124345
0.457630 0.579121 0.127227
0.506869 0.569676 0.127900
0.558789 0.564672 0.129479
0.621920 0.568995 0.133742
0.679447 0.574244 0.138233
0.724007 0.575453 0.141252
0.760961 0.579638 0.145222
0.794499 0.584475 0.150075
0.821515 0.586307 0.154056
0.840153 0.588059 0.158928
0.853754 0.589952 0.164473
0.863073 0.586490 0.171097
0.868482 0.582668 0.179795
0.871109 0.578463 0.193932
0.872891 0.566965 0.245737
0.145164 0.727583 0.108895
0.145245 0.727255 0.108982
0.145587 0.726121 0.109302
0.146448 0.724227 0.109920
0.148360 0.721872 0.110918
0.152390 0.719661 0.112414
0.156695 0.715738 0.113693
0.163841 0.711448 0.115210
0.172116 0.706033 0.116942
0.183458 0.700229 0.118674
0.197138 0.690101 0.120153
0.213672 0.679455 0.121618
0.234358 0.668546 0.122853
0.259051 0.657943 0.124028
0.288032 0.647731 0.125107
0.320364 0.638445 0.126349
0.355896 0.629988 0.127504
0.397044 0.622300 0.128701
0.439862 0.615959 0.130563
0.484455 0.608112 0.131396
0.534839 0.601933 0.133057
0.587772 0.599307 0.135976
0.652522 0.603971 0.140332
0.697120 0.604805 0.143239
0.739636 0.607510 0.147033
0.774533 0.611193 0.151991
0.807786 0.612403 0.155713
0.828793 0.614668 0.160450
0.846402 0.615426 0.165713
0.857136 0.615033 0.172075
0.864756 0.613465 0.180091
0.868429 0.608618 0.191500
0.870383 0.605776 0.223713
0.151197 0.742019 0.109834
0.151271 0.741724 0.109917
0.151580 0.740700 0.110223
0.152333 0.738960 0.110811
0.153959 0.736714 0.111752
0.157506 0.734404 0.113145
0.162417 0.731330 0.114616
0.168002 0.726978 0.116278
0.176293 0.722403 0.118271
0.186587 0.717087 0.120116
0.198267 0.710963 0.121625
0.213120 0.704631 0.123134
0.232188 0.697004 0.124539
0.254917 0.686749 0.125816
0.281621 0.676852 0.127042
0.311265 0.667354 0.128172
0.343922 0.658761 0.129676
0.381520 0.651026 0.131466
0.421426 0.643972 0.133184
0.465870 0.638158 0.135200
0.514106 0.632006 0.136733
0.564096 0.629380 0.139573
0.619193 0.627865 0.142681
0.672693 0.627732 0.145284
0.716378 0.629857 0.149153
0.754762 0.633011 0.153979
0.790087 0.634226 0.157511
0.816777 0.636655 0.162091
0.837467 0.637855 0.167275
0.850908 0.638417 0.173262
0.860108 0.637031 0.180537
0.865475 0.635466 0.190835
0.868045 0.631746 0.212956
0.157676 0.756409 0.110811
0.157754 0.756148 0.110892
0.158075 0.755235 0.111188
0.158830 0.753662 0.111753
0.160406 0.751579 0.112650
0.163535 0.749302 0.113966
0.168845 0.746946 0.115876
0.173361 0.742719 0.117543
0.181851 0.738868 0.119828
0.189829 0.733539 0.121451
0.201400 0.728193 0.123258
0.215649 0.722423 0.124935
0.232972 0.716238 0.126416
0.253641 0.709984 0.127734
0.278236 0.703914 0.129201
0.305923 0.696890 0.131032
0.335688 0.688105 0.132762
0.369885 0.680102 0.134579
0.408396 0.673022 0.136461
0.448224 0.666575 0.138247
0.494434 0.661234 0.140265
0.543785 0.657540 0.143019
0.594905 0.655620 0.146067
0.648556 0.651712 0.147706
0.692719 0.652225 0.151350
0.735917 0.655053 0.156097
0.771708 0.656171 0.159427
0.803960 0.658184 0.163806
0.827420 0.660101 0.169042
0.844524 0.660535 0.174489
0.855265 0.660914 0.181440
0.861755 0.659185 0.190529
0.865618 0.657561 0.207823
0.165000 0.770834 0.112011
0.165080 0.770607 0.112090
0.165401 0.769810 0.112378
0.166130 0.768424 0.112927
0.167587 0.766552 0.113792
0.170370 0.764422 0.115064
0.175602 0.762424 0.117478
0.179995 0.758747 0.119243
0.186917 0.754899 0.121358
0.195342 0.750423 0.123322
0.206463 0.745560 0.125276
0.218659 0.740071 0.126928
0.235318 0.734437 0.128639
0.255104 0.728604 0.130713
0.277916 0.722741 0.132708
0.303638 0.717117 0.134798
0.331506 0.711677 0.136675
0.363280 0.706583 0.138548
0.399423 0.701869 0.140412
0.437087 0.696445 0.142379
0.478725 0.690572 0.144265
0.526133 0.685647 0.146288
0.573627 0.682859 0.149503
0.623533 0.678778 0.151162
0.672389 0.676156 0.153981
0.714189 0.676974 0.158192
0.753711 0.678167 0.161390
0.787584 0.679923 0.165907
0.816763 0.681910 0.170912
0.836682 0.682760 0.175979
0.850400 0.683447 0.182437
0.858087 0.682840 0.190782
0.862550 0.682712 0.205240
0.172262 0.785078 0.112882
0.172342 0.784877 0.112960
0.172657 0.784169 0.113245
0.173353 0.782927 0.113785
0.174701 0.781219 0.114634
0.177195 0.779206 0.116170
0.181745 0.777168 0.118508
0.186778 0.774239 0.120659
0.192550 0.770488 0.122657
0.201483 0.766691 0.125015
0.210476 0.761884 0.126796
0.223261 0.756991 0.128809
0.239439 0.751842 0.131497
0.256961 0.746287 0.133793
0.278071 0.740720 0.135959
0.302090 0.735282 0.138119
0.328443 0.730056 0.140270
0.358310 0.725073 0.142293
0.392174 0.720415 0.144245
0.427385 0.716115 0.146194
0.466579 0.712393 0.148291
0.510643 0.709070 0.150546
0.554784 0.706246 0.152844
0.601319 0.703499 0.154426
0.654678 0.701528 0.157167
0.694392 0.700484 0.160782
0.736249 0.699969 0.163263
0.770939 0.700962 0.167931
0.805711 0.702177 0.172821
0.828191 0.702976 0.177642
0.845364 0.703467 0.183478
0.854423 0.703784 0.191415
0.859737 0.703532 0.203650
0.178550 0.798542 0.112586
0.178622 0.798356 0.112664
0.178904 0.797698 0.112949
0.179521 0.796533 0.113488
0.180699 0.794898 0.114332
0.182850 0.792906 0.115741
0.186718 0.790752 0.118041
0.192217 0.788255 0.120636
0.196979 0.784581 0.122551
0.205202 0.780957 0.125059
0.213580 0.776519 0.127028
0.226308 0.771944 0.129386
0.239570 0.766917 0.132036
0.256839 0.761827 0.134798
0.277300 0.756596 0.137352
0.299198 0.751335 0.139540
0.323340 0.746264 0.141803
0.350998 0.741404 0.143943
0.382511 0.736843 0.146050
0.416033 0.732608 0.148127
0.452492 0.728765 0.150401
0.493085 0.725393 0.152636
0.536835 0.722499 0.154986
0.581483 0.720048 0.157369
0.631217 0.717737 0.160090
0.677293 0.716339 0.163695
0.718106 0.715116 0.166014
0.754385 0.714440 0.169840
0.790795 0.715549 0.174477
0.819115 0.716475 0.179400
0.839433 0.717165 0.184691
0.850850 0.717446 0.191772
0.857063 0.717883 0.202928
0.184350 0.810164 0.112396
0.184421 0.810001 0.112474
0.184696 0.809421 0.112758
0.185283 0.808386 0.113295
0.186376 0.806918 0.114132
0.188320 0.805092 0.115450
0.191732 0.803042 0.117714
0.197765 0.800983 0.120783
0.201860 0.797560 0.122641
0.208750 0.794042 0.125039
0.217912 0.790206 0.127499
0.228488 0.785775 0.129903
0.242150 0.781201 0.133055
0.258380 0.776431 0.136092
0.276142 0.771489 0.138674
0.297402 0.766559 0.141237
0.320561 0.761693 0.143699
0.346716 0.756963 0.146064
0.375921 0.752497 0.148342
0.407861 0.748338 0.150775
0.441381 0.744518 0.153094
0.479094 0.741092 0.155407
0.521826 0.738036 0.157691
0.563020 0.735511 0.160152
0.610028 0.733371 0.162635
0.660903 0.731582 0.166645
0.700632 0.730492 0.168842
0.739624 0.729107 0.172312
0.775474 0.728658 0.176036
0.809315 0.729496 0.180577
0.832932 0.730406 0.185898
0.847286 0.730853 0.192266
0.854525 0.731385 0.202449
0.189834 0.820813 0.111932
0.189904 0.820728 0.112010
0.190173 0.820281 0.112297
0.190738 0.819368 0.112839
0.191766 0.818058 0.113682
0.193551 0.816398 0.114891
0.196617 0.814479 0.117114
0.201927 0.812445 0.120183
0.206900 0.809610 0.122604
0.212783 0.806288 0.124934
0.223060 0.802932 0.127930
0.231930 0.798757 0.130423
0.245932 0.794549 0.134125
0.259441 0.790010 0.137009
0.277459 0.785434 0.140151
0.297319 0.780780 0.142924
0.318246 0.776181 0.145526
0.342588 0.771661 0.148135
0.370152 0.767302 0.150823
0.400898 0.763227 0.153416
0.432287 0.759454 0.155935
0.467610 0.756034 0.158389
0.507339 0.752954 0.160775
0.547430 0.750232 0.163136
0.590843 0.748034 0.166074
0.640531 0.746178 0.169072
0.684058 0.745285 0.171153
0.724098 0.743669 0.174655
0.761523 0.742966 0.178061
0.797197 0.742327 0.181741
0.825661 0.743087 0.186696
0.843542 0.743772 0.192678
0.852309 0.744408 0.202130
0.195876 0.829086 0.109034
0.195932 0.829004 0.109119
0.196146 0.828712 0.109427
0.196600 0.828180 0.110009
0.197434 0.827404 0.110920
0.198904 0.826389 0.112231
0.201469 0.825160 0.114043
0.206035 0.823762 0.117046
0.211718 0.822122 0.120383
0.216605 0.819812 0.122760
0.225332 0.816297 0.125810
0.235110 0.812417 0.128534
0.246555 0.808237 0.131984
0.260642 0.803892 0.135595
0.277009 0.799403 0.138977
0.295104 0.794933 0.141999
0.315699 0.790488 0.145031
0.338528 0.786123 0.147824
0.363642 0.781903 0.150682
0.392453 0.777912 0.153445
0.422240 0.774209 0.156113
0.455325 0.770821 0.158707
0.492616 0.767781 0.161235
0.532751 0.765102 0.163752
