LUTs/negative-gold-200/Gold200_Modern_ExtraSoft.cube
TITLE "Kodak Gold 200 Modern ExtraSoft"
# Adobe RGB in/out. REPLACES AgX. Kodak Gold 200 Modern ExtraSoft.
LUT_3D_SIZE 33
DOMAIN_MIN 0.0 0.0 0.0
DOMAIN_MAX 1.0 1.0 1.0
0.058206 0.064417 0.080741
0.061756 0.065576 0.082144
0.063658 0.066014 0.082433
0.075454 0.067834 0.083350
0.142355 0.070672 0.084439
0.219651 0.072451 0.085430
0.400344 0.076568 0.087164
0.529623 0.081397 0.089028
0.576335 0.084336 0.090202
0.636104 0.089080 0.091829
0.689185 0.095851 0.094248
0.716086 0.100847 0.096148
0.737486 0.105783 0.097591
0.758451 0.112786 0.099610
0.777194 0.124040 0.103120
0.787000 0.130457 0.105340
0.793945 0.137207 0.107397
0.799963 0.146186 0.109889
0.805063 0.157416 0.112981
0.809305 0.162541 0.115385
0.812425 0.168085 0.118054
0.814650 0.174774 0.121290
0.816635 0.179276 0.124765
0.818480 0.176486 0.128646
0.819261 0.174451 0.134288
0.819704 0.170114 0.141973
0.820843 0.151459 0.156252
0.820544 0.152937 0.223550
0.822867 0.192158 0.549000
0.820642 0.188172 0.543568
0.818426 0.184682 0.538226
0.816220 0.181266 0.532944
0.816615 0.376008 0.626748
0.058587 0.068112 0.081560
0.059724 0.067302 0.081736
0.063783 0.066322 0.081962
0.077243 0.068170 0.083273
0.134865 0.071233 0.084478
0.200851 0.072892 0.085452
0.378584 0.077021 0.087170
0.515022 0.081847 0.089035
0.563886 0.084847 0.090207
0.625884 0.089512 0.091828
0.683980 0.096234 0.094234
0.711851 0.101387 0.096134
0.734048 0.106347 0.097579
0.756016 0.113314 0.099596
0.775261 0.124702 0.103102
0.785950 0.131085 0.105323
0.793096 0.137965 0.107381
0.799276 0.146932 0.109873
0.804503 0.158167 0.112956
0.808842 0.163445 0.115358
0.812038 0.168975 0.118025
0.814324 0.175662 0.121256
0.816359 0.180165 0.124718
0.818243 0.177358 0.128568
0.819056 0.175297 0.134175
0.819525 0.170917 0.141722
0.820684 0.151971 0.155654
0.820399 0.152843 0.220488
0.822747 0.191937 0.548707
0.820532 0.187997 0.543302
0.818325 0.184525 0.537984
0.816127 0.181125 0.532724
0.816530 0.375752 0.626594
0.058782 0.069258 0.081822
0.059118 0.069074 0.082277
0.060206 0.068137 0.082118
0.065871 0.069494 0.083115
0.088873 0.073021 0.084409
0.137469 0.074446 0.085375
0.291381 0.078838 0.087192
0.457975 0.084512 0.089151
0.524097 0.087074 0.090286
0.589806 0.091310 0.091860
0.665328 0.097792 0.094219
0.696469 0.103524 0.096105
0.721480 0.108543 0.097552
0.746379 0.115506 0.099562
0.768181 0.127225 0.103052
0.782107 0.133726 0.105273
0.789999 0.140818 0.107331
0.796776 0.149724 0.109819
0.802475 0.161530 0.112875
0.807167 0.166807 0.115271
0.810643 0.172276 0.117927
0.813153 0.178949 0.121140
0.815366 0.183449 0.124555
0.817394 0.180579 0.128299
0.818322 0.178423 0.133785
0.818883 0.173893 0.140890
0.820115 0.153916 0.153633
0.819882 0.152726 0.210089
0.822317 0.191150 0.547663
0.820139 0.187376 0.542353
0.817966 0.183965 0.537121
0.815797 0.180620 0.531938
0.816225 0.374837 0.626043
0.059698 0.076424 0.082727
0.059906 0.076244 0.083073
0.060824 0.074959 0.083345
0.062843 0.073209 0.083390
0.071650 0.076607 0.084505
0.087471 0.077502 0.085413
0.148713 0.081565 0.087160
0.328798 0.088533 0.089177
0.437217 0.090779 0.090378
0.529777 0.094719 0.091961
0.615530 0.103242 0.094310
0.667900 0.109025 0.096140
0.697512 0.113340 0.097563
0.726828 0.121023 0.099555
0.754488 0.132522 0.103017
0.771560 0.139901 0.105225
0.784052 0.146634 0.107273
0.792015 0.155347 0.109750
0.798646 0.168457 0.112776
0.804026 0.173501 0.115138
0.808043 0.178809 0.117772
0.810982 0.185419 0.120954
0.813533 0.190000 0.124286
0.815832 0.186889 0.127851
0.816977 0.184549 0.133133
0.817710 0.179758 0.139849
0.819077 0.157915 0.150383
0.818945 0.153427 0.194105
0.821537 0.189730 0.545772
0.819425 0.186252 0.540632
0.817312 0.182951 0.535555
0.815197 0.179707 0.530509
0.815671 0.373173 0.625042
0.061210 0.094068 0.084042
0.061379 0.093858 0.084389
0.062186 0.092846 0.084783
0.064589 0.089470 0.085203
0.068756 0.085503 0.085616
0.074485 0.082052 0.085785
0.098098 0.087402 0.087234
0.176562 0.093968 0.089251
0.301945 0.095472 0.090509
0.433564 0.099518 0.092084
0.548440 0.110526 0.094539
0.612833 0.116077 0.096291
0.664024 0.121564 0.097664
0.697040 0.130173 0.099646
0.729371 0.144815 0.103098
0.753513 0.151052 0.105257
0.771069 0.156892 0.107268
0.784359 0.166629 0.109713
0.792589 0.180387 0.112705
0.799121 0.184884 0.115009
0.804036 0.189906 0.117604
0.807673 0.197255 0.120734
0.810765 0.202608 0.123980
0.813490 0.198602 0.127293
0.814972 0.195506 0.132305
0.815968 0.189599 0.138529
0.817542 0.166422 0.146494
0.817572 0.156589 0.177378
0.820394 0.187854 0.543016
0.818379 0.184615 0.538117
0.816352 0.181470 0.533262
0.814315 0.178408 0.528415
0.814855 0.370733 0.623570
0.062533 0.113258 0.085373
0.062709 0.112566 0.085651
0.063553 0.111262 0.086028
0.065100 0.105540 0.086598
0.067682 0.097678 0.086587
0.072363 0.093693 0.086881
0.084440 0.095208 0.087640
0.118619 0.102725 0.089797
0.178032 0.103216 0.090743
0.308889 0.108337 0.092229
0.458420 0.120414 0.094695
0.542033 0.126938 0.096476
0.604045 0.132042 0.097876
0.663245 0.141895 0.099851
0.700651 0.156672 0.103237
0.727915 0.165147 0.105357
0.750863 0.173956 0.107349
0.768564 0.186475 0.109781
0.783436 0.202028 0.112717
0.791866 0.206058 0.114961
0.798247 0.211091 0.117494
0.802991 0.218457 0.120550
0.806912 0.223552 0.123713
0.810273 0.218934 0.126739
0.812249 0.215004 0.131448
0.813622 0.207987 0.137152
0.815488 0.180793 0.142736
0.815758 0.165859 0.162577
0.818897 0.185528 0.539424
0.817005 0.182485 0.534827
0.815089 0.179538 0.530256
0.815361 0.324296 0.525664
0.813779 0.367534 0.621632
0.065102 0.166436 0.087375
0.065272 0.167053 0.087598
0.065842 0.163256 0.088200
0.067384 0.151324 0.088553
0.070083 0.134837 0.088720
0.073604 0.122352 0.088802
0.081724 0.113859 0.089115
0.099298 0.118081 0.090601
0.128849 0.116299 0.091337
0.202837 0.121189 0.092620
0.356705 0.135211 0.095096
0.460945 0.142501 0.096809
0.535991 0.146999 0.098060
0.603128 0.156567 0.100043
0.666672 0.175698 0.103514
0.697182 0.185709 0.105638
0.725188 0.192334 0.107506
0.750100 0.205466 0.109844
0.768913 0.225879 0.112745
0.782652 0.233383 0.114990
0.790264 0.242307 0.117508
0.796391 0.251494 0.120498
0.801643 0.255491 0.123558
0.805977 0.250048 0.126354
0.808692 0.245225 0.130757
0.810603 0.237682 0.135990
0.812870 0.207159 0.140192
0.813489 0.185229 0.153319
0.817068 0.182760 0.535079
0.815321 0.179907 0.530818
0.813537 0.177191 0.526582
0.813927 0.320636 0.522289
0.812451 0.363620 0.619246
0.068366 0.265678 0.089673
0.068606 0.266428 0.089953
0.069653 0.267105 0.090848
0.070815 0.244443 0.091311
0.072809 0.215513 0.091528
0.077359 0.187269 0.091812
0.084319 0.166962 0.091951
0.094463 0.153334 0.092288
0.109137 0.137055 0.092133
0.148271 0.139931 0.093172
0.260907 0.156671 0.095705
0.376981 0.162881 0.097246
0.461721 0.166962 0.098423
0.540486 0.178322 0.100408
0.613540 0.199530 0.103861
0.664873 0.209652 0.105871
0.695325 0.218795 0.107742
0.723472 0.235047 0.110073
0.749071 0.255610 0.112931
0.767903 0.260081 0.115094
0.782009 0.267060 0.117523
0.789500 0.277993 0.120458
0.795564 0.288168 0.123487
0.800607 0.289572 0.126208
0.803981 0.292470 0.130474
0.806722 0.283835 0.135358
0.809551 0.255241 0.139364
0.810691 0.227907 0.148159
0.814942 0.179810 0.530161
0.813356 0.176955 0.526176
0.811721 0.174483 0.522304
0.812241 0.316312 0.518345
0.810889 0.359061 0.616445
0.070203 0.320209 0.090959
0.070379 0.320674 0.091165
0.070935 0.316484 0.091722
0.071876 0.301587 0.092247
0.073416 0.276040 0.092603
0.077144 0.246800 0.092815
0.082920 0.219033 0.093067
0.089664 0.195192 0.093255
0.103965 0.179874 0.093567
0.126628 0.170264 0.094077
0.195056 0.187850 0.096486
0.292663 0.192872 0.097835
0.390331 0.195413 0.099018
0.477640 0.207604 0.100941
0.556120 0.232476 0.104395
0.613758 0.241120 0.106302
0.663887 0.249649 0.108087
0.695552 0.264875 0.110342
0.725197 0.286258 0.113219
0.748549 0.293869 0.115360
0.765936 0.304001 0.117777
0.780767 0.310723 0.120588
0.788784 0.317376 0.123499
0.795146 0.316845 0.126047
0.799455 0.318071 0.130102
0.802583 0.319206 0.134885
0.805701 0.309010 0.139286
0.807220 0.300395 0.147420
0.812677 0.184537 0.526322
0.811149 0.173981 0.521146
0.809672 0.171529 0.517542
0.810334 0.311480 0.513918
0.809117 0.353946 0.613276
0.072639 0.394683 0.092663
0.072694 0.392500 0.092763
0.072927 0.382975 0.093071
0.073682 0.370103 0.093572
0.075708 0.350179 0.094090
0.079276 0.326395 0.094513
0.083934 0.300881 0.094874
0.089660 0.272004 0.095186
0.101528 0.247945 0.095530
0.118497 0.229485 0.095977
0.162317 0.240301 0.097674
0.229047 0.235930 0.098584
0.315272 0.235322 0.099725
0.411728 0.245620 0.101761
0.506369 0.270344 0.105075
0.560850 0.277586 0.106849
0.615794 0.284654 0.108555
0.666437 0.299161 0.110724
0.699011 0.318861 0.113694
0.725239 0.324901 0.115761
0.748896 0.330543 0.118015
0.766186 0.341296 0.120805
0.779887 0.352604 0.123697
0.788221 0.352982 0.126202
0.793957 0.351921 0.130005
0.798072 0.351345 0.134491
0.801926 0.339803 0.138496
0.803966 0.329388 0.145167
0.805918 0.307477 0.154991
0.806895 0.284653 0.189028
0.808475 0.280668 0.475698
0.808245 0.307104 0.511672
0.807162 0.348378 0.609792
0.077190 0.465293 0.095295
0.077228 0.463209 0.095381
0.077555 0.457018 0.095722
0.078943 0.450190 0.096432
0.080914 0.437382 0.097035
0.083728 0.420471 0.097534
0.087785 0.401941 0.097952
0.094545 0.377275 0.098285
0.106414 0.351427 0.098588
0.123467 0.329427 0.099045
0.150583 0.312163 0.099607
0.195018 0.295455 0.100059
0.258792 0.280939 0.100595
0.351687 0.289480 0.102720
0.446535 0.312238 0.105899
0.515558 0.316240 0.107564
0.567344 0.320276 0.109121
0.623786 0.331539 0.111191
0.672452 0.351767 0.114290
0.700855 0.355934 0.116239
0.726757 0.363563 0.118459
0.749122 0.375824 0.121182
0.766860 0.384238 0.123917
0.780834 0.385964 0.126428
0.787608 0.390783 0.130164
0.792537 0.396105 0.134494
0.797489 0.383520 0.138167
0.800268 0.370645 0.143742
0.802713 0.346855 0.151537
0.804052 0.319239 0.169487
0.805822 0.275161 0.401051
0.806017 0.304214 0.514454
0.804721 0.301961 0.514254
0.080448 0.508206 0.096911
0.080481 0.506398 0.096983
0.080728 0.500805 0.097261
0.081783 0.494287 0.097862
0.083300 0.482839 0.098436
0.085769 0.468668 0.099125
0.089300 0.452104 0.099776
0.095688 0.433359 0.100210
0.106120 0.414927 0.100607
0.120082 0.397964 0.101103
0.143300 0.377723 0.101701
0.178670 0.360284 0.102452
0.225740 0.337356 0.102531
0.299640 0.332716 0.103839
0.399101 0.352924 0.106859
0.465390 0.354591 0.108363
0.525766 0.357447 0.109860
0.579915 0.368084 0.111843
0.637798 0.387571 0.114939
0.675696 0.390972 0.116828
0.703519 0.397945 0.119046
0.729503 0.404633 0.121620
0.751617 0.412535 0.124347
0.767945 0.415469 0.126961
0.780777 0.416596 0.130476
0.787190 0.419115 0.134580
0.792755 0.415883 0.138105
0.796068 0.413808 0.143237
0.799049 0.402391 0.150330
0.800934 0.373526 0.161269
0.802860 0.294037 0.279155
0.803654 0.297953 0.508993
0.802509 0.296741 0.511738
0.082961 0.535606 0.098033
0.082990 0.534490 0.098097
0.083183 0.530928 0.098339
0.083944 0.526254 0.098925
0.085339 0.519813 0.099695
0.087449 0.509201 0.100441
0.090235 0.493686 0.101199
0.096392 0.476485 0.101937
0.105603 0.458771 0.102523
0.116810 0.441280 0.103051
0.136639 0.425331 0.103601
0.162850 0.411230 0.104167
0.207681 0.399791 0.104902
0.269691 0.391128 0.105820
0.352349 0.397055 0.107955
0.420639 0.396989 0.109328
0.485281 0.397617 0.110671
0.541283 0.404122 0.112595
0.598468 0.416535 0.115923
0.646095 0.417925 0.117600
0.680334 0.422477 0.119638
0.708316 0.429800 0.122201
0.733072 0.438558 0.124980
0.754774 0.439499 0.127524
0.769413 0.443577 0.131002
0.780457 0.449178 0.135059
0.787716 0.444069 0.138240
0.791952 0.440265 0.142816
0.795426 0.433232 0.149386
0.797609 0.423472 0.158816
0.799231 0.410711 0.181960
0.801215 0.290887 0.503413
0.800222 0.291575 0.510180
0.086105 0.567488 0.099697
0.086133 0.566522 0.099769
0.086296 0.563374 0.100040
0.086880 0.558917 0.100595
0.088264 0.554190 0.101696
0.089939 0.545940 0.102665
0.093731 0.535886 0.103539
0.099767 0.524570 0.104361
0.107890 0.510905 0.105058
0.118167 0.493301 0.105610
0.135839 0.476577 0.106120
0.158736 0.461427 0.106713
0.196851 0.447968 0.107279
0.249036 0.436850 0.108001
0.324414 0.439840 0.109950
0.387377 0.429697 0.110490
0.442756 0.427552 0.111610
0.508682 0.432668 0.113571
0.562192 0.444442 0.116887
0.609682 0.445494 0.118555
0.656888 0.449128 0.120479
0.686971 0.456202 0.122895
0.714216 0.463683 0.125640
0.738150 0.466244 0.128333
0.756989 0.470893 0.131695
0.770851 0.474528 0.135491
0.782193 0.473575 0.138607
0.787183 0.474269 0.143037
0.791588 0.465975 0.148859
0.794377 0.454464 0.156530
0.796376 0.438599 0.170642
0.797649 0.429128 0.268393
0.798680 0.440755 0.508364
0.090017 0.607342 0.102463
0.090047 0.606504 0.102554
0.090198 0.603726 0.102894
0.090989 0.599580 0.103578
0.093223 0.595840 0.104750
0.095496 0.588005 0.105674
0.099843 0.579478 0.106684
0.105651 0.569009 0.107516
0.113038 0.557435 0.108295
0.124881 0.545232 0.108940
0.141746 0.533069 0.109561
0.164433 0.521363 0.110076
0.200782 0.508630 0.110672
0.248342 0.495587 0.111255
0.304762 0.484564 0.111962
0.359849 0.472159 0.112351
0.411472 0.461740 0.112825
0.471444 0.463490 0.114844
0.531343 0.474182 0.117998
0.575392 0.474205 0.119523
0.622668 0.477249 0.121404
0.666398 0.483843 0.123746
0.694828 0.490640 0.126664
0.720234 0.493860 0.129304
0.742850 0.497343 0.132462
0.759756 0.503355 0.136207
0.773915 0.502883 0.139154
0.782588 0.501594 0.143362
0.787573 0.498902 0.148877
0.790847 0.494480 0.155718
0.793376 0.478135 0.165329
0.794865 0.457209 0.206892
0.796293 0.444384 0.495546
0.093746 0.625484 0.104008
0.093791 0.625009 0.104091
0.094011 0.623411 0.104399
0.094678 0.620925 0.105010
0.096444 0.618362 0.106036
0.099127 0.614377 0.107061
0.103475 0.608204 0.108208
0.108184 0.598179 0.108998
0.114706 0.587569 0.109797
0.126137 0.576426 0.110585
0.140949 0.564633 0.111165
0.160286 0.553098 0.111743
0.192041 0.542312 0.112323
0.234083 0.532272 0.112939
0.286168 0.523535 0.113756
0.338785 0.516027 0.114711
0.392376 0.503924 0.115203
0.441493 0.498852 0.116548
0.505397 0.505495 0.119237
0.546192 0.504825 0.120678
0.590939 0.506630 0.122382
0.638726 0.512560 0.124745
0.675787 0.518061 0.127903
0.702384 0.519782 0.130379
0.726837 0.522760 0.133433
0.747479 0.527178 0.137044
0.764617 0.526991 0.139799
0.775486 0.528440 0.144153
0.783430 0.526585 0.149231
0.787493 0.522016 0.155146
0.790358 0.516339 0.163567
0.792038 0.508603 0.187171
0.793705 0.472382 0.431483
0.097607 0.640719 0.105360
0.097655 0.640305 0.105436
0.097884 0.638899 0.105717
0.098538 0.636642 0.106267
0.100169 0.634108 0.107176
0.102936 0.631127 0.108294
0.106123 0.626412 0.109272
0.110646 0.621032 0.110231
0.116637 0.614895 0.111104
0.127459 0.605471 0.111887
0.140811 0.594505 0.112602
0.157835 0.583390 0.113361
0.185992 0.572634 0.114133
0.222489 0.562584 0.114956
0.268897 0.553310 0.115759
0.318243 0.545181 0.116594
0.373873 0.538244 0.117550
0.421692 0.533730 0.118795
0.478503 0.534568 0.120979
0.521205 0.530186 0.121828
0.563008 0.531118 0.123490
0.609771 0.534710 0.125926
0.656284 0.539032 0.129288
0.684622 0.540307 0.131607
0.710351 0.543438 0.134563
0.733598 0.547227 0.137982
0.754249 0.548341 0.140653
0.767482 0.549266 0.144997
0.778141 0.548825 0.149827
0.783841 0.547570 0.155339
0.787369 0.541570 0.162403
0.789445 0.533446 0.178191
0.790880 0.531774 0.288601
0.102645 0.657417 0.107027
0.102693 0.657083 0.107097
0.102909 0.655938 0.107357
0.103490 0.654058 0.107861
0.104863 0.651817 0.108682
0.107801 0.649727 0.109898
0.110259 0.645090 0.110756
0.114787 0.640705 0.111860
0.121685 0.635075 0.112766
0.131326 0.628750 0.113826
0.143683 0.622137 0.114898
0.160201 0.615262 0.115834
0.186378 0.606072 0.116745
0.219447 0.595865 0.117486
0.261689 0.586498 0.118352
0.307680 0.577903 0.119167
0.357844 0.570267 0.120009
0.406089 0.563829 0.120978
0.457668 0.563860 0.123102
0.503446 0.556969 0.123597
0.538819 0.553307 0.124677
0.582710 0.556471 0.127498
0.628683 0.560305 0.130774
0.667472 0.561187 0.132962
0.694002 0.564236 0.135823
0.718988 0.567753 0.139091
0.742183 0.569083 0.141854
0.758833 0.570355 0.146083
0.771160 0.571728 0.150767
0.779923 0.569216 0.155698
0.784377 0.566441 0.162120
0.786790 0.563381 0.174474
0.788427 0.554985 0.227559
0.108479 0.674915 0.109074
0.108531 0.674629 0.109140
0.108750 0.673642 0.109383
0.109300 0.671992 0.109852
0.110520 0.669941 0.110608
0.113085 0.668015 0.111739
0.115722 0.664597 0.112702
0.121366 0.660857 0.114165
0.128375 0.656135 0.115467
0.138058 0.651043 0.116764
0.149848 0.644939 0.117867
0.167572 0.638561 0.118957
0.192163 0.631988 0.119874
0.223825 0.625561 0.120744
0.262993 0.619337 0.121541
0.306939 0.613646 0.122457
0.352746 0.606051 0.123306
0.399526 0.598809 0.124144
0.440634 0.592834 0.125301
0.483332 0.585437 0.125779
0.521824 0.580388 0.126996
0.559126 0.578493 0.129131
0.603550 0.581856 0.132297
0.646082 0.582457 0.134396
0.678012 0.584870 0.137121
0.704136 0.588342 0.140306
0.729276 0.589482 0.143293
0.749028 0.591617 0.147403
0.764248 0.592331 0.151693
0.774339 0.591961 0.156423
0.781390 0.590483 0.162338
0.784328 0.585914 0.172184
0.786123 0.583235 0.203402
0.112327 0.687476 0.109787
0.112374 0.687220 0.109850
0.112570 0.686330 0.110082
0.113049 0.684815 0.110528
0.114080 0.682862 0.111239
0.116188 0.680852 0.112290
0.120165 0.678177 0.113608
0.124885 0.674389 0.114968
0.131931 0.670404 0.116462
0.140743 0.665773 0.117840
0.150825 0.660435 0.118962
0.166911 0.654912 0.120082
0.189451 0.649056 0.121121
0.218416 0.642935 0.122064
0.254143 0.636996 0.122966
0.295463 0.631267 0.123796
0.337136 0.626059 0.124791
0.386093 0.621350 0.125828
0.422929 0.617037 0.127089
0.465558 0.613470 0.128564
0.507839 0.607952 0.129683
0.542558 0.605479 0.131746
0.580839 0.604052 0.133993
0.622040 0.603927 0.135867
0.662943 0.605928 0.138506
0.689363 0.608899 0.141788
0.715712 0.610044 0.144855
0.737728 0.612332 0.148825
0.756608 0.613283 0.152857
0.768484 0.613629 0.157302
0.777134 0.612685 0.162665
0.781846 0.611212 0.171558
0.783976 0.607708 0.192428
0.116285 0.698116 0.110527
0.116330 0.697946 0.110589
0.116513 0.697353 0.110813
0.117146 0.696330 0.111240
0.118471 0.694974 0.111917
0.121108 0.693490 0.112940
0.125599 0.691760 0.114666
0.129433 0.688085 0.115917
0.136680 0.684736 0.117625
0.143533 0.680099 0.118833
0.153544 0.675446 0.120174
0.169948 0.670421 0.121414
0.190428 0.665033 0.122506
0.216756 0.659580 0.123475
0.249512 0.654286 0.124510
0.288776 0.648988 0.125570
0.326503 0.643746 0.126780
0.371197 0.638950 0.128111
0.410411 0.634690 0.129485
0.448654 0.630796 0.130784
0.492864 0.627560 0.132248
0.528196 0.625316 0.134237
0.564082 0.624149 0.136429
0.600864 0.621768 0.137583
0.641746 0.622081 0.139901
0.675215 0.623804 0.143627
0.702030 0.624484 0.146516
0.726002 0.625708 0.150269
0.747737 0.626873 0.154172
0.762483 0.627136 0.158209
0.772580 0.627366 0.163328
0.778684 0.626316 0.171271
0.781937 0.625329 0.187576
0.122345 0.707466 0.111435
0.122413 0.707320 0.111494
0.122684 0.706804 0.111712
0.123300 0.705908 0.112126
0.124533 0.704697 0.112777
0.126892 0.703317 0.114056
0.131342 0.702021 0.115868
0.135092 0.699635 0.117188
0.141027 0.697135 0.118764
0.148293 0.694221 0.120221
0.159010 0.690555 0.121666
0.173369 0.685782 0.122883
0.193367 0.680881 0.124102
0.218660 0.675804 0.125387
0.249076 0.670698 0.126740
0.285926 0.665798 0.128271
0.321135 0.661057 0.129641
0.362457 0.656615 0.131003
0.401770 0.652502 0.132354
0.437971 0.648723 0.133776
0.477855 0.645220 0.135135
0.515596 0.642275 0.136588
0.549249 0.640605 0.138728
0.583815 0.638154 0.139782
0.621742 0.636577 0.141789
0.661640 0.637069 0.145445
0.688575 0.637787 0.148217
0.713852 0.638842 0.151837
0.737714 0.640035 0.155561
0.755958 0.640545 0.159309
0.768006 0.640957 0.164058
0.775233 0.640593 0.171509
0.779431 0.640516 0.185137
0.128499 0.716649 0.112092
0.128567 0.716519 0.112151
0.128835 0.716064 0.112365
0.129427 0.715266 0.112772
0.130574 0.714166 0.113626
0.132700 0.712869 0.114887
0.136590 0.711556 0.116639
0.140908 0.709666 0.118244
0.145880 0.707243 0.119728
0.153616 0.704786 0.121473
0.163757 0.701672 0.122786
0.178525 0.698495 0.124223
0.198566 0.695145 0.125851
0.221085 0.691188 0.127536
0.249287 0.686347 0.129119
0.283759 0.681616 0.130691
0.317217 0.677068 0.132252
0.355914 0.672729 0.133713
0.395320 0.668672 0.135120
0.428655 0.664925 0.136521
0.466237 0.661681 0.137956
0.505740 0.658783 0.139391
0.535991 0.656320 0.140846
0.568524 0.653924 0.142176
0.605009 0.652205 0.144556
0.643395 0.651282 0.147691
0.675464 0.650844 0.149840
0.701456 0.651711 0.153345
0.727326 0.652771 0.156975
0.748462 0.653468 0.160535
0.763273 0.653896 0.164822
0.771789 0.654173 0.172104
0.776785 0.653953 0.183635
0.133857 0.725283 0.111868
0.133918 0.725164 0.111927
0.134160 0.724743 0.112142
0.134687 0.723997 0.112548
0.135695 0.722950 0.113316
0.137536 0.721674 0.114565
0.140856 0.720293 0.116290
0.145593 0.718690 0.118227
0.149710 0.716329 0.119650
0.157529 0.713997 0.121505
0.167462 0.711137 0.122956
0.182168 0.708184 0.124624
0.198732 0.704932 0.126247
0.220925 0.701635 0.128271
0.248237 0.698238 0.130133
0.279318 0.694815 0.131723
0.310716 0.691167 0.133360
0.346340 0.686942 0.134903
0.386953 0.682974 0.136417
0.417744 0.679289 0.137852
0.452745 0.675944 0.139298
0.491576 0.673008 0.140715
0.523248 0.670487 0.142663
0.554743 0.668352 0.144731
0.589070 0.666339 0.147091
0.626564 0.665120 0.150186
0.663971 0.664055 0.151918
0.689079 0.663465 0.154765
0.716238 0.664432 0.158201
0.739926 0.665239 0.161829
0.758237 0.665840 0.165782
0.768429 0.666085 0.172440
0.774271 0.666466 0.182954
0.138823 0.732701 0.111725
0.138884 0.732597 0.111784
0.139119 0.732228 0.111998
0.139623 0.731568 0.112403
0.140562 0.730633 0.113110
0.142234 0.729467 0.114345
0.145174 0.728159 0.116045
0.150390 0.726844 0.118336
0.153944 0.724655 0.119717
0.161709 0.722402 0.121491
0.172536 0.719942 0.123302
0.184857 0.717097 0.124921
0.202001 0.714154 0.126995
0.222944 0.711080 0.129216
0.246662 0.707890 0.131094
0.276574 0.704701 0.132951
0.307189 0.701548 0.134728
0.340764 0.698477 0.136427
0.379229 0.695572 0.137989
0.409896 0.692862 0.139536
0.442091 0.689649 0.141019
0.478208 0.686670 0.143028
0.512505 0.684012 0.145010
0.541800 0.681815 0.147145
0.574537 0.679953 0.149296
0.610843 0.678396 0.152388
0.649543 0.677447 0.154024
0.678003 0.676242 0.156599
0.704838 0.675851 0.159351
0.730713 0.676580 0.162694
0.752850 0.677372 0.166916
0.765079 0.677761 0.172906
0.771884 0.678225 0.182502
0.143537 0.739547 0.111375
0.143598 0.739456 0.111434
0.143830 0.739133 0.111651
0.144317 0.738553 0.112059
0.145203 0.737722 0.112694
0.146745 0.736668 0.113890
0.149396 0.735447 0.115596
0.154002 0.734154 0.117890
0.159525 0.732348 0.119689
0.166508 0.730230 0.121413
0.178299 0.728089 0.123619
0.189129 0.725420 0.125220
0.206817 0.722727 0.127779
0.224338 0.719817 0.129884
0.248454 0.716877 0.132165
0.276448 0.713883 0.134169
0.304258 0.710919 0.136041
0.335409 0.708001 0.137856
0.371552 0.705182 0.139566
0.403191 0.702543 0.141299
0.433363 0.700095 0.143487
0.467224 0.697873 0.145616
0.503732 0.695869 0.147684
0.530783 0.694097 0.149729
0.561261 0.692663 0.151962
0.595416 0.691092 0.154194
0.633220 0.690316 0.155739
0.667526 0.688911 0.158332
0.694422 0.688300 0.160844
0.720989 0.687744 0.163548
0.746082 0.688405 0.167666
0.761640 0.689000 0.173293
0.769801 0.689553 0.182201
0.148754 0.748403 0.109180
0.148803 0.748315 0.109244
0.148988 0.748001 0.109478
0.149381 0.747432 0.109920
0.150104 0.746600 0.110610
0.151378 0.745514 0.111601
0.153604 0.744198 0.113019
0.158507 0.742702 0.115544
0.165236 0.740947 0.118039
0.171081 0.738836 0.119805
0.180970 0.736603 0.122059
0.193106 0.734136 0.124036
0.207614 0.731473 0.126209
0.225919 0.728702 0.128853
0.247840 0.725834 0.131314
0.273077 0.722972 0.133501
0.301042 0.720123 0.135685
0.330161 0.717321 0.137658
0.362934 0.714607 0.139477
0.395561 0.712036 0.141324
0.423711 0.709647 0.143641
0.455460 0.707458 0.145892
0.491128 0.705492 0.148083
0.520333 0.703757 0.150228
