LUTs/negative-gold-200/Gold200_Modern_Soft.cube
TITLE "Kodak Gold 200 Modern Soft"
# Adobe RGB in/out. REPLACES AgX. Kodak Gold 200 Modern Soft.
LUT_3D_SIZE 9
DOMAIN_MIN 0.0 0.0 0.0
DOMAIN_MAX 1.0 1.0 1.0
0.062396 0.069107 0.086480
0.151471 0.075484 0.090277
0.585113 0.089355 0.096488
0.733132 0.108607 0.104333
0.790271 0.135283 0.113924
0.807865 0.168630 0.124432
0.814369 0.174062 0.141513
0.817799 0.190272 0.548932
0.811851 0.370965 0.630046
0.066292 0.098079 0.089903
0.074578 0.090158 0.091535
0.305883 0.099557 0.096806
0.654501 0.123626 0.104424
0.764789 0.158675 0.113794
0.799881 0.187890 0.123994
0.810288 0.193816 0.139474
0.815447 0.185755 0.543297
0.810177 0.366687 0.626523
0.075969 0.318110 0.097270
0.080316 0.275195 0.098970
0.110991 0.178667 0.099965
0.394380 0.193718 0.105989
0.654331 0.248460 0.114617
0.759684 0.301033 0.124162
0.795519 0.316243 0.137206
0.808105 0.182755 0.527552
0.804717 0.352738 0.615121
0.089055 0.532329 0.104885
0.091662 0.516026 0.106664
0.112699 0.458751 0.109014
0.211177 0.392232 0.111412
0.482137 0.389635 0.117214
0.674689 0.419509 0.126182
0.763142 0.444765 0.138133
0.791682 0.432554 0.155972
0.796249 0.289174 0.511954
0.105088 0.638134 0.111874
0.107367 0.629133 0.113701
0.124871 0.603173 0.117649
0.188156 0.565116 0.120613
0.376705 0.534673 0.123941
0.571134 0.528339 0.130531
0.709251 0.539283 0.141797
0.771822 0.544061 0.156374
0.787352 0.528922 0.290846
0.124509 0.692522 0.117070
0.126442 0.688960 0.118466
0.145020 0.679566 0.124014
0.192847 0.662763 0.129419
0.336264 0.642266 0.133786
0.488801 0.620253 0.139415
0.635749 0.612848 0.147284
0.742126 0.619323 0.160322
0.775976 0.617235 0.192493
0.147453 0.731867 0.118273
0.149431 0.729506 0.119615
0.164702 0.722688 0.126270
0.205118 0.710733 0.134007
0.312293 0.696413 0.141966
0.441848 0.683745 0.148418
0.583730 0.675493 0.155890
0.704386 0.671998 0.165009
0.765600 0.674021 0.187727
0.170467 0.767985 0.107769
0.170730 0.765700 0.109020
0.182862 0.757385 0.118684
0.215305 0.747143 0.129541
0.296624 0.735291 0.140706
0.410467 0.724199 0.150147
0.528648 0.716031 0.158985
0.652934 0.711877 0.167149
0.758516 0.710371 0.183784
0.158596 0.761213 0.097774
0.157767 0.760184 0.097728
0.192378 0.771367 0.097588
0.186685 0.767092 0.101787
0.274794 0.762764 0.113905
0.374998 0.753056 0.127575
0.473710 0.745759 0.138005
0.592664 0.741788 0.144578
0.756845 0.741211 0.146096
0.065320 0.078239 0.129338
0.126113 0.106266 0.255023
0.608769 0.101068 0.155816
0.747583 0.119937 0.145305
0.791276 0.146290 0.138711
0.806030 0.173267 0.142652
0.812575 0.179086 0.160326
0.816538 0.187733 0.545916
0.810984 0.368746 0.628220
0.068700 0.095182 0.117259
0.083284 0.089985 0.112026
0.417503 0.105313 0.124179
0.691690 0.130884 0.134111
0.770602 0.165939 0.135455
0.798482 0.193386 0.140898
0.808534 0.199744 0.156224
0.814190 0.183912 0.540323
0.809316 0.364499 0.624716
0.080043 0.279852 0.126665
0.085445 0.225408 0.122350
0.131482 0.161681 0.117015
0.468032 0.191362 0.124151
0.680997 0.252646 0.131232
0.763043 0.302288 0.138788
0.794293 0.317257 0.151002
0.806908 0.183426 0.525495
0.803882 0.349765 0.613389
0.092634 0.510342 0.128889
0.096394 0.489529 0.128991
0.123332 0.433195 0.127344
0.257668 0.374662 0.126504
0.521674 0.383348 0.130928
0.689344 0.416870 0.139025
0.764171 0.443102 0.150320
0.790665 0.432289 0.168893
0.795775 0.324792 0.596733
0.108063 0.624987 0.128237
0.111200 0.616095 0.129909
0.132037 0.590364 0.133199
0.209744 0.554922 0.135371
0.403611 0.528220 0.138175
0.588297 0.524992 0.142852
0.714943 0.537296 0.153327
0.771349 0.542628 0.167542
0.786767 0.531496 0.336564
0.126580 0.687591 0.128096
0.129065 0.684117 0.129905
0.150016 0.674677 0.136472
0.204111 0.658150 0.142385
0.350644 0.636414 0.146775
0.504190 0.616307 0.152036
0.644488 0.610584 0.158967
0.744160 0.617706 0.171808
0.775240 0.616799 0.206813
0.149157 0.729025 0.126281
0.151429 0.726683 0.128160
0.167933 0.719861 0.135756
0.211831 0.708085 0.145137
0.322964 0.694163 0.153133
0.451190 0.682015 0.160313
0.590558 0.674261 0.167308
0.708589 0.671249 0.177409
0.765280 0.673602 0.199858
0.170560 0.766117 0.111935
0.171173 0.763904 0.113723
0.183242 0.755833 0.124627
0.219091 0.745721 0.137481
0.302435 0.734071 0.149608
0.414511 0.723225 0.160400
0.534261 0.715330 0.169421
0.658314 0.711394 0.180104
0.758677 0.710074 0.195365
0.164810 0.766665 0.117543
0.163947 0.765634 0.117408
0.200342 0.774452 0.116956
0.192512 0.770845 0.116240
0.277101 0.762398 0.117499
0.377753 0.752743 0.133209
0.476358 0.745562 0.145493
0.595229 0.741704 0.152693
0.757785 0.741179 0.154390
0.070733 0.098169 0.316364
0.164344 0.234359 0.595185
0.595827 0.236624 0.570523
0.754525 0.236278 0.521614
0.792496 0.240811 0.467186
0.804899 0.270008 0.462038
0.810589 0.286686 0.491222
0.814412 0.195248 0.553081
0.809186 0.364178 0.624463
0.076849 0.130043 0.326630
0.115074 0.165606 0.416576
0.482290 0.175635 0.419592
0.707133 0.198507 0.402244
0.774503 0.235213 0.392971
0.797545 0.272616 0.410228
0.806417 0.289706 0.453491
0.812044 0.193302 0.549146
0.807506 0.359938 0.620933
0.083294 0.231178 0.231677
0.089862 0.194699 0.205762
0.157206 0.158547 0.179331
0.523917 0.207970 0.216098
0.704905 0.283086 0.261323
0.767276 0.332131 0.304423
0.792608 0.352001 0.336638
0.804317 0.250585 0.530463
0.802044 0.343298 0.609589
0.099546 0.473323 0.250051
0.105379 0.454557 0.235755
0.143850 0.394056 0.206583
0.320749 0.344289 0.190436
0.583347 0.378519 0.209095
0.712339 0.424474 0.241931
0.766015 0.450335 0.268910
0.788722 0.448115 0.339078
0.793938 0.320291 0.593004
0.119397 0.603789 0.245922
0.124286 0.594928 0.241405
0.156731 0.569232 0.228808
0.268393 0.537117 0.214172
0.456349 0.512624 0.208488
0.628657 0.519877 0.222148
0.727914 0.536676 0.241394
0.770505 0.542998 0.281257
0.785118 0.543052 0.484416
0.141980 0.678057 0.235897
0.146624 0.674605 0.235673
0.174099 0.664638 0.235605
0.252301 0.648364 0.231405
0.401816 0.624117 0.227272
0.551529 0.608015 0.227991
0.674198 0.606855 0.234716
0.749138 0.615485 0.263065
0.773404 0.618286 0.324778
0.162623 0.721864 0.209803
0.166036 0.719588 0.211476
0.183368 0.712689 0.219071
0.246246 0.701377 0.226234
0.361642 0.688527 0.230687
0.487130 0.677769 0.234904
0.617010 0.671364 0.241410
0.722289 0.669721 0.257483
0.764419 0.672895 0.281180
0.178960 0.758141 0.175964
0.181194 0.756357 0.179583
0.194281 0.750276 0.196738
0.243466 0.741114 0.211357
0.336091 0.730342 0.224709
0.438284 0.720378 0.235070
0.561544 0.713394 0.244910
0.680771 0.710121 0.256010
0.758980 0.709389 0.264812
0.163374 0.764941 0.117321
0.202911 0.775551 0.117188
0.197994 0.773438 0.116746
0.190446 0.769334 0.116050
0.288597 0.760949 0.151563
0.392609 0.751707 0.181817
0.489443 0.744953 0.198740
0.607269 0.741480 0.207915
0.758747 0.741200 0.210983
0.079146 0.146457 0.555344
0.137709 0.328280 0.679669
0.562013 0.382373 0.701251
0.753655 0.403805 0.696355
0.797877 0.396837 0.669094
0.807052 0.390865 0.645962
0.810780 0.386885 0.642201
0.812429 0.336188 0.658704
0.808077 0.371850 0.645831
0.086094 0.205871 0.565846
0.127447 0.313000 0.634819
0.520358 0.390508 0.681072
0.723021 0.389818 0.661938
0.782724 0.384079 0.635978
0.799575 0.388838 0.624053
0.806501 0.390449 0.627861
0.809759 0.343445 0.651264
0.806354 0.367526 0.642692
0.092687 0.307408 0.484595
0.105683 0.301187 0.476357
0.257402 0.299750 0.483798
0.575427 0.323347 0.501272
0.715935 0.368885 0.525616
0.770298 0.402762 0.545209
0.792379 0.421290 0.571261
0.800339 0.412866 0.614249
0.800747 0.353774 0.632553
0.105134 0.452906 0.444247
0.112393 0.437957 0.425593
0.159596 0.386788 0.376484
0.353745 0.346413 0.341698
0.601477 0.397009 0.397489
0.717648 0.447951 0.447142
0.765684 0.473846 0.485398
0.787388 0.483003 0.546408
0.792426 0.327109 0.615136
0.128860 0.585073 0.450299
0.135782 0.577314 0.439695
0.176602 0.554427 0.411031
0.303074 0.524556 0.374802
0.486670 0.498736 0.355098
0.646270 0.518872 0.383247
0.731709 0.540193 0.420309
0.768463 0.550676 0.466736
0.783117 0.558028 0.586250
0.156070 0.668475 0.438934
0.161936 0.665313 0.433996
0.190340 0.655486 0.420315
0.289407 0.636439 0.400784
0.431573 0.613329 0.382523
0.584763 0.600389 0.375219
0.692710 0.604730 0.390934
0.749828 0.615460 0.418758
0.771654 0.627922 0.521750
0.177709 0.714430 0.415980
0.182366 0.712289 0.414259
0.205733 0.705670 0.410315
0.282833 0.695073 0.402879
0.399225 0.683242 0.394510
0.523023 0.673707 0.388345
0.641435 0.668676 0.388792
0.730256 0.668706 0.399158
0.763218 0.674117 0.454496
0.183626 0.751989 0.378313
0.187644 0.750398 0.378576
0.213435 0.745050 0.383610
0.269360 0.736543 0.385879
0.360844 0.726641 0.386423
0.465319 0.717616 0.386391
0.588042 0.711517 0.388338
0.701703 0.709046 0.393821
0.758736 0.709484 0.413849
0.183250 0.771273 0.367633
0.206921 0.775696 0.365833
0.202118 0.773670 0.360170
0.228483 0.771211 0.272679
0.313206 0.758415 0.349037
0.408348 0.750214 0.358134
0.510222 0.744232 0.364970
0.625822 0.741293 0.370183
0.758971 0.741673 0.375171
0.091627 0.268450 0.687447
0.128799 0.382209 0.727533
0.505608 0.470879 0.754639
0.738384 0.490279 0.755079
0.805065 0.503897 0.751198
0.812326 0.479489 0.729730
0.813506 0.460805 0.715825
0.812807 0.411853 0.706935
0.808310 0.400029 0.702032
0.098402 0.326613 0.692766
0.133872 0.404908 0.723604
0.480352 0.484431 0.750644
0.725198 0.505484 0.752186
0.791781 0.494360 0.736879
0.804979 0.477848 0.720445
0.809174 0.463633 0.706824
0.810087 0.418784 0.701379
0.806527 0.394278 0.697037
0.119677 0.455560 0.683577
0.145814 0.463196 0.686630
0.369207 0.480760 0.699137
0.619250 0.475898 0.690214
0.732656 0.475202 0.680072
0.779186 0.482889 0.676144
0.794923 0.484039 0.676714
0.800882 0.467932 0.681560
0.800700 0.376072 0.681013
0.118203 0.482018 0.594080
0.128579 0.475871 0.587633
0.202575 0.461437 0.575739
0.435668 0.453289 0.572823
0.629681 0.468891 0.586439
0.726667 0.497174 0.606323
0.768785 0.518226 0.625502
0.787656 0.522675 0.647060
0.792616 0.447127 0.664198
0.138561 0.576203 0.574654
0.148048 0.570473 0.567712
0.188737 0.552590 0.548109
0.336280 0.526700 0.521430
0.503356 0.502834 0.502590
0.657118 0.532363 0.535346
0.734179 0.555215 0.567226
0.767997 0.568865 0.601397
0.781921 0.573421 0.643715
0.168266 0.661382 0.570553
0.175656 0.658483 0.566072
0.213315 0.649659 0.553197
0.318909 0.629676 0.534164
0.456244 0.608049 0.517235
0.597591 0.596709 0.509461
0.700980 0.607703 0.526707
0.749499 0.622194 0.555080
0.770176 0.638733 0.615926
0.184341 0.708221 0.561189
0.191463 0.706326 0.558511
0.228123 0.700325 0.550649
0.306711 0.690687 0.538487
0.418979 0.679877 0.526575
0.546963 0.671274 0.518379
0.657009 0.667435 0.516699
0.733675 0.669489 0.526626
0.762144 0.678138 0.581546
0.196700 0.747144 0.548735
0.201622 0.745684 0.546715
0.230700 0.740747 0.541297
0.288725 0.732974 0.533502
0.384255 0.723914 0.525679
0.487351 0.715770 0.519625
0.605202 0.710512 0.516608
0.712128 0.708936 0.517554
0.758391 0.711470 0.542887
0.187527 0.771573 0.607255
0.190767 0.771735 0.606132
0.197060 0.771548 0.602364
0.248899 0.765092 0.534178
0.330778 0.756705 0.524590
0.419064 0.749312 0.518689
0.525216 0.743959 0.515172
0.639830 0.741630 0.514170
0.759034 0.743390 0.517881
0.113538 0.409877 0.760850
0.148047 0.466075 0.775782
0.468665 0.535234 0.792775
0.721699 0.548183 0.793592
0.804801 0.563076 0.794314
0.818748 0.546865 0.776616
0.817963 0.523813 0.758222
0.815166 0.476066 0.745153
0.809598 0.419088 0.729586
0.120770 0.445049 0.762960
0.155532 0.485354 0.775490
0.458401 0.545407 0.791777
0.711809 0.558696 0.792946
0.799880 0.570222 0.791752
0.811805 0.545444 0.769227
0.813720 0.525475 0.753410
0.812435 0.481278 0.741781
0.807786 0.413837 0.727301
0.159801 0.541210 0.765753
0.189226 0.553836 0.771864
0.434618 0.586984 0.786175
0.647029 0.572515 0.772931
0.750568 0.557498 0.757964
0.789136 0.546908 0.746100
0.799746 0.537261 0.737184
0.803289 0.517222 0.730719
0.801832 0.396967 0.719809
0.151869 0.548855 0.714868
0.168834 0.548625 0.714262
0.293917 0.551932 0.717127
0.508368 0.549253 0.714060
0.663783 0.548608 0.709390
0.741125 0.552148 0.707716
0.776339 0.556461 0.708748
0.789836 0.552170 0.710853
0.793356 0.494271 0.704323
0.158025 0.589812 0.669187
0.168511 0.586368 0.665719
0.232867 0.577492 0.658002
0.392143 0.564239 0.648772
0.559144 0.558368 0.645229
0.678094 0.567765 0.653633
0.740859 0.582946 0.667799
0.770440 0.591868 0.681587
0.782269 0.591362 0.691933
0.180797 0.658858 0.655041
0.183469 0.656662 0.651900
0.235963 0.649801 0.642900
0.347581 0.633933 0.630398
0.476020 0.614428 0.616869
0.605170 0.601293 0.607333
0.706210 0.620411 0.628314
0.750598 0.636877 0.649918
0.769790 0.649138 0.675420
0.198211 0.704439 0.647554
0.206328 0.702809 0.645243
0.246540 0.697655 0.638452
0.331478 0.689239 0.628600
0.436725 0.679548 0.618452
0.564083 0.671489 0.610962
0.665761 0.668384 0.609642
0.735218 0.673165 0.622747
0.761453 0.683221 0.657895
0.206683 0.744003 0.640890
0.212277 0.742694 0.639079
0.243823 0.738229 0.633539
0.303197 0.731171 0.625159
0.400294 0.722958 0.616930
0.504087 0.715610 0.610586
0.617500 0.711056 0.607286
0.717680 0.710321 0.608264
0.758216 0.715507 0.637278
0.188146 0.769406 0.633804
0.191009 0.769628 0.634340
0.196393 0.769260 0.636754
0.254866 0.764015 0.628563
0.340504 0.756146 0.618186
0.425449 0.749399 0.611013
0.533170 0.744696 0.606480
0.647734 0.742903 0.604438
0.759291 0.746769 0.619914
0.160380 0.527469 0.815768
0.186685 0.547402 0.824387
0.425548 0.580532 0.829017
0.712074 0.592376 0.829371
0.802838 0.605901 0.829957
0.825256 0.600770 0.819942
0.823218 0.568658 0.797224
0.818578 0.530128 0.779336
0.811697 0.448067 0.760086
0.169047 0.541183 0.816855
0.195396 0.558096 0.824128
0.427338 0.590104 0.828980
0.704685 0.602057 0.829425
0.800160 0.615504 0.830033
0.818942 0.598567 0.813213
0.819168 0.569823 0.792688
0.815901 0.533426 0.776307
0.809878 0.443636 0.757621
0.212715 0.599648 0.819042
0.249005 0.608274 0.822888
0.436302 0.630810 0.828058
0.671115 0.641904 0.828941
0.768584 0.618343 0.809511
0.798117 0.597996 0.792202
0.805809 0.578893 0.778120
0.806960 0.554444 0.766469
0.803864 0.424338 0.749193
0.218160 0.621979 0.787650
0.243751 0.622646 0.787858
0.375733 0.625308 0.786684
0.562717 0.617865 0.779658
0.697446 0.608740 0.770959
0.758256 0.601692 0.763211
0.785763 0.594507 0.756893
0.793592 0.582500 0.751573
0.795093 0.548152 0.743551
0.190985 0.627390 0.743554
0.207874 0.626271 0.743125
0.295044 0.624722 0.742431
0.446721 0.618937 0.739224
0.604635 0.613923 0.735360
0.705317 0.614095 0.733398
0.752044 0.616742 0.733371
0.775908 0.617303 0.734109
0.784302 0.611363 0.732730
0.198417 0.665182 0.722524
0.210338 0.663869 0.721505
0.271431 0.660050 0.718552
0.385247 0.653130 0.712707
0.516919 0.645221 0.705804
0.635765 0.640699 0.702757
0.717220 0.647129 0.707898
0.754943 0.653046 0.716390
0.771174 0.657927 0.722105
0.212592 0.704479 0.709679
0.221758 0.703205 0.708142
0.265763 0.699153 0.703779
0.351763 0.692383 0.697931
0.456697 0.684351 0.691916
0.581564 0.676959 0.686117
0.671086 0.671977 0.681369
0.737710 0.680394 0.695406
0.761759 0.688978 0.710762
0.213258 0.743437 0.700522
0.219261 0.742266 0.699145
0.252805 0.738215 0.694886
0.315417 0.731924 0.689189
0.408442 0.724613 0.683790
0.516362 0.718016 0.679697
0.625872 0.713954 0.677784
0.720510 0.713826 0.679873
0.758286 0.720465 0.701188
0.187617 0.766632 0.674674
0.193925 0.767853 0.673880
0.199996 0.767874 0.671018
0.251042 0.765082 0.685959
0.340850 0.757061 0.678717
0.426268 0.750840 0.673874
0.534063 0.746669 0.670232
0.647874 0.745383 0.668551
0.759928 0.751731 0.695000
0.241189 0.604297 0.854343
0.255829 0.607165 0.854943
0.464571 0.621127 0.854700
0.726093 0.631819 0.854743
0.807608 0.643724 0.854980
0.832905 0.647466 0.852791
0.828903 0.609807 0.836804
0.822660 0.564497 0.817427
0.814136 0.483495 0.791937
0.248626 0.612909 0.854294
0.264587 0.615751 0.854865
0.468560 0.629952 0.854777
0.720458 0.640528 0.854824
0.805696 0.650074 0.855053
0.827333 0.645430 0.848747
0.825170 0.610160 0.832562
0.820087 0.567363 0.814296
0.812362 0.481513 0.789661
0.294328 0.653668 0.854084
0.317036 0.654996 0.854486
0.487009 0.661750 0.854801
0.698746 0.666820 0.854943
0.789768 0.662181 0.848704
0.808675 0.645044 0.835605
0.812739 0.618573 0.818129
0.811495 0.585709 0.803915
0.806626 0.492885 0.782113
0.326148 0.675550 0.844092
0.345226 0.674346 0.843154
0.454014 0.671718 0.839380
0.617192 0.664207 0.830823
0.730343 0.655130 0.818955
0.779293 0.646083 0.807359
0.794130 0.630981 0.797011
0.798524 0.610633 0.788283
0.797648 0.573790 0.778103
0.276375 0.667740 0.800000
0.289657 0.667116 0.799413
0.383271 0.665873 0.796733
0.517166 0.661556 0.791213
0.650739 0.656513 0.784889
0.730803 0.652659 0.779205
0.766936 0.649170 0.774609
0.783195 0.642199 0.770999
0.787235 0.629783 0.766321
0.251333 0.681450 0.770549
0.265117 0.680773 0.770276
0.333745 0.679077 0.769006
0.431711 0.674534 0.765174
0.570143 0.669520 0.760392
0.672826 0.666807 0.756888
0.734116 0.666468 0.755449
0.762976 0.666335 0.755482
0.774385 0.666655 0.754878
0.239471 0.710362 0.753102
0.249505 0.709529 0.752876
0.296063 0.707124 0.752494
0.384331 0.702357 0.750861
0.488496 0.696081 0.747485
0.606945 0.690620 0.743447
0.697752 0.688846 0.741578
0.745203 0.691128 0.743652
0.763867 0.695458 0.746057
0.219021 0.747029 0.740959
0.225314 0.745945 0.740438
0.262030 0.742094 0.739159
0.329664 0.736589 0.737854
0.418416 0.730441 0.737002
0.529461 0.724879 0.735948
0.636198 0.721065 0.734687
0.722462 0.718657 0.732987
0.759014 0.725613 0.740554
0.187547 0.763848 0.720367
0.206832 0.768611 0.720399
0.207843 0.767434 0.722320
0.246518 0.766481 0.725899
0.329697 0.760050 0.723348
0.420321 0.754245 0.721613
0.526653 0.750535 0.720753
0.638502 0.749550 0.720293
0.760552 0.756705 0.738836
0.442005 0.645406 0.876036
0.495445 0.646578 0.876037
0.699622 0.649893 0.876041
0.802729 0.655592 0.876068
0.831040 0.662149 0.876131
0.846233 0.667144 0.876255
0.837095 0.636964 0.860523
0.827635 0.577150 0.846938
0.816317 0.521586 0.829906
0.448164 0.649847 0.875963
0.498405 0.650699 0.875965
0.696042 0.654057 0.875973
0.801535 0.659805 0.876008
0.830522 0.666087 0.876078
0.841978 0.665533 0.873093
0.833781 0.635943 0.857686
0.825223 0.577238 0.844859
0.814630 0.526159 0.831480
0.477267 0.669851 0.875604
0.517943 0.670599 0.875614
0.682817 0.673506 0.875650
0.795831 0.678464 0.875729
0.825747 0.680890 0.874096
0.826948 0.663407 0.860684
0.822892 0.640111 0.848388
0.817237 0.588695 0.837902
0.808801 0.511498 0.823721
0.504494 0.702113 0.872544
0.528634 0.700415 0.871245
0.643230 0.695011 0.866894
0.758202 0.686749 0.859970
0.795289 0.676612 0.851557
0.804675 0.665238 0.842794
0.806482 0.651052 0.833444
0.805036 0.619442 0.822004
0.800706 0.582289 0.812375
0.427704 0.692196 0.841901
0.447239 0.691128 0.841120
0.550952 0.687803 0.838517
0.687034 0.682875 0.833212
0.750487 0.677102 0.825486
0.778392 0.670700 0.817564
0.788352 0.662839 0.810138
0.791410 0.649645 0.803572
0.790617 0.624147 0.798403
0.367027 0.699187 0.812952
0.383725 0.698237 0.812026
0.455544 0.695301 0.808967
0.599238 0.691105 0.804219
0.699051 0.686707 0.798883
0.742851 0.682749 0.794002
0.764761 0.678551 0.790030
0.776011 0.671742 0.786950
0.779250 0.666624 0.784884
0.315778 0.722200 0.795547
0.328175 0.721221 0.794767
0.381789 0.718042 0.792129
0.489133 0.713131 0.787922
0.620440 0.707912 0.783083
0.706067 0.703757 0.778783
0.742347 0.700819 0.775995
0.760890 0.697155 0.774691
0.768310 0.696694 0.774551
0.268512 0.755076 0.784863
0.274894 0.754250 0.784705
0.301901 0.751004 0.783375
0.380340 0.745346 0.780305
0.489777 0.739050 0.776398
0.621527 0.733770 0.772434
0.712836 0.730423 0.769303
0.749447 0.728133 0.767943
0.762124 0.727766 0.768464
0.187677 0.760941 0.742874
0.221994 0.769245 0.750947
0.218939 0.767329 0.749535
0.223996 0.764824 0.747253
0.318732 0.768056 0.762919
0.423458 0.764434 0.769751
0.531230 0.760713 0.768170
0.648256 0.759793 0.767031
0.761250 0.761706 0.766818
