LUTs/velvia/Velvia50_Classic_ExtraSoft.cube
TITLE "Velvia 50 Classic ExtraSoft"
# Adobe RGB in/out. REPLACES AgX. Velvia 50 Classic ExtraSoft.
LUT_3D_SIZE 9
DOMAIN_MIN 0.0 0.0 0.0
DOMAIN_MAX 1.0 1.0 1.0
0.072578 0.069118 0.085020
0.073881 0.069118 0.085020
0.262576 0.069118 0.085020
0.751992 0.069242 0.085020
0.864023 0.069674 0.085020
0.899762 0.070415 0.085059
0.914004 0.071243 0.085147
0.923442 0.069553 0.570808
0.924614 0.272218 0.755542
0.072578 0.069140 0.085020
0.072578 0.069172 0.085020
0.082958 0.069248 0.085020
0.605793 0.069545 0.085020
0.846700 0.070181 0.085020
0.895600 0.071393 0.085060
0.913369 0.072518 0.085141
0.923443 0.069554 0.570856
0.924614 0.272253 0.755540
0.072578 0.070704 0.085020
0.072578 0.071526 0.085020
0.073204 0.072591 0.085020
0.113148 0.073761 0.085020
0.692259 0.078537 0.085029
0.870160 0.086780 0.085071
0.909089 0.095398 0.085136
0.923507 0.069911 0.576345
0.924614 0.272256 0.755540
0.072578 0.104493 0.085020
0.072578 0.119440 0.085020
0.072733 0.159711 0.085020
0.077960 0.186658 0.085021
0.292257 0.234757 0.085058
0.788929 0.290583 0.085099
0.893574 0.357652 0.085151
0.918266 0.402546 0.085426
0.924614 0.272418 0.603498
0.072578 0.440109 0.085020
0.072578 0.463648 0.085020
0.072696 0.532220 0.085020
0.074494 0.576247 0.085055
0.109635 0.598299 0.085089
0.571509 0.622218 0.085134
0.852309 0.652158 0.085214
0.912770 0.688116 0.085449
0.924056 0.736829 0.117055
0.072578 0.716205 0.085020
0.072578 0.722905 0.085020
0.072684 0.749663 0.085046
0.073592 0.770835 0.085080
0.085396 0.779131 0.085125
0.316472 0.787639 0.085176
0.764314 0.799157 0.085297
0.898788 0.813491 0.085539
0.923136 0.837646 0.087104
0.072578 0.834220 0.085020
0.072578 0.837049 0.085026
0.072657 0.849415 0.085057
0.073356 0.860254 0.085100
0.079279 0.866997 0.085147
0.167666 0.871008 0.085240
0.612516 0.874590 0.085405
0.864688 0.878093 0.085631
0.921965 0.885092 0.086452
0.072578 0.894037 0.085020
0.072578 0.894153 0.085020
0.072578 0.895894 0.085033
0.072999 0.900241 0.085083
0.076003 0.904377 0.085140
0.107396 0.906727 0.085237
0.435088 0.908393 0.085406
0.804590 0.910763 0.085594
0.920976 0.914018 0.086094
0.072578 0.903213 0.085020
0.072578 0.903215 0.085020
0.072578 0.919017 0.085020
0.072578 0.919277 0.085020
0.073429 0.926363 0.085034
0.084946 0.926210 0.085101
0.223169 0.926114 0.085150
0.652430 0.926782 0.085218
0.921640 0.928316 0.085250
0.072578 0.069118 0.085051
0.073787 0.069118 0.086740
0.360241 0.069121 0.085157
0.793804 0.069265 0.085127
0.870898 0.069711 0.085108
0.900910 0.070465 0.085133
0.914004 0.071354 0.085341
0.923443 0.069554 0.570862
0.924614 0.272252 0.755543
0.072578 0.069131 0.085026
0.072809 0.069213 0.085093
0.148818 0.069264 0.085088
0.724747 0.069609 0.085107
0.858984 0.070242 0.085106
0.897463 0.071459 0.085132
0.913414 0.072664 0.085279
0.923443 0.069556 0.570936
0.924614 0.272254 0.755541
0.072578 0.070399 0.085020
0.072578 0.070991 0.085038
0.074333 0.071920 0.085066
0.266775 0.073544 0.085098
0.779293 0.078552 0.085115
0.877410 0.086636 0.085139
0.909632 0.095471 0.085244
0.923525 0.070113 0.578746
0.924614 0.272256 0.755540
0.072578 0.096895 0.085027
0.072578 0.108273 0.085042
0.073139 0.138763 0.085071
0.083863 0.168130 0.085108
0.446125 0.217976 0.085136
0.816007 0.281490 0.085164
0.897182 0.353246 0.085270
0.918378 0.402360 0.085693
0.924614 0.272303 0.755536
0.072578 0.420566 0.085033
0.072578 0.442674 0.085046
0.072827 0.511781 0.085076
0.075824 0.557000 0.085120
0.140779 0.583762 0.085160
0.637433 0.616257 0.085237
0.862115 0.647337 0.085381
0.913438 0.685461 0.085679
0.924046 0.737959 0.161479
0.072578 0.709010 0.085043
0.072578 0.715826 0.085053
0.072725 0.743501 0.085085
0.074025 0.764812 0.085131
0.089114 0.777191 0.085199
0.383027 0.783434 0.085323
0.787216 0.796436 0.085507
0.902229 0.812003 0.085805
0.923161 0.837737 0.088111
0.072578 0.831376 0.085047
0.072578 0.834243 0.085055
0.072688 0.847102 0.085088
0.073470 0.858580 0.085138
0.080616 0.865306 0.085227
0.190023 0.869559 0.085393
0.647840 0.873457 0.085588
0.870579 0.877592 0.085917
0.922094 0.884941 0.087096
0.072578 0.893356 0.085020
0.072578 0.893534 0.085020
0.072589 0.895357 0.085057
0.073095 0.899612 0.085115
0.076673 0.903665 0.085191
0.112221 0.906070 0.085350
0.461289 0.907932 0.085556
0.813731 0.910407 0.085853
0.921291 0.913927 0.086488
0.072578 0.905320 0.085102
0.072578 0.905322 0.085102
0.072578 0.920171 0.085102
0.072578 0.920171 0.085102
0.073475 0.926216 0.085056
0.085493 0.926059 0.085128
0.231841 0.925999 0.085208
0.663779 0.926702 0.085291
0.922865 0.928287 0.085355
0.072578 0.069118 0.086087
0.072874 0.069118 0.379938
0.265578 0.069158 0.258269
0.788391 0.069336 0.159895
0.872570 0.069860 0.128472
0.901869 0.070899 0.143361
0.913915 0.071964 0.276632
0.923477 0.069761 0.595145
0.924614 0.272255 0.755564
0.072578 0.069152 0.086095
0.072697 0.069221 0.092331
0.148651 0.069318 0.105434
0.740700 0.069744 0.103324
0.864907 0.070487 0.102402
0.899420 0.072011 0.112497
0.913432 0.073293 0.177093
0.923490 0.069834 0.596607
0.924614 0.272255 0.755544
0.072578 0.070333 0.085650
0.072660 0.070791 0.085914
0.079841 0.073090 0.087516
0.499323 0.073606 0.087657
0.822169 0.079428 0.089030
0.886774 0.087740 0.091737
0.910703 0.097075 0.099277
0.923208 0.076022 0.592980
0.924614 0.272256 0.755540
0.072588 0.093032 0.085577
0.072679 0.098359 0.085700
0.073854 0.122197 0.086041
0.114352 0.148131 0.086538
0.660932 0.200193 0.087349
0.856101 0.275002 0.088447
0.904125 0.347612 0.090448
0.918721 0.403293 0.110498
0.924614 0.272262 0.755543
0.072640 0.397965 0.085544
0.072696 0.416342 0.085601
0.073405 0.472461 0.085896
0.082012 0.526038 0.086242
0.300418 0.558807 0.086838
0.764464 0.600204 0.087600
0.882168 0.636776 0.088741
0.915218 0.677585 0.093413
0.924008 0.742360 0.580817
0.072664 0.694084 0.085538
0.072703 0.701746 0.085582
0.073254 0.726920 0.085839
0.076990 0.750375 0.086162
0.127259 0.766226 0.086764
0.556502 0.777070 0.087509
0.834927 0.789091 0.088343
0.908391 0.807160 0.091179
0.923243 0.838152 0.123675
0.072649 0.823796 0.085432
0.072680 0.826744 0.085473
0.073031 0.838787 0.085635
0.074600 0.852358 0.085983
0.088569 0.860259 0.086453
0.307826 0.865204 0.087214
0.729738 0.870029 0.088015
0.888280 0.875795 0.090227
0.922475 0.884431 0.097325
0.072578 0.887640 0.085247
0.072578 0.888453 0.085268
0.072717 0.892516 0.085463
0.073505 0.896903 0.085749
0.079638 0.900792 0.086134
0.148788 0.903466 0.086790
0.554093 0.905889 0.087522
0.845503 0.908982 0.088732
0.922094 0.913591 0.091470
0.072578 0.905322 0.085102
0.072578 0.920170 0.085102
0.072578 0.920171 0.085102
0.072578 0.920174 0.085102
0.073959 0.925314 0.085229
0.089410 0.925292 0.085554
0.282910 0.925422 0.085906
0.694761 0.926288 0.086137
0.923865 0.928144 0.086408
0.072578 0.069118 0.111151
0.072578 0.069179 0.608858
0.171459 0.069303 0.676919
0.752056 0.069656 0.662086
0.867938 0.070358 0.656587
0.900186 0.071817 0.667043
0.913400 0.073349 0.704342
0.922060 0.072585 0.771589
0.924614 0.272253 0.779013
0.072578 0.069223 0.117805
0.072627 0.069331 0.420357
0.111955 0.069663 0.610021
0.710248 0.070097 0.606114
0.860710 0.071289 0.612234
0.897999 0.073166 0.635755
0.912945 0.075493 0.687577
0.921890 0.073644 0.768011
0.924614 0.272255 0.779279
0.072578 0.070831 0.105434
0.072704 0.071404 0.117943
0.079410 0.072912 0.225935
0.518846 0.074579 0.344317
0.826886 0.081813 0.425154
0.887665 0.092151 0.488164
0.910604 0.107777 0.596813
0.920455 0.122314 0.726021
0.924614 0.272256 0.780248
0.072669 0.092628 0.096488
0.072793 0.097240 0.099359
0.074933 0.119840 0.110580
0.196747 0.180034 0.149801
0.718030 0.205322 0.170069
0.865686 0.282235 0.232335
0.905559 0.357679 0.382160
0.918678 0.420975 0.608493
0.924614 0.272310 0.780539
0.072731 0.383343 0.093883
0.072956 0.403037 0.095389
0.074155 0.453590 0.100587
0.091358 0.509239 0.110103
0.466517 0.547071 0.121890
0.810118 0.593107 0.142022
0.890798 0.633031 0.185962
0.915929 0.679045 0.381703
0.923933 0.748643 0.757871
0.072829 0.681435 0.092182
0.073006 0.690954 0.092865
0.073735 0.715961 0.096273
0.081196 0.740415 0.102155
0.203963 0.757322 0.110297
0.674336 0.771693 0.120633
0.860865 0.784030 0.138501
0.911094 0.804328 0.191140
0.923281 0.840050 0.641238
0.072783 0.817951 0.090848
0.072923 0.820786 0.091222
0.073444 0.831822 0.092890
0.077293 0.846179 0.097110
0.110424 0.855731 0.103566
0.461103 0.861587 0.110743
0.794762 0.867154 0.121370
0.900098 0.874222 0.140516
0.922746 0.884338 0.409131
0.072665 0.884481 0.088517
0.072692 0.885426 0.088774
0.073073 0.889613 0.090287
0.074426 0.894605 0.092280
0.085228 0.898370 0.096574
0.217311 0.901276 0.102430
0.648995 0.904096 0.109853
0.867453 0.907723 0.118269
0.922669 0.913368 0.180521
0.072578 0.913028 0.087551
0.072578 0.920169 0.087551
0.072578 0.920171 0.087551
0.072633 0.924154 0.086232
0.075572 0.923714 0.089425
0.102209 0.924127 0.091694
0.363851 0.924594 0.094481
0.755235 0.925669 0.097365
0.924234 0.928029 0.106424
0.072578 0.069175 0.478563
0.072578 0.069281 0.696768
0.095228 0.069747 0.786071
0.708677 0.070268 0.786279
0.860011 0.071423 0.786067
0.897625 0.073481 0.790864
0.912670 0.077588 0.801751
0.921167 0.078572 0.823192
0.924614 0.272256 0.836811
0.072578 0.069316 0.503211
0.072578 0.069562 0.673747
0.085938 0.070206 0.774196
0.674407 0.071099 0.777502
0.853466 0.072761 0.778784
0.895555 0.076003 0.785288
0.912229 0.081909 0.797822
0.921012 0.082639 0.821177
0.924614 0.272257 0.835408
0.072588 0.071537 0.479026
0.072705 0.072382 0.569165
0.078599 0.074567 0.701448
0.501935 0.080105 0.738102
0.822254 0.086587 0.751080
0.886413 0.102106 0.763658
0.910111 0.127125 0.779933
0.919998 0.159134 0.808572
0.924614 0.272269 0.829807
0.072719 0.098762 0.381699
0.072993 0.107505 0.427788
0.076132 0.135237 0.542412
0.207750 0.176572 0.623174
0.734708 0.233492 0.666503
0.868344 0.317048 0.699334
0.905750 0.389275 0.742866
0.918485 0.451495 0.784368
0.924614 0.535874 0.829834
0.072974 0.384544 0.279159
0.073212 0.403432 0.306877
0.075004 0.452042 0.397923
0.106438 0.508864 0.483055
0.558194 0.570529 0.579269
0.827161 0.597796 0.603217
0.894289 0.639026 0.661400
0.916138 0.689339 0.738927
0.923830 0.757032 0.820322
0.073137 0.677292 0.225857
0.073301 0.686273 0.239317
0.074662 0.711615 0.296213
0.086294 0.735323 0.383808
0.297116 0.753990 0.457788
0.727736 0.769848 0.507467
0.872279 0.782971 0.575993
0.912415 0.804907 0.646706
0.923254 0.843737 0.792177
0.073108 0.815179 0.184447
0.073238 0.817925 0.191439
0.073981 0.828233 0.224307
0.079860 0.841876 0.285021
0.145460 0.852814 0.365381
0.552878 0.859722 0.432621
0.824405 0.865788 0.480021
0.905617 0.873386 0.550574
0.922850 0.885198 0.741959
0.072735 0.883138 0.145103
0.072848 0.884052 0.148684
0.073365 0.887914 0.165711
0.075766 0.893188 0.199568
0.092320 0.896824 0.254136
0.303730 0.899885 0.322048
0.707133 0.902988 0.387336
0.881266 0.906962 0.446333
0.922956 0.913521 0.619241
0.072578 0.914814 0.165740
0.072578 0.915869 0.165740
0.072578 0.918330 0.165736
0.073013 0.921799 0.127692
0.077354 0.923000 0.151897
0.113808 0.923543 0.182766
0.430804 0.924147 0.217568
0.790980 0.925366 0.248232
0.924406 0.928254 0.451073
0.072578 0.069333 0.741390
0.072578 0.069503 0.797183
0.081852 0.070493 0.843504
0.659043 0.071570 0.845011
0.852641 0.073413 0.845728
0.894967 0.078294 0.847700
0.911910 0.084945 0.851883
0.920601 0.089839 0.859733
0.924614 0.272257 0.861759
0.072578 0.069616 0.750080
0.072578 0.069798 0.794283
0.079761 0.071311 0.840177
0.613387 0.072801 0.842659
0.847181 0.075439 0.843803
0.893043 0.082390 0.846066
0.911493 0.091056 0.850715
0.920453 0.097360 0.859048
0.924614 0.272257 0.861759
0.072608 0.072903 0.754299
0.072695 0.073543 0.776014
0.077841 0.080438 0.824596
0.461471 0.086545 0.831315
0.817391 0.097024 0.835435
0.884851 0.122115 0.839215
0.909586 0.159166 0.845457
0.919613 0.218968 0.855196
0.924614 0.272269 0.861759
0.072768 0.112527 0.714715
0.073066 0.120757 0.735329
0.076829 0.160808 0.779878
0.218880 0.217469 0.806092
0.743388 0.279084 0.818087
0.869040 0.349153 0.826432
0.905714 0.420947 0.834784
0.918284 0.489852 0.848005
0.924458 0.586712 0.862338
0.073158 0.409172 0.671946
0.073366 0.423366 0.682686
0.076352 0.475882 0.722958
0.122876 0.529952 0.763330
0.585215 0.570616 0.782380
0.835737 0.611600 0.797356
0.896031 0.651845 0.814968
0.916235 0.701980 0.835137
0.923731 0.766775 0.860354
0.073325 0.681355 0.628485
0.073483 0.690248 0.637283
0.075605 0.713338 0.667724
0.092399 0.736726 0.701914
0.372824 0.755405 0.738460
0.766191 0.774976 0.764545
0.877990 0.785381 0.780291
0.913127 0.808098 0.810557
0.923231 0.848148 0.851850
0.073308 0.815773 0.596285
0.073433 0.818360 0.598711
0.074698 0.828109 0.618701
0.083564 0.841222 0.652645
0.190618 0.852257 0.683960
0.613494 0.859515 0.712121
0.842167 0.865877 0.740413
0.907786 0.873847 0.768702
0.922911 0.886702 0.836648
0.072918 0.883544 0.550021
0.073039 0.884406 0.555445
0.073533 0.887984 0.580075
0.077337 0.892899 0.598420
0.103094 0.896476 0.626991
0.376376 0.899591 0.659211
0.744501 0.902843 0.682165
0.889607 0.907012 0.707143
0.923090 0.913960 0.800841
0.072578 0.915504 0.400910
0.072578 0.916424 0.413370
0.072578 0.918493 0.456808
0.073095 0.922095 0.503366
0.078137 0.923064 0.549397
0.125179 0.923588 0.584217
0.465642 0.924258 0.598600
0.804773 0.925518 0.611813
0.924462 0.928579 0.752068
0.072578 0.069774 0.846999
0.072578 0.069885 0.868458
0.076088 0.071836 0.884741
0.606853 0.073534 0.886260
0.848353 0.078303 0.886961
0.893505 0.085361 0.888093
0.911529 0.095136 0.890544
0.920274 0.110794 0.894721
0.924614 0.272189 0.897942
0.072578 0.070082 0.849029
0.072578 0.070319 0.867408
0.076101 0.072868 0.883489
0.573496 0.075378 0.885373
0.842947 0.081979 0.886224
0.891889 0.091054 0.887454
0.911145 0.107025 0.889996
0.920138 0.127264 0.894385
0.924614 0.272164 0.897661
0.072618 0.074325 0.852163
0.072687 0.075635 0.862323
0.076387 0.084946 0.877441
0.448217 0.095149 0.881336
0.817713 0.115779 0.882978
0.884873 0.149167 0.884709
0.909458 0.199166 0.887672
0.919429 0.278782 0.892561
0.924612 0.271600 0.896379
0.072854 0.130555 0.840718
0.073109 0.139986 0.847779
0.076796 0.189713 0.865000
0.236159 0.263165 0.873301
0.757433 0.330372 0.876817
0.871169 0.395574 0.879669
0.906104 0.450954 0.883441
0.918281 0.523026 0.889338
0.924213 0.638870 0.897921
0.073271 0.438040 0.822899
0.073456 0.451063 0.827542
0.077057 0.503947 0.843893
0.137740 0.552264 0.858339
0.630049 0.592945 0.866556
0.845052 0.626887 0.871443
0.898141 0.665758 0.876642
0.916510 0.712613 0.884220
0.923691 0.774937 0.895268
0.073456 0.695578 0.797134
0.073647 0.701609 0.801576
0.076677 0.721777 0.818464
0.101846 0.744823 0.835347
0.443925 0.762072 0.848655
0.788740 0.776796 0.857786
0.882739 0.789448 0.865832
0.913836 0.811736 0.875997
0.923269 0.851783 0.891747
0.073414 0.819504 0.774653
0.073537 0.822001 0.777304
0.075109 0.831285 0.787846
0.085792 0.843861 0.804920
0.223544 0.854125 0.824626
0.662694 0.860731 0.836100
0.852211 0.867060 0.846074
0.909317 0.875024 0.860850
0.923018 0.888445 0.885825
0.072964 0.885907 0.756329
0.073087 0.886685 0.758076
0.073627 0.889912 0.764391
0.078039 0.894073 0.773323
0.109963 0.897369 0.787428
0.421148 0.900392 0.802570
0.769501 0.903653 0.817331
0.894288 0.907818 0.829515
0.923206 0.914597 0.874044
0.072578 0.915410 0.640606
0.072578 0.917197 0.640660
0.072578 0.919484 0.642097
0.072866 0.923424 0.740329
0.077842 0.923894 0.753064
0.124595 0.924279 0.762970
0.467386 0.924900 0.768780
0.805118 0.926149 0.774153
0.924508 0.929041 0.855790
0.072578 0.070492 0.907713
0.072578 0.070728 0.907901
0.078175 0.073019 0.909511
0.661979 0.075820 0.909823
0.855123 0.082048 0.910043
0.896115 0.090642 0.910413
0.912116 0.104400 0.911137
0.920569 0.123502 0.912750
0.924614 0.312442 0.913648
0.072578 0.071123 0.907691
0.072578 0.071364 0.907867
0.078356 0.074042 0.909279
0.635987 0.079459 0.909635
0.851842 0.085942 0.909877
0.894940 0.096883 0.910266
0.911838 0.118213 0.911008
0.920454 0.143122 0.912632
0.924614 0.321849 0.913648
0.072670 0.079938 0.907346
0.072725 0.081157 0.907730
0.079280 0.091116 0.908066
0.539326 0.105793 0.908691
0.833588 0.130015 0.909076
0.889397 0.172101 0.909568
0.910503 0.231341 0.910399
0.919872 0.306283 0.912042
0.924614 0.422330 0.913648
0.073014 0.155336 0.904725
0.073240 0.165213 0.905863
0.079340 0.227357 0.907730
0.357082 0.287685 0.907867
0.796034 0.349141 0.907947
0.879015 0.410153 0.908515
0.907998 0.463801 0.909494
0.918965 0.530338 0.911260
0.924239 0.660845 0.913645
0.073395 0.467569 0.899301
0.073568 0.478297 0.901201
0.079024 0.526397 0.904843
0.193643 0.566456 0.907178
0.702106 0.604051 0.907737
0.859986 0.634321 0.907852
0.903222 0.672072 0.908237
0.917587 0.714061 0.910123
0.923839 0.777722 0.912726
0.073552 0.709139 0.887551
0.073885 0.713418 0.890293
0.078125 0.732115 0.897717
0.119296 0.750699 0.902928
0.534841 0.766506 0.905565
0.818518 0.778015 0.907328
0.890956 0.791848 0.907783
0.915511 0.812131 0.908664
0.923517 0.853667 0.911856
0.073470 0.825641 0.868456
0.073616 0.827835 0.870917
0.075937 0.837016 0.880258
0.088761 0.848038 0.891585
0.286284 0.856312 0.899305
0.708639 0.862154 0.903351
0.866313 0.868038 0.905812
0.911819 0.875417 0.907779
0.923321 0.889421 0.910750
0.072822 0.890876 0.845972
0.072960 0.891461 0.847321
0.073536 0.893722 0.853775
0.077962 0.896392 0.864682
0.112820 0.899277 0.877561
0.455906 0.902062 0.888913
0.788267 0.905118 0.896658
0.897327 0.908137 0.901065
0.923440 0.915196 0.908810
0.072578 0.914452 0.806578
0.072578 0.919397 0.808177
0.072578 0.920124 0.819103
0.072685 0.924749 0.833110
0.075898 0.925732 0.838692
0.110319 0.925748 0.845976
0.426765 0.926169 0.852873
0.788088 0.927279 0.856844
0.924556 0.929598 0.906298
0.078677 0.070423 0.922113
0.087970 0.070495 0.922115
0.543011 0.071009 0.922121
0.846269 0.071974 0.922142
0.890232 0.073384 0.922184
0.907826 0.075804 0.922267
0.915947 0.078153 0.922493
0.922349 0.075308 0.922958
0.924614 0.272264 0.921616
0.078681 0.070899 0.922065
0.087652 0.071028 0.922067
0.534422 0.071529 0.922076
0.843340 0.072781 0.922101
0.889374 0.074429 0.922147
0.907613 0.079033 0.922236
0.915869 0.081277 0.922465
0.922301 0.078458 0.922937
0.924614 0.272268 0.922600
0.079266 0.074745 0.921800
0.087426 0.075429 0.921809
0.497518 0.078339 0.921839
0.829575 0.082518 0.921894
0.885216 0.089032 0.921968
0.906581 0.097783 0.922088
0.915470 0.108223 0.922330
0.922044 0.103971 0.922811
0.924614 0.272355 0.922600
0.080645 0.137523 0.921354
0.086370 0.141104 0.921376
0.379408 0.156029 0.921452
0.800208 0.184800 0.921563
0.876281 0.233513 0.921684
0.904257 0.278632 0.921846
0.914591 0.323182 0.922119
0.921558 0.358451 0.922575
0.924614 0.636054 0.923243
0.079666 0.449631 0.920976
0.083774 0.454564 0.921014
0.205363 0.474758 0.921142
0.730529 0.507091 0.921289
0.860871 0.536866 0.921457
0.898253 0.566523 0.921658
0.913155 0.593672 0.921944
0.921044 0.624887 0.922409
0.924561 0.755960 0.923306
0.077560 0.703782 0.920722
0.079207 0.706336 0.920779
0.110377 0.715568 0.920961
0.566122 0.728628 0.921165
0.827066 0.742512 0.921359
0.887565 0.754101 0.921583
0.910741 0.765662 0.921872
0.920337 0.777705 0.922317
0.924461 0.837497 0.923140
0.074433 0.827091 0.920588
0.074971 0.828295 0.920668
0.081975 0.833406 0.920909
0.217147 0.840803 0.921183
0.713122 0.847726 0.921429
0.863976 0.853731 0.921671
0.905875 0.858546 0.921984
0.919256 0.863283 0.922389
0.924431 0.882121 0.923128
0.072745 0.892911 0.919137
0.072890 0.893302 0.919663
0.073503 0.894700 0.920664
0.080730 0.896723 0.921270
0.234680 0.898469 0.921682
0.736644 0.900263 0.921986
0.881359 0.902538 0.922280
0.916313 0.904656 0.922650
0.924486 0.913433 0.923241
0.072578 0.912731 0.863916
0.072578 0.920171 0.882096
0.072578 0.920171 0.882096
0.072578 0.921386 0.882144
0.073486 0.929045 0.911049
0.092478 0.928012 0.921897
0.387745 0.927943 0.922804
0.796182 0.928742 0.923198
0.924614 0.930238 0.923434
