LUTs/velvia/Velvia50_Classic_IlfochromeM.cube
TITLE "Velvia 50 Classic IlfochromeM"
# Adobe RGB in/out. REPLACES AgX. Velvia 50 Classic IlfochromeM.
LUT_3D_SIZE 5
DOMAIN_MIN 0.0 0.0 0.0
DOMAIN_MAX 1.0 1.0 1.0
0.118305 0.082367 0.079686
0.389178 0.098686 0.083635
0.842379 0.147796 0.099379
0.933890 0.193377 0.130507
0.950399 0.387196 0.660435
0.119139 0.183108 0.082925
0.152375 0.212390 0.088956
0.604509 0.248483 0.104749
0.923773 0.295297 0.128095
0.950399 0.387211 0.660432
0.121674 0.450790 0.093119
0.135615 0.490260 0.102858
0.299922 0.525176 0.118530
0.822278 0.559672 0.138256
0.949852 0.623233 0.326290
0.123756 0.750214 0.102379
0.132458 0.768818 0.111432
0.215799 0.802360 0.130509
0.540902 0.818817 0.152555
0.947800 0.848433 0.199463
0.118315 0.880560 0.079883
0.118312 0.918617 0.080207
0.160081 0.933042 0.106015
0.373786 0.932551 0.131319
0.947481 0.937005 0.142062
0.118925 0.089008 0.188344
0.390183 0.109775 0.400705
0.858513 0.157814 0.339825
0.933707 0.204561 0.405882
0.950399 0.387211 0.660464
0.124403 0.173690 0.167884
0.220717 0.218764 0.220972
0.769786 0.251607 0.238744
0.927089 0.298620 0.290297
0.950399 0.387211 0.660432
0.131482 0.432340 0.161656
0.159206 0.464263 0.178931
0.402401 0.504209 0.208065
0.878116 0.550366 0.236422
0.949804 0.628515 0.512537
0.131963 0.738232 0.154190
0.147413 0.755476 0.167300
0.262557 0.787916 0.199480
0.638095 0.808909 0.228809
0.948300 0.847496 0.284469
0.118308 0.884928 0.121068
0.118313 0.920876 0.121066
0.171858 0.930974 0.139796
0.395819 0.931189 0.179401
0.949665 0.936585 0.198504
0.119543 0.112924 0.468364
0.278509 0.151391 0.715517
0.835470 0.196905 0.715511
0.931139 0.245159 0.740422
0.950399 0.387211 0.793351
0.128578 0.199171 0.468628
0.209901 0.233879 0.606914
0.769935 0.276301 0.654425
0.925873 0.325548 0.704782
0.950399 0.387216 0.782490
0.145813 0.427617 0.406573
0.184814 0.455825 0.438185
0.509126 0.510300 0.511517
0.900790 0.551732 0.570234
0.949630 0.646709 0.763925
0.149610 0.728369 0.375242
0.172090 0.743327 0.390014
0.333629 0.773951 0.428625
0.773679 0.799757 0.469195
0.948669 0.848583 0.644587
0.118306 0.908232 0.366836
0.118311 0.917274 0.366834
0.199976 0.926425 0.358452
0.448388 0.928679 0.387725
0.950195 0.936853 0.455308
0.121416 0.152900 0.812372
0.192144 0.202995 0.865965
0.815538 0.247663 0.868751
0.928788 0.294776 0.872506
0.950399 0.387185 0.881199
0.130238 0.231840 0.822098
0.193890 0.271244 0.855828
0.762057 0.316649 0.863514
0.924532 0.363103 0.869496
0.950398 0.386951 0.879250
0.154390 0.449909 0.767201
0.197851 0.476866 0.806550
0.550921 0.522329 0.840913
0.905825 0.567845 0.854720
0.949494 0.670691 0.877865
0.159537 0.733315 0.695609
0.186264 0.746836 0.718636
0.373979 0.775954 0.769399
0.822111 0.802497 0.810637
0.948833 0.853195 0.867473
0.118395 0.910184 0.556421
0.118609 0.919533 0.557381
0.203496 0.928181 0.657095
0.463097 0.930161 0.685475
0.950296 0.938774 0.827398
0.210608 0.176703 0.932696
0.499806 0.188853 0.932708
0.894761 0.222590 0.932798
0.937904 0.247137 0.933238
0.950399 0.387215 0.931988
0.215684 0.235394 0.932251
0.473423 0.247791 0.932305
0.884388 0.282416 0.932491
0.936918 0.309970 0.933007
0.950399 0.387251 0.933392
0.219170 0.454814 0.930748
0.364511 0.465198 0.931140
0.836949 0.492719 0.931761
0.932139 0.522716 0.932456
0.950348 0.645374 0.934399
0.177459 0.742015 0.929828
0.231226 0.749277 0.930590
0.620387 0.766271 0.931722
0.917189 0.784269 0.932513
0.950220 0.843795 0.934144
0.118309 0.901610 0.837594
0.118318 0.920877 0.862289
0.162171 0.938783 0.907460
0.432832 0.936159 0.933682
0.950399 0.941699 0.934580
