LUTs/velvia/Velvia50_Modern_Normal.cube
TITLE "Velvia 50 Modern Normal"
# Adobe RGB in/out. REPLACES AgX. Velvia 50 Modern Normal.
LUT_3D_SIZE 9
DOMAIN_MIN 0.0 0.0 0.0
DOMAIN_MAX 1.0 1.0 1.0
0.090873 0.083221 0.090772
0.113825 0.083221 0.090772
0.881730 0.083557 0.090772
0.980825 0.085022 0.090774
0.989973 0.089595 0.090799
0.989973 0.102933 0.090840
0.989973 0.109295 0.091034
0.989973 0.085813 0.870622
0.989973 0.624454 0.943188
0.090873 0.083660 0.090772
0.090880 0.083572 0.090772
0.204669 0.084253 0.090772
0.942095 0.087328 0.090773
0.987125 0.098931 0.090797
0.989973 0.116651 0.090833
0.989973 0.129945 0.090982
0.989973 0.085654 0.865134
0.989973 0.613964 0.940991
0.090873 0.163935 0.090772
0.090873 0.143629 0.090772
0.092510 0.104287 0.090772
0.299282 0.121075 0.090775
0.937171 0.187878 0.090796
0.985685 0.280184 0.090824
0.989973 0.332064 0.090928
0.989973 0.087522 0.849557
0.989973 0.572650 0.933000
0.090873 0.647049 0.090772
0.090881 0.625263 0.090772
0.091836 0.538268 0.090779
0.108458 0.438048 0.090786
0.537293 0.466074 0.090801
0.948298 0.554808 0.090827
0.986015 0.631596 0.090909
0.989973 0.661371 0.091141
0.989973 0.510354 0.831349
0.090873 0.892746 0.090781
0.090926 0.886327 0.090785
0.091617 0.870029 0.090794
0.098409 0.845503 0.090805
0.224097 0.819661 0.090814
0.768783 0.820794 0.090841
0.965411 0.843056 0.090917
0.987450 0.858079 0.091075
0.989973 0.892730 0.208740
0.090889 0.949731 0.090789
0.090945 0.948990 0.090792
0.091472 0.947972 0.090806
0.094752 0.944339 0.090818
0.138428 0.938671 0.090842
0.474161 0.933108 0.090871
0.909279 0.931942 0.090939
0.980793 0.937525 0.091068
0.987888 0.943981 0.092230
0.090873 0.972093 0.090790
0.090917 0.971525 0.090793
0.091179 0.970744 0.090808
0.092860 0.969013 0.090827
0.109396 0.965843 0.090860
0.280584 0.962025 0.090915
0.760189 0.959357 0.090968
0.959211 0.958652 0.091071
0.985536 0.962628 0.091466
0.090873 0.987619 0.090772
0.090873 0.987048 0.090772
0.090944 0.985853 0.090789
0.091808 0.984697 0.090811
0.098716 0.982800 0.090844
0.178462 0.980011 0.090899
0.527278 0.977485 0.090957
0.917644 0.976259 0.091036
0.983776 0.976518 0.091202
0.090873 0.983990 0.090772
0.090873 0.983528 0.090772
0.090873 0.988504 0.090772
0.090873 0.988389 0.090772
0.092225 0.988578 0.090783
0.113403 0.988414 0.090807
0.285672 0.988267 0.090827
0.741781 0.987302 0.090850
0.982913 0.986941 0.090856
0.090873 0.083221 0.090890
0.117533 0.083221 0.192443
0.915554 0.083661 0.091510
0.983541 0.085151 0.091106
0.989973 0.089480 0.090971
0.989973 0.102472 0.091021
0.989973 0.109511 0.091421
0.989973 0.085731 0.867687
0.989973 0.619013 0.942050
0.090873 0.083496 0.090800
0.091160 0.083421 0.090798
0.481540 0.084225 0.090850
0.962207 0.087312 0.090931
0.988316 0.097866 0.090932
0.989973 0.114509 0.090976
0.989973 0.129449 0.091264
0.989973 0.085575 0.862228
0.989973 0.608612 0.939861
0.090873 0.119675 0.090813
0.091017 0.105632 0.090810
0.095832 0.092513 0.090803
0.538932 0.108087 0.090826
0.955106 0.171048 0.090864
0.986420 0.265253 0.090932
0.989973 0.323468 0.091090
0.989973 0.088227 0.848085
0.989973 0.565957 0.930856
0.090917 0.570233 0.090815
0.091028 0.538281 0.090817
0.092565 0.450372 0.090819
0.129447 0.363930 0.090823
0.669969 0.418880 0.090851
0.956827 0.526298 0.090912
0.986257 0.616075 0.091026
0.989973 0.653290 0.091410
0.989973 0.504622 0.910178
0.090949 0.870418 0.090813
0.091024 0.864060 0.090816
0.091960 0.852353 0.090834
0.102484 0.826472 0.090851
0.268537 0.786492 0.090875
0.821585 0.798965 0.090920
0.968725 0.836177 0.091017
0.987361 0.856286 0.091212
0.989973 0.891294 0.344322
0.090955 0.947535 0.090811
0.091008 0.946834 0.090814
0.091710 0.945455 0.090837
0.096523 0.941084 0.090867
0.158342 0.935427 0.090915
0.536987 0.929391 0.090960
0.918284 0.929427 0.091037
0.981291 0.936310 0.091181
0.987732 0.943538 0.093341
0.090920 0.970638 0.090806
0.090963 0.970090 0.090809
0.091365 0.969288 0.090827
0.093390 0.967443 0.090866
0.114076 0.964195 0.090931
0.306331 0.960574 0.090988
0.791692 0.958168 0.091077
0.962431 0.957714 0.091169
0.985468 0.962263 0.091805
0.090873 0.986922 0.090774
0.090873 0.986386 0.090778
0.090979 0.985166 0.090801
0.091920 0.983911 0.090827
0.099493 0.981990 0.090884
0.187584 0.979271 0.090955
0.555904 0.976882 0.091037
0.923014 0.975794 0.091127
0.983814 0.976279 0.091380
0.090873 0.985038 0.090816
0.090873 0.984578 0.090816
0.090873 0.988548 0.090814
0.090873 0.988421 0.090812
0.092365 0.988561 0.090790
0.114946 0.988398 0.090817
0.293674 0.988255 0.090852
0.751601 0.987165 0.090885
0.983290 0.986873 0.090897
0.090873 0.083226 0.131406
0.094491 0.083595 0.909106
0.894059 0.084328 0.884226
0.984589 0.087106 0.819407
0.989973 0.093709 0.679067
0.989973 0.106727 0.656062
0.989973 0.116424 0.761551
0.989973 0.086865 0.873901
0.989973 0.607808 0.939701
0.090873 0.084230 0.132398
0.092324 0.085035 0.496953
0.671078 0.085757 0.547754
0.967948 0.089051 0.475311
0.988978 0.101431 0.435816
0.989973 0.121136 0.486955
0.989973 0.139437 0.635513
0.989973 0.087273 0.869782
0.989973 0.595067 0.937491
0.090939 0.097428 0.092866
0.091220 0.092368 0.092226
0.099816 0.088606 0.091725
0.725345 0.102978 0.094744
0.966464 0.161237 0.106477
0.987271 0.251641 0.139767
0.989973 0.314186 0.220311
0.989973 0.140639 0.848858
0.989973 0.551471 0.926147
0.091102 0.432142 0.092849
0.091554 0.402430 0.092595
0.095294 0.325126 0.091956
0.189758 0.257483 0.091720
0.831161 0.349713 0.092837
0.969212 0.481580 0.096341
0.986645 0.583134 0.104126
0.989973 0.637301 0.224443
0.989973 0.491538 0.907154
0.091378 0.836894 0.092263
0.091671 0.831119 0.092260
0.093727 0.805663 0.092208
0.120362 0.748650 0.092064
0.431923 0.709177 0.092099
0.909252 0.748215 0.093063
0.976021 0.818998 0.094778
0.987179 0.846012 0.107051
0.989902 0.888951 0.749712
0.091415 0.940853 0.091735
0.091624 0.939848 0.091784
0.092922 0.937640 0.092024
0.104914 0.931762 0.092196
0.237320 0.922342 0.092349
0.711807 0.909697 0.092704
0.944887 0.917861 0.093267
0.982454 0.931747 0.096527
0.987306 0.942361 0.178920
0.091168 0.966342 0.091278
0.091344 0.965797 0.091312
0.092015 0.964742 0.091452
0.097390 0.962553 0.091721
0.144160 0.959374 0.092001
0.432775 0.955465 0.092382
0.871329 0.953176 0.092940
0.970625 0.954091 0.093913
0.985271 0.961164 0.102352
0.090930 0.983371 0.090988
0.090968 0.982972 0.091012
0.091388 0.982253 0.091127
0.093049 0.981038 0.091293
0.107565 0.979107 0.091535
0.241241 0.976662 0.091850
0.670635 0.974759 0.092323
0.943490 0.974140 0.092973
0.983878 0.975488 0.094290
0.090873 0.984269 0.090815
0.090873 0.988589 0.090815
0.090873 0.988511 0.090814
0.090873 0.988387 0.090812
0.093381 0.988486 0.090881
0.123108 0.988334 0.091024
0.331972 0.987715 0.091136
0.802882 0.986610 0.091208
0.983549 0.986611 0.091288
0.090873 0.083599 0.748083
0.091414 0.084665 0.965300
0.818862 0.087309 0.974619
0.984029 0.097282 0.974241
0.989973 0.111179 0.958282
0.989973 0.134157 0.943470
0.989973 0.151525 0.942358
0.989973 0.114254 0.957292
0.989973 0.598906 0.951413
0.090873 0.085196 0.777495
0.091779 0.088023 0.920855
0.694246 0.097645 0.965537
0.974881 0.107186 0.952863
0.989973 0.125955 0.934914
0.989973 0.158547 0.920581
0.989973 0.179622 0.929142
0.989973 0.130891 0.952362
0.989973 0.585253 0.949455
0.091039 0.106220 0.468193
0.091722 0.108278 0.504598
0.129978 0.112099 0.622083
0.828199 0.133719 0.701476
0.971394 0.201076 0.770928
0.987682 0.284265 0.813364
0.989973 0.342776 0.857590
0.989973 0.359919 0.914931
0.989973 0.540750 0.942760
0.091425 0.338503 0.246468
0.091833 0.325583 0.230656
0.097503 0.263045 0.187823
0.230373 0.214366 0.162657
0.876544 0.334686 0.304026
0.971722 0.472148 0.472798
0.986456 0.577779 0.621322
0.989973 0.643927 0.827097
0.989973 0.480455 0.929134
0.091822 0.779878 0.210362
0.092079 0.769304 0.203166
0.096758 0.731588 0.184210
0.147977 0.661317 0.158806
0.544939 0.625788 0.151955
0.926869 0.706204 0.211725
0.977949 0.793643 0.335424
0.986668 0.839555 0.544793
0.989327 0.889729 0.886294
0.091916 0.931760 0.160004
0.092100 0.930407 0.158977
0.095374 0.927058 0.158657
0.117177 0.911234 0.153412
0.316606 0.891375 0.149596
0.803805 0.882851 0.155366
0.956048 0.899472 0.192584
0.982589 0.927258 0.297551
0.986782 0.941385 0.772436
0.091745 0.961191 0.118799
0.091897 0.960698 0.119538
0.093322 0.959601 0.123907
0.103539 0.957033 0.128594
0.197131 0.952681 0.133351
0.571280 0.949650 0.139609
0.912777 0.949019 0.150838
0.975198 0.950451 0.182767
0.984939 0.959999 0.468115
0.091072 0.979997 0.098014
0.091231 0.979693 0.098344
0.091907 0.979140 0.101138
0.095491 0.977905 0.104549
0.120187 0.976045 0.110030
0.308094 0.973894 0.114502
0.759232 0.972430 0.122364
0.955982 0.972318 0.133660
0.983790 0.974616 0.220350
0.090873 0.987686 0.093471
0.090873 0.988528 0.093419
0.090873 0.988453 0.093247
0.090987 0.988527 0.091514
0.096593 0.988362 0.093871
0.146132 0.988228 0.095702
0.404220 0.986583 0.097616
0.862675 0.985785 0.099142
0.983572 0.986322 0.106668
0.090873 0.084612 0.938248
0.090995 0.086522 0.976081
0.587125 0.101102 0.982717
0.980594 0.130932 0.982739
0.989973 0.199557 0.982486
0.989973 0.216580 0.978084
0.989973 0.225728 0.975639
0.989973 0.193622 0.975003
0.989973 0.598935 0.974626
0.090873 0.087655 0.943307
0.091258 0.093046 0.974454
0.459485 0.126026 0.982279
0.975031 0.189502 0.982486
0.989973 0.223253 0.979353
0.989973 0.247974 0.975935
0.989973 0.265239 0.974410
0.989973 0.223276 0.974406
0.989973 0.584850 0.974389
0.091449 0.200077 0.927692
0.092232 0.219848 0.942227
0.190638 0.267976 0.964581
0.899434 0.281291 0.961895
0.978862 0.320365 0.955826
0.989267 0.372034 0.953882
0.989973 0.414504 0.956283
0.989973 0.445628 0.963649
0.989973 0.538907 0.968478
0.091712 0.358564 0.776433
0.092094 0.358423 0.779073
0.103065 0.355783 0.796284
0.373945 0.358009 0.820616
0.913507 0.421896 0.847804
0.975664 0.525775 0.874153
0.986875 0.615751 0.903617
0.989973 0.679813 0.936371
0.989973 0.752847 0.958393
0.092037 0.721023 0.667814
0.092574 0.714432 0.660070
0.098611 0.685252 0.639192
0.173232 0.626444 0.614344
0.592542 0.587358 0.592444
0.936024 0.698322 0.710101
0.978836 0.792806 0.804986
0.986392 0.841331 0.869978
0.988966 0.895480 0.939346
0.092351 0.914584 0.601720
0.092891 0.911601 0.597296
0.097852 0.903855 0.588759
0.133237 0.886849 0.571095
0.379781 0.867778 0.554650
0.840887 0.860783 0.561357
0.960293 0.887325 0.633839
0.982409 0.924118 0.763460
0.986338 0.941221 0.900346
0.092080 0.955622 0.505610
0.092414 0.955045 0.504496
0.095251 0.953663 0.507182
0.110395 0.950764 0.507774
0.242684 0.948494 0.507334
0.667708 0.946768 0.513005
0.927829 0.946590 0.534210
0.976977 0.948961 0.603446
0.984558 0.959305 0.841485
0.091482 0.977027 0.356095
0.091626 0.976760 0.357790
0.092431 0.976227 0.374725
0.098214 0.975065 0.393193
0.140725 0.973331 0.412845
0.377121 0.971453 0.430677
0.823582 0.970365 0.449889
0.963757 0.970756 0.475339
0.983620 0.974125 0.681824
0.090873 0.987859 0.324580
0.090873 0.988245 0.319854
0.090873 0.988294 0.304437
0.091630 0.988350 0.193062
0.098615 0.988273 0.226303
0.168463 0.987055 0.252373
0.466365 0.985660 0.272911
0.891976 0.985040 0.286340
0.983518 0.986304 0.457289
0.090873 0.088075 0.978969
0.090968 0.090816 0.983872
0.350289 0.151480 0.988064
0.972344 0.222785 0.988161
0.989973 0.337791 0.988207
0.989973 0.356061 0.986085
0.989973 0.349822 0.982494
0.989973 0.323862 0.981058
0.989973 0.607617 0.978583
0.090887 0.095451 0.979575
0.091052 0.103087 0.983572
0.307481 0.206172 0.987849
0.967215 0.294718 0.988009
0.989973 0.398661 0.987891
0.989973 0.386129 0.984495
0.989973 0.381986 0.982168
0.989973 0.354234 0.980280
0.989973 0.593777 0.978108
0.091655 0.303226 0.979952
0.092415 0.344929 0.982476
0.242000 0.493832 0.986521
0.922844 0.494318 0.984421
0.982923 0.490735 0.982242
0.989973 0.501613 0.979802
0.989973 0.519432 0.978242
0.989973 0.541801 0.977523
0.989973 0.546437 0.976539
0.092039 0.486996 0.950469
0.092923 0.496371 0.953579
0.116284 0.537960 0.964971
0.560884 0.558969 0.967908
0.940305 0.588099 0.967134
0.980938 0.629207 0.967422
0.988217 0.683776 0.969559
0.989973 0.735162 0.973479
0.989973 0.811425 0.974410
0.092414 0.723698 0.889334
0.093194 0.721816 0.889625
0.102257 0.721097 0.894613
0.227362 0.705798 0.897678
0.746041 0.707910 0.902597
0.948847 0.757252 0.913905
0.980693 0.822334 0.936237
0.986718 0.851925 0.950506
0.988963 0.906959 0.966080
0.092798 0.895189 0.854542
0.093492 0.893545 0.853830
0.099318 0.889100 0.853143
0.149988 0.876318 0.850845
0.442723 0.858885 0.847732
0.859908 0.853492 0.845864
0.963182 0.886400 0.875406
0.982452 0.925461 0.908651
0.986146 0.942139 0.950014
0.092513 0.950295 0.821588
0.092999 0.950061 0.820560
0.096947 0.949525 0.820142
0.117618 0.948261 0.819164
0.276353 0.946365 0.818468
0.719387 0.943913 0.820156
0.935817 0.943950 0.830823
0.977493 0.948156 0.858529
0.984258 0.959169 0.928730
0.091677 0.974658 0.750670
0.091816 0.974433 0.750292
0.092987 0.973974 0.754627
0.099778 0.972925 0.758477
0.161234 0.971357 0.763703
0.441402 0.969701 0.769970
0.858560 0.968873 0.777776
0.966857 0.969662 0.795044
0.983416 0.973937 0.885584
0.090873 0.987059 0.546171
0.090873 0.987461 0.553394
0.090873 0.988025 0.580433
0.091707 0.988296 0.616645
0.099352 0.987902 0.629237
0.177953 0.986327 0.644689
0.501489 0.985037 0.656080
0.906055 0.984662 0.663003
0.983429 0.986395 0.832998
0.090885 0.102166 0.988288
0.091004 0.108370 0.989359
0.194386 0.237647 0.989842
0.966453 0.344431 0.989887
0.989973 0.460890 0.989908
0.989973 0.515697 0.989522
0.989973 0.479246 0.988031
0.989973 0.444573 0.986164
0.989973 0.619566 0.983720
0.090951 0.118054 0.988418
0.091064 0.135149 0.989328
0.194905 0.300074 0.989805
0.961976 0.408916 0.989861
0.989973 0.524260 0.989886
0.989973 0.538811 0.989212
0.989973 0.508522 0.987567
0.989973 0.479222 0.985527
0.989973 0.608213 0.983205
0.091722 0.378704 0.988618
0.092289 0.413309 0.989146
0.206330 0.571304 0.989627
0.939589 0.666870 0.989731
0.986350 0.645259 0.988806
0.989973 0.631990 0.987261
0.989973 0.624749 0.985028
0.989973 0.633044 0.983096
0.989973 0.560265 0.982251
0.092800 0.645486 0.983459
0.094051 0.653827 0.983984
0.136304 0.706708 0.984914
0.704628 0.724773 0.984100
0.957490 0.730478 0.982548
0.984284 0.742043 0.981906
0.989973 0.759679 0.980795
0.989973 0.789073 0.980145
0.989973 0.850815 0.980070
0.093110 0.782448 0.973797
0.093973 0.784693 0.974197
0.107845 0.800049 0.974679
0.307405 0.809383 0.975059
0.848339 0.818606 0.974738
0.962195 0.830212 0.974618
0.982842 0.845755 0.974986
0.987687 0.864937 0.975748
0.989340 0.922438 0.976837
0.093294 0.893688 0.948037
0.093947 0.893090 0.948356
0.101472 0.893239 0.950445
0.176691 0.888719 0.952177
0.552762 0.881758 0.951841
0.908329 0.884449 0.952428
0.968382 0.905128 0.957947
0.983179 0.929255 0.966295
0.986326 0.944003 0.974203
0.092734 0.948583 0.922450
0.093300 0.948445 0.922415
0.097776 0.948167 0.923968
0.122202 0.947276 0.926616
0.308834 0.945478 0.928917
0.754852 0.943116 0.929272
0.939854 0.941926 0.929025
0.978286 0.948303 0.946383
0.984190 0.959723 0.965258
0.091686 0.973227 0.892196
0.091829 0.973035 0.891858
0.093112 0.972645 0.892581
0.100780 0.971751 0.893840
0.169963 0.970365 0.896465
0.471352 0.968853 0.900008
0.875223 0.968102 0.904582
0.968152 0.969068 0.910965
0.983251 0.974041 0.953059
0.090873 0.985626 0.785690
0.090873 0.986719 0.783782
0.090873 0.987549 0.778358
0.091397 0.988291 0.852694
0.098738 0.987631 0.854008
0.174074 0.986121 0.855662
0.493206 0.984935 0.857255
0.904666 0.984764 0.858206
0.983354 0.986645 0.939017
0.091005 0.151376 0.990701
0.091163 0.165336 0.990785
0.250536 0.313996 0.990898
0.972825 0.416503 0.990915
0.989973 0.525654 0.990927
0.989973 0.614356 0.990798
0.989973 0.559326 0.989860
0.989973 0.509354 0.989087
0.989973 0.664440 0.987729
0.091051 0.191306 0.990691
0.091390 0.210031 0.990770
0.255696 0.366573 0.990885
0.969797 0.478555 0.990905
0.989973 0.586334 0.990918
0.989973 0.629951 0.990547
0.989973 0.586845 0.989677
0.989973 0.542003 0.988855
0.989973 0.661779 0.987518
0.092060 0.485987 0.990653
0.093108 0.507793 0.990708
0.288847 0.636298 0.990817
0.955606 0.724249 0.990852
0.989973 0.748992 0.990491
0.989973 0.722019 0.989734
0.989973 0.697631 0.988988
0.989973 0.682311 0.987809
0.989973 0.730309 0.986587
0.094766 0.778008 0.989981
0.097619 0.781454 0.989953
0.224127 0.815294 0.989808
0.857421 0.820921 0.989455
0.974781 0.814984 0.988856
0.988513 0.810142 0.987838
0.989973 0.808524 0.986824
0.989973 0.820729 0.985440
0.989973 0.866332 0.984332
0.094594 0.838386 0.985900
0.096773 0.839604 0.985930
0.130878 0.849680 0.985842
0.491132 0.854538 0.985082
0.920823 0.855967 0.983956
0.975215 0.857509 0.982896
0.985790 0.864167 0.982489
0.989192 0.879529 0.982357
0.989973 0.928982 0.982083
0.093854 0.908310 0.979708
0.095319 0.908552 0.979837
0.107322 0.913619 0.980153
0.233337 0.914498 0.979822
0.717036 0.914082 0.979100
0.941140 0.918044 0.978519
0.976601 0.926672 0.978363
0.984706 0.933663 0.978619
0.986875 0.946068 0.979157
0.092873 0.948367 0.974430
0.093427 0.948291 0.974450
0.098644 0.948402 0.975063
0.133951 0.947941 0.975577
0.370730 0.946997 0.975437
0.829300 0.946155 0.974886
0.954736 0.946846 0.974721
0.980691 0.949724 0.975555
0.984507 0.960771 0.976807
0.091470 0.973281 0.958169
0.091632 0.973078 0.958296
0.092683 0.972611 0.959959
0.099864 0.971765 0.962894
0.172132 0.970508 0.966405
0.502626 0.969146 0.968728
0.888619 0.968356 0.969843
0.968719 0.968301 0.970163
0.983253 0.974419 0.975073
0.090873 0.983134 0.915714
0.090873 0.987124 0.916307
0.090873 0.986875 0.923732
0.091034 0.988292 0.935932
0.096085 0.988219 0.936229
0.153843 0.986609 0.937849
0.443459 0.985538 0.939685
0.883555 0.985416 0.940414
0.983307 0.987039 0.973952
0.266333 0.144582 0.991016
0.501081 0.151723 0.991016
0.956310 0.182999 0.991016
0.989973 0.246766 0.991016
0.989973 0.336221 0.991016
0.989973 0.416238 0.991016
0.989973 0.336729 0.990754
0.989973 0.211995 0.989936
0.989973 0.646015 0.989059
0.266458 0.175776 0.991016
0.488929 0.184382 0.991016
0.954663 0.220356 0.991016
0.989973 0.293634 0.991016
0.989973 0.383242 0.991016
0.989973 0.443999 0.991016
0.989973 0.360089 0.990589
0.989973 0.232472 0.989814
0.989973 0.634721 0.989021
0.288265 0.397293 0.991016
0.482572 0.409778 0.991016
0.947498 0.461442 0.991016
0.989973 0.535256 0.991016
0.989973 0.606576 0.991016
0.989973 0.564586 0.990777
0.989973 0.498698 0.990045
0.989973 0.391232 0.989404
0.989973 0.596187 0.988365
0.309733 0.792422 0.991016
0.435223 0.789997 0.991016
0.911286 0.785257 0.991016
0.983454 0.776316 0.990745
0.989973 0.759470 0.990248
0.989973 0.737020 0.989724
0.989973 0.706172 0.989192
0.989973 0.673792 0.988295
0.989973 0.858734 0.987372
0.168974 0.853190 0.989677
0.214663 0.852595 0.989630
0.621999 0.852027 0.989474
0.949561 0.850558 0.989196
0.982144 0.847446 0.988655
0.988214 0.843980 0.987940
0.989973 0.839707 0.987258
0.989973 0.840619 0.986244
0.989973 0.914703 0.985191
0.108668 0.917940 0.987515
0.117669 0.917197 0.987432
0.250598 0.916397 0.987159
0.813661 0.914569 0.986419
0.956143 0.911516 0.985464
0.980463 0.910196 0.984483
0.985129 0.910754 0.983663
0.987341 0.917247 0.983003
0.987770 0.942361 0.982494
0.095843 0.948460 0.984701
0.097516 0.948305 0.984551
0.115033 0.948005 0.984042
0.344568 0.947391 0.983209
0.868989 0.946429 0.982491
0.959889 0.945512 0.982154
0.980100 0.945507 0.981553
0.983996 0.946661 0.981254
0.985287 0.958411 0.981148
0.091346 0.972710 0.982491
0.091518 0.972523 0.982491
0.092505 0.972103 0.982489
0.106570 0.971266 0.982367
0.309649 0.969800 0.981576
0.855802 0.968345 0.980745
0.963303 0.967568 0.980075
0.981252 0.967699 0.979771
0.983768 0.973204 0.979837
0.090873 0.980173 0.959274
0.090873 0.986604 0.970426
0.090873 0.985913 0.969214
0.090873 0.985703 0.967264
0.092089 0.988367 0.977139
0.121178 0.987880 0.980001
0.396317 0.986603 0.979749
0.892124 0.986493 0.979510
0.983303 0.987587 0.979455
