LUTs/velvia/Velvia50_Modern_ExtraSoft.cube
TITLE "Velvia 50 Modern ExtraSoft"
# Adobe RGB in/out. REPLACES AgX. Velvia 50 Modern ExtraSoft.
LUT_3D_SIZE 33
DOMAIN_MIN 0.0 0.0 0.0
DOMAIN_MAX 1.0 1.0 1.0
0.072578 0.069118 0.085020
0.072578 0.069118 0.085020
0.072578 0.069118 0.085020
0.073148 0.069118 0.085020
0.089196 0.069118 0.085020
0.149351 0.069118 0.085020
0.479779 0.069142 0.085020
0.716275 0.069226 0.085020
0.788296 0.069278 0.085020
0.840479 0.069394 0.085020
0.882927 0.069765 0.085020
0.905249 0.070039 0.085020
0.916983 0.070375 0.085027
0.928960 0.071029 0.085044
0.940669 0.072249 0.085066
0.945371 0.073063 0.085078
0.945371 0.073838 0.085096
0.945371 0.075895 0.085118
0.945371 0.080356 0.085143
0.945371 0.081905 0.085162
0.945371 0.083866 0.085213
0.945371 0.086517 0.085272
0.945371 0.088986 0.085402
0.945371 0.088686 0.085527
0.945371 0.088694 0.085766
0.945371 0.087803 0.086175
0.945371 0.081957 0.087608
0.945371 0.079149 0.116926
0.945371 0.070975 0.790307
0.945371 0.070855 0.785119
0.945371 0.070742 0.779999
0.945371 0.070630 0.774919
0.945371 0.601766 0.862265
0.072578 0.069118 0.085020
0.072578 0.069118 0.085020
0.072578 0.069118 0.085020
0.073028 0.069118 0.085020
0.082028 0.069118 0.085020
0.112787 0.069118 0.085020
0.398649 0.069146 0.085020
0.682853 0.069237 0.085020
0.769175 0.069287 0.085020
0.831054 0.069421 0.085020
0.878285 0.069788 0.085020
0.902129 0.070082 0.085020
0.915068 0.070412 0.085026
0.927426 0.071090 0.085044
0.939449 0.072340 0.085065
0.945371 0.073146 0.085078
0.945371 0.073961 0.085096
0.945371 0.076209 0.085117
0.945371 0.080630 0.085143
0.945371 0.082146 0.085161
0.945371 0.084198 0.085212
0.945371 0.086846 0.085271
0.945371 0.089475 0.085399
0.945371 0.089135 0.085524
0.945371 0.089142 0.085758
0.945371 0.088217 0.086159
0.945371 0.082188 0.087532
0.945371 0.079421 0.114058
0.945371 0.070969 0.790028
0.945371 0.070849 0.784865
0.945371 0.070737 0.779766
0.945371 0.070625 0.774707
0.945371 0.601286 0.862113
0.072578 0.069118 0.085020
0.072578 0.069118 0.085020
0.072578 0.069118 0.085020
0.072578 0.069118 0.085020
0.073510 0.069118 0.085020
0.079872 0.069123 0.085020
0.171550 0.069164 0.085020
0.538790 0.069286 0.085020
0.683375 0.069333 0.085020
0.794199 0.069531 0.085020
0.860092 0.069877 0.085020
0.888457 0.070249 0.085020
0.908009 0.070597 0.085026
0.921781 0.071322 0.085043
0.934974 0.072684 0.085065
0.943960 0.073456 0.085077
0.945371 0.074416 0.085095
0.945371 0.077378 0.085116
0.945371 0.081560 0.085142
0.945371 0.083236 0.085158
0.945371 0.085425 0.085208
0.945371 0.088358 0.085267
0.945371 0.091282 0.085390
0.945371 0.090930 0.085512
0.945371 0.090927 0.085731
0.945371 0.089880 0.086114
0.945371 0.083233 0.087485
0.945371 0.080417 0.108306
0.945371 0.070948 0.789031
0.945371 0.070829 0.783956
0.945371 0.070718 0.778938
0.945371 0.070608 0.773949
0.945371 0.599560 0.861570
0.072578 0.069118 0.085020
0.072578 0.069118 0.085020
0.072578 0.069118 0.085020
0.072578 0.069118 0.085020
0.072673 0.069144 0.085020
0.073417 0.069153 0.085020
0.082102 0.069240 0.085020
0.207399 0.069401 0.085020
0.469250 0.069522 0.085020
0.680736 0.069733 0.085020
0.813623 0.070268 0.085020
0.860874 0.070707 0.085020
0.888595 0.071157 0.085025
0.910737 0.071955 0.085042
0.926270 0.073382 0.085064
0.936972 0.074328 0.085076
0.945371 0.076260 0.085093
0.945371 0.079710 0.085115
0.945371 0.083739 0.085140
0.945371 0.085718 0.085155
0.945371 0.088065 0.085202
0.945371 0.091789 0.085261
0.945371 0.094816 0.085374
0.945371 0.094432 0.085493
0.945371 0.094400 0.085683
0.945371 0.093342 0.086048
0.945371 0.085549 0.087066
0.945371 0.081986 0.098751
0.945371 0.070910 0.787225
0.945371 0.070793 0.782307
0.945371 0.070685 0.777432
0.945371 0.070579 0.772571
0.945371 0.596413 0.860583
0.072578 0.069340 0.085020
0.072578 0.069346 0.085020
0.072578 0.069358 0.085020
0.072578 0.069328 0.085020
0.072584 0.069286 0.085020
0.072725 0.069244 0.085020
0.074028 0.069351 0.085020
0.086698 0.069712 0.085020
0.165521 0.069790 0.085020
0.450575 0.070035 0.085020
0.707874 0.070937 0.085020
0.806950 0.071475 0.085020
0.854999 0.072123 0.085024
0.887143 0.073194 0.085042
0.911750 0.075857 0.085063
0.925416 0.078253 0.085075
0.936470 0.080508 0.085091
0.945371 0.083281 0.085113
0.945371 0.088434 0.085138
0.945371 0.090954 0.085153
0.945371 0.093873 0.085194
0.945371 0.097673 0.085252
0.945371 0.103594 0.085351
0.945371 0.102664 0.085466
0.945371 0.102466 0.085618
0.945371 0.100293 0.085959
0.945371 0.090131 0.086644
0.945371 0.085327 0.091989
0.945371 0.070854 0.784587
0.945371 0.070740 0.779894
0.945371 0.070636 0.775225
0.945371 0.070544 0.770549
0.945371 0.591801 0.859132
0.072578 0.069984 0.085020
0.072578 0.069981 0.085020
0.072578 0.070041 0.085020
0.072578 0.069901 0.085020
0.072578 0.069749 0.085020
0.072664 0.069610 0.085020
0.073174 0.069742 0.085020
0.076390 0.070249 0.085020
0.086459 0.070310 0.085020
0.172511 0.070743 0.085020
0.502048 0.072079 0.085020
0.687692 0.072893 0.085020
0.794955 0.073503 0.085025
0.852447 0.075039 0.085042
0.889366 0.080696 0.085063
0.910538 0.083069 0.085074
0.923541 0.086169 0.085090
0.934597 0.091958 0.085111
0.944559 0.100260 0.085136
0.945371 0.104129 0.085150
0.945371 0.109163 0.085185
0.945371 0.116467 0.085242
0.945371 0.122961 0.085325
0.945371 0.121508 0.085435
0.945371 0.120943 0.085570
0.945371 0.118337 0.085856
0.945371 0.099909 0.086255
0.945371 0.092395 0.088686
0.945371 0.070784 0.781144
0.945371 0.070671 0.776731
0.945371 0.070572 0.772327
0.945371 0.596541 0.768061
0.945371 0.585759 0.857219
0.072578 0.073408 0.085020
0.072578 0.073521 0.085020
0.072578 0.073578 0.085020
0.072578 0.073130 0.085020
0.072578 0.072220 0.085020
0.072664 0.071400 0.085020
0.072946 0.070959 0.085020
0.073849 0.071497 0.085020
0.077587 0.071462 0.085020
0.091575 0.072139 0.085020
0.230200 0.073953 0.085020
0.502016 0.075545 0.085020
0.677053 0.077334 0.085026
0.791772 0.080927 0.085042
0.854628 0.087131 0.085063
0.885191 0.091959 0.085075
0.908541 0.095101 0.085089
0.922773 0.103791 0.085109
0.934502 0.121747 0.085134
0.943565 0.129739 0.085148
0.945371 0.142016 0.085177
0.945371 0.156431 0.085231
0.945371 0.166593 0.085298
0.945371 0.162212 0.085402
0.945371 0.159776 0.085528
0.945371 0.155145 0.085749
0.945371 0.128756 0.086054
0.945371 0.112955 0.087258
0.945371 0.070704 0.776966
0.945371 0.070586 0.772867
0.945371 0.070498 0.768776
0.945371 0.588689 0.765773
0.945371 0.578379 0.854861
0.072578 0.093863 0.085020
0.072578 0.094600 0.085020
0.072578 0.096934 0.085020
0.072578 0.092617 0.085020
0.072578 0.087038 0.085020
0.072679 0.082680 0.085020
0.072964 0.079641 0.085020
0.073480 0.076891 0.085020
0.074613 0.073662 0.085020
0.079805 0.074366 0.085020
0.115001 0.080624 0.085020
0.261094 0.082524 0.085020
0.500829 0.084138 0.085028
0.681002 0.088509 0.085043
0.800478 0.099509 0.085063
0.851536 0.108045 0.085075
0.882691 0.115826 0.085089
0.907056 0.131487 0.085109
0.921763 0.159550 0.085133
0.933573 0.168988 0.085147
0.942692 0.181352 0.085171
0.945371 0.204566 0.085224
0.945371 0.235878 0.085278
0.945371 0.246768 0.085374
0.945371 0.259954 0.085490
0.945371 0.253018 0.085651
0.945371 0.208896 0.085923
0.945371 0.175183 0.086517
0.945371 0.070653 0.772214
0.945371 0.070497 0.768406
0.945371 0.070449 0.765783
0.945371 0.579304 0.762824
0.945371 0.569801 0.852091
0.072578 0.128876 0.085020
0.072578 0.130343 0.085020
0.072578 0.130672 0.085020
0.072578 0.123944 0.085020
0.072578 0.113398 0.085020
0.072647 0.100975 0.085020
0.072770 0.093395 0.085020
0.073240 0.088091 0.085020
0.073898 0.084967 0.085020
0.076577 0.083072 0.085020
0.087462 0.091053 0.085020
0.136589 0.094366 0.085020
0.287830 0.096174 0.085031
0.528058 0.105759 0.085046
0.707869 0.128480 0.085065
0.799210 0.139142 0.085076
0.849492 0.151089 0.085090
0.882041 0.176513 0.085110
0.907584 0.219218 0.085133
0.921136 0.241026 0.085146
0.931989 0.264211 0.085168
0.941335 0.283051 0.085219
0.945371 0.313169 0.085271
0.945371 0.318423 0.085354
0.945371 0.328273 0.085464
0.945371 0.340433 0.085591
0.945371 0.336610 0.085836
0.945371 0.337672 0.086198
0.945371 0.072270 0.768380
0.945371 0.070468 0.764987
0.945371 0.070400 0.762142
0.945371 0.568802 0.758560
0.945371 0.559743 0.848952
0.072578 0.252664 0.085020
0.072578 0.250466 0.085020
0.072578 0.240296 0.085020
0.072578 0.227010 0.085020
0.072578 0.200918 0.085020
0.072641 0.178015 0.085020
0.072729 0.152801 0.085020
0.073133 0.133122 0.085020
0.073558 0.120191 0.085020
0.075008 0.110801 0.085020
0.081138 0.125126 0.085020
0.095845 0.124817 0.085025
0.154201 0.127125 0.085035
0.343014 0.141369 0.085049
0.577559 0.180929 0.085067
0.713793 0.194372 0.085077
0.800024 0.213412 0.085092
0.851357 0.249406 0.085111
0.884420 0.304282 0.085133
0.907210 0.322570 0.085146
0.921005 0.336792 0.085167
0.931844 0.364174 0.085216
0.940461 0.398199 0.085266
0.945371 0.404207 0.085338
0.945371 0.408512 0.085441
0.945371 0.415841 0.085561
0.945371 0.409874 0.085753
0.945371 0.407741 0.086056
0.945371 0.401096 0.086859
0.945371 0.401804 0.093505
0.945371 0.397395 0.697070
0.945371 0.556911 0.755583
0.945371 0.548808 0.845496
0.072578 0.452730 0.085020
0.072578 0.449218 0.085020
0.072578 0.440199 0.085020
0.072578 0.436169 0.085020
0.072582 0.420554 0.085020
0.072659 0.397279 0.085020
0.072752 0.362156 0.085020
0.073168 0.329977 0.085020
0.073570 0.291611 0.085020
0.074959 0.259434 0.085024
0.078732 0.234754 0.085030
0.085759 0.203464 0.085034
0.107784 0.184786 0.085040
0.201875 0.208725 0.085052
0.438902 0.269325 0.085070
0.601025 0.283060 0.085081
0.723054 0.302952 0.085095
0.807204 0.333228 0.085113
0.856975 0.383975 0.085135
0.885520 0.396936 0.085147
0.907733 0.413468 0.085168
0.920762 0.439613 0.085216
0.931956 0.459603 0.085264
0.940794 0.468649 0.085327
0.945371 0.485201 0.085424
0.945371 0.506838 0.085535
0.945371 0.496122 0.085682
0.945371 0.488975 0.085948
0.945371 0.477288 0.086427
0.945371 0.469033 0.088761
0.945371 0.417256 0.582021
0.945371 0.544396 0.758264
0.945371 0.537258 0.757774
0.072578 0.552899 0.085020
0.072578 0.550457 0.085020
0.072578 0.543690 0.085020
0.072578 0.539782 0.085020
0.072583 0.528333 0.085020
0.072655 0.513428 0.085020
0.072732 0.489686 0.085022
0.073085 0.460321 0.085027
0.073466 0.431982 0.085032
0.074449 0.406020 0.085037
0.077173 0.377799 0.085042
0.082320 0.352458 0.085047
0.091440 0.315775 0.085049
0.132636 0.314351 0.085057
0.287359 0.365220 0.085074
0.478436 0.376508 0.085085
0.628753 0.389768 0.085099
0.743038 0.414165 0.085116
0.819918 0.454296 0.085137
0.859830 0.463633 0.085148
0.887354 0.483770 0.085172
0.908967 0.506951 0.085217
0.921861 0.529970 0.085263
0.932355 0.540867 0.085323
0.940474 0.548436 0.085415
0.945371 0.560762 0.085520
0.945371 0.565231 0.085632
0.945371 0.573890 0.085865
0.945371 0.572875 0.086173
0.945371 0.559830 0.087355
0.945371 0.483788 0.216735
0.945371 0.531519 0.751604
0.945371 0.525310 0.754482
0.072578 0.619635 0.085020
0.072578 0.618261 0.085020
0.072578 0.614243 0.085020
0.072578 0.609614 0.085020
0.072584 0.602534 0.085020
0.072649 0.591380 0.085024
0.072717 0.574810 0.085031
0.072990 0.555064 0.085036
0.073354 0.534256 0.085041
0.073926 0.511807 0.085046
0.075603 0.484637 0.085050
0.079147 0.460301 0.085055
0.085988 0.441056 0.085060
0.107374 0.430132 0.085066
0.189780 0.451456 0.085078
0.343331 0.458378 0.085091
0.521261 0.466024 0.085103
0.668423 0.489948 0.085120
0.773797 0.527452 0.085140
0.826610 0.533514 0.085151
0.864183 0.546566 0.085176
0.891223 0.565936 0.085221
0.910680 0.588480 0.085266
0.923581 0.594621 0.085323
0.933017 0.608548 0.085410
0.939970 0.622262 0.085510
0.945371 0.621796 0.085599
0.945371 0.624417 0.085808
0.945371 0.628425 0.086071
0.945371 0.635980 0.086772
0.945371 0.657058 0.090535
0.945371 0.518668 0.743454
0.945371 0.512309 0.752262
0.072578 0.695072 0.085020
0.072578 0.693850 0.085020
0.072578 0.689350 0.085020
0.072578 0.684142 0.085022
0.072597 0.681781 0.085029
0.072653 0.671716 0.085036
0.072715 0.658899 0.085042
0.072959 0.644360 0.085048
0.073301 0.628000 0.085054
0.073731 0.614047 0.085058
0.074954 0.593919 0.085062
0.078099 0.574791 0.085067
0.083417 0.556736 0.085071
0.094936 0.541712 0.085076
0.143726 0.556434 0.085093
0.233731 0.539957 0.085098
0.404057 0.540869 0.085109
0.565976 0.557300 0.085124
0.704055 0.587565 0.085144
0.787441 0.593537 0.085154
0.835528 0.604996 0.085184
0.870337 0.620219 0.085226
0.896125 0.634743 0.085269
0.913375 0.643223 0.085327
0.924716 0.656225 0.085411
0.933648 0.668239 0.085505
0.941125 0.674838 0.085587
0.945371 0.685863 0.085763
0.945371 0.686789 0.085995
0.945371 0.689024 0.086452
0.945371 0.699117 0.088031
0.945371 0.717955 0.159978
0.945371 0.747792 0.748885
0.072578 0.757449 0.085031
0.072578 0.756768 0.085031
0.072578 0.754648 0.085033
0.072578 0.752126 0.085038
0.072618 0.751993 0.085045
0.072666 0.746929 0.085051
0.072725 0.742303 0.085058
0.072983 0.733865 0.085064
0.073305 0.723929 0.085069
0.073715 0.713021 0.085074
0.074898 0.700311 0.085079
0.077780 0.684719 0.085086
0.082491 0.667590 0.085093
0.091450 0.652325 0.085099
0.121804 0.639251 0.085107
0.185719 0.623667 0.085111
0.297921 0.612237 0.085116
0.473525 0.618756 0.085129
0.629368 0.640421 0.085148
0.726366 0.644353 0.085160
0.800208 0.653701 0.085194
0.847005 0.669705 0.085234
0.877128 0.686154 0.085275
0.901223 0.695260 0.085336
0.915824 0.703341 0.085414
0.926219 0.714540 0.085504
0.935335 0.718775 0.085581
0.941226 0.722808 0.085736
0.945371 0.728700 0.085943
0.945371 0.736114 0.086235
0.945371 0.739619 0.087305
0.945371 0.745975 0.098716
0.945371 0.748356 0.726555
0.072578 0.782006 0.085039
0.072578 0.781448 0.085039
0.072578 0.779667 0.085041
0.072578 0.778530 0.085045
0.072619 0.778185 0.085051
0.072666 0.777171 0.085058
0.072723 0.775529 0.085065
0.072935 0.770064 0.085070
0.073239 0.763518 0.085076
0.073549 0.756307 0.085083
0.074516 0.748029 0.085090
0.076651 0.738698 0.085097
0.079835 0.728242 0.085104
0.086573 0.718064 0.085110
0.104450 0.709040 0.085117
0.146514 0.699609 0.085124
0.228058 0.684495 0.085128
0.381211 0.679934 0.085137
0.545780 0.696443 0.085153
0.668043 0.698970 0.085173
0.752143 0.704746 0.085204
0.816084 0.715004 0.085243
0.856649 0.725004 0.085285
0.883712 0.730299 0.085348
0.905920 0.737745 0.085422
0.918213 0.746632 0.085508
0.929120 0.749725 0.085578
0.936064 0.755335 0.085721
0.941728 0.759094 0.085907
0.945371 0.762023 0.086136
0.945371 0.769141 0.086845
0.945371 0.777706 0.090457
0.945371 0.768915 0.617441
0.072578 0.809516 0.085045
0.072578 0.809081 0.085046
0.072578 0.807671 0.085048
0.072585 0.805708 0.085051
0.072620 0.804263 0.085057
0.072666 0.803122 0.085063
0.072714 0.799171 0.085069
0.072885 0.794832 0.085075
0.073178 0.789728 0.085083
0.073471 0.783556 0.085092
0.074152 0.778295 0.085100
0.075626 0.774179 0.085107
0.078705 0.767550 0.085113
0.083874 0.759881 0.085120
0.093798 0.752634 0.085126
0.123844 0.746166 0.085132
0.188967 0.740038 0.085139
0.305531 0.736178 0.085147
0.473302 0.740793 0.085168
0.586009 0.736328 0.085186
0.692168 0.740831 0.085216
0.782981 0.747863 0.085253
0.831327 0.755369 0.085304
0.865783 0.758970 0.085362
0.890673 0.764897 0.085434
0.909632 0.771322 0.085514
0.922053 0.774909 0.085580
0.930702 0.777497 0.085712
0.937484 0.779068 0.085883
0.941822 0.784081 0.086084
0.944987 0.788425 0.086598
0.945371 0.795375 0.088282
0.945371 0.809503 0.189031
0.072578 0.837848 0.085054
0.072578 0.837474 0.085054
0.072578 0.836243 0.085056
0.072596 0.834455 0.085059
0.072627 0.833007 0.085064
0.072673 0.833366 0.085071
0.072713 0.829319 0.085076
0.072881 0.826975 0.085086
0.073151 0.822771 0.085095
0.073425 0.817702 0.085103
0.073928 0.812364 0.085111
0.075073 0.806546 0.085119
0.077964 0.799953 0.085126
0.082000 0.792826 0.085132
0.089179 0.786178 0.085138
0.109616 0.779817 0.085144
0.152934 0.777363 0.085151
0.243826 0.774041 0.085158
0.404930 0.776311 0.085196
0.529362 0.770892 0.085208
0.637286 0.768610 0.085228
0.731026 0.773880 0.085264
0.802237 0.777903 0.085325
0.845483 0.778966 0.085380
0.874422 0.784064 0.085448
0.898282 0.790104 0.085524
0.914468 0.794196 0.085585
0.924807 0.798444 0.085711
0.932795 0.804166 0.085869
0.938338 0.806970 0.086050
0.942019 0.812342 0.086429
0.944093 0.820626 0.087511
0.945273 0.828545 0.106450
0.072583 0.861258 0.085064
0.072586 0.861100 0.085064
0.072594 0.860575 0.085066
0.072611 0.859790 0.085068
0.072638 0.859077 0.085073
0.072679 0.859079 0.085080
0.072719 0.857754 0.085089
0.072893 0.856445 0.085100
0.073143 0.854170 0.085109
0.073417 0.851368 0.085118
0.073888 0.847806 0.085126
0.074978 0.843045 0.085134
0.077551 0.837266 0.085141
0.081012 0.831383 0.085147
0.087320 0.825439 0.085153
0.104487 0.819920 0.085167
0.140818 0.814618 0.085185
0.214506 0.809683 0.085203
0.337317 0.805662 0.085222
0.468516 0.799089 0.085233
0.575317 0.795033 0.085249
0.681854 0.794506 0.085275
0.766641 0.800568 0.085345
0.819329 0.803283 0.085398
0.856779 0.807740 0.085463
0.883486 0.813002 0.085536
0.906334 0.816258 0.085593
0.918248 0.820617 0.085717
0.928089 0.824539 0.085861
0.934574 0.828464 0.086026
0.939035 0.833789 0.086309
0.941643 0.839187 0.087176
0.943033 0.849395 0.092992
0.072587 0.872525 0.085067
0.072589 0.872384 0.085067
0.072597 0.871910 0.085068
0.072612 0.871174 0.085071
0.072637 0.870423 0.085075
0.072673 0.870134 0.085083
0.072715 0.869547 0.085093
0.072835 0.868095 0.085103
0.073091 0.866884 0.085113
0.073355 0.865272 0.085122
0.073666 0.863015 0.085130
0.074597 0.860700 0.085138
0.076526 0.858179 0.085146
0.079318 0.854965 0.085152
0.084766 0.851064 0.085164
0.094684 0.846879 0.085182
0.122056 0.841874 0.085201
0.178916 0.837144 0.085219
0.269947 0.832679 0.085236
0.406360 0.829096 0.085255
0.528863 0.824861 0.085271
0.635589 0.823874 0.085313
0.721129 0.823815 0.085369
0.791839 0.825473 0.085416
0.836061 0.829218 0.085479
0.868641 0.833869 0.085549
0.893995 0.836983 0.085602
0.911138 0.841243 0.085728
0.922793 0.845120 0.085860
0.930582 0.848565 0.086010
0.936072 0.851995 0.086237
0.939141 0.856452 0.086883
0.940904 0.861214 0.090057
0.072590 0.880650 0.085070
0.072592 0.880580 0.085070
0.072600 0.880345 0.085072
0.072614 0.879971 0.085074
0.072636 0.879560 0.085078
0.072669 0.879308 0.085087
0.072713 0.879306 0.085098
0.072796 0.878216 0.085107
0.073060 0.877791 0.085118
0.073286 0.876436 0.085126
0.073546 0.875338 0.085135
0.074349 0.873674 0.085144
0.075753 0.871335 0.085151
0.078439 0.868866 0.085161
0.082702 0.866391 0.085181
0.089528 0.863874 0.085200
0.108371 0.861309 0.085218
0.146027 0.858897 0.085236
0.220902 0.856480 0.085255
0.338765 0.854003 0.085272
0.472823 0.851525 0.085303
0.580645 0.850026 0.085354
0.682978 0.849732 0.085408
0.755510 0.847913 0.085439
0.812229 0.849480 0.085494
0.851964 0.852761 0.085562
0.880229 0.854799 0.085621
0.903285 0.857030 0.085739
0.916886 0.859289 0.085863
0.926430 0.861020 0.085997
0.932953 0.863553 0.086193
0.936750 0.866212 0.086729
0.938848 0.870701 0.088495
0.072595 0.891708 0.085074
0.072597 0.891597 0.085074
0.072604 0.891217 0.085075
0.072617 0.890605 0.085078
0.072637 0.889907 0.085084
0.072667 0.889414 0.085092
0.072710 0.889623 0.085104
0.072778 0.888288 0.085112
0.073010 0.887295 0.085122
0.073249 0.885963 0.085132
0.073506 0.884599 0.085141
0.074081 0.882567 0.085149
0.075112 0.881086 0.085159
0.077759 0.879903 0.085182
0.081094 0.878457 0.085202
0.086874 0.876877 0.085223
0.101508 0.875246 0.085241
0.131808 0.873066 0.085259
0.192729 0.870834 0.085277
0.291881 0.868896 0.085314
0.419789 0.867065 0.085351
0.537024 0.865583 0.085390
0.643336 0.864994 0.085442
0.719510 0.863769 0.085471
0.788107 0.863123 0.085515
0.831557 0.864173 0.085575
0.866333 0.865619 0.085641
0.891003 0.867244 0.085753
0.910464 0.869167 0.085869
0.921825 0.870828 0.085991
0.929784 0.873075 0.086157
0.934365 0.875422 0.086608
0.936862 0.878368 0.087700
0.072596 0.900350 0.085076
0.072598 0.900283 0.085076
0.072604 0.900053 0.085078
0.072616 0.899676 0.085081
0.072636 0.899230 0.085087
0.072663 0.898868 0.085095
0.072703 0.898854 0.085106
0.072756 0.898414 0.085116
0.072965 0.897601 0.085126
0.073219 0.897126 0.085137
0.073444 0.895969 0.085145
0.073896 0.894966 0.085154
0.074915 0.893841 0.085177
0.077073 0.891962 0.085199
0.079677 0.889737 0.085220
0.085137 0.887446 0.085241
0.094667 0.885114 0.085261
0.119769 0.882758 0.085280
0.169524 0.881037 0.085319
0.246032 0.879882 0.085357
0.369104 0.878781 0.085396
0.498261 0.877678 0.085434
0.590784 0.876773 0.085471
0.683468 0.875880 0.085499
0.756313 0.875290 0.085541
0.810801 0.875116 0.085593
0.850604 0.875375 0.085656
0.878412 0.876345 0.085764
0.903408 0.877542 0.085875
0.916734 0.878648 0.085988
0.926455 0.879862 0.086131
0.931959 0.881285 0.086511
0.935017 0.884835 0.087505
0.072586 0.907953 0.085074
0.072588 0.907897 0.085074
0.072594 0.907684 0.085076
0.072606 0.907322 0.085078
0.072624 0.906871 0.085084
0.072651 0.906448 0.085092
0.072688 0.906254 0.085102
0.072731 0.906126 0.085115
0.072889 0.905218 0.085124
0.073139 0.904771 0.085135
0.073364 0.903783 0.085144
0.073706 0.902996 0.085154
0.074517 0.901758 0.085175
0.076153 0.900593 0.085200
0.078814 0.899292 0.085224
0.083063 0.897782 0.085244
0.089456 0.896253 0.085265
0.107146 0.894709 0.085290
0.141642 0.893189 0.085331
0.207559 0.891088 0.085370
0.310766 0.889129 0.085409
0.437349 0.887389 0.085446
0.544965 0.885924 0.085483
0.647171 0.884732 0.085521
0.721958 0.883525 0.085562
0.789810 0.882949 0.085623
0.832614 0.882653 0.085682
0.865360 0.882697 0.085771
0.892088 0.884381 0.085875
0.911154 0.886015 0.085986
0.922843 0.887925 0.086113
0.929584 0.890165 0.086413
0.933238 0.893708 0.087254
0.072578 0.913551 0.085072
0.072579 0.913516 0.085072
0.072585 0.913397 0.085074
0.072596 0.913196 0.085076
0.072613 0.912940 0.085081
0.072638 0.912593 0.085088
0.072673 0.912388 0.085099
0.072721 0.912555 0.085113
0.072824 0.911777 0.085122
0.073053 0.911277 0.085133
0.073301 0.910795 0.085144
0.073532 0.909976 0.085153
0.074225 0.909197 0.085176
0.075387 0.908304 0.085203
0.077854 0.907115 0.085227
0.081111 0.905842 0.085250
0.086637 0.904482 0.085272
0.100478 0.903036 0.085307
0.127620 0.901580 0.085349
0.181747 0.900161 0.085390
0.262077 0.898813 0.085428
0.382887 0.897577 0.085465
0.501655 0.896464 0.085502
0.594973 0.895579 0.085540
0.686095 0.894859 0.085577
0.760380 0.894223 0.085650
0.814231 0.894072 0.085706
0.851752 0.893653 0.085787
0.880432 0.893816 0.085872
0.905048 0.894817 0.085973
0.918876 0.896066 0.086095
0.927174 0.897447 0.086323
0.931527 0.899708 0.087003
0.072578 0.917415 0.085069
0.072578 0.917386 0.085069
0.072578 0.917285 0.085071
0.072582 0.917114 0.085073
0.072599 0.916894 0.085076
0.072623 0.916670 0.085084
0.072657 0.916521 0.085095
0.072703 0.916576 0.085109
0.072759 0.916302 0.085120
0.072971 0.915925 0.085130
0.073246 0.915821 0.085144
0.073457 0.915217 0.085153
0.073986 0.914840 0.085177
0.074894 0.914165 0.085203
0.077129 0.913552 0.085230
0.079677 0.912777 0.085255
0.084843 0.911651 0.085277
0.093235 0.910467 0.085321
0.113455 0.909237 0.085365
0.151945 0.908025 0.085407
0.223032 0.906724 0.085448
0.330651 0.905494 0.085486
0.455865 0.904362 0.085523
0.553302 0.903358 0.085559
0.654906 0.902585 0.085597
0.726548 0.901959 0.085665
0.793596 0.901894 0.085717
0.835608 0.901317 0.085797
0.869552 0.901288 0.085875
0.895477 0.901319 0.085958
0.914314 0.902319 0.086070
0.924655 0.903585 0.086247
0.929991 0.905596 0.086820
0.072578 0.922282 0.085055
0.072578 0.922253 0.085056
0.072578 0.922149 0.085057
0.072578 0.921969 0.085060
0.072578 0.921727 0.085064
0.072586 0.921454 0.085069
0.072620 0.921212 0.085077
0.072668 0.921105 0.085093
0.072717 0.920962 0.085108
0.072833 0.920517 0.085119
0.073097 0.920260 0.085133
0.073347 0.919872 0.085145
0.073627 0.919394 0.085155
0.074485 0.918885 0.085185
0.076047 0.918283 0.085214
0.078537 0.917596 0.085240
0.082642 0.916887 0.085265
0.088699 0.916094 0.085299
0.104043 0.915242 0.085345
0.134301 0.914397 0.085389
0.191734 0.913577 0.085431
0.278838 0.912746 0.085471
0.396942 0.911755 0.085510
0.509335 0.910873 0.085547
0.603068 0.910130 0.085584
