LUTs/velvia/Velvia50_Classic_ExtraSoft.cube
TITLE "Velvia 50 Classic ExtraSoft"
# Adobe RGB in/out. REPLACES AgX. Velvia 50 Classic ExtraSoft.
LUT_3D_SIZE 33
DOMAIN_MIN 0.0 0.0 0.0
DOMAIN_MAX 1.0 1.0 1.0
0.072578 0.069118 0.085020
0.072578 0.069118 0.085020
0.072578 0.069118 0.085020
0.072611 0.069118 0.085020
0.073881 0.069118 0.085020
0.076357 0.069118 0.085020
0.088052 0.069118 0.085020
0.166426 0.069118 0.085020
0.262576 0.069118 0.085020
0.441263 0.069129 0.085020
0.607778 0.069159 0.085020
0.691502 0.069200 0.085020
0.751992 0.069242 0.085020
0.798367 0.069293 0.085020
0.830089 0.069416 0.085020
0.850345 0.069552 0.085020
0.864023 0.069674 0.085020
0.875191 0.069812 0.085020
0.884589 0.070048 0.085034
0.892924 0.070230 0.085046
0.899762 0.070415 0.085059
0.904959 0.070720 0.085073
0.908346 0.071034 0.085096
0.911606 0.071128 0.085118
0.914004 0.071243 0.085147
0.916139 0.071289 0.085232
0.918869 0.070801 0.085511
0.920337 0.070529 0.088095
0.923442 0.069553 0.570808
0.923442 0.069551 0.570730
0.923442 0.069551 0.570725
0.923442 0.069551 0.570722
0.924614 0.272218 0.755542
0.072578 0.069118 0.085020
0.072578 0.069118 0.085020
0.072578 0.069118 0.085020
0.072625 0.069118 0.085020
0.073542 0.069118 0.085020
0.075080 0.069118 0.085020
0.085356 0.069118 0.085020
0.146024 0.069118 0.085020
0.238813 0.069118 0.085020
0.420073 0.069132 0.085020
0.595606 0.069162 0.085020
0.687117 0.069208 0.085020
0.747165 0.069249 0.085020
0.796168 0.069298 0.085020
0.828617 0.069436 0.085020
0.849511 0.069570 0.085020
0.863383 0.069689 0.085020
0.874780 0.069826 0.085020
0.884287 0.070078 0.085034
0.892702 0.070258 0.085046
0.899600 0.070441 0.085059
0.904884 0.070765 0.085073
0.908292 0.071077 0.085096
0.911569 0.071169 0.085118
0.913978 0.071284 0.085146
0.916121 0.071329 0.085230
0.918857 0.070843 0.085502
0.920329 0.070570 0.087856
0.923442 0.069553 0.570810
0.923442 0.069551 0.570730
0.923442 0.069551 0.570725
0.923442 0.069551 0.570722
0.924614 0.272226 0.755542
0.072578 0.069118 0.085020
0.072578 0.069118 0.085020
0.072578 0.069118 0.085020
0.072578 0.069118 0.085020
0.072848 0.069118 0.085020
0.073610 0.069118 0.085020
0.079026 0.069118 0.085020
0.109837 0.069119 0.085020
0.178444 0.069129 0.085020
0.339213 0.069146 0.085020
0.552827 0.069191 0.085020
0.666951 0.069237 0.085020
0.728812 0.069274 0.085020
0.787777 0.069328 0.085020
0.823012 0.069509 0.085020
0.846328 0.069634 0.085020
0.860959 0.069747 0.085020
0.873226 0.069878 0.085020
0.883150 0.070185 0.085035
0.891866 0.070357 0.085047
0.898993 0.070559 0.085059
0.904604 0.070928 0.085074
0.908094 0.071233 0.085095
0.911432 0.071321 0.085118
0.913883 0.071432 0.085145
0.916055 0.071475 0.085224
0.918810 0.070994 0.085469
0.920302 0.070716 0.087493
0.923442 0.069553 0.570816
0.923442 0.069552 0.570731
0.923442 0.069551 0.570726
0.923442 0.069552 0.570722
0.924614 0.272240 0.755541
0.072578 0.069118 0.085020
0.072578 0.069118 0.085020
0.072578 0.069118 0.085020
0.072578 0.069118 0.085020
0.072604 0.069118 0.085020
0.072857 0.069118 0.085020
0.074302 0.069128 0.085020
0.083870 0.069153 0.085020
0.107134 0.069157 0.085020
0.205517 0.069183 0.085020
0.455419 0.069261 0.085020
0.589373 0.069296 0.085020
0.686632 0.069331 0.085020
0.761335 0.069444 0.085020
0.810659 0.069649 0.085020
0.837206 0.069757 0.085020
0.855923 0.069856 0.085020
0.870020 0.070062 0.085020
0.880821 0.070388 0.085036
0.890162 0.070579 0.085047
0.897764 0.070885 0.085060
0.903958 0.071234 0.085074
0.907695 0.071526 0.085095
0.911157 0.071635 0.085117
0.913693 0.071806 0.085143
0.915922 0.071872 0.085213
0.918718 0.071278 0.085416
0.920246 0.070993 0.086725
0.923442 0.069554 0.570830
0.923442 0.069552 0.570732
0.923442 0.069551 0.570726
0.923442 0.069552 0.570723
0.924614 0.272249 0.755541
0.072578 0.069140 0.085020
0.072578 0.069144 0.085020
0.072578 0.069156 0.085020
0.072578 0.069164 0.085020
0.072578 0.069172 0.085020
0.072651 0.069157 0.085020
0.073206 0.069190 0.085020
0.075779 0.069252 0.085020
0.082958 0.069248 0.085020
0.112752 0.069275 0.085020
0.285947 0.069367 0.085020
0.477943 0.069463 0.085020
0.605793 0.069545 0.085020
0.709276 0.069685 0.085020
0.785618 0.069876 0.085020
0.820417 0.070010 0.085020
0.846700 0.070181 0.085020
0.863581 0.070413 0.085021
0.876649 0.070883 0.085038
0.887135 0.071127 0.085049
0.895600 0.071393 0.085060
0.902425 0.071810 0.085074
0.907007 0.072255 0.085095
0.910684 0.072366 0.085116
0.913369 0.072518 0.085141
0.915697 0.072575 0.085199
0.918561 0.071826 0.085348
0.920151 0.071427 0.086100
0.923443 0.069554 0.570856
0.923442 0.069552 0.570735
0.923442 0.069551 0.570728
0.923442 0.069554 0.570724
0.924614 0.272253 0.755540
0.072578 0.069187 0.085020
0.072578 0.069194 0.085020
0.072578 0.069224 0.085020
0.072578 0.069249 0.085020
0.072578 0.069265 0.085020
0.072578 0.069274 0.085020
0.072767 0.069332 0.085020
0.073667 0.069504 0.085020
0.076254 0.069438 0.085020
0.085012 0.069502 0.085020
0.143432 0.069705 0.085020
0.299425 0.069776 0.085020
0.491552 0.069830 0.085020
0.633522 0.069970 0.085020
0.737739 0.070332 0.085020
0.795696 0.070501 0.085020
0.827516 0.070822 0.085020
0.851658 0.071275 0.085024
0.869263 0.071872 0.085040
0.881834 0.072151 0.085051
0.891865 0.072493 0.085062
0.899822 0.072941 0.085075
0.905851 0.073331 0.085095
0.909898 0.073411 0.085115
0.912835 0.073533 0.085138
0.915329 0.073578 0.085184
0.918305 0.072877 0.085278
0.919992 0.072375 0.085751
0.923443 0.069556 0.570908
0.923442 0.069552 0.570741
0.923442 0.069551 0.570731
0.924613 0.271955 0.570725
0.924614 0.272254 0.755540
0.072578 0.069394 0.085020
0.072578 0.069409 0.085020
0.072578 0.069492 0.085020
0.072578 0.069587 0.085020
0.072578 0.069662 0.085020
0.072578 0.069711 0.085020
0.072685 0.069738 0.085020
0.073258 0.069983 0.085020
0.074042 0.069858 0.085020
0.077999 0.069890 0.085020
0.094265 0.070261 0.085020
0.159858 0.070360 0.085020
0.311147 0.070397 0.085020
0.514752 0.070648 0.085020
0.671550 0.071272 0.085020
0.747964 0.071559 0.085020
0.803412 0.071847 0.085020
0.836939 0.072409 0.085028
0.859531 0.073235 0.085044
0.874584 0.073597 0.085053
0.885803 0.074269 0.085064
0.895235 0.075431 0.085076
0.903662 0.076791 0.085096
0.908551 0.076940 0.085114
0.911937 0.077291 0.085136
0.914716 0.077411 0.085170
0.917876 0.074743 0.085250
0.919724 0.073926 0.085519
0.923443 0.069559 0.571033
0.923442 0.069552 0.570756
0.923442 0.069552 0.570738
0.924614 0.272236 0.570728
0.924614 0.272255 0.755540
0.072578 0.070058 0.085020
0.072578 0.070082 0.085020
0.072578 0.070235 0.085020
0.072578 0.070407 0.085020
0.072578 0.070640 0.085020
0.072578 0.070886 0.085020
0.072670 0.071044 0.085020
0.072986 0.071139 0.085020
0.073440 0.070766 0.085020
0.074936 0.070851 0.085020
0.082666 0.071515 0.085020
0.104133 0.071611 0.085020
0.178856 0.071600 0.085020
0.356479 0.072041 0.085020
0.561656 0.072928 0.085020
0.682447 0.073214 0.085020
0.761642 0.073489 0.085022
0.811863 0.074303 0.085034
0.845463 0.076754 0.085048
0.865786 0.077622 0.085057
0.879885 0.079024 0.085067
0.890762 0.081025 0.085079
0.899914 0.082888 0.085099
0.906555 0.084204 0.085115
0.910311 0.085955 0.085135
0.913627 0.085977 0.085160
0.917101 0.083417 0.085231
0.919237 0.081335 0.085403
0.923445 0.069572 0.571464
0.923442 0.069553 0.570805
0.923442 0.069552 0.570760
0.924614 0.272251 0.570737
0.924614 0.272255 0.755540
0.072578 0.070704 0.085020
0.072578 0.070736 0.085020
0.072578 0.070917 0.085020
0.072578 0.071221 0.085020
0.072578 0.071526 0.085020
0.072578 0.071919 0.085020
0.072618 0.072248 0.085020
0.072727 0.072454 0.085020
0.073204 0.072591 0.085020
0.073902 0.072722 0.085020
0.078146 0.073850 0.085020
0.086120 0.073918 0.085020
0.113148 0.073761 0.085020
0.213183 0.074263 0.085020
0.439936 0.076797 0.085020
0.583457 0.077612 0.085020
0.692259 0.078537 0.085029
0.779513 0.080616 0.085040
0.823565 0.083355 0.085054
0.852101 0.084698 0.085062
0.870160 0.086780 0.085071
0.884190 0.088989 0.085084
0.895526 0.091974 0.085103
0.904706 0.093249 0.085118
0.909089 0.095398 0.085136
0.912541 0.098303 0.085158
0.916078 0.099138 0.085224
0.918345 0.101589 0.085349
0.923507 0.069911 0.576345
0.923445 0.069567 0.571304
0.923443 0.069555 0.570894
0.924614 0.272255 0.570777
0.924614 0.272256 0.755540
0.072578 0.072364 0.085020
0.072578 0.072404 0.085020
0.072578 0.072612 0.085020
0.072578 0.073057 0.085020
0.072578 0.073513 0.085020
0.072578 0.074127 0.085020
0.072591 0.074678 0.085020
0.072695 0.075641 0.085020
0.073015 0.076450 0.085020
0.073487 0.077033 0.085020
0.075668 0.081569 0.085020
0.080515 0.081640 0.085020
0.090679 0.081022 0.085020
0.137691 0.081879 0.085020
0.294811 0.085473 0.085020
0.475601 0.086046 0.085028
0.610964 0.086683 0.085036
0.719092 0.089288 0.085046
0.794668 0.094977 0.085059
0.832087 0.096706 0.085067
0.858835 0.099423 0.085075
0.875939 0.107110 0.085090
0.888874 0.116207 0.085107
0.900237 0.119403 0.085121
0.907133 0.122384 0.085138
0.911284 0.126987 0.085159
0.915301 0.126655 0.085219
0.917855 0.128145 0.085315
0.920413 0.128023 0.085549
0.922165 0.131208 0.086884
0.923963 0.132461 0.465499
0.924614 0.272259 0.578122
0.924614 0.272257 0.755540
0.072578 0.079036 0.085020
0.072578 0.079188 0.085020
0.072578 0.079913 0.085020
0.072578 0.081652 0.085020
0.072578 0.083536 0.085020
0.072578 0.085652 0.085020
0.072596 0.087940 0.085020
0.072693 0.090239 0.085020
0.072981 0.092178 0.085020
0.073435 0.093574 0.085020
0.074568 0.094683 0.085020
0.077888 0.094676 0.085020
0.084031 0.093030 0.085020
0.104416 0.094647 0.085020
0.193723 0.103881 0.085029
0.346341 0.104445 0.085036
0.515726 0.105172 0.085043
0.654243 0.111180 0.085053
0.748266 0.124412 0.085066
0.806093 0.126604 0.085072
0.842007 0.132260 0.085082
0.864914 0.145316 0.085097
0.881736 0.156252 0.085113
0.895015 0.162972 0.085126
0.904455 0.175998 0.085141
0.909167 0.190464 0.085164
0.914021 0.186843 0.085217
0.917071 0.185937 0.085290
0.919917 0.182787 0.085482
0.921875 0.181986 0.086059
0.923860 0.151677 0.249360
0.924614 0.272263 0.593346
0.924614 0.272272 0.595845
0.072578 0.087974 0.085020
0.072578 0.088169 0.085020
0.072578 0.089084 0.085020
0.072578 0.092041 0.085020
0.072578 0.095203 0.085020
0.072578 0.100057 0.085020
0.072583 0.107534 0.085020
0.072671 0.113551 0.085020
0.072844 0.118813 0.085020
0.073278 0.123291 0.085020
0.073887 0.126608 0.085020
0.076032 0.129451 0.085020
0.079702 0.124201 0.085020
0.089460 0.128747 0.085022
0.136155 0.148169 0.085037
0.233138 0.147230 0.085044
0.403918 0.147470 0.085051
0.560545 0.156875 0.085060
0.688069 0.180621 0.085072
0.769948 0.182613 0.085078
0.817684 0.192628 0.085090
0.851182 0.212219 0.085105
0.872164 0.239729 0.085120
0.887615 0.251501 0.085132
0.899878 0.260287 0.085146
0.907243 0.275539 0.085174
0.912509 0.283517 0.085221
0.915877 0.304719 0.085280
0.919052 0.309751 0.085442
0.921374 0.296374 0.085783
0.923612 0.215935 0.108458
0.924614 0.272275 0.593420
0.924614 0.272291 0.598154
0.072578 0.104493 0.085020
0.072578 0.104922 0.085020
0.072578 0.106811 0.085020
0.072578 0.111941 0.085020
0.072578 0.119440 0.085020
0.072578 0.128462 0.085020
0.072578 0.138420 0.085020
0.072650 0.149186 0.085020
0.072733 0.159711 0.085020
0.073125 0.170273 0.085020
0.073521 0.177487 0.085020
0.074705 0.182223 0.085020
0.077960 0.186658 0.085021
0.084390 0.195095 0.085031
0.108168 0.240065 0.085045
0.172196 0.236809 0.085052
0.292257 0.234757 0.085058
0.472250 0.249340 0.085067
0.621259 0.277328 0.085079
0.716299 0.278132 0.085088
0.788929 0.290583 0.085099
0.830607 0.316235 0.085113
0.859597 0.337464 0.085127
0.879576 0.342737 0.085138
0.893574 0.357652 0.085151
0.904160 0.382704 0.085187
0.910692 0.384159 0.085229
0.914780 0.393201 0.085283
0.918266 0.402546 0.085426
0.920701 0.415160 0.085653
0.922667 0.444048 0.086654
0.924614 0.272469 0.593473
0.924614 0.272418 0.603498
0.072578 0.148468 0.085020
0.072578 0.149138 0.085020
0.072578 0.151988 0.085020
0.072578 0.159724 0.085020
0.072578 0.176725 0.085020
0.072578 0.189539 0.085020
0.072578 0.211264 0.085020
0.072642 0.235922 0.085020
0.072720 0.253805 0.085020
0.073033 0.267205 0.085020
0.073413 0.278843 0.085020
0.074235 0.290987 0.085022
0.076540 0.302279 0.085030
0.080817 0.311155 0.085039
0.093548 0.346558 0.085053
0.129848 0.344488 0.085059
0.210592 0.340809 0.085065
0.371350 0.351718 0.085073
0.544269 0.383127 0.085089
0.664274 0.383631 0.085098
0.743705 0.392900 0.085108
0.805684 0.407756 0.085121
0.844712 0.424318 0.085134
0.869178 0.432035 0.085144
0.885834 0.446044 0.085157
0.899203 0.460090 0.085200
0.908335 0.468907 0.085239
0.913013 0.484122 0.085293
0.917254 0.488245 0.085418
0.920134 0.494890 0.085587
0.922355 0.515002 0.086124
0.923785 0.544848 0.103928
0.924579 0.596985 0.609143
0.072578 0.261448 0.085020
0.072578 0.262465 0.085020
0.072578 0.266638 0.085020
0.072578 0.276721 0.085020
0.072578 0.306582 0.085020
0.072578 0.324400 0.085020
0.072578 0.344688 0.085020
0.072647 0.365229 0.085020
0.072720 0.387252 0.085020
0.073015 0.403161 0.085020
0.073385 0.414963 0.085027
0.074048 0.424346 0.085036
0.075957 0.431793 0.085044
0.079542 0.437921 0.085053
0.087008 0.443190 0.085061
0.107428 0.440244 0.085066
0.158163 0.437472 0.085072
0.280201 0.447071 0.085082
0.466166 0.471626 0.085099
0.585915 0.470508 0.085107
0.690555 0.476774 0.085117
0.776363 0.492123 0.085129
0.822993 0.509023 0.085142
0.855387 0.517987 0.085151
0.876966 0.526570 0.085175
0.892385 0.541269 0.085216
0.905455 0.547865 0.085251
0.911319 0.554984 0.085311
0.916008 0.565769 0.085421
0.919225 0.579287 0.085563
0.921849 0.587659 0.085951
0.923526 0.602718 0.089352
0.924546 0.611979 0.596774
0.072578 0.355785 0.085020
0.072578 0.356701 0.085020
0.072578 0.360385 0.085020
0.072578 0.370481 0.085020
0.072578 0.391360 0.085020
0.072578 0.407753 0.085020
0.072578 0.427733 0.085020
0.072638 0.443247 0.085020
0.072707 0.460397 0.085020
0.072934 0.477219 0.085024
0.073283 0.491150 0.085033
0.073704 0.502936 0.085042
0.074945 0.513307 0.085050
0.078110 0.519681 0.085058
0.083491 0.524650 0.085066
0.095037 0.528962 0.085073
0.129039 0.526401 0.085079
0.211608 0.534036 0.085092
0.379474 0.553981 0.085109
0.523142 0.552759 0.085116
0.639600 0.556093 0.085125
0.730139 0.567305 0.085137
0.798690 0.579353 0.085150
0.838557 0.584917 0.085162
0.866017 0.594454 0.085194
0.884453 0.608945 0.085233
0.900822 0.614207 0.085265
0.908846 0.621886 0.085334
0.914537 0.627674 0.085433
0.918426 0.634077 0.085556
0.921267 0.648860 0.085863
0.923060 0.673391 0.087104
0.924398 0.655092 0.455596
0.072578 0.440109 0.085020
0.072578 0.440858 0.085020
0.072578 0.443813 0.085020
0.072578 0.450431 0.085020
0.072578 0.463648 0.085020
0.072578 0.482462 0.085020
0.072578 0.499326 0.085020
0.072631 0.517887 0.085020
0.072696 0.532220 0.085020
0.072855 0.545432 0.085029
0.073191 0.557321 0.085038
0.073520 0.567595 0.085047
0.074494 0.576247 0.085055
0.076769 0.583123 0.085063
0.080405 0.588759 0.085071
0.087926 0.593745 0.085078
0.109635 0.598299 0.085089
0.170525 0.606102 0.085101
0.298662 0.621171 0.085118
0.450818 0.620092 0.085125
0.571509 0.622218 0.085134
0.684240 0.628841 0.085145
0.767588 0.639269 0.085158
0.817586 0.643385 0.085183
0.852309 0.652158 0.085214
0.875375 0.663270 0.085250
0.893945 0.670581 0.085279
0.906042 0.678822 0.085359
0.912770 0.688116 0.085449
0.917222 0.697923 0.085557
0.920631 0.705883 0.085809
0.922754 0.716650 0.086515
0.924056 0.736829 0.117055
0.072578 0.528725 0.085020
0.072578 0.529294 0.085020
0.072578 0.531500 0.085020
0.072578 0.536278 0.085020
0.072578 0.545394 0.085020
0.072578 0.561718 0.085020
0.072578 0.572100 0.085020
0.072633 0.587933 0.085020
0.072692 0.601808 0.085027
0.072814 0.614241 0.085036
0.073137 0.622618 0.085046
0.073457 0.630367 0.085054
0.074200 0.638995 0.085063
0.075883 0.645646 0.085070
0.079115 0.651640 0.085078
0.085154 0.656482 0.085089
0.100054 0.660727 0.085100
0.137287 0.664941 0.085110
0.231624 0.681894 0.085126
0.371410 0.680532 0.085134
0.514121 0.682584 0.085142
0.634124 0.691334 0.085153
0.725753 0.699374 0.085181
0.793865 0.702126 0.085204
0.834998 0.708932 0.085234
0.864520 0.715607 0.085267
0.886019 0.720239 0.085313
0.901656 0.725451 0.085386
0.910438 0.732896 0.085470
0.916021 0.737318 0.085566
0.919881 0.745165 0.085787
0.922264 0.755374 0.086223
0.923861 0.765531 0.092991
0.072578 0.610088 0.085020
0.072578 0.610658 0.085020
0.072578 0.612838 0.085020
0.072578 0.615860 0.085020
0.072578 0.621301 0.085020
0.072578 0.631415 0.085020
0.072583 0.641922 0.085020
0.072638 0.655277 0.085028
0.072693 0.667350 0.085037
0.072815 0.680648 0.085046
0.073127 0.692622 0.085055
0.073436 0.700793 0.085064
0.074043 0.707659 0.085072
0.075417 0.712846 0.085081
0.078520 0.716937 0.085092
0.083814 0.720658 0.085104
0.093737 0.723669 0.085114
0.124390 0.726157 0.085124
0.191952 0.728923 0.085135
0.300811 0.728197 0.085141
0.451521 0.729732 0.085150
0.573171 0.734634 0.085169
0.684056 0.740839 0.085202
0.762330 0.742841 0.085224
0.815261 0.746621 0.085252
0.851578 0.751788 0.085292
0.876985 0.754999 0.085347
0.894969 0.759683 0.085416
0.907939 0.764168 0.085491
0.914420 0.768951 0.085579
0.919007 0.774445 0.085783
0.921866 0.778154 0.086124
0.923617 0.789165 0.088794
0.072578 0.663688 0.085020
0.072578 0.664132 0.085020
0.072578 0.665816 0.085020
0.072578 0.669299 0.085020
0.072578 0.675540 0.085020
0.072578 0.686268 0.085020
0.072583 0.696937 0.085023
0.072631 0.705115 0.085031
0.072687 0.714202 0.085041
0.072765 0.722402 0.085050
0.073053 0.729398 0.085059
0.073350 0.736369 0.085067
0.073764 0.742580 0.085075
0.074854 0.746805 0.085086
0.077437 0.750479 0.085098
0.081215 0.753489 0.085109
0.088147 0.756139 0.085119
0.107682 0.758535 0.085129
0.149974 0.760504 0.085139
0.240993 0.762742 0.085149
0.381546 0.763624 0.085157
0.524498 0.767491 0.085189
0.640499 0.771415 0.085222
0.723965 0.772738 0.085243
0.793194 0.775580 0.085271
0.835108 0.777818 0.085328
0.866636 0.778868 0.085380
0.887190 0.782660 0.085445
0.904707 0.786858 0.085515
0.912459 0.791548 0.085594
0.918034 0.796883 0.085788
0.921313 0.804749 0.086081
0.923390 0.814269 0.087517
0.072578 0.716205 0.085020
0.072578 0.716464 0.085020
0.072578 0.717442 0.085020
0.072578 0.719429 0.085020
0.072578 0.722905 0.085020
0.072578 0.728705 0.085020
0.072585 0.737072 0.085028
0.072628 0.742601 0.085036
0.072684 0.749663 0.085046
0.072734 0.754605 0.085054
0.073004 0.760685 0.085063
0.073299 0.766436 0.085071
0.073592 0.770835 0.085080
0.074547 0.774355 0.085092
0.076562 0.777079 0.085104
0.079534 0.778215 0.085115
0.085396 0.779131 0.085125
0.098083 0.781346 0.085135
0.131297 0.783611 0.085145
0.199280 0.785495 0.085154
0.316472 0.787639 0.085176
0.466300 0.790579 0.085208
0.583618 0.794687 0.085240
0.685171 0.796282 0.085261
0.764314 0.799157 0.085297
0.816946 0.803283 0.085364
0.854169 0.806072 0.085412
0.878526 0.809469 0.085474
0.898788 0.813491 0.085539
0.910199 0.817065 0.085618
0.916782 0.822367 0.085800
0.920758 0.828145 0.086057
0.923136 0.837646 0.087104
0.072578 0.753804 0.085020
0.072578 0.753996 0.085020
0.072578 0.754715 0.085020
0.072578 0.756152 0.085020
0.072578 0.758606 0.085020
0.072578 0.762578 0.085025
0.072588 0.768928 0.085034
0.072629 0.772589 0.085042
0.072679 0.776991 0.085051
0.072730 0.778931 0.085059
0.072979 0.784266 0.085068
0.073246 0.789063 0.085076
0.073525 0.793950 0.085088
0.074324 0.798318 0.085100
0.075908 0.802087 0.085112
0.078787 0.805474 0.085123
0.083722 0.808011 0.085133
0.092255 0.810182 0.085143
0.116358 0.812072 0.085153
0.174132 0.814027 0.085173
0.264448 0.815708 0.085199
0.405743 0.817585 0.085225
0.538655 0.820714 0.085257
0.647747 0.822266 0.085277
0.728700 0.824560 0.085331
0.796471 0.827896 0.085396
0.839651 0.830514 0.085443
0.869063 0.833612 0.085501
0.891562 0.837442 0.085563
0.907352 0.840955 0.085651
0.915353 0.845788 0.085815
0.920093 0.850291 0.086044
0.922847 0.856708 0.086810
0.072578 0.779676 0.085020
0.072578 0.779844 0.085020
0.072578 0.780469 0.085020
0.072578 0.781704 0.085020
0.072578 0.783775 0.085023
0.072578 0.787054 0.085030
0.072586 0.792169 0.085038
0.072630 0.797017 0.085047
0.072674 0.801600 0.085055
0.072728 0.807440 0.085064
0.072935 0.811590 0.085072
0.073211 0.816349 0.085082
0.073491 0.820931 0.085096
0.074110 0.824572 0.085107
0.075276 0.827983 0.085119
0.078084 0.831061 0.085130
0.082126 0.833770 0.085140
0.088864 0.836078 0.085150
0.107661 0.838079 0.085167
0.146762 0.839841 0.085194
0.224528 0.841687 0.085221
0.351025 0.843419 0.085246
0.495308 0.845296 0.085271
0.594776 0.846727 0.085304
0.690392 0.848289 0.085360
0.772297 0.850511 0.085425
0.822111 0.852554 0.085470
0.857554 0.854594 0.085526
0.883583 0.856796 0.085585
0.903719 0.858788 0.085684
0.913639 0.860956 0.085831
0.919291 0.863793 0.086039
0.922591 0.867819 0.086661
0.072578 0.809262 0.085020
0.072578 0.809390 0.085020
0.072578 0.809863 0.085020
0.072578 0.810793 0.085020
0.072578 0.812340 0.085024
0.072578 0.814762 0.085030
0.072578 0.818494 0.085039
0.072624 0.823085 0.085048
0.072665 0.826418 0.085056
0.072717 0.831356 0.085065
0.072875 0.835376 0.085073
0.073157 0.840152 0.085085
0.073410 0.843979 0.085097
0.073857 0.847645 0.085110
0.074917 0.850448 0.085122
0.077265 0.852735 0.085132
0.080191 0.854659 0.085143
0.085961 0.856108 0.085153
0.100026 0.857389 0.085175
0.130235 0.858447 0.085202
0.193201 0.859324 0.085228
0.295422 0.860203 0.085254
0.433030 0.861139 0.085278
0.551061 0.862140 0.085330
0.662220 0.862960 0.085385
0.738379 0.864197 0.085449
0.803210 0.865550 0.085492
0.845166 0.866788 0.085547
0.874643 0.868478 0.085603
0.897372 0.870189 0.085717
0.911525 0.872226 0.085848
0.918407 0.874647 0.086031
0.922295 0.877404 0.086549
0.072578 0.834220 0.085020
0.072578 0.834340 0.085020
0.072578 0.834781 0.085020
0.072578 0.835641 0.085021
0.072578 0.837049 0.085026
0.072578 0.839213 0.085032
0.072578 0.842476 0.085040
0.072620 0.847171 0.085050
0.072657 0.849415 0.085057
0.072705 0.852613 0.085066
0.072835 0.855720 0.085075
0.073088 0.858117 0.085087
0.073356 0.860254 0.085100
0.073709 0.862267 0.085113
0.074616 0.863968 0.085124
0.076522 0.865582 0.085136
0.079279 0.866997 0.085147
0.084525 0.868188 0.085157
0.093378 0.869226 0.085186
0.117020 0.870155 0.085214
0.167666 0.871008 0.085240
0.247787 0.871835 0.085265
0.377643 0.872648 0.085301
0.505710 0.873592 0.085354
0.612516 0.874590 0.085405
0.706609 0.875351 0.085468
0.783910 0.876348 0.085509
0.828279 0.877022 0.085563
0.864688 0.878093 0.085631
0.890043 0.879161 0.085735
0.908943 0.880296 0.085862
0.917382 0.881536 0.086024
0.921965 0.885092 0.086452
0.072578 0.855377 0.085020
0.072578 0.855446 0.085020
0.072578 0.855700 0.085020
0.072578 0.856189 0.085022
0.072578 0.856980 0.085026
0.072578 0.858156 0.085032
0.072578 0.859616 0.085040
0.072607 0.861773 0.085050
0.072650 0.863561 0.085059
0.072695 0.865376 0.085067
0.072803 0.867914 0.085077
0.073034 0.869611 0.085089
0.073318 0.871852 0.085103
0.073559 0.873560 0.085115
0.074408 0.875250 0.085128
0.075938 0.876333 0.085139
0.078567 0.877264 0.085150
0.082856 0.878077 0.085168
0.089500 0.878767 0.085198
0.108073 0.879380 0.085226
0.144650 0.879840 0.085252
0.215502 0.880280 0.085278
0.327809 0.880707 0.085329
0.461812 0.881141 0.085380
0.568283 0.881663 0.085432
0.675483 0.882697 0.085482
0.752695 0.884397 0.085521
0.811207 0.885252 0.085574
0.853144 0.886763 0.085646
0.881927 0.888256 0.085748
0.905666 0.890145 0.085865
0.916147 0.892375 0.086014
0.921715 0.894964 0.086373
0.072578 0.870312 0.085020
0.072578 0.870356 0.085020
0.072578 0.870516 0.085020
0.072578 0.870823 0.085020
0.072578 0.871317 0.085020
0.072578 0.872061 0.085023
0.072578 0.873159 0.085032
0.072578 0.874801 0.085043
0.072631 0.876082 0.085054
0.072673 0.877068 0.085062
0.072727 0.878428 0.085073
0.072948 0.879646 0.085085
0.073211 0.880658 0.085098
0.073480 0.881671 0.085112
0.074073 0.883422 0.085125
0.075090 0.884992 0.085137
0.077751 0.886471 0.085148
0.081067 0.887702 0.085164
0.086556 0.888711 0.085193
0.100649 0.889620 0.085222
0.129517 0.890455 0.085249
0.187821 0.891244 0.085275
0.280562 0.892027 0.085324
0.408504 0.892837 0.085375
