LUTs/velvia/Velvia50_Modern_ExtraPunchy.cube
TITLE "Velvia 50 Modern ExtraPunchy"
# Adobe RGB in/out. REPLACES AgX. Velvia 50 Modern ExtraPunchy.
LUT_3D_SIZE 5
DOMAIN_MIN 0.0 0.0 0.0
DOMAIN_MAX 1.0 1.0 1.0
0.070631 0.072407 0.079283
0.909108 0.072442 0.079283
0.994565 0.074963 0.079207
0.994565 0.084698 0.078718
0.994565 0.661866 0.969166
0.070631 0.115896 0.079283
0.071249 0.082254 0.079283
0.956590 0.135594 0.079213
0.994565 0.294892 0.078846
0.994565 0.604997 0.960594
0.070631 0.953023 0.079258
0.070913 0.936417 0.079220
0.149506 0.881526 0.079165
0.980800 0.908338 0.078873
0.994565 0.953013 0.137934
0.070631 0.996677 0.079231
0.070747 0.996356 0.079182
0.076056 0.994171 0.079033
0.793665 0.991268 0.078798
0.991732 0.992734 0.078199
0.070631 0.997062 0.079283
0.070631 0.997332 0.079283
0.071142 0.997369 0.079253
0.216740 0.997213 0.079128
0.989408 0.997157 0.079045
0.070631 0.072407 0.090251
0.919218 0.072710 0.928540
0.994565 0.076685 0.711664
0.994565 0.088500 0.798554
0.994565 0.643001 0.967007
0.070656 0.078429 0.078395
0.073135 0.074446 0.078069
0.981697 0.113802 0.081638
0.994565 0.271489 0.149054
0.994565 0.581588 0.956587
0.070823 0.901148 0.078222
0.071563 0.869482 0.078207
0.418448 0.758233 0.078176
0.985321 0.881067 0.078921
0.994532 0.950635 0.787649
0.070743 0.994393 0.078424
0.071063 0.993679 0.078216
0.090099 0.991276 0.078147
0.896760 0.988493 0.078416
0.991498 0.992078 0.080818
0.070631 0.997071 0.079160
0.070631 0.997335 0.079164
0.071480 0.997322 0.078975
0.283138 0.997181 0.078595
0.989972 0.997146 0.078413
0.070631 0.072808 0.965649
0.611140 0.080582 0.993678
0.994565 0.146463 0.993610
0.994565 0.171460 0.991600
0.994565 0.634106 0.990006
0.070849 0.146952 0.957492
0.120789 0.215922 0.982341
0.986394 0.279337 0.976964
0.994565 0.406453 0.977245
0.994565 0.567722 0.984729
0.071071 0.773762 0.701888
0.072827 0.731062 0.676370
0.616731 0.621277 0.625291
0.986384 0.856875 0.848944
0.994092 0.954740 0.966787
0.071087 0.989592 0.519278
0.071953 0.988712 0.520883
0.167161 0.986384 0.521037
0.950951 0.985524 0.555857
0.990866 0.991245 0.882994
0.070631 0.997186 0.277220
0.070631 0.997226 0.247085
0.072828 0.997215 0.154914
0.470430 0.997116 0.206305
0.989944 0.997136 0.456831
0.070636 0.081203 0.995306
0.123785 0.182668 0.995759
0.994565 0.461464 0.995778
0.994565 0.488647 0.995231
0.994565 0.656323 0.993972
0.070953 0.357165 0.995403
0.133403 0.603508 0.995697
0.992454 0.685493 0.995457
0.994565 0.662201 0.994354
0.994565 0.591303 0.993541
0.071414 0.846704 0.988514
0.075474 0.863979 0.990101
0.876080 0.880796 0.990207
0.989345 0.911490 0.990652
0.994268 0.969627 0.991952
0.071323 0.986424 0.954420
0.072611 0.986236 0.955310
0.250077 0.985022 0.958208
0.958206 0.982495 0.958271
0.990540 0.991432 0.982757
0.070631 0.997114 0.829283
0.070631 0.997176 0.818914
0.072859 0.997179 0.896495
0.502266 0.997092 0.899939
0.989799 0.997147 0.966529
0.193323 0.104380 0.996101
0.972295 0.131108 0.996101
0.994565 0.300289 0.996101
0.994565 0.300951 0.996025
0.994565 0.686354 0.995531
0.220184 0.383007 0.996101
0.964589 0.462275 0.996101
0.994565 0.641607 0.996101
0.994565 0.517987 0.995819
0.994565 0.631060 0.995329
0.104694 0.919211 0.995711
0.647128 0.918023 0.995652
0.988726 0.913339 0.995413
0.994565 0.904430 0.995006
0.994565 0.966756 0.994402
0.072108 0.986368 0.994259
0.077859 0.986163 0.994066
0.893984 0.985451 0.993612
0.986914 0.985034 0.993337
0.991512 0.990844 0.993218
0.070631 0.996939 0.979084
0.070631 0.997124 0.985180
0.071091 0.997263 0.992041
0.367010 0.997146 0.992808
0.989754 0.997177 0.992722
