LUTs/velvia/Velvia50_Classic_Soft.cube
TITLE "Velvia 50 Classic Soft"
# Adobe RGB in/out. REPLACES AgX. Velvia 50 Classic Soft.
LUT_3D_SIZE 5
DOMAIN_MIN 0.0 0.0 0.0
DOMAIN_MAX 1.0 1.0 1.0
0.074298 0.072888 0.089690
0.239312 0.072888 0.089690
0.884318 0.073310 0.089690
0.932359 0.074543 0.089779
0.943554 0.254977 0.777118
0.074298 0.074075 0.089690
0.074935 0.075710 0.089690
0.714835 0.080616 0.089696
0.926496 0.094950 0.089771
0.943554 0.255017 0.777116
0.074298 0.439013 0.089690
0.074418 0.534137 0.089690
0.104204 0.598493 0.089738
0.872275 0.662270 0.089826
0.942997 0.756501 0.117986
0.074298 0.853140 0.089690
0.074379 0.865814 0.089716
0.079505 0.882225 0.089779
0.630229 0.889304 0.089959
0.940912 0.900220 0.090811
0.074298 0.918318 0.089690
0.074298 0.933956 0.089690
0.075164 0.942741 0.089700
0.197144 0.942443 0.089781
0.940587 0.945079 0.089850
0.074298 0.072888 0.090433
0.242521 0.072929 0.243701
0.892786 0.073428 0.128467
0.932253 0.075167 0.263201
0.943554 0.255017 0.777137
0.074298 0.073752 0.090129
0.079966 0.076140 0.091948
0.848033 0.081534 0.093179
0.928420 0.096690 0.102341
0.943554 0.255017 0.777116
0.074361 0.384225 0.090056
0.075139 0.472456 0.090300
0.283395 0.560056 0.091224
0.901604 0.647696 0.092958
0.942949 0.763563 0.587771
0.074370 0.841954 0.089977
0.074759 0.857519 0.090119
0.087746 0.875939 0.090812
0.753977 0.885053 0.092400
0.941420 0.899474 0.100380
0.074298 0.920137 0.089748
0.074298 0.935336 0.089748
0.075693 0.941485 0.089836
0.261164 0.941616 0.090307
0.942807 0.944872 0.090764
0.074298 0.072945 0.479350
0.092876 0.073356 0.813376
0.880192 0.074698 0.813372
0.930767 0.079762 0.833034
0.943554 0.255017 0.863273
0.074308 0.074797 0.479915
0.078946 0.077515 0.730087
0.848130 0.087671 0.773259
0.927715 0.120433 0.805704
0.943554 0.255031 0.856696
0.074701 0.371195 0.265897
0.076379 0.452044 0.390273
0.581221 0.571473 0.585503
0.912726 0.649829 0.682366
0.942772 0.778124 0.849131
0.074837 0.832714 0.177007
0.075707 0.846714 0.211375
0.133470 0.868988 0.351308
0.850301 0.881098 0.481105
0.941794 0.900339 0.765361
0.074298 0.928937 0.161129
0.074298 0.933135 0.161126
0.077922 0.938718 0.148408
0.426366 0.940090 0.205944
0.943346 0.945004 0.451814
0.074298 0.073373 0.874993
0.077088 0.075057 0.910321
0.868208 0.080375 0.912179
0.929405 0.094705 0.915176
0.943554 0.254946 0.921357
0.074338 0.077251 0.880940
0.077283 0.086491 0.904205
0.843001 0.110359 0.908845
0.926936 0.181694 0.912774
0.943552 0.254318 0.920052
0.075003 0.436282 0.851188
0.077718 0.503931 0.871419
0.645830 0.593286 0.895067
0.916026 0.675137 0.903535
0.942633 0.793193 0.919124
0.075148 0.837351 0.799113
0.076448 0.849990 0.815597
0.197543 0.870213 0.852566
0.872174 0.882284 0.873929
0.941962 0.904006 0.911228
0.074298 0.929648 0.659449
0.074298 0.934515 0.661127
0.078323 0.939787 0.774975
0.467506 0.940991 0.791794
0.943449 0.945947 0.885120
0.079011 0.073831 0.941866
0.560502 0.074339 0.941873
0.909005 0.076394 0.941924
0.934678 0.080220 0.942175
0.943554 0.255026 0.941464
0.079494 0.077710 0.941613
0.498062 0.080412 0.941644
0.904402 0.089417 0.941749
0.934108 0.104889 0.942043
0.943554 0.255123 0.942262
0.079822 0.449634 0.940944
0.183314 0.474752 0.941079
0.881077 0.538669 0.941335
0.931346 0.593993 0.941729
0.943501 0.777277 0.942834
0.076004 0.845490 0.940629
0.081711 0.852267 0.940890
0.736621 0.864236 0.941312
0.922665 0.874341 0.941762
0.943371 0.896866 0.942690
0.074298 0.926518 0.892848
0.074298 0.935336 0.908106
0.075221 0.945951 0.932883
0.377781 0.944632 0.942427
0.943554 0.947380 0.942937
