LUTs/velvia/Velvia50_Modern_RadianceIII.cube
TITLE "Velvia 50 Modern RadianceIII"
# Adobe RGB in/out. REPLACES AgX. Velvia 50 Modern RadianceIII.
LUT_3D_SIZE 5
DOMAIN_MIN 0.0 0.0 0.0
DOMAIN_MAX 1.0 1.0 1.0
0.087650 0.087576 0.084044
0.698237 0.113800 0.087712
0.985644 0.223703 0.104182
0.988364 0.282791 0.162554
0.987967 0.526645 0.855105
0.091539 0.327157 0.087358
0.156796 0.272400 0.088742
0.819352 0.341403 0.103066
0.986514 0.406488 0.143677
0.987407 0.504644 0.826664
0.101246 0.718483 0.094730
0.134340 0.691714 0.102035
0.354265 0.622949 0.112536
0.915092 0.652342 0.141311
0.983631 0.718464 0.378397
0.103374 0.931754 0.100138
0.121729 0.928790 0.109131
0.255074 0.911454 0.129372
0.592958 0.889677 0.152956
0.974779 0.900613 0.201908
0.087650 0.958131 0.084047
0.087650 0.971900 0.084084
0.152582 0.973478 0.095792
0.390722 0.966839 0.117707
0.967723 0.964464 0.127718
0.089244 0.096531 0.338047
0.718099 0.142667 0.738052
0.986091 0.240652 0.548616
0.988031 0.292824 0.591604
0.987766 0.518349 0.844428
0.108059 0.251338 0.239392
0.220993 0.212516 0.212095
0.919532 0.325421 0.307520
0.985688 0.398697 0.383003
0.987180 0.496585 0.816193
0.127052 0.644218 0.227226
0.174035 0.614639 0.225742
0.449529 0.562798 0.222797
0.946520 0.622556 0.265839
0.982983 0.714114 0.585112
0.121443 0.913145 0.190200
0.147749 0.907730 0.201243
0.300960 0.889736 0.220220
0.682435 0.874271 0.240827
0.974065 0.895706 0.298382
0.087650 0.958754 0.113550
0.087650 0.972041 0.112617
0.168535 0.971508 0.133747
0.412192 0.965514 0.176686
0.969431 0.964015 0.190815
0.094733 0.151300 0.840005
0.506806 0.263005 0.978147
0.987592 0.347381 0.975316
0.988174 0.362544 0.945212
0.987676 0.514659 0.939890
0.129038 0.347639 0.818550
0.335394 0.379665 0.907700
0.953510 0.400498 0.887638
0.985961 0.442225 0.888680
0.987041 0.491721 0.918351
0.148541 0.568831 0.544364
0.211150 0.552935 0.533781
0.509075 0.510171 0.510751
0.953447 0.606979 0.625953
0.982187 0.721619 0.843346
0.150054 0.879899 0.477084
0.186459 0.875390 0.477579
0.367256 0.854269 0.477627
0.795335 0.841231 0.487842
0.972146 0.889506 0.662298
0.087650 0.965710 0.416048
0.087650 0.967409 0.410138
0.211184 0.966949 0.385315
0.462240 0.961907 0.400877
0.969347 0.963600 0.457981
0.104241 0.266478 0.987107
0.337640 0.367691 0.988634
0.987260 0.459409 0.988726
0.988845 0.467374 0.986822
0.987909 0.524218 0.981247
0.137773 0.428095 0.987311
0.342480 0.504137 0.988328
0.976975 0.536671 0.987426
0.987511 0.526791 0.982576
0.987284 0.499953 0.974206
0.164338 0.600787 0.932278
0.249621 0.611297 0.940161
0.659484 0.622324 0.940466
0.967532 0.655917 0.941742
0.982505 0.752758 0.952400
0.160063 0.854881 0.810568
0.204735 0.852013 0.812876
0.401589 0.835574 0.820419
0.826336 0.819264 0.820584
0.971154 0.890895 0.909490
0.087652 0.961811 0.609806
0.087715 0.965289 0.603680
0.212178 0.965401 0.685824
0.471869 0.960243 0.691544
0.968907 0.964062 0.842342
0.381383 0.315008 0.991151
0.884791 0.338767 0.991152
0.989402 0.408619 0.991159
0.989698 0.408879 0.989806
0.988218 0.537031 0.987618
0.391905 0.435549 0.991117
0.854408 0.459651 0.991121
0.989011 0.517732 0.990937
0.988746 0.475631 0.988914
0.987649 0.513598 0.987154
0.319164 0.665805 0.988399
0.521226 0.664255 0.988113
0.965660 0.658160 0.987333
0.983592 0.647919 0.985179
0.983848 0.743783 0.982735
0.190440 0.854031 0.982258
0.265694 0.850904 0.981618
0.679340 0.840138 0.976640
0.956745 0.835705 0.972113
0.974109 0.886533 0.970900
0.087650 0.949622 0.895507
0.087650 0.962605 0.920384
0.150399 0.968973 0.954219
0.437655 0.964004 0.966719
0.968770 0.965340 0.965840
