LUTs/velvia/Velvia50_Modern_Soft.cube
TITLE "Velvia 50 Modern Soft"
# Adobe RGB in/out. REPLACES AgX. Velvia 50 Modern Soft.
LUT_3D_SIZE 9
DOMAIN_MIN 0.0 0.0 0.0
DOMAIN_MAX 1.0 1.0 1.0
0.074298 0.072888 0.089690
0.088348 0.072888 0.089690
0.809842 0.073050 0.089690
0.935914 0.073789 0.089695
0.961934 0.076785 0.089743
0.961934 0.085711 0.089825
0.961934 0.089176 0.090210
0.961934 0.074310 0.818680
0.961934 0.601864 0.891459
0.074298 0.073099 0.089690
0.074304 0.073057 0.089690
0.152988 0.073384 0.089690
0.875040 0.075305 0.089693
0.955104 0.082648 0.089740
0.961934 0.093521 0.089812
0.961934 0.100660 0.090107
0.961934 0.074205 0.811521
0.961934 0.592174 0.888823
0.074298 0.121880 0.089690
0.074298 0.108664 0.089690
0.075641 0.086506 0.089690
0.267233 0.095705 0.089698
0.869379 0.138070 0.089739
0.950911 0.246464 0.089794
0.961934 0.315158 0.090000
0.961934 0.075432 0.791296
0.961934 0.560968 0.877242
0.074298 0.622711 0.089690
0.074304 0.602611 0.089690
0.075088 0.536123 0.089705
0.085263 0.440264 0.089718
0.531140 0.466022 0.089748
0.884482 0.548127 0.089799
0.951936 0.608456 0.089963
0.961934 0.635909 0.090422
0.961934 0.512290 0.774281
0.074298 0.826643 0.089708
0.074341 0.821187 0.089716
0.074908 0.807322 0.089735
0.079034 0.786415 0.089755
0.172469 0.760596 0.089773
0.714739 0.761609 0.089827
0.909410 0.784326 0.089979
0.955883 0.797141 0.090291
0.961934 0.826629 0.181407
0.074311 0.895206 0.089725
0.074357 0.893976 0.089731
0.074789 0.892287 0.089759
0.076869 0.886270 0.089782
0.103065 0.876919 0.089829
0.473017 0.867785 0.089888
0.836810 0.865874 0.090021
0.935799 0.875034 0.090278
0.956930 0.885679 0.092769
0.074298 0.927428 0.089727
0.074334 0.926700 0.089733
0.074548 0.925697 0.089761
0.075868 0.923475 0.089799
0.085888 0.919412 0.089866
0.238779 0.914523 0.089975
0.708399 0.911110 0.090079
0.900010 0.910075 0.090284
0.950450 0.915295 0.091400
0.074298 0.947422 0.089690
0.074298 0.946684 0.089690
0.074356 0.945142 0.089725
0.075064 0.943651 0.089769
0.079237 0.941204 0.089834
0.128807 0.937611 0.089942
0.522019 0.934360 0.090057
0.849551 0.932783 0.090213
0.945011 0.933116 0.090590
0.074298 0.942739 0.089690
0.074298 0.942143 0.089690
0.074298 0.952602 0.089690
0.074298 0.951099 0.089690
0.075406 0.953564 0.089712
0.088115 0.951428 0.089760
0.246200 0.948805 0.089799
0.691638 0.947013 0.089845
0.942353 0.946546 0.089857
0.074298 0.072888 0.089924
0.090704 0.072888 0.166826
0.846288 0.073100 0.091533
0.944288 0.073874 0.090353
0.961934 0.076710 0.090086
0.961934 0.085359 0.090184
0.961934 0.089290 0.091261
0.961934 0.074256 0.814849
0.961934 0.596838 0.890093
0.074298 0.073021 0.089747
0.074533 0.072984 0.089742
0.479844 0.073370 0.089845
0.904123 0.075294 0.090006
0.957957 0.081831 0.090007
0.961934 0.092287 0.090095
0.961934 0.100385 0.090778
0.961934 0.074153 0.807736
0.961934 0.587228 0.887117
0.074298 0.094998 0.089773
0.074416 0.087227 0.089765
0.077437 0.078422 0.089752
0.532632 0.088536 0.089797
0.894381 0.126188 0.089873
0.953190 0.226538 0.090008
0.961934 0.302840 0.090322
0.961934 0.075893 0.789393
0.961934 0.556164 0.875456
0.074333 0.559235 0.089776
0.074425 0.536133 0.089780
0.075686 0.451587 0.089783
0.097808 0.357330 0.089791
0.630200 0.418633 0.089846
0.896739 0.527374 0.089968
0.952684 0.594124 0.090195
0.961934 0.628464 0.091227
0.961934 0.506290 0.858197
0.074360 0.807653 0.089771
0.074421 0.802238 0.089778
0.075189 0.792259 0.089813
0.081561 0.769443 0.089847
0.221491 0.733423 0.089894
0.756556 0.743657 0.089984
0.915412 0.778452 0.090175
0.955669 0.795612 0.090619
0.961934 0.825410 0.329245
0.074365 0.891562 0.089768
0.074408 0.890401 0.089775
0.074984 0.888118 0.089820
0.077800 0.880895 0.089879
0.115270 0.871588 0.089973
0.530861 0.861703 0.090063
0.850295 0.861761 0.090216
0.937370 0.873037 0.090524
0.956558 0.884947 0.094604
0.074336 0.925560 0.089758
0.074371 0.924857 0.089765
0.074701 0.923829 0.089799
0.076149 0.921462 0.089878
0.088487 0.917301 0.090005
0.278908 0.912667 0.090118
0.731571 0.909265 0.090296
0.904432 0.908506 0.090489
0.950241 0.914828 0.092078
0.074298 0.946522 0.089695
0.074298 0.945830 0.089703
0.074384 0.944255 0.089748
0.075156 0.942637 0.089801
0.079753 0.940160 0.089913
0.136213 0.936658 0.090053
0.548054 0.933584 0.090216
0.855018 0.932184 0.090394
0.945130 0.932808 0.091133
0.074298 0.944090 0.089778
0.074298 0.943497 0.089777
0.074298 0.953179 0.089775
0.074298 0.951520 0.089771
0.075522 0.953341 0.089727
0.088990 0.951221 0.089779
0.258108 0.948551 0.089849
0.701932 0.946835 0.089914
0.943514 0.946459 0.089939
0.074298 0.072891 0.126643
0.076731 0.073068 0.857301
0.821904 0.073420 0.836474
0.947520 0.075159 0.764695
0.961934 0.079065 0.649525
0.961934 0.087813 0.633942
0.961934 0.093409 0.719870
0.961934 0.075001 0.822965
0.961934 0.586485 0.886855
0.074298 0.073372 0.127219
0.075488 0.073798 0.493549
0.631119 0.074273 0.544247
0.914088 0.076431 0.474004
0.959544 0.084563 0.433508
0.961934 0.095739 0.484600
0.961934 0.106334 0.618785
0.961934 0.075269 0.817582
0.961934 0.576951 0.883229
0.074352 0.081495 0.093809
0.074582 0.078343 0.092763
0.079966 0.076140 0.091948
0.675851 0.085745 0.097000
0.911349 0.120141 0.109061
0.955452 0.208891 0.131439
0.961934 0.290646 0.191907
0.961934 0.107049 0.790393
0.961934 0.545713 0.871529
0.074485 0.433586 0.093780
0.074856 0.400169 0.093365
0.077154 0.305216 0.092322
0.138323 0.216404 0.091939
0.765429 0.336432 0.093761
0.916164 0.482203 0.099095
0.953888 0.568464 0.107432
0.961934 0.613721 0.195661
0.961934 0.492607 0.855670
0.074712 0.779064 0.092823
0.074952 0.774130 0.092819
0.076327 0.749145 0.092734
0.092572 0.702252 0.092499
0.430193 0.669538 0.092556
0.836784 0.701893 0.094131
0.926704 0.760055 0.097048
0.955233 0.786849 0.109522
0.961765 0.823418 0.710360
0.074742 0.880515 0.091964
0.074914 0.878858 0.092042
0.075901 0.875223 0.092434
0.082954 0.865580 0.092713
0.183317 0.851755 0.092964
0.664730 0.841034 0.093543
0.879284 0.847957 0.094466
0.940942 0.865555 0.099287
0.955537 0.883003 0.157669
0.074539 0.920051 0.090822
0.074684 0.919352 0.090926
0.075234 0.918001 0.091356
0.078357 0.915199 0.091941
0.106466 0.911133 0.092396
0.431103 0.904751 0.093017
0.799674 0.900936 0.093930
0.918348 0.902461 0.095807
0.949630 0.913421 0.105609
0.074345 0.941940 0.090118
0.074375 0.941426 0.090165
0.074720 0.940499 0.090394
0.075968 0.938934 0.090868
0.084661 0.936447 0.091612
0.183671 0.933301 0.092151
0.630752 0.930854 0.092921
0.877160 0.930058 0.093984
0.945327 0.931791 0.096346
0.074298 0.943098 0.089777
0.074298 0.953710 0.089776
0.074298 0.952688 0.089774
0.074298 0.951068 0.089770
0.076144 0.952363 0.089907
0.094301 0.950160 0.090189
0.313820 0.947545 0.090412
0.739756 0.946119 0.090606
0.944312 0.946120 0.090851
0.074298 0.073070 0.709041
0.074741 0.073581 0.918085
0.754034 0.075292 0.930758
0.945793 0.081384 0.929809
0.961934 0.090170 0.909617
0.961934 0.103176 0.891798
0.961934 0.113507 0.890464
0.961934 0.092110 0.908423
0.961934 0.579672 0.901344
0.074298 0.073904 0.730894
0.075041 0.075760 0.867114
0.650267 0.081662 0.918372
0.924937 0.088057 0.903089
0.961934 0.098444 0.879010
0.961934 0.118404 0.866885
0.961934 0.130942 0.874026
0.961934 0.101209 0.902486
0.961934 0.569974 0.898989
0.074433 0.087542 0.467446
0.074994 0.088638 0.500379
0.098112 0.090653 0.608767
0.762685 0.102912 0.670713
0.919537 0.153054 0.725575
0.956438 0.252013 0.759836
0.961934 0.327444 0.801708
0.961934 0.352598 0.862168
0.961934 0.537930 0.890946
0.074750 0.322534 0.215570
0.075085 0.305872 0.201313
0.078432 0.223642 0.163715
0.178881 0.166447 0.146815
0.804771 0.318158 0.278984
0.920044 0.472357 0.471690
0.953304 0.564639 0.608198
0.961934 0.619832 0.770870
0.961934 0.481029 0.874020
0.075076 0.727987 0.182878
0.075287 0.719288 0.176358
0.077936 0.688138 0.161269
0.108647 0.635860 0.144272
0.538095 0.603095 0.139706
0.858869 0.667066 0.184114
0.929697 0.739292 0.319410
0.953962 0.781337 0.541273
0.960384 0.824080 0.838207
0.075153 0.865576 0.145065
0.075304 0.863363 0.144386
0.077196 0.857896 0.144174
0.090468 0.842338 0.140682
0.290660 0.825478 0.138121
0.740430 0.818232 0.141986
0.895672 0.832356 0.166921
0.941357 0.858222 0.270857
0.954283 0.881392 0.726797
0.075013 0.913456 0.118040
0.075138 0.912825 0.118462
0.076113 0.911423 0.121408
0.082167 0.907369 0.124902
0.145539 0.900111 0.127770
0.561994 0.895072 0.131349
0.841958 0.894024 0.138957
0.925427 0.896402 0.160289
0.948603 0.911932 0.467374
0.074461 0.937593 0.100939
0.074591 0.937201 0.101435
0.075146 0.936489 0.104360
0.077258 0.934900 0.107867
0.092457 0.932507 0.111906
0.281850 0.929743 0.115459
0.707691 0.927861 0.120251
0.895582 0.927718 0.127948
0.945054 0.930670 0.191942
0.074298 0.947509 0.094911
0.074298 0.952918 0.094789
0.074298 0.951940 0.094434
0.074391 0.952895 0.091546
0.077836 0.950728 0.095746
0.107594 0.948208 0.098380
0.404840 0.946084 0.100415
0.792312 0.945055 0.102308
0.944382 0.945747 0.109214
0.074298 0.073555 0.884471
0.074398 0.074776 0.934431
0.576327 0.084311 0.951209
0.935068 0.101233 0.951265
0.961934 0.151540 0.950620
0.961934 0.168704 0.939475
0.961934 0.178105 0.933318
0.961934 0.145295 0.931722
0.961934 0.579693 0.930776
0.074298 0.075519 0.891603
0.074613 0.078709 0.930343
0.459416 0.098483 0.950094
0.925170 0.140098 0.950621
0.961934 0.175549 0.942679
0.961934 0.204224 0.934062
0.961934 0.226520 0.930233
0.961934 0.175573 0.930223
0.961934 0.569687 0.930181
0.074770 0.152058 0.872818
0.075413 0.172049 0.890306
0.139179 0.230129 0.917217
0.827166 0.247965 0.913975
0.931115 0.298412 0.906657
0.960239 0.366302 0.904315
0.961934 0.413713 0.907208
0.961934 0.447540 0.916092
0.961934 0.536589 0.921926
0.074986 0.350435 0.730034
0.075299 0.350211 0.732171
0.081894 0.346012 0.746077
0.369903 0.349551 0.765666
0.843096 0.422029 0.789030
0.926151 0.526991 0.823294
0.954505 0.593825 0.852712
0.961934 0.650416 0.881394
0.961934 0.705718 0.909750
0.075253 0.679378 0.641774
0.075693 0.673906 0.636618
0.079167 0.653532 0.621520
0.124943 0.603701 0.602972
0.581221 0.571473 0.585503
0.868185 0.660981 0.678158
0.931076 0.738606 0.753092
0.953104 0.782854 0.817838
0.959517 0.828966 0.886272
0.075510 0.845178 0.593480
0.075884 0.842649 0.589895
0.078664 0.836077 0.582166
0.099975 0.821631 0.566144
0.377488 0.805405 0.551175
0.774441 0.799446 0.557293
0.901494 0.822036 0.617539
0.940803 0.853259 0.720885
0.952936 0.881122 0.849975
0.075287 0.905013 0.501283
0.075561 0.904051 0.500288
0.077131 0.901747 0.502686
0.086445 0.896922 0.503214
0.185594 0.893154 0.502821
0.628327 0.890292 0.508559
0.859827 0.889996 0.530646
0.928188 0.893928 0.594781
0.947427 0.911045 0.782403
0.074797 0.933770 0.342290
0.074916 0.933427 0.344153
0.075575 0.932742 0.362840
0.078904 0.931247 0.385649
0.104493 0.929018 0.407010
0.374027 0.926607 0.427419
0.758406 0.925211 0.450255
0.906368 0.925712 0.474030
0.944531 0.930039 0.652132
0.074298 0.947731 0.305789
0.074298 0.948349 0.299563
0.074298 0.949347 0.279513
0.074918 0.950476 0.167242
0.079170 0.948910 0.197352
0.121787 0.946693 0.221409
0.465796 0.944893 0.242162
0.819865 0.944093 0.257710
0.944216 0.945724 0.457384
0.074298 0.075794 0.941709
0.074376 0.077503 0.954148
0.343639 0.113475 0.962385
0.921007 0.175067 0.962558
0.961934 0.321717 0.962640
0.961934 0.346453 0.958853
0.961934 0.336603 0.950643
0.961934 0.303404 0.946997
0.961934 0.586308 0.940735
0.074309 0.079998 0.943241
0.074445 0.085829 0.953385
0.280835 0.158158 0.962001
0.912736 0.266421 0.962287
0.961934 0.395951 0.962076
0.961934 0.381964 0.955735
0.961934 0.377353 0.949813
0.961934 0.343556 0.945026
0.961934 0.576036 0.939534
0.074939 0.277220 0.944196
0.075563 0.329923 0.950597
0.184681 0.495005 0.959631
0.854848 0.495513 0.955546
0.942382 0.491767 0.950001
0.961934 0.503143 0.943815
0.961934 0.521797 0.939872
0.961934 0.538696 0.938059
0.961934 0.542064 0.935581
0.075254 0.487860 0.900208
0.075901 0.497660 0.903951
0.089877 0.535899 0.917689
0.552572 0.551131 0.921237
0.872644 0.572001 0.920301
0.936288 0.606251 0.920650
0.957720 0.652687 0.923233
0.961934 0.691098 0.927900
0.961934 0.753861 0.930234
0.075561 0.681597 0.840755
0.076045 0.680036 0.840998
0.081430 0.679440 0.845176
0.175797 0.666728 0.847743
0.696102 0.668484 0.851858
0.885318 0.709354 0.861311
0.935432 0.763732 0.881175
0.954115 0.791894 0.900253
0.959510 0.838711 0.919027
0.075835 0.828719 0.797753
0.076203 0.827322 0.796830
0.079636 0.823545 0.795940
0.109886 0.812675 0.792964
0.441731 0.797828 0.788937
0.790444 0.793231 0.786523
0.905465 0.821250 0.824934
0.940936 0.854724 0.856921
0.952340 0.882636 0.899661
0.075643 0.896143 0.766447
0.075941 0.895755 0.765621
0.078062 0.894864 0.765285
0.090760 0.892766 0.764499
0.232680 0.889623 0.763940
0.670960 0.885566 0.765296
0.867968 0.885627 0.773859
0.928989 0.892593 0.802928
0.946499 0.910870 0.873683
0.074957 0.930724 0.711136
0.075071 0.930435 0.710830
0.075935 0.929845 0.714338
0.079941 0.928498 0.717452
0.117015 0.926483 0.721014
0.440319 0.924358 0.724799
0.789535 0.923296 0.731122
0.912074 0.924308 0.745077
0.943903 0.929797 0.837612
0.074298 0.946699 0.542658
0.074298 0.947218 0.549913
0.074298 0.947946 0.574619
0.074981 0.949379 0.604696
0.079659 0.947787 0.614110
0.128426 0.945754 0.625600
0.498263 0.944088 0.633954
0.833652 0.943605 0.638573
0.943943 0.945841 0.775603
0.074308 0.085125 0.962786
0.074405 0.088686 0.964699
0.142841 0.191279 0.965564
0.911329 0.329350 0.965644
0.961934 0.460616 0.965681
0.961934 0.517885 0.964992
0.961934 0.479766 0.962326
0.961934 0.446640 0.958994
0.961934 0.597350 0.953760
0.074361 0.094208 0.963018
0.074454 0.103771 0.964644
0.143351 0.273390 0.965498
0.903807 0.407437 0.965597
0.961934 0.525879 0.965642
0.961934 0.536519 0.964437
0.961934 0.510372 0.961497
0.961934 0.479741 0.957858
0.961934 0.586859 0.952451
0.074994 0.373704 0.963376
0.075459 0.412369 0.964320
0.154631 0.560003 0.965178
0.871899 0.640974 0.965366
0.952972 0.621060 0.963711
0.961934 0.608820 0.960951
0.961934 0.602136 0.956969
0.961934 0.609793 0.952173
0.961934 0.552066 0.950023
0.075836 0.621270 0.953096
0.076499 0.628959 0.954433
0.101718 0.667484 0.956767
0.658823 0.682489 0.954729
0.897648 0.687218 0.950778
0.946579 0.696792 0.949149
0.961934 0.711356 0.946330
0.961934 0.735542 0.944683
0.961934 0.790947 0.944493
0.076000 0.730100 0.928698
0.076458 0.731945 0.929700
0.084850 0.744545 0.930909
0.280706 0.752190 0.931861
0.781347 0.759734 0.931057
0.904108 0.773355 0.930755
0.942134 0.786630 0.931678
0.956450 0.802985 0.933593
0.960415 0.851837 0.936331
0.076098 0.827444 0.897285
0.076444 0.826935 0.897668
0.080978 0.827062 0.900179
0.127481 0.823221 0.902264
0.545202 0.817303 0.901859
0.835879 0.819591 0.902566
0.914883 0.837157 0.909212
0.943172 0.861480 0.919288
0.952899 0.885716 0.929714
0.075801 0.893301 0.868445
0.076101 0.893072 0.868416
0.078613 0.892610 0.869711
0.093784 0.891133 0.871920
0.282615 0.888156 0.873839
0.704453 0.884249 0.874135
0.872174 0.882284 0.873929
0.930221 0.892836 0.895296
0.946289 0.911578 0.918034
0.074964 0.928886 0.843153
0.075082 0.928638 0.842869
0.076002 0.928137 0.843475
0.080578 0.926989 0.844529
0.122780 0.925211 0.846727
0.470416 0.923270 0.849692
0.803479 0.922307 0.853519
0.914465 0.923546 0.858855
0.943395 0.929931 0.903325
0.074298 0.944848 0.737522
0.074298 0.946259 0.735980
0.074298 0.947331 0.731593
0.074727 0.949291 0.795358
0.079252 0.947438 0.797061
0.125522 0.945488 0.799206
0.490621 0.943957 0.801274
0.832291 0.943737 0.802508
0.943711 0.946164 0.885731
0.074406 0.113401 0.967100
0.074536 0.122782 0.967251
0.196209 0.290412 0.967453
0.921751 0.415960 0.967484
0.961934 0.526902 0.967506
0.961934 0.592537 0.967275
0.961934 0.551389 0.965596
0.961934 0.511243 0.964213
0.961934 0.638736 0.961786
0.074443 0.142364 0.967083
0.074721 0.162050 0.967224
0.203322 0.360254 0.967430
0.917068 0.479044 0.967465
0.961934 0.570744 0.967489
0.961934 0.606938 0.966825
0.961934 0.571108 0.965269
0.961934 0.538843 0.963798
0.961934 0.636285 0.961410
0.075271 0.486807 0.967015
0.075999 0.509609 0.967114
0.250878 0.612796 0.967309
0.895067 0.682054 0.967371
0.961934 0.702535 0.966725
0.961934 0.680205 0.965370
0.961934 0.660589 0.964036
0.961934 0.651848 0.961929
0.961934 0.687078 0.959749
0.076876 0.726450 0.965812
0.078509 0.729283 0.965761
0.172499 0.757026 0.965502
0.788765 0.761785 0.964871
0.924782 0.756773 0.963800
0.958429 0.752812 0.961981
0.961934 0.751488 0.960171
0.961934 0.761521 0.957704
0.961934 0.804173 0.955320
0.076785 0.780339 0.958523
0.077947 0.781379 0.958576
0.098628 0.789979 0.958420
0.488707 0.794122 0.957065
0.852829 0.795341 0.954363
0.925455 0.796655 0.951664
0.951237 0.802329 0.950629
0.960060 0.815407 0.950294
0.961934 0.861035 0.949598
0.076394 0.839858 0.943577
0.077167 0.840062 0.943904
0.084498 0.844361 0.944705
0.181930 0.845106 0.943867
0.669029 0.844753 0.942039
0.873590 0.848113 0.940572
0.927604 0.857267 0.940180
0.947884 0.868694 0.940825
0.954506 0.889131 0.942183
0.075875 0.892942 0.930282
0.076169 0.892816 0.930333
0.079190 0.893001 0.931872
0.100381 0.892237 0.933163
0.365739 0.890671 0.932812
0.763704 0.889276 0.931429
0.893875 0.890421 0.931013
0.935425 0.895195 0.933108
0.947269 0.912918 0.936255
0.074787 0.928954 0.909480
0.074921 0.928694 0.909634
0.075774 0.928094 0.911638
0.079998 0.927008 0.915180
0.124216 0.925394 0.919421
0.499310 0.923646 0.922228
0.816580 0.922632 0.923576
0.915402 0.922562 0.923963
0.943399 0.930416 0.931897
0.074298 0.941635 0.862822
0.074298 0.946783 0.863317
0.074298 0.946461 0.869515
0.074429 0.949303 0.880676
0.077570 0.948196 0.881162
0.112466 0.946117 0.883816
0.442517 0.944735 0.886827
0.811626 0.944578 0.888024
0.943567 0.946672 0.929087
0.218325 0.109088 0.967665
0.497887 0.113650 0.967665
0.896031 0.132679 0.967665
0.961934 0.202694 0.967665
0.961934 0.319916 0.967665
0.961934 0.415661 0.967665
0.961934 0.320499 0.967196
0.961934 0.164039 0.965732
0.961934 0.621758 0.964163
0.218504 0.128817 0.967665
0.486672 0.133746 0.967665
0.893774 0.172570 0.967665
0.961934 0.264913 0.967665
0.961934 0.378751 0.967665
0.961934 0.446150 0.967665
0.961934 0.352869 0.966901
0.961934 0.185112 0.965513
0.961934 0.611341 0.964096
0.250018 0.394422 0.967665
0.480797 0.408405 0.967665
0.883262 0.461192 0.967665
0.961934 0.533926 0.967665
0.961934 0.585346 0.967665
0.961934 0.555177 0.967236
0.961934 0.500093 0.965927
0.961934 0.387653 0.964781
0.961934 0.577745 0.962923
0.283545 0.738291 0.967665
0.433717 0.736301 0.967665
0.839637 0.732408 0.967665
0.944018 0.725059 0.967179
0.961934 0.711183 0.966290
0.961934 0.692636 0.965353
0.961934 0.667039 0.964401
0.961934 0.646954 0.962798
0.961934 0.797699 0.961149
0.122125 0.792972 0.965268
0.162938 0.792466 0.965184
0.598856 0.791981 0.964905
0.886409 0.790728 0.964407
0.939988 0.788072 0.963442
0.957713 0.785114 0.962163
0.961934 0.781467 0.960946
0.961934 0.782246 0.959137
0.961934 0.845280 0.957260
0.085405 0.848024 0.961404
0.090794 0.847394 0.961257
0.196295 0.846716 0.960769
0.749215 0.845166 0.959450
0.895802 0.842577 0.957747
0.934588 0.841457 0.955705
0.949190 0.841931 0.953616
0.955621 0.847437 0.951936
0.956648 0.883003 0.950642
0.077443 0.893096 0.956260
0.078440 0.892839 0.955879
0.089048 0.892342 0.954582
0.335025 0.891324 0.952461
0.797387 0.889730 0.950634
0.900940 0.888212 0.949778
0.933258 0.888202 0.948251
0.945691 0.890115 0.947494
0.949680 0.909671 0.947224
0.074685 0.928221 0.950634
0.074826 0.927981 0.950635
0.075636 0.927441 0.950630
0.083990 0.926366 0.950318
0.283458 0.924485 0.948311
0.787671 0.922619 0.946203
0.905630 0.921622 0.944506
0.937250 0.921791 0.943736
0.944988 0.928855 0.943904
0.074298 0.937819 0.910813
0.074298 0.946111 0.924281
0.074298 0.945219 0.922816
0.074298 0.944948 0.920458
0.075295 0.950818 0.937092
0.093110 0.947758 0.944318
0.398010 0.946109 0.943682
0.820010 0.945968 0.943076
0.943554 0.947380 0.942937
