LUTs/velvia/Velvia50_Modern_Soft.cube
TITLE "Velvia 50 Modern Soft"
# Adobe RGB in/out. REPLACES AgX. Velvia 50 Modern Soft.
LUT_3D_SIZE 33
DOMAIN_MIN 0.0 0.0 0.0
DOMAIN_MAX 1.0 1.0 1.0
0.074298 0.072888 0.089690
0.074298 0.072888 0.089690
0.074298 0.072888 0.089690
0.074878 0.072888 0.089690
0.088348 0.072888 0.089690
0.137794 0.072888 0.089690
0.480070 0.072912 0.089690
0.739913 0.072997 0.089690
0.809842 0.073050 0.089690
0.861865 0.073133 0.089690
0.902301 0.073368 0.089690
0.921920 0.073540 0.089690
0.935914 0.073789 0.089695
0.947889 0.074357 0.089707
0.958328 0.075413 0.089722
0.961934 0.076117 0.089731
0.961934 0.076785 0.089743
0.961934 0.078545 0.089758
0.961934 0.082492 0.089776
0.961934 0.084089 0.089790
0.961934 0.085711 0.089825
0.961934 0.087621 0.089866
0.961934 0.089384 0.089957
0.961934 0.089171 0.090044
0.961934 0.089176 0.090210
0.961934 0.088542 0.090514
0.961934 0.084143 0.092046
0.961934 0.081247 0.117888
0.961934 0.074310 0.818680
0.961934 0.074206 0.812186
0.961934 0.074108 0.805786
0.961934 0.074010 0.799445
0.961934 0.601864 0.891459
0.074298 0.072888 0.089690
0.074298 0.072888 0.089690
0.074298 0.072888 0.089690
0.074756 0.072888 0.089690
0.081754 0.072888 0.089690
0.107042 0.072888 0.089690
0.394914 0.072917 0.089690
0.705015 0.073008 0.089690
0.792716 0.073058 0.089690
0.855092 0.073150 0.089690
0.898037 0.073382 0.089690
0.919079 0.073567 0.089690
0.933629 0.073821 0.089695
0.946359 0.074410 0.089707
0.957392 0.075492 0.089722
0.961934 0.076189 0.089731
0.961934 0.076891 0.089743
0.961934 0.078772 0.089758
0.961934 0.082775 0.089776
0.961934 0.084338 0.089789
0.961934 0.085951 0.089824
0.961934 0.087857 0.089865
0.961934 0.089732 0.089955
0.961934 0.089491 0.090041
0.961934 0.089496 0.090205
0.961934 0.088837 0.090496
0.961934 0.084381 0.091965
0.961934 0.081527 0.115685
0.961934 0.074305 0.818330
0.961934 0.074201 0.811868
0.961934 0.074103 0.805496
0.961934 0.074006 0.799180
0.961934 0.601397 0.891332
0.074298 0.072888 0.089690
0.074298 0.072888 0.089690
0.074298 0.072888 0.089690
0.074298 0.072888 0.089690
0.075246 0.072888 0.089690
0.079991 0.072894 0.089690
0.158020 0.072934 0.089690
0.554773 0.073058 0.089690
0.705560 0.073094 0.089690
0.816486 0.073220 0.089690
0.880276 0.073438 0.089690
0.907377 0.073680 0.089690
0.925208 0.073982 0.089694
0.940728 0.074611 0.089706
0.953888 0.075789 0.089722
0.960852 0.076456 0.089730
0.961934 0.077350 0.089743
0.961934 0.079612 0.089757
0.961934 0.083733 0.089775
0.961934 0.085255 0.089787
0.961934 0.086836 0.089822
0.961934 0.088937 0.089863
0.961934 0.091088 0.089948
0.961934 0.090763 0.090034
0.961934 0.090761 0.090186
0.961934 0.090019 0.090452
0.961934 0.085252 0.091915
0.961934 0.082554 0.109968
0.961934 0.074287 0.817082
0.961934 0.074184 0.810732
0.961934 0.074087 0.804461
0.961934 0.073992 0.798235
0.961934 0.599720 0.890875
0.074298 0.072888 0.089690
0.074298 0.072888 0.089690
0.074298 0.072888 0.089690
0.074298 0.072888 0.089690
0.074394 0.072915 0.089690
0.075151 0.072924 0.089690
0.081814 0.073011 0.089690
0.183394 0.073138 0.089690
0.469396 0.073214 0.089690
0.702805 0.073347 0.089690
0.838384 0.073696 0.089690
0.881080 0.074078 0.089690
0.907503 0.074468 0.089694
0.928461 0.075160 0.089706
0.945206 0.076393 0.089721
0.955489 0.077253 0.089729
0.961934 0.078809 0.089741
0.961934 0.081826 0.089756
0.961934 0.085619 0.089774
0.961934 0.087047 0.089785
0.961934 0.088728 0.089817
0.961934 0.091564 0.089858
0.961934 0.094404 0.089937
0.961934 0.094044 0.090020
0.961934 0.094015 0.090152
0.961934 0.093022 0.090407
0.961934 0.086926 0.091467
0.961934 0.084172 0.101789
0.961934 0.074253 0.814821
0.961934 0.074152 0.808670
0.961934 0.074058 0.802580
0.961934 0.073966 0.796517
0.961934 0.596659 0.890044
0.074298 0.073099 0.089690
0.074298 0.073103 0.089690
0.074298 0.073110 0.089690
0.074298 0.073091 0.089690
0.074304 0.073057 0.089690
0.074447 0.073015 0.089690
0.075738 0.073106 0.089690
0.085946 0.073334 0.089690
0.152988 0.073384 0.089690
0.449356 0.073538 0.089690
0.731139 0.074277 0.089690
0.830855 0.074743 0.089690
0.875040 0.075305 0.089693
0.906171 0.076230 0.089705
0.929670 0.078518 0.089720
0.944354 0.080324 0.089729
0.955104 0.082648 0.089740
0.961934 0.085287 0.089755
0.961934 0.088992 0.089772
0.961934 0.090780 0.089783
0.961934 0.093521 0.089812
0.961934 0.097344 0.089852
0.961934 0.101474 0.089921
0.961934 0.100794 0.090002
0.961934 0.100660 0.090107
0.961934 0.099178 0.090345
0.961934 0.090197 0.091016
0.961934 0.086765 0.095832
0.961934 0.074205 0.811521
0.961934 0.074106 0.805655
0.961934 0.074016 0.799826
0.961934 0.073936 0.793997
0.961934 0.592174 0.888823
0.074298 0.073505 0.089690
0.074298 0.073504 0.089690
0.074298 0.073541 0.089690
0.074298 0.073453 0.089690
0.074298 0.073357 0.089690
0.074385 0.073270 0.089690
0.074904 0.073353 0.089690
0.077285 0.073679 0.089690
0.085716 0.073732 0.089690
0.158822 0.074109 0.089690
0.503160 0.075267 0.089690
0.710067 0.075970 0.089690
0.817337 0.076497 0.089694
0.872416 0.077927 0.089706
0.908211 0.082842 0.089720
0.928224 0.085133 0.089728
0.942483 0.087371 0.089739
0.953512 0.091723 0.089754
0.961312 0.099155 0.089771
0.961934 0.101871 0.089781
0.961934 0.105577 0.089806
0.961934 0.110993 0.089845
0.961934 0.116971 0.089903
0.961934 0.115634 0.089980
0.961934 0.115114 0.090074
0.961934 0.112716 0.090273
0.961934 0.098915 0.090599
0.961934 0.092134 0.092915
0.961934 0.074144 0.807216
0.961934 0.074046 0.801706
0.961934 0.073961 0.796213
0.961934 0.596784 0.790899
0.961934 0.586296 0.886766
0.074298 0.076414 0.089690
0.074298 0.076512 0.089690
0.074298 0.076561 0.089690
0.074298 0.076175 0.089690
0.074298 0.075388 0.089690
0.074385 0.074679 0.089690
0.074672 0.074296 0.089690
0.075591 0.074763 0.089690
0.078114 0.074732 0.089690
0.090372 0.075318 0.089690
0.204631 0.076885 0.089690
0.503109 0.078293 0.089690
0.697563 0.079580 0.089694
0.813754 0.083080 0.089706
0.874659 0.088061 0.089720
0.904379 0.091724 0.089728
0.925843 0.094672 0.089739
0.941718 0.101620 0.089753
0.953417 0.115855 0.089770
0.960549 0.122592 0.089780
0.961934 0.130153 0.089800
0.961934 0.145334 0.089838
0.961934 0.154893 0.089884
0.961934 0.151112 0.089957
0.961934 0.149007 0.090045
0.961934 0.143574 0.090198
0.961934 0.121781 0.090411
0.961934 0.108342 0.091672
0.961934 0.074075 0.801999
0.961934 0.073973 0.796887
0.961934 0.073896 0.791789
0.961934 0.589147 0.788051
0.961934 0.579114 0.884049
0.074298 0.093512 0.089690
0.074298 0.094203 0.089690
0.074298 0.096536 0.089690
0.074298 0.092342 0.089690
0.074298 0.087994 0.089690
0.074401 0.084851 0.089690
0.074691 0.081754 0.089690
0.075215 0.079262 0.089690
0.076122 0.076633 0.089690
0.079936 0.077296 0.089690
0.109032 0.082768 0.089690
0.237731 0.084727 0.089690
0.501421 0.085908 0.089696
0.703082 0.089045 0.089707
0.823559 0.098641 0.089721
0.871480 0.104758 0.089728
0.902085 0.110402 0.089739
0.924072 0.124032 0.089753
0.940710 0.148811 0.089769
0.952491 0.156956 0.089779
0.959880 0.167576 0.089796
0.961934 0.185681 0.089833
0.961934 0.216634 0.089871
0.961934 0.228044 0.089937
0.961934 0.241953 0.090018
0.961934 0.234624 0.090130
0.961934 0.189688 0.090320
0.961934 0.162285 0.090880
0.961934 0.074030 0.796073
0.961934 0.073895 0.791328
0.961934 0.073854 0.788064
0.961934 0.580015 0.784383
0.961934 0.570764 0.880858
0.074298 0.121880 0.089690
0.074298 0.123090 0.089690
0.074298 0.123361 0.089690
0.074298 0.117799 0.089690
0.074298 0.108664 0.089690
0.074368 0.099644 0.089690
0.074493 0.093072 0.089690
0.074971 0.088747 0.089690
0.075641 0.086506 0.089690
0.077406 0.085135 0.089690
0.086681 0.090873 0.089690
0.125705 0.093983 0.089690
0.267233 0.095705 0.089698
0.540275 0.103076 0.089708
0.731135 0.121553 0.089722
0.822130 0.128551 0.089729
0.869379 0.138070 0.089739
0.901487 0.163426 0.089753
0.924702 0.199864 0.089769
0.940084 0.222019 0.089778
0.950911 0.246464 0.089794
0.958839 0.266548 0.089829
0.961934 0.297738 0.089866
0.961934 0.303802 0.089923
0.961934 0.315158 0.090000
0.961934 0.326298 0.090089
0.961934 0.322798 0.090259
0.961934 0.323771 0.090538
0.961934 0.075432 0.791296
0.961934 0.073870 0.787073
0.961934 0.073811 0.783535
0.961934 0.569791 0.779725
0.961934 0.560968 0.877242
0.074298 0.234251 0.089690
0.074298 0.231935 0.089690
0.074298 0.221254 0.089690
0.074298 0.207572 0.089690
0.074298 0.182990 0.089690
0.074362 0.164715 0.089690
0.074452 0.140385 0.089690
0.074863 0.125153 0.089690
0.075295 0.114422 0.089690
0.076382 0.106775 0.089690
0.081027 0.118779 0.089690
0.093296 0.118522 0.089694
0.143294 0.120434 0.089700
0.333747 0.129794 0.089710
0.598944 0.167214 0.089723
0.737322 0.178137 0.089730
0.823048 0.194135 0.089741
0.871296 0.230819 0.089754
0.903672 0.287532 0.089769
0.924256 0.308602 0.089778
0.939953 0.322964 0.089793
0.950767 0.353591 0.089827
0.958168 0.384525 0.089862
0.961934 0.392226 0.089912
0.961934 0.397767 0.089984
0.961934 0.407245 0.090067
0.961934 0.399524 0.090201
0.961934 0.396773 0.090412
0.961934 0.388233 0.091245
0.961934 0.389141 0.097503
0.961934 0.383496 0.726256
0.961934 0.558209 0.777153
0.961934 0.550313 0.873264
0.074298 0.452732 0.089690
0.074298 0.449221 0.089690
0.074298 0.439132 0.089690
0.074298 0.433816 0.089690
0.074302 0.413369 0.089690
0.074380 0.383348 0.089690
0.074475 0.351068 0.089690
0.074898 0.316721 0.089690
0.075306 0.274964 0.089690
0.076350 0.241402 0.089693
0.079056 0.215460 0.089697
0.085043 0.184870 0.089700
0.102536 0.170517 0.089704
0.183103 0.189519 0.089713
0.435761 0.251897 0.089725
0.619972 0.266557 0.089733
0.746995 0.286009 0.089742
0.831142 0.319700 0.089755
0.877071 0.370705 0.089770
0.904681 0.382909 0.089779
0.924880 0.404171 0.089793
0.939711 0.438357 0.089827
0.950878 0.459602 0.089860
0.958424 0.468646 0.089905
0.961934 0.485192 0.089972
0.961934 0.506821 0.090049
0.961934 0.496109 0.090152
0.961934 0.488965 0.090337
0.961934 0.477282 0.090784
0.961934 0.469029 0.092973
0.961934 0.409081 0.589535
0.961934 0.546012 0.779470
0.961934 0.539051 0.779047
0.074298 0.554299 0.089690
0.074298 0.551920 0.089690
0.074298 0.545324 0.089690
0.074298 0.541512 0.089690
0.074303 0.530344 0.089690
0.074376 0.513408 0.089690
0.074455 0.489675 0.089692
0.074814 0.460321 0.089695
0.075201 0.428309 0.089699
0.076015 0.394558 0.089702
0.077793 0.365377 0.089705
0.081991 0.338954 0.089709
0.090279 0.300742 0.089710
0.122593 0.299100 0.089716
0.266598 0.354497 0.089728
0.478708 0.364263 0.089736
0.644680 0.375694 0.089745
0.767873 0.405073 0.089757
0.845491 0.454297 0.089772
0.880006 0.463631 0.089780
0.906364 0.483761 0.089796
0.926350 0.506934 0.089828
0.940807 0.531942 0.089860
0.951276 0.542571 0.089902
0.958179 0.549949 0.089966
0.961934 0.561961 0.090039
0.961934 0.566314 0.090117
0.961934 0.574745 0.090279
0.961934 0.573756 0.090512
0.961934 0.561053 0.091776
0.961934 0.483780 0.205272
0.961934 0.533453 0.773713
0.961934 0.527394 0.776201
0.074298 0.622711 0.089690
0.074298 0.620656 0.089690
0.074298 0.614660 0.089690
0.074298 0.609493 0.089690
0.074304 0.602611 0.089690
0.074370 0.591765 0.089693
0.074439 0.575640 0.089698
0.074717 0.556409 0.089702
0.075088 0.536123 0.089705
0.075669 0.511789 0.089708
0.076771 0.484628 0.089712
0.079396 0.460300 0.089715
0.085263 0.440264 0.089718
0.102166 0.425882 0.089722
0.173140 0.451458 0.089731
0.334177 0.458378 0.089740
0.531140 0.466022 0.089748
0.684856 0.489938 0.089760
0.796228 0.529484 0.089774
0.851891 0.535399 0.089782
0.884482 0.548127 0.089799
0.909914 0.567000 0.089830
0.928394 0.588943 0.089862
0.942524 0.594916 0.089901
0.951936 0.608456 0.089963
0.957791 0.626646 0.090032
0.961934 0.625948 0.090094
0.961934 0.629880 0.090239
0.961934 0.635909 0.090422
0.961934 0.646941 0.091153
0.961934 0.666908 0.094330
0.961934 0.519776 0.766656
0.961934 0.512290 0.774281
0.074298 0.703606 0.089690
0.074298 0.702069 0.089690
0.074298 0.697414 0.089690
0.074298 0.692501 0.089692
0.074317 0.690272 0.089697
0.074374 0.680767 0.089701
0.074437 0.668649 0.089706
0.074685 0.654885 0.089710
0.075033 0.635269 0.089714
0.075470 0.614369 0.089717
0.076346 0.594234 0.089720
0.078535 0.575622 0.089723
0.082884 0.558038 0.089726
0.092677 0.543395 0.089729
0.131953 0.557745 0.089741
0.208408 0.541683 0.089745
0.400589 0.542573 0.089752
0.588522 0.558588 0.089763
0.727151 0.588053 0.089777
0.808879 0.593863 0.089784
0.858310 0.605004 0.089805
0.890733 0.623586 0.089834
0.914409 0.645452 0.089864
0.931608 0.653807 0.089905
0.943655 0.666120 0.089963
0.952566 0.677482 0.090028
0.958678 0.683717 0.090086
0.961934 0.694124 0.090208
0.961934 0.694998 0.090370
0.961934 0.697107 0.090811
0.961934 0.708697 0.092413
0.961934 0.732500 0.155835
0.961934 0.770511 0.771360
0.074298 0.778453 0.089698
0.074298 0.777916 0.089698
0.074298 0.776241 0.089700
0.074298 0.774247 0.089703
0.074339 0.774142 0.089708
0.074387 0.769406 0.089712
0.074447 0.763490 0.089717
0.074710 0.752722 0.089721
0.075037 0.740081 0.089725
0.075455 0.726251 0.089728
0.076310 0.710202 0.089732
0.078272 0.693045 0.089736
0.082131 0.676869 0.089741
0.090286 0.662429 0.089745
0.114407 0.650043 0.089751
0.169784 0.628754 0.089754
0.280952 0.612042 0.089758
0.473729 0.621397 0.089767
0.645226 0.651151 0.089780
0.750454 0.654878 0.089788
0.823255 0.663731 0.089811
0.866822 0.678867 0.089840
0.896975 0.694399 0.089868
0.918386 0.703843 0.089911
0.934531 0.714022 0.089965
0.945155 0.728174 0.090028
0.954232 0.733540 0.090081
0.958755 0.738657 0.090190
0.961934 0.746145 0.090333
0.961934 0.755589 0.090578
0.961934 0.760061 0.091722
0.961934 0.768185 0.101752
0.961934 0.771233 0.751985
0.074298 0.799949 0.089703
0.074298 0.799415 0.089704
0.074298 0.797713 0.089705
0.074298 0.796628 0.089708
0.074339 0.796297 0.089712
0.074387 0.795329 0.089717
0.074445 0.793760 0.089722
0.074661 0.788536 0.089725
0.074970 0.783239 0.089729
0.075286 0.777551 0.089734
0.076059 0.770815 0.089739
0.077454 0.758885 0.089744
0.079961 0.745562 0.089749
0.085825 0.732638 0.089753
0.099824 0.721217 0.089758
0.134595 0.709317 0.089763
0.202345 0.692834 0.089766
0.369671 0.688529 0.089772
0.564267 0.705330 0.089783
0.684299 0.708512 0.089797
0.777387 0.715793 0.089819
0.841162 0.728762 0.089846
0.876736 0.741447 0.089875
0.903022 0.748180 0.089919
0.922718 0.757670 0.089971
0.937168 0.769026 0.090030
0.948049 0.772348 0.090079
0.954792 0.776783 0.090179
0.959140 0.779751 0.090308
0.961934 0.782062 0.090472
0.961934 0.787666 0.091230
0.961934 0.795840 0.094271
0.961934 0.787488 0.633434
0.074298 0.826643 0.089708
0.074298 0.826177 0.089708
0.074298 0.824665 0.089710
0.074305 0.822566 0.089712
0.074341 0.821187 0.089716
0.074388 0.820100 0.089720
0.074436 0.816332 0.089725
0.074610 0.812193 0.089729
0.074908 0.807322 0.089735
0.075206 0.801429 0.089740
0.075819 0.796402 0.089746
0.076786 0.792469 0.089751
0.079034 0.786415 0.089755
0.083256 0.780372 0.089760
0.091899 0.774649 0.089764
0.115864 0.768429 0.089769
0.172469 0.760596 0.089773
0.287699 0.755671 0.089779
0.473503 0.761561 0.089794
0.606529 0.755862 0.089806
0.714739 0.761609 0.089827
0.803863 0.770602 0.089853
0.855289 0.776811 0.089888
0.886127 0.779653 0.089929
0.909410 0.784326 0.089979
0.927144 0.789739 0.090035
0.940999 0.793167 0.090081
0.949627 0.795640 0.090172
0.955883 0.797141 0.090291
0.959213 0.801930 0.090431
0.961639 0.806078 0.090966
0.961934 0.812710 0.092606
0.961934 0.826629 0.181407
0.074298 0.856843 0.089714
0.074298 0.856574 0.089714
0.074298 0.855311 0.089715
0.074316 0.853392 0.089717
0.074348 0.851838 0.089721
0.074395 0.852224 0.089726
0.074435 0.847880 0.089729
0.074606 0.845365 0.089736
0.074881 0.840855 0.089743
0.075159 0.835419 0.089748
0.075671 0.829696 0.089754
0.076424 0.823459 0.089759
0.078424 0.817078 0.089764
0.081730 0.810278 0.089768
0.088332 0.803932 0.089773
0.104187 0.797857 0.089777
0.141854 0.795512 0.089781
0.219270 0.792337 0.089787
0.401417 0.794507 0.089813
0.542032 0.789327 0.089822
0.652253 0.787248 0.089835
0.755322 0.792184 0.089860
0.825542 0.796028 0.089903
0.865511 0.797044 0.089941
0.894489 0.801913 0.089989
0.916134 0.807681 0.090042
0.932913 0.811586 0.090084
0.943746 0.815639 0.090172
0.951715 0.821096 0.090282
0.956539 0.823914 0.090408
0.959364 0.829672 0.090785
0.960954 0.838554 0.091943
0.961859 0.847050 0.108270
0.074303 0.876871 0.089721
0.074306 0.876724 0.089721
0.074315 0.876234 0.089722
0.074332 0.875502 0.089724
0.074359 0.874836 0.089727
0.074401 0.874838 0.089732
0.074442 0.873602 0.089739
0.074618 0.872379 0.089746
0.074873 0.870255 0.089752
0.075152 0.867638 0.089759
0.075631 0.864310 0.089764
0.076362 0.860582 0.089770
0.078083 0.856410 0.089775
0.080924 0.850095 0.089779
0.086544 0.843717 0.089783
0.099853 0.837797 0.089793
0.129409 0.832112 0.089805
0.187986 0.826821 0.089818
0.326053 0.822521 0.089831
0.468651 0.816254 0.089839
0.596929 0.812384 0.089850
0.703972 0.811882 0.089868
0.790787 0.817665 0.089917
0.844826 0.820253 0.089954
0.876870 0.824739 0.089999
0.902814 0.830380 0.090050
0.923212 0.833870 0.090090
0.937202 0.838545 0.090176
0.947021 0.842752 0.090276
0.953489 0.846963 0.090391
0.957074 0.852678 0.090658
0.959075 0.857807 0.091585
0.960142 0.865795 0.096937
0.074307 0.887379 0.089723
0.074309 0.887248 0.089723
0.074317 0.886806 0.089724
0.074333 0.886120 0.089726
0.074358 0.885420 0.089729
0.074395 0.885151 0.089734
0.074437 0.884603 0.089742
0.074560 0.883249 0.089748
0.074820 0.882120 0.089755
0.075088 0.880617 0.089762
0.075405 0.878511 0.089767
0.076112 0.876351 0.089773
0.077373 0.873998 0.089778
0.079537 0.870997 0.089783
0.084087 0.867354 0.089791
0.092505 0.863444 0.089803
0.114587 0.859740 0.089816
0.164148 0.856279 0.089829
0.247201 0.851487 0.089841
0.402773 0.847641 0.089855
0.541359 0.843097 0.089865
0.650748 0.842039 0.089895
0.744984 0.841975 0.089934
0.813829 0.843753 0.089967
0.858693 0.847772 0.090010
0.889065 0.852763 0.090059
0.912456 0.856106 0.090096
0.928939 0.859286 0.090183
0.941737 0.862073 0.090275
0.949507 0.865020 0.090380
0.954798 0.868224 0.090580
0.957155 0.872385 0.091271
0.958509 0.876830 0.093965
0.074311 0.895206 0.089725
0.074313 0.895128 0.089725
0.074320 0.894862 0.089726
0.074334 0.894439 0.089728
0.074357 0.893976 0.089731
0.074391 0.893700 0.089737
0.074435 0.893699 0.089745
0.074520 0.892683 0.089751
0.074789 0.892287 0.089759
0.075018 0.891025 0.089764
0.075282 0.890001 0.089771
0.075949 0.888450 0.089776
0.076869 0.886270 0.089782
0.078814 0.883969 0.089788
0.082303 0.881660 0.089803
0.088668 0.879312 0.089816
0.103065 0.876919 0.089829
0.134048 0.874668 0.089841
0.194741 0.872412 0.089854
0.328004 0.870099 0.089866
0.473017 0.867785 0.089888
0.601716 0.866384 0.089923
0.705145 0.866110 0.089961
0.780906 0.864411 0.089983
0.836810 0.865874 0.090021
0.871920 0.868939 0.090068
0.899824 0.870842 0.090109
0.919963 0.872925 0.090191
0.935799 0.875034 0.090278
0.945365 0.876649 0.090371
0.951872 0.879013 0.090533
0.955319 0.881493 0.091107
0.956930 0.885679 0.092769
0.074315 0.907693 0.089728
0.074317 0.907567 0.089728
0.074324 0.907138 0.089729
0.074337 0.906446 0.089731
0.074358 0.905658 0.089735
0.074389 0.905101 0.089740
0.074432 0.905337 0.089749
0.074501 0.903829 0.089755
0.074737 0.902707 0.089762
0.074980 0.901204 0.089768
0.075242 0.899664 0.089775
0.075773 0.897369 0.089781
0.076450 0.895698 0.089788
0.078255 0.894363 0.089803
0.080991 0.892907 0.089817
0.086115 0.891435 0.089832
0.097488 0.889916 0.089845
0.121949 0.887884 0.089857
0.175572 0.885804 0.089870
0.272716 0.883996 0.089895
0.415494 0.882289 0.089921
0.552381 0.880906 0.089948
0.657615 0.880357 0.089984
0.743293 0.879214 0.090005
0.809628 0.878611 0.090035
0.855455 0.879591 0.090077
0.886692 0.880940 0.090123
0.909712 0.882456 0.090201
0.928136 0.884249 0.090282
0.940772 0.885797 0.090366
0.948712 0.887892 0.090495
0.953281 0.890079 0.090977
0.955405 0.892825 0.092145
0.074316 0.915849 0.089729
0.074318 0.915791 0.089730
0.074324 0.915593 0.089731
0.074337 0.915268 0.089733
0.074356 0.914883 0.089737
0.074385 0.914571 0.089743
0.074425 0.914558 0.089750
0.074479 0.914179 0.089758
0.074691 0.913478 0.089764
0.074949 0.913067 0.089772
0.075179 0.912068 0.089778
0.075638 0.911202 0.089784
0.076321 0.910103 0.089800
0.077729 0.907980 0.089815
0.079831 0.905466 0.089830
0.084444 0.902878 0.089844
0.092494 0.900245 0.089858
0.112946 0.897585 0.089872
0.156332 0.895643 0.089899
0.221656 0.894340 0.089926
0.358798 0.893209 0.089952
0.498816 0.892182 0.089979
0.610809 0.891339 0.090005
0.705657 0.890507 0.090024
0.781745 0.889956 0.090053
0.835199 0.889794 0.090090
0.870522 0.890035 0.090134
0.898155 0.890940 0.090209
0.920057 0.892055 0.090286
0.935617 0.893085 0.090364
0.945391 0.894317 0.090467
0.950881 0.895923 0.090873
0.953931 0.899930 0.091936
0.074306 0.922404 0.089728
0.074308 0.922355 0.089728
0.074314 0.922172 0.089729
0.074326 0.921860 0.089731
0.074345 0.921471 0.089735
0.074372 0.921106 0.089740
0.074409 0.920939 0.089748
0.074453 0.920829 0.089756
0.074614 0.920047 0.089763
0.074869 0.919661 0.089771
0.075097 0.918810 0.089777
0.075445 0.918131 0.089784
0.076059 0.917064 0.089798
0.077130 0.916059 0.089816
0.079123 0.914936 0.089833
0.082597 0.913633 0.089847
0.088598 0.912313 0.089861
0.101960 0.910980 0.089879
0.130130 0.909366 0.089908
0.183400 0.906992 0.089935
0.292098 0.904779 0.089961
0.433956 0.902814 0.089987
0.563158 0.901159 0.090013
0.661010 0.899813 0.090039
0.745849 0.898450 0.090068
0.811545 0.897801 0.090110
0.856215 0.897467 0.090152
0.885692 0.897516 0.090214
0.910708 0.899417 0.090286
0.928959 0.901262 0.090363
0.941787 0.903419 0.090451
0.948512 0.905949 0.090768
0.952156 0.909952 0.091668
0.074298 0.927428 0.089727
0.074298 0.927387 0.089727
0.074304 0.927245 0.089728
0.074316 0.927005 0.089729
0.074334 0.926700 0.089733
0.074359 0.926400 0.089738
0.074395 0.926223 0.089746
0.074444 0.926367 0.089755
0.074548 0.925697 0.089761
0.074781 0.925267 0.089769
0.075034 0.924851 0.089777
0.075269 0.924146 0.089783
0.075868 0.923475 0.089799
0.076630 0.922706 0.089818
0.078333 0.921682 0.089834
0.081005 0.920585 0.089850
0.085888 0.919412 0.089866
0.096667 0.918166 0.089891
0.118680 0.916910 0.089920
0.166496 0.915686 0.089948
0.238779 0.914523 0.089975
0.371357 0.913457 0.090001
0.502537 0.912496 0.090026
0.614560 0.911732 0.090053
0.708399 0.911110 0.090079
0.785996 0.910535 0.090130
0.839070 0.910365 0.090168
0.871702 0.909891 0.090225
0.900010 0.910075 0.090284
0.921680 0.911074 0.090354
0.937829 0.912152 0.090439
0.946108 0.913344 0.090672
0.950450 0.915295 0.091400
0.074298 0.932042 0.089725
0.074298 0.932008 0.089725
0.074298 0.931887 0.089726
0.074302 0.931683 0.089727
0.074319 0.931420 0.089730
0.074344 0.931153 0.089735
0.074378 0.930975 0.089742
0.074425 0.931040 0.089752
0.074482 0.930714 0.089760
0.074698 0.930263 0.089767
0.074978 0.930139 0.089777
0.075192 0.929418 0.089783
0.075711 0.928967 0.089800
0.076307 0.928161 0.089818
0.077765 0.927430 0.089837
0.079831 0.926558 0.089854
0.084161 0.925589 0.089869
0.091514 0.924569 0.089900
0.107643 0.923509 0.089931
0.140731 0.922465 0.089960
0.196999 0.921345 0.089989
0.317139 0.920284 0.090015
0.455536 0.919309 0.090041
0.574526 0.918443 0.090066
0.667850 0.917776 0.090093
0.750645 0.917237 0.090140
0.815807 0.917180 0.090176
0.858368 0.916683 0.090232
0.890002 0.916658 0.090286
0.913815 0.916685 0.090344
0.932729 0.917547 0.090421
0.943595 0.918639 0.090591
0.948918 0.920372 0.091204
0.074298 0.937860 0.089715
0.074298 0.937824 0.089715
0.074298 0.937701 0.089716
0.074298 0.937486 0.089718
0.074298 0.937196 0.089721
0.074305 0.936870 0.089725
0.074341 0.936580 0.089730
0.074389 0.936453 0.089741
0.074440 0.936281 0.089752
0.074558 0.935750 0.089759
0.074826 0.935442 0.089769
0.075080 0.934979 0.089777
0.075365 0.934407 0.089785
0.076039 0.933799 0.089805
0.077061 0.933080 0.089825
0.078895 0.932259 0.089844
0.082254 0.931412 0.089861
0.087871 0.930465 0.089885
0.099502 0.929448 0.089917
0.123887 0.928438 0.089948
0.174752 0.927459 0.089977
0.256765 0.926531 0.090005
0.392213 0.925678 0.090032
0.514774 0.924919 0.090058
0.621798 0.924279 0.090083
