LUTs/velvia/Velvia50_Modern_ExtraSoft.cube
TITLE "Velvia 50 Modern ExtraSoft"
# Adobe RGB in/out. REPLACES AgX. Velvia 50 Modern ExtraSoft.
LUT_3D_SIZE 5
DOMAIN_MIN 0.0 0.0 0.0
DOMAIN_MAX 1.0 1.0 1.0
0.072578 0.069118 0.085020
0.788296 0.069278 0.085020
0.945371 0.073838 0.085096
0.945371 0.088694 0.085766
0.945371 0.601766 0.862265
0.072578 0.128876 0.085020
0.073898 0.084967 0.085020
0.849492 0.151089 0.085090
0.945371 0.328273 0.085464
0.945371 0.559743 0.848952
0.072578 0.809516 0.085045
0.073178 0.789728 0.085083
0.188967 0.740038 0.085139
0.890673 0.764897 0.085434
0.945371 0.809503 0.189031
0.072578 0.913551 0.085072
0.072824 0.911777 0.085122
0.086637 0.904482 0.085272
0.686095 0.894859 0.085577
0.931527 0.899708 0.087003
0.072578 0.926361 0.085020
0.072578 0.935445 0.085020
0.073668 0.936696 0.085051
0.269014 0.931428 0.085176
0.923410 0.929542 0.085259
0.072578 0.069120 0.126161
0.799009 0.069848 0.804509
0.945371 0.076617 0.631778
0.945371 0.093755 0.689782
0.945371 0.585953 0.857295
0.072631 0.079390 0.089853
0.079841 0.073090 0.087516
0.892788 0.126772 0.107445
0.945371 0.307000 0.200291
0.945371 0.544090 0.843989
0.072985 0.758223 0.088565
0.074925 0.731057 0.088449
0.434106 0.659838 0.088217
0.909263 0.739614 0.093092
0.945151 0.806507 0.682579
0.072816 0.905224 0.086462
0.073499 0.902845 0.086962
0.112147 0.894885 0.088009
0.778339 0.885726 0.090011
0.930705 0.897536 0.102994
0.072578 0.926662 0.085144
0.072578 0.935557 0.085140
0.074646 0.935134 0.085331
0.328137 0.930377 0.086056
0.925373 0.929186 0.086490
0.072578 0.070063 0.855227
0.554620 0.082120 0.933648
0.945371 0.162708 0.932920
0.945371 0.194329 0.911584
0.945371 0.578973 0.908459
0.073042 0.163308 0.845109
0.150575 0.248751 0.892985
0.912962 0.313754 0.880367
0.945371 0.420818 0.881024
0.945371 0.534734 0.898623
0.073517 0.670245 0.624876
0.078868 0.642933 0.607791
0.558194 0.570529 0.579269
0.912929 0.722768 0.727828
0.942219 0.811683 0.856790
0.073551 0.889336 0.496899
0.076155 0.886444 0.498069
0.212232 0.878721 0.498182
0.837640 0.875332 0.523351
0.928496 0.894783 0.761231
0.072578 0.930532 0.316242
0.072578 0.931881 0.291879
0.078872 0.931516 0.206968
0.465699 0.928161 0.256814
0.925277 0.928856 0.457257
0.072588 0.083057 0.948348
0.153803 0.210513 0.951554
0.945371 0.460617 0.951689
0.945371 0.479773 0.947817
0.945371 0.597123 0.936803
0.073263 0.387456 0.949029
0.167487 0.558753 0.951109
0.934056 0.618531 0.949415
0.945371 0.602046 0.940930
0.945371 0.550607 0.932182
0.074427 0.716061 0.905905
0.085559 0.727442 0.908621
0.755932 0.739362 0.908803
0.923190 0.767824 0.909567
0.943389 0.833006 0.915293
0.074124 0.878879 0.841308
0.078194 0.878137 0.842409
0.299493 0.873358 0.845996
0.852211 0.867060 0.846074
0.927355 0.895401 0.893964
0.072578 0.928124 0.709957
0.072578 0.930197 0.703169
0.078971 0.930287 0.773007
0.490183 0.927379 0.776385
0.924771 0.929223 0.856321
0.242951 0.113984 0.953980
0.876101 0.146595 0.953980
0.945371 0.333464 0.953980
0.945371 0.334100 0.953439
0.945371 0.618998 0.949937
0.272571 0.405915 0.953980
0.862996 0.461193 0.953980
0.945371 0.584783 0.953980
0.945371 0.500107 0.951974
0.945371 0.576972 0.948507
0.132035 0.774705 0.951212
0.577460 0.773668 0.950794
0.921039 0.769580 0.949105
0.945371 0.761269 0.946225
0.945371 0.826896 0.941445
0.076634 0.878660 0.939896
0.089889 0.877850 0.937820
0.775324 0.875046 0.932937
0.914758 0.873408 0.929993
0.930755 0.893459 0.928724
0.072578 0.922248 0.885328
0.072578 0.928434 0.899690
0.073559 0.933123 0.916229
0.401337 0.929177 0.924352
0.924614 0.930238 0.923434
