LUTs/velvia/Velvia50_Modern_ExtraSoft.cube
TITLE "Velvia 50 Modern ExtraSoft"
# Adobe RGB in/out. REPLACES AgX. Velvia 50 Modern ExtraSoft.
LUT_3D_SIZE 9
DOMAIN_MIN 0.0 0.0 0.0
DOMAIN_MAX 1.0 1.0 1.0
0.072578 0.069118 0.085020
0.089196 0.069118 0.085020
0.788296 0.069278 0.085020
0.916983 0.070375 0.085027
0.945371 0.073838 0.085096
0.945371 0.083866 0.085213
0.945371 0.088694 0.085766
0.945371 0.070975 0.790307
0.945371 0.601766 0.862265
0.072578 0.069340 0.085020
0.072584 0.069286 0.085020
0.165521 0.069790 0.085020
0.854999 0.072123 0.085024
0.936470 0.080508 0.085091
0.945371 0.093873 0.085194
0.945371 0.102466 0.085618
0.945371 0.070854 0.784587
0.945371 0.591801 0.859132
0.072578 0.128876 0.085020
0.072578 0.113398 0.085020
0.073898 0.084967 0.085020
0.287830 0.096174 0.085031
0.849492 0.151089 0.085090
0.931989 0.264211 0.085168
0.945371 0.328273 0.085464
0.945371 0.072270 0.768380
0.945371 0.559743 0.848952
0.072578 0.619635 0.085020
0.072584 0.602534 0.085020
0.073354 0.534256 0.085041
0.085988 0.441056 0.085060
0.521261 0.466024 0.085103
0.864183 0.546566 0.085176
0.933017 0.608548 0.085410
0.945371 0.628425 0.086071
0.945371 0.512309 0.752262
0.072578 0.809516 0.085045
0.072620 0.804263 0.085057
0.073178 0.789728 0.085083
0.078705 0.767550 0.085113
0.188967 0.740038 0.085139
0.692168 0.740831 0.085216
0.890673 0.764897 0.085434
0.937484 0.779068 0.085883
0.945371 0.809503 0.189031
0.072590 0.880650 0.085070
0.072636 0.879560 0.085078
0.073060 0.877791 0.085118
0.075753 0.871335 0.085151
0.108371 0.861309 0.085218
0.472823 0.851525 0.085303
0.812229 0.849480 0.085494
0.916886 0.859289 0.085863
0.938848 0.870701 0.088495
0.072578 0.913551 0.085072
0.072613 0.912940 0.085081
0.072824 0.911777 0.085122
0.074225 0.909197 0.085176
0.086637 0.904482 0.085272
0.262077 0.898813 0.085428
0.686095 0.894859 0.085577
0.880432 0.893816 0.085872
0.931527 0.899708 0.087003
0.072578 0.930273 0.085020
0.072578 0.929657 0.085020
0.072635 0.928369 0.085070
0.073332 0.927123 0.085133
0.078953 0.925078 0.085226
0.140130 0.922074 0.085381
0.514446 0.919354 0.085546
0.823512 0.918035 0.085770
0.926075 0.918313 0.086246
0.072578 0.926361 0.085020
0.072578 0.925863 0.085020
0.072578 0.935445 0.085020
0.072578 0.933488 0.085020
0.073668 0.936696 0.085051
0.088953 0.933917 0.085120
0.269014 0.931428 0.085176
0.673035 0.929932 0.085241
0.923410 0.929542 0.085259
0.072578 0.069118 0.085355
0.092057 0.069118 0.173672
0.820623 0.069341 0.087128
0.925350 0.070473 0.085971
0.945371 0.073751 0.085587
0.945371 0.083380 0.085729
0.945371 0.088854 0.086874
0.945371 0.070912 0.787247
0.945371 0.596597 0.860641
0.072578 0.069249 0.085101
0.072809 0.069213 0.085093
0.479556 0.069770 0.085242
0.884912 0.072111 0.085473
0.940185 0.079716 0.085475
0.945371 0.092558 0.085601
0.945371 0.102062 0.086422
0.945371 0.070794 0.781560
0.945371 0.586716 0.857523
0.072578 0.095449 0.085138
0.072694 0.085969 0.085128
0.076625 0.075724 0.085109
0.522373 0.087796 0.085174
0.874305 0.134944 0.085282
0.934274 0.245335 0.085476
0.945371 0.317592 0.085926
0.945371 0.072803 0.766851
0.945371 0.554812 0.847400
0.072613 0.557964 0.085143
0.072703 0.534266 0.085149
0.073949 0.451585 0.085153
0.101910 0.368491 0.085165
0.612483 0.424592 0.085244
0.876872 0.525290 0.085418
0.933766 0.593806 0.085744
0.945371 0.623474 0.086841
0.945371 0.506307 0.831692
0.072639 0.790075 0.085136
0.072699 0.784403 0.085146
0.073454 0.773959 0.085196
0.081791 0.746958 0.085245
0.245879 0.718683 0.085312
0.732207 0.726743 0.085441
0.897340 0.757448 0.085716
0.937205 0.777468 0.086273
0.945371 0.808365 0.340496
0.072644 0.877013 0.085131
0.072686 0.875767 0.085141
0.073253 0.873317 0.085206
0.077183 0.865571 0.085291
0.123011 0.855598 0.085426
0.521053 0.844604 0.085555
0.824397 0.844686 0.085774
0.918416 0.857150 0.086185
0.938363 0.869916 0.090874
0.072616 0.911618 0.085117
0.072650 0.910802 0.085127
0.072974 0.909608 0.085176
0.074653 0.906860 0.085289
0.089340 0.902033 0.085472
0.296428 0.896662 0.085633
0.708287 0.893100 0.085889
0.885248 0.892428 0.086152
0.931317 0.899166 0.087637
0.072578 0.929522 0.085027
0.072578 0.928944 0.085039
0.072663 0.927628 0.085103
0.073422 0.926276 0.085178
0.079581 0.924206 0.085339
0.147950 0.921277 0.085540
0.533825 0.918705 0.085774
0.830950 0.917533 0.086031
0.926194 0.918055 0.086754
0.072578 0.927490 0.085146
0.072578 0.926995 0.085145
0.072578 0.936196 0.085141
0.072578 0.934037 0.085135
0.073781 0.936406 0.085072
0.089839 0.933647 0.085147
0.280082 0.931217 0.085247
0.680010 0.929783 0.085340
0.924574 0.929469 0.085376
0.072578 0.069120 0.126161
0.075542 0.069296 0.830567
0.799009 0.069848 0.804509
0.928590 0.071954 0.741191
0.945371 0.076617 0.631778
0.945371 0.086784 0.617894
0.945371 0.093755 0.689782
0.945371 0.071772 0.793727
0.945371 0.585953 0.857295
0.072578 0.069773 0.126889
0.073748 0.070385 0.490443
0.613514 0.070932 0.536367
0.895775 0.073427 0.474182
0.942254 0.082364 0.435235
0.945371 0.096205 0.482952
0.945371 0.110197 0.605575
0.945371 0.072081 0.789431
0.945371 0.576156 0.854149
0.072631 0.079390 0.089853
0.072857 0.075615 0.088487
0.079841 0.073090 0.087516
0.662277 0.083913 0.093049
0.892788 0.126772 0.107445
0.936923 0.228341 0.132257
0.945371 0.307000 0.200291
0.945371 0.111178 0.767655
0.945371 0.544090 0.843989
0.072762 0.435995 0.089815
0.073127 0.410373 0.089273
0.076190 0.319647 0.087914
0.149819 0.235658 0.087507
0.740699 0.350429 0.089790
0.898321 0.482211 0.095558
0.934974 0.567439 0.105358
0.945371 0.613612 0.204891
0.945371 0.492618 0.828519
0.072985 0.758223 0.088565
0.073221 0.751978 0.088559
0.074925 0.731057 0.088449
0.094782 0.693995 0.088144
0.434106 0.659838 0.088217
0.812205 0.693710 0.090274
0.909263 0.739614 0.093092
0.936638 0.768102 0.107882
0.945151 0.806507 0.682579
0.073015 0.865163 0.087531
0.073183 0.863387 0.087604
0.074276 0.859492 0.088059
0.083502 0.849164 0.088422
0.205447 0.832929 0.088749
0.651376 0.822938 0.089505
0.859127 0.829391 0.090713
0.921996 0.849138 0.095822
0.937033 0.867831 0.161951
0.072816 0.905224 0.086462
0.072957 0.904412 0.086560
0.073499 0.902845 0.086962
0.077883 0.899596 0.087509
0.112147 0.894885 0.088009
0.434890 0.889105 0.088819
0.778339 0.885726 0.090011
0.901174 0.887076 0.091966
0.930705 0.897536 0.102994
0.072624 0.925694 0.085634
0.072654 0.925264 0.085701
0.072993 0.924489 0.086030
0.074378 0.923181 0.086506
0.085363 0.921101 0.087202
0.210400 0.918468 0.087705
0.613102 0.916420 0.088693
0.857061 0.915753 0.090082
0.926391 0.917205 0.092456
0.072578 0.926662 0.085144
0.072578 0.936887 0.085143
0.072578 0.935557 0.085140
0.072578 0.933448 0.085134
0.074646 0.935134 0.085331
0.097326 0.932559 0.085736
0.328137 0.930377 0.086056
0.716124 0.929185 0.086261
0.925373 0.929186 0.086490
0.072578 0.069298 0.681585
0.073014 0.070103 0.894025
0.729792 0.072108 0.908436
0.926859 0.079281 0.907270
0.945371 0.090092 0.883900
0.945371 0.105895 0.862668
0.945371 0.119197 0.861082
0.945371 0.092370 0.882475
0.945371 0.578952 0.874031
0.072578 0.070507 0.702370
0.073309 0.072649 0.840151
0.635046 0.079552 0.894368
0.907781 0.087126 0.876110
0.945371 0.099221 0.850488
0.945371 0.124674 0.839952
0.945371 0.143441 0.846159
0.945371 0.103236 0.875392
0.945371 0.568990 0.871225
0.072711 0.086407 0.468449
0.073263 0.087938 0.496146
0.102292 0.090774 0.597444
0.738073 0.105538 0.650612
0.902728 0.164461 0.696293
0.938207 0.269434 0.735591
0.945371 0.341685 0.776732
0.945371 0.363376 0.835850
0.945371 0.536109 0.861655
0.073023 0.336322 0.228971
0.073352 0.320214 0.211845
0.077974 0.242575 0.169328
0.196747 0.180034 0.149801
0.783789 0.331546 0.291386
0.903391 0.472362 0.472282
0.934388 0.563512 0.596982
0.945371 0.617709 0.748319
0.945371 0.481036 0.846154
0.073343 0.714393 0.190562
0.073550 0.707513 0.183771
0.077372 0.679519 0.165933
0.114571 0.628392 0.146466
0.526438 0.603032 0.140642
0.836306 0.657225 0.191850
0.911773 0.723308 0.329520
0.935048 0.761104 0.533522
0.943349 0.807124 0.806670
0.073419 0.849160 0.147504
0.073567 0.846792 0.146614
0.076254 0.839310 0.146337
0.091714 0.824153 0.141787
0.309053 0.808429 0.139148
0.716769 0.801163 0.143483
0.875710 0.814846 0.173805
0.922412 0.839763 0.283800
0.935402 0.866104 0.697688
0.073281 0.897577 0.117126
0.073404 0.896845 0.117677
0.074598 0.895221 0.120917
0.082535 0.891421 0.124362
0.156637 0.884995 0.127587
0.544109 0.880532 0.132142
0.816790 0.879602 0.139935
0.908193 0.881710 0.164772
0.929676 0.895811 0.468369
0.072738 0.922059 0.097942
0.072866 0.921731 0.098414
0.073411 0.921136 0.101382
0.076349 0.919806 0.105925
0.094613 0.917804 0.110144
0.298585 0.915489 0.113766
0.685417 0.913913 0.119776
0.875612 0.913793 0.127814
0.926118 0.916266 0.200334
0.072578 0.930346 0.091153
0.072578 0.935855 0.091042
0.072578 0.934583 0.090671
0.072670 0.935826 0.087140
0.077239 0.933033 0.091911
0.113401 0.930930 0.094579
0.408541 0.929156 0.097373
0.768644 0.928296 0.099245
0.925444 0.928874 0.107590
0.072578 0.070063 0.855227
0.072676 0.071512 0.912953
0.554620 0.082120 0.933648
0.916274 0.103269 0.933717
0.945371 0.162708 0.932920
0.945371 0.182669 0.919165
0.945371 0.194329 0.911584
0.945371 0.156403 0.909621
0.945371 0.578973 0.908459
0.072578 0.072371 0.862435
0.072888 0.076122 0.907927
0.459404 0.099279 0.932270
0.907977 0.152590 0.932921
0.945371 0.190898 0.923115
0.945371 0.223628 0.912500
0.945371 0.245318 0.907791
0.945371 0.190929 0.907778
0.945371 0.568695 0.907727
0.073042 0.163308 0.845109
0.073674 0.186578 0.860894
0.150575 0.248751 0.892985
0.803678 0.265625 0.889107
0.912962 0.313754 0.880367
0.943160 0.378870 0.877573
0.945371 0.420818 0.881024
0.945371 0.447537 0.891640
0.945371 0.534734 0.898623
0.073255 0.361652 0.701387
0.073562 0.361473 0.703831
0.082201 0.358118 0.719767
0.381441 0.360946 0.742311
0.817797 0.427190 0.766560
0.908800 0.524896 0.793990
0.935691 0.593499 0.824809
0.945371 0.639645 0.852557
0.945371 0.696751 0.884059
0.073517 0.670245 0.624876
0.073960 0.664456 0.620280
0.078868 0.642933 0.607791
0.135663 0.603656 0.592730
0.558194 0.570529 0.579269
0.848330 0.650797 0.657846
0.912929 0.722768 0.727828
0.934188 0.763029 0.789635
0.942219 0.811683 0.856790
0.073769 0.826801 0.584992
0.074250 0.824443 0.582266
0.078256 0.818316 0.575740
0.104641 0.804728 0.558786
0.387557 0.787720 0.542993
0.749324 0.781480 0.549435
0.882048 0.805153 0.604565
0.921857 0.834331 0.690940
0.934019 0.865814 0.821380
0.073551 0.889336 0.496899
0.073820 0.888485 0.496070
0.076155 0.886444 0.498069
0.087217 0.882171 0.498509
0.212232 0.878721 0.498182
0.610382 0.875650 0.502958
0.837640 0.875332 0.523351
0.910508 0.879518 0.586054
0.928496 0.894783 0.761231
0.073069 0.918860 0.355127
0.073185 0.918574 0.357244
0.073834 0.918000 0.378034
0.078548 0.916749 0.394604
0.109956 0.914882 0.412143
0.385331 0.912834 0.429970
0.733978 0.911212 0.449664
0.887357 0.911794 0.474203
0.925594 0.915738 0.634098
0.072578 0.930532 0.316242
0.072578 0.931047 0.310490
0.072578 0.931881 0.291879
0.073188 0.932823 0.174254
0.078872 0.931516 0.206968
0.131600 0.929665 0.235122
0.465699 0.928161 0.256814
0.797199 0.927493 0.271476
0.925277 0.928856 0.457257
0.072578 0.072689 0.921918
0.072654 0.074556 0.937283
0.351191 0.119162 0.947885
0.904484 0.190252 0.948085
0.945371 0.335429 0.948180
0.945371 0.358471 0.943812
0.945371 0.350567 0.932948
0.945371 0.318080 0.928444
0.945371 0.585771 0.920717
0.072589 0.077917 0.923808
0.072722 0.084029 0.936338
0.297835 0.170383 0.947443
0.894300 0.282932 0.947773
0.945371 0.407103 0.947528
0.945371 0.396196 0.939247
0.945371 0.391696 0.931922
0.945371 0.356152 0.926010
0.945371 0.575216 0.919238
0.073208 0.294043 0.924986
0.073822 0.344394 0.932891
0.211363 0.495018 0.944708
0.830714 0.495526 0.939012
0.923439 0.491779 0.932154
0.945371 0.503158 0.924516
0.945371 0.520123 0.919654
0.945371 0.536894 0.917420
0.945371 0.540348 0.914369
0.073518 0.487870 0.872677
0.074276 0.497674 0.877138
0.090858 0.534026 0.893550
0.537165 0.549648 0.897798
0.852668 0.571071 0.896677
0.917331 0.606279 0.897094
0.939876 0.642041 0.900189
0.945371 0.682656 0.904925
0.945371 0.734759 0.907792
0.073820 0.672594 0.809850
0.074495 0.670942 0.810154
0.081632 0.670311 0.815374
0.193002 0.656868 0.818585
0.676064 0.658724 0.823739
0.864996 0.699639 0.835104
0.916578 0.742493 0.852366
0.935201 0.773577 0.872730
0.942209 0.820772 0.895152
0.074175 0.811453 0.773562
0.074736 0.810150 0.772822
0.079440 0.806625 0.772107
0.115844 0.795337 0.769719
0.444035 0.779787 0.766485
0.766191 0.774976 0.764545
0.886373 0.804328 0.795297
0.921990 0.835696 0.830090
0.933422 0.867438 0.872025
0.073900 0.881480 0.743213
0.074337 0.881137 0.742259
0.077524 0.880347 0.741872
0.092138 0.878305 0.740965
0.256351 0.874932 0.740320
0.658427 0.870580 0.741885
0.848120 0.870645 0.751773
0.911179 0.878119 0.777710
0.927566 0.894581 0.845861
0.073226 0.916311 0.683163
0.073338 0.916069 0.682932
0.074328 0.915575 0.685574
0.079811 0.914446 0.687915
0.125460 0.912690 0.691087
0.442822 0.910222 0.695406
0.764996 0.908989 0.702631
0.893578 0.910164 0.718619
0.924963 0.915535 0.805928
0.072578 0.929669 0.534847
0.072578 0.930103 0.541786
0.072578 0.930711 0.567751
0.073250 0.931908 0.594134
0.079467 0.930578 0.601783
0.139695 0.928880 0.611094
0.497716 0.927489 0.617905
0.809430 0.927085 0.622024
0.925004 0.928953 0.753790
0.072588 0.083057 0.948348
0.072684 0.088006 0.950556
0.153803 0.210513 0.951554
0.892766 0.343767 0.951646
0.945371 0.460617 0.951689
0.945371 0.517306 0.950894
0.945371 0.479773 0.947817
0.945371 0.446636 0.943974
0.945371 0.597123 0.936803
0.072640 0.094606 0.948616
0.072732 0.106703 0.950492
0.154251 0.289914 0.951478
0.884567 0.415989 0.951593
0.945371 0.523757 0.951644
0.945371 0.534662 0.950253
0.945371 0.510390 0.946861
0.945371 0.479748 0.942507
0.945371 0.586338 0.935183
0.073263 0.387456 0.949029
0.073720 0.419786 0.950118
0.167487 0.558753 0.951109
0.851943 0.631782 0.951325
0.934056 0.618531 0.949415
0.945371 0.608922 0.946231
0.945371 0.602046 0.940930
0.945371 0.609923 0.934840
0.945371 0.550607 0.932182
0.074177 0.618671 0.935981
0.075187 0.623803 0.937636
0.106846 0.657667 0.940571
0.644700 0.673538 0.938002
0.877861 0.678545 0.933115
0.927647 0.688690 0.931101
0.945371 0.701227 0.927620
0.945371 0.720354 0.925587
0.945371 0.772587 0.925352
0.074427 0.716061 0.905905
0.075124 0.717517 0.907136
0.085559 0.727442 0.908621
0.297741 0.733448 0.909792
0.755932 0.739362 0.908803
0.884895 0.750997 0.908432
0.923190 0.767824 0.909567
0.938222 0.785186 0.911923
0.943389 0.833006 0.915293
0.074575 0.810263 0.869195
0.075103 0.809789 0.869651
0.081078 0.809907 0.872642
0.138616 0.806323 0.875126
0.531713 0.800189 0.874644
0.811404 0.802589 0.875487
0.896649 0.819323 0.883417
0.924231 0.844294 0.895464
0.933982 0.870741 0.907153
0.074124 0.878879 0.841308
0.074581 0.878633 0.841283
0.078194 0.878137 0.842409
0.096562 0.876552 0.844329
0.299493 0.873358 0.845996
0.682315 0.869167 0.846253
0.852211 0.867060 0.846074
0.912213 0.878380 0.866829
0.927355 0.895401 0.893964
0.073233 0.914771 0.812845
0.073349 0.914564 0.812491
0.074429 0.914144 0.813247
0.080589 0.913183 0.814565
0.132876 0.911212 0.817314
0.470257 0.908959 0.821025
0.782640 0.907840 0.825820
0.896186 0.909279 0.832519
0.924455 0.915647 0.876392
0.072578 0.928124 0.709957
0.072578 0.929302 0.708190
0.072578 0.930197 0.703169
0.073000 0.931834 0.771641
0.078971 0.930287 0.773007
0.136381 0.928658 0.774727
0.490183 0.927379 0.776385
0.808223 0.927195 0.777374
0.924771 0.929223 0.856321
0.072684 0.119081 0.953328
0.072812 0.129969 0.953502
0.222287 0.306795 0.953735
0.905108 0.422543 0.953771
0.945371 0.524806 0.953796
0.945371 0.592174 0.953530
0.945371 0.549913 0.951591
0.945371 0.511262 0.949995
0.945371 0.630300 0.947195
0.072721 0.154258 0.953308
0.072994 0.174910 0.953471
0.228974 0.371870 0.953709
0.899501 0.479051 0.953749
0.945371 0.569780 0.953777
0.945371 0.606986 0.953011
0.945371 0.570155 0.951214
0.945371 0.537044 0.949516
0.945371 0.628675 0.946760
0.073535 0.486817 0.953230
0.074425 0.509627 0.953344
0.273370 0.612991 0.953569
0.875051 0.673078 0.953641
0.945371 0.694220 0.952895
0.945371 0.671121 0.951331
0.945371 0.650382 0.949791
0.945371 0.641156 0.947359
0.945371 0.678397 0.944844
0.075764 0.713178 0.951840
0.078068 0.715416 0.951782
0.189003 0.737241 0.951483
0.763986 0.740968 0.950754
0.907651 0.737042 0.949518
0.940800 0.733936 0.947419
0.945371 0.732896 0.945331
0.945371 0.740762 0.942234
0.945371 0.786430 0.938732
0.075625 0.759839 0.943431
0.077385 0.761157 0.943492
0.102942 0.771574 0.943312
0.488295 0.775908 0.941100
0.827912 0.777184 0.937548
0.908216 0.778559 0.934210
0.932316 0.784499 0.932931
0.942926 0.798201 0.932517
0.945371 0.843674 0.931657
0.075027 0.821841 0.924223
0.076210 0.822032 0.924626
0.085193 0.826039 0.925614
0.200454 0.826733 0.924580
0.656240 0.826405 0.922325
0.853588 0.829536 0.920516
0.910018 0.838436 0.920033
0.928955 0.852498 0.920829
0.935692 0.874405 0.922504
0.074236 0.878494 0.907852
0.074683 0.878359 0.907913
0.078895 0.878557 0.909805
0.105154 0.877737 0.911394
0.377299 0.876057 0.910962
0.739048 0.874559 0.909261
0.873754 0.875788 0.908750
0.916573 0.880641 0.911326
0.928338 0.896954 0.915199
0.073059 0.914829 0.883737
0.073190 0.914611 0.883920
0.074083 0.914108 0.886315
0.079881 0.913198 0.890549
0.134725 0.911425 0.895623
0.498749 0.909396 0.898985
0.794283 0.908219 0.900601
0.897327 0.908137 0.901065
0.924459 0.916053 0.909836
0.072578 0.925439 0.836419
0.072578 0.929740 0.836849
0.072578 0.929471 0.842238
0.072707 0.931844 0.851934
0.076829 0.930920 0.852356
0.119101 0.929184 0.854659
0.444710 0.928029 0.857271
0.789882 0.927898 0.858309
0.924627 0.929648 0.906382
0.242951 0.113984 0.953980
0.497345 0.119352 0.953980
0.876101 0.146595 0.953980
0.945371 0.222081 0.953980
0.945371 0.333464 0.953980
0.945371 0.422314 0.953980
0.945371 0.334100 0.953439
0.945371 0.177226 0.951749
0.945371 0.618998 0.949937
0.243117 0.139617 0.953980
0.486289 0.147867 0.953980
0.873645 0.187187 0.953980
0.945371 0.281524 0.953980
0.945371 0.393322 0.953980
0.945371 0.446146 0.953980
0.945371 0.363592 0.953097
0.945371 0.203793 0.951496
0.945371 0.611515 0.949860
0.272571 0.405915 0.953980
0.480496 0.416735 0.953980
0.862996 0.461193 0.953980
0.945371 0.532004 0.953980
0.945371 0.584783 0.953980
0.945371 0.553800 0.953485
0.945371 0.500107 0.951974
0.945371 0.400643 0.950650
0.945371 0.576972 0.948507
0.300596 0.722520 0.953980
0.437142 0.720952 0.953980
0.814734 0.717883 0.953980
0.925079 0.712079 0.953419
0.945371 0.701090 0.952392
0.945371 0.684286 0.951310
0.945371 0.657196 0.950212
0.945371 0.635994 0.948361
0.945371 0.779652 0.946459
0.132035 0.774705 0.951212
0.177459 0.774175 0.951116
0.577460 0.773668 0.950794
0.866057 0.772357 0.950219
0.921039 0.769580 0.949105
0.939868 0.765899 0.947630
0.945371 0.761269 0.946225
0.945371 0.762257 0.944139
0.945371 0.826896 0.941445
0.086136 0.829453 0.946754
0.092187 0.828866 0.946584
0.222368 0.828234 0.946021
0.725179 0.826790 0.944500
0.875851 0.824377 0.942309
0.915871 0.823332 0.939209
0.930263 0.823774 0.936624
0.937143 0.828906 0.934547
0.938480 0.867831 0.932947
0.076634 0.878660 0.939896
0.077984 0.878384 0.939425
0.089889 0.877850 0.937820
0.343956 0.876757 0.935196
0.775324 0.875046 0.932937
0.881445 0.873418 0.931879
0.914758 0.873408 0.929993
0.926756 0.875459 0.929057
0.930755 0.893459 0.928724
0.072959 0.914215 0.932936
0.073098 0.914014 0.932938
0.073894 0.913561 0.932932
0.084665 0.912555 0.932546
0.300493 0.910370 0.930066
0.762550 0.908203 0.927463
0.886554 0.907046 0.925369
0.918295 0.907242 0.924419
0.926051 0.914746 0.924626
0.072578 0.922248 0.885328
0.072578 0.929179 0.901446
0.072578 0.928434 0.899690
0.072578 0.928207 0.896865
0.073559 0.933123 0.916229
0.095571 0.930554 0.925137
0.401337 0.929177 0.924352
0.797328 0.929059 0.923604
0.924614 0.930238 0.923434
