LUTs/velvia/Velvia50_Modern_Punchy.cube
TITLE "Velvia 50 Modern Punchy"
# Adobe RGB in/out. REPLACES AgX. Velvia 50 Modern Punchy.
LUT_3D_SIZE 33
DOMAIN_MIN 0.0 0.0 0.0
DOMAIN_MAX 1.0 1.0 1.0
0.098723 0.087547 0.082196
0.098723 0.087547 0.082196
0.098723 0.087547 0.082196
0.099781 0.087547 0.082196
0.123644 0.087547 0.082196
0.193953 0.087547 0.082196
0.484531 0.087568 0.082196
0.810799 0.087640 0.082196
0.891618 0.087685 0.082196
0.940037 0.087757 0.082196
0.969219 0.087956 0.082196
0.979237 0.088103 0.082196
0.984783 0.088359 0.082200
0.987804 0.088938 0.082210
0.990728 0.090014 0.082224
0.991895 0.090729 0.082232
0.991895 0.091407 0.082243
0.991895 0.092949 0.082256
0.991895 0.096245 0.082272
0.991895 0.097506 0.082284
0.991895 0.099607 0.082315
0.991895 0.102088 0.082352
0.991895 0.104383 0.082433
0.991895 0.104105 0.082510
0.991895 0.104112 0.082658
0.991895 0.103285 0.082911
0.991895 0.097575 0.084157
0.991895 0.095361 0.111148
0.991895 0.088891 0.900102
0.991895 0.088784 0.894806
0.991895 0.088684 0.889575
0.991895 0.088585 0.884382
0.991895 0.629417 0.954738
0.098723 0.087547 0.082196
0.098723 0.087547 0.082196
0.098723 0.087547 0.082196
0.099557 0.087547 0.082196
0.112481 0.087547 0.082196
0.154647 0.087547 0.082196
0.386696 0.087572 0.082196
0.766522 0.087650 0.082196
0.871470 0.087693 0.082196
0.934155 0.087771 0.082196
0.966538 0.087969 0.082196
0.978054 0.088127 0.082196
0.984087 0.088392 0.082200
0.987418 0.088992 0.082210
0.990425 0.090094 0.082224
0.991895 0.090802 0.082232
0.991895 0.091514 0.082243
0.991895 0.093184 0.082256
0.991895 0.096445 0.082272
0.991895 0.097827 0.082283
0.991895 0.099918 0.082315
0.991895 0.102394 0.082352
0.991895 0.104837 0.082431
0.991895 0.104522 0.082508
0.991895 0.104528 0.082653
0.991895 0.103670 0.082901
0.991895 0.097883 0.084083
0.991895 0.095560 0.108122
0.991895 0.088885 0.899817
0.991895 0.088779 0.894546
0.991895 0.088680 0.889338
0.991895 0.088581 0.884165
0.991895 0.628936 0.954640
0.098723 0.087547 0.082196
0.098723 0.087547 0.082196
0.098723 0.087547 0.082196
0.098723 0.087547 0.082196
0.100453 0.087547 0.082196
0.109147 0.087552 0.082196
0.212333 0.087587 0.082196
0.568362 0.087692 0.082196
0.767210 0.087724 0.082196
0.899158 0.087831 0.082196
0.954992 0.088016 0.082196
0.972404 0.088248 0.082196
0.980602 0.088556 0.082199
0.985997 0.089197 0.082210
0.989309 0.090396 0.082223
0.991545 0.091073 0.082231
0.991895 0.091912 0.082242
0.991895 0.094053 0.082255
0.991895 0.097122 0.082271
0.991895 0.099015 0.082281
0.991895 0.101068 0.082312
0.991895 0.103801 0.082349
0.991895 0.106985 0.082425
0.991895 0.106557 0.082501
0.991895 0.106553 0.082636
0.991895 0.105280 0.082874
0.991895 0.099012 0.084037
0.991895 0.096289 0.101650
0.991895 0.088867 0.898800
0.991895 0.088762 0.893618
0.991895 0.088663 0.888491
0.991895 0.088566 0.883390
0.991895 0.627209 0.954291
0.098723 0.087547 0.082196
0.098723 0.087547 0.082196
0.098723 0.087547 0.082196
0.098723 0.087547 0.082196
0.098899 0.087570 0.082196
0.100279 0.087578 0.082196
0.112596 0.087653 0.082196
0.239282 0.087761 0.082196
0.471616 0.087826 0.082196
0.763729 0.087939 0.082196
0.917634 0.088264 0.082196
0.955640 0.088654 0.082196
0.972483 0.089052 0.082198
0.981951 0.089756 0.082209
0.987128 0.091009 0.082223
0.989808 0.091834 0.082230
0.991895 0.093222 0.082241
0.991895 0.095773 0.082254
0.991895 0.099488 0.082270
0.991895 0.101341 0.082280
0.991895 0.103528 0.082309
0.991895 0.107602 0.082345
0.991895 0.111285 0.082415
0.991895 0.110818 0.082489
0.991895 0.110779 0.082607
0.991895 0.109491 0.082833
0.991895 0.101184 0.083629
0.991895 0.097613 0.092490
0.991895 0.088833 0.896956
0.991895 0.088730 0.891934
0.991895 0.088634 0.886951
0.991895 0.088540 0.881981
0.991895 0.624057 0.953655
0.098723 0.087727 0.082196
0.098723 0.087731 0.082196
0.098723 0.087737 0.082196
0.098723 0.087721 0.082196
0.098734 0.087692 0.082196
0.098995 0.087656 0.082196
0.101353 0.087733 0.082196
0.119741 0.087928 0.082196
0.207608 0.087970 0.082196
0.448863 0.088101 0.082196
0.799634 0.088857 0.082196
0.911294 0.089332 0.082196
0.950768 0.089903 0.082198
0.971648 0.090844 0.082209
0.982451 0.092921 0.082222
0.986913 0.094701 0.082230
0.989683 0.096356 0.082240
0.991895 0.099057 0.082253
0.991895 0.103871 0.082269
0.991895 0.106586 0.082278
0.991895 0.110138 0.082304
0.991895 0.115109 0.082340
0.991895 0.120385 0.082401
0.991895 0.119568 0.082473
0.991895 0.119394 0.082567
0.991895 0.117478 0.082778
0.991895 0.105585 0.083217
0.991895 0.100976 0.087368
0.991895 0.088784 0.894263
0.991895 0.088683 0.889468
0.991895 0.088591 0.884695
0.991895 0.088509 0.879912
0.991895 0.619438 0.952720
0.098723 0.088074 0.082196
0.098723 0.088072 0.082196
0.098723 0.088104 0.082196
0.098723 0.088029 0.082196
0.098723 0.087948 0.082196
0.098882 0.087873 0.082196
0.099828 0.087944 0.082196
0.104196 0.088247 0.082196
0.119367 0.088302 0.082196
0.213081 0.088685 0.082196
0.512664 0.089864 0.082196
0.772909 0.090580 0.082196
0.899878 0.091114 0.082199
0.948648 0.092371 0.082209
0.972927 0.096493 0.082222
0.981852 0.098858 0.082229
0.986441 0.101763 0.082239
0.989215 0.107807 0.082252
0.991694 0.117448 0.082267
0.991895 0.120854 0.082276
0.991895 0.126038 0.082298
0.991895 0.135062 0.082333
0.991895 0.142038 0.082385
0.991895 0.140339 0.082453
0.991895 0.139678 0.082537
0.991895 0.136974 0.082714
0.991895 0.117137 0.082961
0.991895 0.108339 0.084949
0.991895 0.088721 0.890745
0.991895 0.088622 0.886235
0.991895 0.088534 0.881731
0.991895 0.624185 0.877366
0.991895 0.613384 0.951486
0.098723 0.091031 0.082196
0.098723 0.091130 0.082196
0.098723 0.091180 0.082196
0.098723 0.090787 0.082196
0.098723 0.089988 0.082196
0.098882 0.089266 0.082196
0.099405 0.088877 0.082196
0.101083 0.089351 0.082196
0.105633 0.089320 0.082196
0.127208 0.089917 0.082196
0.255589 0.091508 0.082196
0.512601 0.092688 0.082196
0.758876 0.094020 0.082199
0.896225 0.096662 0.082209
0.950460 0.102660 0.082222
0.970524 0.107809 0.082229
0.980866 0.111632 0.082239
0.986247 0.120557 0.082251
0.989191 0.140619 0.082266
0.991447 0.149969 0.082275
0.991895 0.161972 0.082293
0.991895 0.175070 0.082327
0.991895 0.182789 0.082368
0.991895 0.179635 0.082433
0.991895 0.177868 0.082511
0.991895 0.173911 0.082648
0.991895 0.148818 0.082837
0.991895 0.130966 0.083816
0.991895 0.088651 0.886475
0.991895 0.088547 0.882284
0.991895 0.088469 0.878098
0.991895 0.616321 0.875024
0.991895 0.605986 0.949964
0.098723 0.110126 0.082196
0.098723 0.111023 0.082196
0.098723 0.114067 0.082196
0.098723 0.108609 0.082196
0.098723 0.102573 0.082196
0.098911 0.098492 0.082196
0.099439 0.095721 0.082196
0.100396 0.093691 0.082196
0.102057 0.091253 0.082196
0.109045 0.091868 0.082196
0.157624 0.096441 0.082196
0.276767 0.098332 0.082196
0.510535 0.099862 0.082200
0.764080 0.103941 0.082210
0.905138 0.116784 0.082222
0.947892 0.124588 0.082229
0.969083 0.134406 0.082239
0.980131 0.152015 0.082251
0.985992 0.177704 0.082266
0.988959 0.184500 0.082274
0.991231 0.195468 0.082290
0.991895 0.214472 0.082322
0.991895 0.238295 0.082356
0.991895 0.246731 0.082415
0.991895 0.256877 0.082487
0.991895 0.251555 0.082587
0.991895 0.217794 0.082756
0.991895 0.189877 0.083122
0.991895 0.088605 0.881616
0.991895 0.088467 0.877719
0.991895 0.088425 0.875034
0.991895 0.606913 0.870365
0.991895 0.594649 0.948174
0.098723 0.148959 0.082196
0.098723 0.150676 0.082196
0.098723 0.151062 0.082196
0.098723 0.143189 0.082196
0.098723 0.131544 0.082196
0.098851 0.118080 0.082196
0.099078 0.109556 0.082196
0.099951 0.103553 0.082196
0.101174 0.100639 0.082196
0.104421 0.098860 0.082196
0.120933 0.106707 0.082196
0.180973 0.110737 0.082196
0.294800 0.112996 0.082202
0.552204 0.122280 0.082211
0.799628 0.148496 0.082223
0.903931 0.159330 0.082230
0.946193 0.170245 0.082239
0.968707 0.191085 0.082251
0.980392 0.225641 0.082266
0.985834 0.242292 0.082274
0.988563 0.260127 0.082288
0.990894 0.274372 0.082319
0.991895 0.299258 0.082352
0.991895 0.304229 0.082403
0.991895 0.313543 0.082471
0.991895 0.325038 0.082550
0.991895 0.321425 0.082701
0.991895 0.322429 0.082925
0.991895 0.090032 0.877693
0.991895 0.088442 0.874043
0.991895 0.088382 0.869205
0.991895 0.593227 0.864002
0.991895 0.580367 0.946142
0.098723 0.251282 0.082196
0.098723 0.249588 0.082196
0.098723 0.241726 0.082196
0.098723 0.231498 0.082196
0.098723 0.211659 0.082196
0.098840 0.192448 0.082196
0.099004 0.171795 0.082196
0.099752 0.153761 0.082196
0.100542 0.138866 0.082196
0.102534 0.128164 0.082196
0.111103 0.144571 0.082196
0.132760 0.144209 0.082199
0.198819 0.146910 0.082205
0.338324 0.161378 0.082213
0.627889 0.195086 0.082225
0.807499 0.206577 0.082231
0.904706 0.221240 0.082240
0.947743 0.248770 0.082252
0.970080 0.290851 0.082266
0.980207 0.308150 0.082274
0.985801 0.321596 0.082287
0.988527 0.347470 0.082317
0.990676 0.381334 0.082349
0.991895 0.389812 0.082393
0.991895 0.395923 0.082457
0.991895 0.405014 0.082531
0.991895 0.397647 0.082650
0.991895 0.394826 0.082838
0.991895 0.385414 0.083427
0.991895 0.386413 0.088774
0.991895 0.380203 0.789076
0.991895 0.576363 0.860492
0.991895 0.564946 0.943901
0.098723 0.451177 0.082196
0.098723 0.446736 0.082196
0.098723 0.435377 0.082196
0.098723 0.430322 0.082196
0.098731 0.410853 0.082196
0.098874 0.380040 0.082196
0.099047 0.345564 0.082196
0.099818 0.315154 0.082196
0.100563 0.280774 0.082196
0.102474 0.256478 0.082198
0.107390 0.237420 0.082202
0.118276 0.213624 0.082205
0.148208 0.198568 0.082208
0.235233 0.217663 0.082216
0.434745 0.264016 0.082227
0.660968 0.274379 0.082233
0.819826 0.289610 0.082242
0.911536 0.318228 0.082253
0.952407 0.366167 0.082267
0.970713 0.379558 0.082274
0.980466 0.402081 0.082287
0.985739 0.434641 0.082317
0.988555 0.459893 0.082347
0.990759 0.471419 0.082386
0.991895 0.488724 0.082447
0.991895 0.510178 0.082515
0.991895 0.499555 0.082606
0.991895 0.492467 0.082771
0.991895 0.480874 0.083067
0.991895 0.471909 0.085002
0.991895 0.406765 0.604182
0.991895 0.558755 0.863653
0.991895 0.548778 0.863076
0.098723 0.570702 0.082196
0.098723 0.567264 0.082196
0.098723 0.557766 0.082196
0.098723 0.552300 0.082196
0.098733 0.536371 0.082196
0.098865 0.516710 0.082196
0.099009 0.493172 0.082197
0.099663 0.460806 0.082200
0.100369 0.425082 0.082203
0.101860 0.392382 0.082206
0.105135 0.360336 0.082209
0.112933 0.336402 0.082212
0.127031 0.301723 0.082213
0.176899 0.300377 0.082219
0.294421 0.348457 0.082229
0.482880 0.359118 0.082236
0.692914 0.371635 0.082245
0.846518 0.402942 0.082255
0.923606 0.453160 0.082268
0.954775 0.465020 0.082275
0.971769 0.487304 0.082290
0.981076 0.510290 0.082318
0.986017 0.538642 0.082347
0.988654 0.553816 0.082384
0.990680 0.564422 0.082441
0.991895 0.581810 0.082506
0.991895 0.588149 0.082576
0.991895 0.600482 0.082720
0.991895 0.599032 0.082910
0.991895 0.580491 0.083911
0.991895 0.487322 0.222728
0.991895 0.540792 0.855802
0.991895 0.532186 0.859194
0.098723 0.650876 0.082196
0.098723 0.648761 0.082196
0.098723 0.642590 0.082196
0.098723 0.637271 0.082196
0.098736 0.630186 0.082196
0.098856 0.619017 0.082198
0.098981 0.601796 0.082202
0.099487 0.573755 0.082206
0.100163 0.544597 0.082209
0.101226 0.515104 0.082212
0.103249 0.488165 0.082214
0.108029 0.460781 0.082217
0.118634 0.436454 0.082220
0.147678 0.422772 0.082224
0.226259 0.449565 0.082232
0.338571 0.458337 0.082240
0.542045 0.468069 0.082247
0.745403 0.493432 0.082258
0.875600 0.535150 0.082270
0.929949 0.543563 0.082277
0.958351 0.561797 0.082293
0.973994 0.589150 0.082320
0.981923 0.616111 0.082348
0.986451 0.622262 0.082383
0.988820 0.636204 0.082438
0.990554 0.654925 0.082500
0.991895 0.654207 0.082555
0.991895 0.658253 0.082684
0.991895 0.664456 0.082847
0.991895 0.676198 0.083343
0.991895 0.709303 0.086238
0.991895 0.523023 0.846198
0.991895 0.515601 0.856577
0.098723 0.771636 0.082196
0.098723 0.768988 0.082196
0.098723 0.760985 0.082196
0.098723 0.752572 0.082197
0.098759 0.748768 0.082201
0.098862 0.732620 0.082206
0.098977 0.712218 0.082209
0.099428 0.689300 0.082213
0.100063 0.663797 0.082216
0.100862 0.642290 0.082219
0.102468 0.621559 0.082222
0.106414 0.601769 0.082225
0.114634 0.576115 0.082227
0.131580 0.554998 0.082230
0.188264 0.575689 0.082241
0.258061 0.552545 0.082244
0.393093 0.553819 0.082251
0.609917 0.576912 0.082260
0.794567 0.615194 0.082273
0.890485 0.621177 0.082279
0.937034 0.632650 0.082298
0.961932 0.651776 0.082324
0.976136 0.674272 0.082350
0.983252 0.687518 0.082386
0.986737 0.707987 0.082438
0.988978 0.727067 0.082496
0.990842 0.737616 0.082547
0.991895 0.755349 0.082657
0.991895 0.756844 0.082800
0.991895 0.760459 0.083083
0.991895 0.780433 0.084491
0.991895 0.809265 0.162912
0.991895 0.843705 0.852597
0.098723 0.854859 0.082202
0.098723 0.854073 0.082203
0.098723 0.851623 0.082204
0.098723 0.848710 0.082207
0.098798 0.848556 0.082211
0.098886 0.842709 0.082215
0.098995 0.837366 0.082219
0.099474 0.827625 0.082223
0.100071 0.816157 0.082226
0.100834 0.803573 0.082229
0.102401 0.783041 0.082232
0.105923 0.753502 0.082236
0.113198 0.726033 0.082241
0.127044 0.701827 0.082245
0.165590 0.681303 0.082249
0.223202 0.657094 0.082252
0.302871 0.639895 0.082255
0.476851 0.649524 0.082263
0.693623 0.683132 0.082275
0.824240 0.689289 0.082283
0.904881 0.703998 0.082303
0.944124 0.729407 0.082329
0.965868 0.755819 0.082354
0.977765 0.772045 0.082392
0.984459 0.789674 0.082440
0.987115 0.805325 0.082496
0.989399 0.810211 0.082543
0.990867 0.814864 0.082640
0.991895 0.821663 0.082768
0.991895 0.830221 0.082948
0.991895 0.834267 0.083862
0.991895 0.841607 0.092451
0.991895 0.844356 0.826294
0.098723 0.881872 0.082207
0.098723 0.881330 0.082208
0.098723 0.879605 0.082209
0.098724 0.878504 0.082211
0.098799 0.878169 0.082215
0.098886 0.877187 0.082219
0.098992 0.875596 0.082223
0.099385 0.869646 0.082227
0.099948 0.861870 0.082230
0.100525 0.853540 0.082235
0.101940 0.843979 0.082239
0.104509 0.833204 0.082243
0.109091 0.821134 0.082247
0.119545 0.809390 0.082252
0.143904 0.798981 0.082256
0.191090 0.781508 0.082260
0.254083 0.753142 0.082263
0.367732 0.745796 0.082268
0.578962 0.774612 0.082278
0.744671 0.780113 0.082291
0.856206 0.792757 0.082310
0.919970 0.805860 0.082334
0.952137 0.817398 0.082360
0.969671 0.823509 0.082399
0.979569 0.832105 0.082445
0.985094 0.842365 0.082498
0.987844 0.845937 0.082542
0.989581 0.852417 0.082630
0.990991 0.856759 0.082745
0.991895 0.860144 0.082887
0.991895 0.868367 0.083413
0.991895 0.877706 0.086185
0.991895 0.868106 0.666134
0.098723 0.908899 0.082211
0.098723 0.908427 0.082212
0.098723 0.906898 0.082213
0.098737 0.904775 0.082215
0.098802 0.903381 0.082218
0.098887 0.902281 0.082222
0.098975 0.898467 0.082226
0.099292 0.894277 0.082230
0.099835 0.889344 0.082235
0.100379 0.883372 0.082240
0.101501 0.878276 0.082245
0.103277 0.874286 0.082249
0.107348 0.866530 0.082253
0.115344 0.857669 0.082257
0.130100 0.849298 0.082261
0.167736 0.841827 0.082265
0.225649 0.834751 0.082270
0.308919 0.830295 0.082275
0.476578 0.835623 0.082288
0.641098 0.830468 0.082299
0.778824 0.835667 0.082317
0.884581 0.843787 0.082340
0.934414 0.852456 0.082372
0.959284 0.856616 0.082408
0.973678 0.863464 0.082452
0.981405 0.871414 0.082502
0.986065 0.874994 0.082543
0.988241 0.877503 0.082625
0.989935 0.879025 0.082731
0.991015 0.883880 0.082855
0.991800 0.888084 0.083173
0.991895 0.894801 0.084667
0.991895 0.908885 0.195725
0.098723 0.934152 0.082217
0.098723 0.933921 0.082217
0.098723 0.933160 0.082218
0.098758 0.932056 0.082220
0.098814 0.931161 0.082223
0.098900 0.931383 0.082227
0.098974 0.928877 0.082230
0.099284 0.927424 0.082236
0.099785 0.923259 0.082242
0.100293 0.917769 0.082247
0.101230 0.911985 0.082252
0.102612 0.905679 0.082257
0.106206 0.899222 0.082261
0.112437 0.892338 0.082265
0.123618 0.885910 0.082269
0.150568 0.879751 0.082273
0.197551 0.877373 0.082277
0.265051 0.874152 0.082282
0.394127 0.876353 0.082305
0.554161 0.870809 0.082312
0.702758 0.867754 0.082324
0.830458 0.873996 0.082347
0.906812 0.877896 0.082385
0.943063 0.878927 0.082419
0.964302 0.883863 0.082461
0.976826 0.889707 0.082508
0.983791 0.893663 0.082546
0.986760 0.897766 0.082624
0.988765 0.903288 0.082722
0.990148 0.906139 0.082834
0.991064 0.911961 0.083068
0.991578 0.920936 0.084063
0.991870 0.928398 0.099724
0.098734 0.951268 0.082223
0.098738 0.951143 0.082223
0.098754 0.950725 0.082224
0.098785 0.950100 0.082226
0.098835 0.949533 0.082228
0.098911 0.949534 0.082233
0.098986 0.948479 0.082239
0.099306 0.947436 0.082245
0.099770 0.945623 0.082251
0.100280 0.943388 0.082256
0.101156 0.940543 0.082261
0.102498 0.937353 0.082266
0.105589 0.933792 0.082271
0.110908 0.930156 0.082275
0.120710 0.926149 0.082278
0.143953 0.920171 0.082287
0.185303 0.914427 0.082298
0.244432 0.909079 0.082309
0.333880 0.904730 0.082321
0.470717 0.898388 0.082328
0.624397 0.894471 0.082338
0.765204 0.893962 0.082354
0.869204 0.899816 0.082398
0.923048 0.902436 0.082430
0.952245 0.906973 0.082470
0.969541 0.912676 0.082516
0.979774 0.916203 0.082551
0.985103 0.920926 0.082628
0.987585 0.925174 0.082717
0.989209 0.928348 0.082819
0.990322 0.931645 0.082994
0.990970 0.934977 0.083736
0.991315 0.941812 0.088298
0.098740 0.960215 0.082225
0.098744 0.960103 0.082225
0.098759 0.959728 0.082226
0.098787 0.959144 0.082227
0.098833 0.958549 0.082230
0.098900 0.958320 0.082235
0.098977 0.957854 0.082241
0.099200 0.956701 0.082247
0.099675 0.955740 0.082253
0.100164 0.954460 0.082259
0.100743 0.952666 0.082264
0.102038 0.950824 0.082269
0.104359 0.948818 0.082274
0.108292 0.946257 0.082278
0.116731 0.943145 0.082285
0.131252 0.939802 0.082296
0.165855 0.936632 0.082308
0.218023 0.933717 0.082319
0.282662 0.930958 0.082330
0.395823 0.928739 0.082342
0.553411 0.925523 0.082351
0.700800 0.924454 0.082378
0.817261 0.924390 0.082412
0.896313 0.926185 0.082442
0.937358 0.928815 0.082480
0.960946 0.931694 0.082524
0.975453 0.933618 0.082557
0.982149 0.936244 0.082634
0.986252 0.938629 0.082716
0.988210 0.941150 0.082809
0.989583 0.943888 0.082950
0.990348 0.947442 0.083450
0.990787 0.951233 0.085906
0.098747 0.965289 0.082227
0.098751 0.965251 0.082227
0.098764 0.965123 0.082228
0.098790 0.964919 0.082229
0.098831 0.964696 0.082232
0.098892 0.964563 0.082237
0.098973 0.964562 0.082244
0.099128 0.964071 0.082249
0.099617 0.963880 0.082256
0.100036 0.963269 0.082261
0.100518 0.962444 0.082267
0.101739 0.961126 0.082272
0.103429 0.959272 0.082277
0.106938 0.957314 0.082283
0.113526 0.955348 0.082296
0.124164 0.953348 0.082308
0.148964 0.951309 0.082319
0.190597 0.949389 0.082330
0.249015 0.947464 0.082341
0.335011 0.945490 0.082352
0.475990 0.943513 0.082371
0.632703 0.942316 0.082403
0.766686 0.942081 0.082436
0.859230 0.940629 0.082456
0.916310 0.941880 0.082490
0.948247 0.944499 0.082532
0.967661 0.946124 0.082569
0.978423 0.947902 0.082641
0.984758 0.949701 0.082718
0.987168 0.951079 0.082801
0.988804 0.953093 0.082922
0.989752 0.955206 0.083300
0.990275 0.958769 0.084816
0.098755 0.971289 0.082229
0.098759 0.971229 0.082229
0.098771 0.971024 0.082230
0.098795 0.970692 0.082231
0.098833 0.970315 0.082235
0.098889 0.970048 0.082240
0.098968 0.970161 0.082247
0.099093 0.969437 0.082253
0.099524 0.968899 0.082259
0.099966 0.968177 0.082265
0.100445 0.967436 0.082271
0.101416 0.966332 0.082276
0.102658 0.965526 0.082282
0.105892 0.964882 0.082296
0.111035 0.964180 0.082309
0.120014 0.963468 0.082321
0.140101 0.962372 0.082333
0.176041 0.960644 0.082344
0.228465 0.958875 0.082355
0.298048 0.957337 0.082378
0.411805 0.955884 0.082401
0.565693 0.954706 0.082425
0.709741 0.954239 0.082457
0.815105 0.953265 0.082475
0.891367 0.952751 0.082503
0.934620 0.953586 0.082540
0.959604 0.954735 0.082581
0.973867 0.956026 0.082650
0.981816 0.957552 0.082722
0.986008 0.958870 0.082797
0.988010 0.960651 0.082900
0.989157 0.962510 0.083182
0.989781 0.964140 0.084247
0.098757 0.975952 0.082230
0.098760 0.975916 0.082231
0.098772 0.975792 0.082231
0.098795 0.975589 0.082234
0.098830 0.975349 0.082237
0.098882 0.975154 0.082242
0.098955 0.975146 0.082249
0.099054 0.974910 0.082255
0.099440 0.974472 0.082261
0.099911 0.974215 0.082268
0.100329 0.973591 0.082273
0.101169 0.973050 0.082279
0.102421 0.972442 0.082293
0.105016 0.971427 0.082307
0.108847 0.970223 0.082320
0.117307 0.968981 0.082333
0.131230 0.967716 0.082345
0.163440 0.966436 0.082357
0.210752 0.965500 0.082381
0.266564 0.964871 0.082405
0.358481 0.964325 0.082429
0.507349 0.963829 0.082452
0.648600 0.963421 0.082476
0.767333 0.962874 0.082493
0.859951 0.962406 0.082519
0.914954 0.962268 0.082551
0.947117 0.962473 0.082590
0.966611 0.963228 0.082657
0.978462 0.963768 0.082726
0.984720 0.964265 0.082795
0.987174 0.964860 0.082884
0.988555 0.965635 0.083119
0.989320 0.967564 0.084057
0.098739 0.980036 0.082229
0.098742 0.980006 0.082229
0.098754 0.979892 0.082230
0.098775 0.979698 0.082232
0.098809 0.979456 0.082235
0.098858 0.979229 0.082240
0.098926 0.979125 0.082247
0.099007 0.979056 0.082254
0.099299 0.978569 0.082260
0.099764 0.978329 0.082267
0.100180 0.977799 0.082273
0.100816 0.977376 0.082279
0.101941 0.976710 0.082292
0.103910 0.976083 0.082307
0.107515 0.975382 0.082322
0.114085 0.974569 0.082335
0.124051 0.973744 0.082348
0.147384 0.972911 0.082363
0.186144 0.972090 0.082389
0.239398 0.970954 0.082413
0.313061 0.969893 0.082437
0.432873 0.968950 0.082460
0.577723 0.968155 0.082483
0.714170 0.967508 0.082506
0.818364 0.966852 0.082532
0.893624 0.966540 0.082570
0.935264 0.966379 0.082606
0.959037 0.966403 0.082661
0.974490 0.967318 0.082726
0.982157 0.968205 0.082795
0.986265 0.969241 0.082873
0.987960 0.970454 0.083058
0.988875 0.972370 0.083812
0.098723 0.983159 0.082228
0.098725 0.983133 0.082228
0.098736 0.983045 0.082229
0.098756 0.982896 0.082230
0.098789 0.982707 0.082233
0.098835 0.982520 0.082238
0.098900 0.982410 0.082245
0.098989 0.982500 0.082254
0.099180 0.982084 0.082259
0.099604 0.981816 0.082266
0.100064 0.981558 0.082273
0.100494 0.981120 0.082278
0.101590 0.980703 0.082292
0.102990 0.980224 0.082309
0.106038 0.979587 0.082324
0.111061 0.978904 0.082338
0.119646 0.978174 0.082352
0.138768 0.977397 0.082374
0.171689 0.976614 0.082400
0.220187 0.975851 0.082425
0.277425 0.975124 0.082449
0.369007 0.974459 0.082472
0.511900 0.973858 0.082495
0.654005 0.973381 0.082518
0.770800 0.972992 0.082541
0.863598 0.972649 0.082587
0.918211 0.972567 0.082621
0.948071 0.972341 0.082671
0.967778 0.972429 0.082724
0.979137 0.972969 0.082787
0.985262 0.973644 0.082862
0.987355 0.974389 0.083003
0.988447 0.975606 0.083568
0.098723 0.986020 0.082226
0.098723 0.985999 0.082226
0.098723 0.985924 0.082227
0.098731 0.985797 0.082228
0.098762 0.985635 0.082231
0.098808 0.985469 0.082235
0.098870 0.985359 0.082242
0.098955 0.985399 0.082251
0.099059 0.985197 0.082258
0.099452 0.984918 0.082264
0.099962 0.984841 0.082272
0.100353 0.984393 0.082278
0.101302 0.984114 0.082293
0.102396 0.983614 0.082309
0.105083 0.983160 0.082326
0.108846 0.982618 0.082341
0.116851 0.982016 0.082355
0.129369 0.981383 0.082382
0.155506 0.980724 0.082410
0.196560 0.980075 0.082436
0.250530 0.979377 0.082461
0.328660 0.978717 0.082485
0.455288 0.978110 0.082508
0.590435 0.977570 0.082530
0.723105 0.977154 0.082554
0.824483 0.976818 0.082596
0.898583 0.976783 0.082628
0.937083 0.976473 0.082678
0.961476 0.976457 0.082725
0.975928 0.976474 0.082777
0.983715 0.977011 0.082846
0.986721 0.977692 0.082956
0.988062 0.978772 0.083389
0.098723 0.987482 0.082218
0.098723 0.987476 0.082218
0.098723 0.987453 0.082219
0.098723 0.987414 0.082220
0.098723 0.987361 0.082223
0.098738 0.987301 0.082226
0.098802 0.987248 0.082231
0.098890 0.987225 0.082241
0.098982 0.987194 0.082250
0.099197 0.987097 0.082257
0.099686 0.987040 0.082266
0.100149 0.986956 0.082273
0.100669 0.986851 0.082280
0.101904 0.986739 0.082298
0.103783 0.986608 0.082316
0.107089 0.986155 0.082332
0.113433 0.985629 0.082348
0.122867 0.985042 0.082369
0.143379 0.984412 0.082397
0.178618 0.983786 0.082425
0.227722 0.983178 0.082451
0.288511 0.982602 0.082476
0.384681 0.982072 0.082500
0.524357 0.981600 0.082523
0.663320 0.981203 0.082545
