LUTs/velvia/Velvia50_Modern_Normal.cube
TITLE "Velvia 50 Modern Normal"
# Adobe RGB in/out. REPLACES AgX. Velvia 50 Modern Normal.
LUT_3D_SIZE 33
DOMAIN_MIN 0.0 0.0 0.0
DOMAIN_MAX 1.0 1.0 1.0
0.090873 0.083221 0.090772
0.090873 0.083221 0.090772
0.090873 0.083221 0.090772
0.091581 0.083221 0.090772
0.113825 0.083221 0.090772
0.189214 0.083221 0.090772
0.481785 0.083271 0.090772
0.803098 0.083447 0.090772
0.881730 0.083557 0.090772
0.929868 0.083731 0.090772
0.960880 0.084220 0.090772
0.972934 0.084580 0.090772
0.980825 0.085022 0.090774
0.984708 0.085885 0.090780
0.988471 0.087494 0.090788
0.989973 0.088570 0.090792
0.989973 0.089595 0.090799
0.989973 0.092742 0.090806
0.989973 0.098727 0.090815
0.989973 0.100813 0.090822
0.989973 0.102933 0.090840
0.989973 0.106368 0.090861
0.989973 0.109689 0.090906
0.989973 0.109285 0.090950
0.989973 0.109295 0.091034
0.989973 0.108097 0.091177
0.989973 0.100883 0.091786
0.989973 0.097105 0.118531
0.989973 0.085813 0.870622
0.989973 0.085655 0.865645
0.989973 0.085506 0.860728
0.989973 0.085358 0.855846
0.989973 0.624454 0.943188
0.090873 0.083221 0.090772
0.090873 0.083221 0.090772
0.090873 0.083221 0.090772
0.091432 0.083221 0.090772
0.102819 0.083221 0.090772
0.145165 0.083221 0.090772
0.393081 0.083280 0.090772
0.755611 0.083470 0.090772
0.863274 0.083575 0.090772
0.923089 0.083766 0.090772
0.957774 0.084249 0.090772
0.971098 0.084637 0.090772
0.980201 0.085071 0.090774
0.984213 0.085965 0.090780
0.988080 0.087615 0.090788
0.989973 0.088680 0.090792
0.989973 0.089757 0.090798
0.989973 0.093162 0.090806
0.989973 0.099096 0.090815
0.989973 0.101137 0.090822
0.989973 0.103257 0.090839
0.989973 0.106810 0.090860
0.989973 0.110348 0.090905
0.989973 0.109890 0.090949
0.989973 0.109899 0.091031
0.989973 0.108653 0.091172
0.989973 0.101194 0.091736
0.989973 0.097469 0.114787
0.989973 0.085806 0.870355
0.989973 0.085647 0.865401
0.989973 0.085499 0.860505
0.989973 0.085352 0.855642
0.989973 0.623949 0.943081
0.090873 0.083221 0.090772
0.090873 0.083221 0.090772
0.090873 0.083221 0.090772
0.090873 0.083221 0.090772
0.092030 0.083221 0.090772
0.099854 0.083233 0.090772
0.209743 0.083318 0.090772
0.563311 0.083573 0.090772
0.756348 0.083650 0.090772
0.888522 0.083912 0.090772
0.945539 0.084366 0.090772
0.964306 0.084857 0.090772
0.975056 0.085315 0.090774
0.982385 0.086270 0.090780
0.986645 0.088069 0.090787
0.989523 0.089090 0.090792
0.989973 0.090535 0.090798
0.989973 0.094728 0.090806
0.989973 0.100347 0.090815
0.989973 0.102336 0.090820
0.989973 0.104902 0.090838
0.989973 0.108843 0.090859
0.989973 0.112784 0.090902
0.989973 0.112310 0.090945
0.989973 0.112305 0.091022
0.989973 0.110893 0.091156
0.989973 0.102333 0.091705
0.989973 0.098808 0.107607
0.989973 0.085778 0.869399
0.989973 0.085621 0.864529
0.989973 0.085475 0.859709
0.989973 0.085330 0.854914
0.989973 0.622132 0.942701
0.090873 0.083221 0.090772
0.090873 0.083221 0.090772
0.090873 0.083221 0.090772
0.090873 0.083221 0.090772
0.090991 0.083276 0.090772
0.091913 0.083296 0.090772
0.102925 0.083477 0.090772
0.238869 0.083741 0.090772
0.470250 0.083900 0.090772
0.752624 0.084177 0.090772
0.910479 0.084881 0.090772
0.946066 0.085461 0.090772
0.964375 0.086053 0.090773
0.977153 0.087107 0.090779
0.983839 0.088992 0.090787
0.987286 0.090357 0.090791
0.989973 0.093231 0.090798
0.989973 0.097859 0.090805
0.989973 0.102813 0.090814
0.989973 0.105295 0.090819
0.989973 0.108449 0.090836
0.989973 0.113469 0.090857
0.989973 0.118456 0.090896
0.989973 0.117719 0.090938
0.989973 0.117659 0.091005
0.989973 0.115636 0.091133
0.989973 0.105068 0.091488
0.989973 0.100921 0.098637
0.989973 0.085727 0.867666
0.989973 0.085574 0.862945
0.989973 0.085431 0.858262
0.989973 0.085291 0.853588
0.989973 0.618819 0.942009
0.090873 0.083660 0.090772
0.090873 0.083668 0.090772
0.090873 0.083683 0.090772
0.090873 0.083644 0.090772
0.090880 0.083572 0.090772
0.091055 0.083485 0.090772
0.092629 0.083674 0.090772
0.109501 0.084150 0.090772
0.204669 0.084253 0.090772
0.449850 0.084575 0.090772
0.791103 0.085763 0.090772
0.903200 0.086472 0.090772
0.942095 0.087328 0.090773
0.963650 0.088744 0.090779
0.977931 0.092692 0.090787
0.983563 0.095902 0.090791
0.987125 0.098931 0.090797
0.989973 0.102378 0.090804
0.989973 0.108946 0.090813
0.989973 0.112342 0.090819
0.989973 0.116651 0.090833
0.989973 0.123989 0.090853
0.989973 0.131331 0.090888
0.989973 0.130188 0.090929
0.989973 0.129945 0.090982
0.989973 0.127274 0.091102
0.989973 0.111231 0.091341
0.989973 0.104770 0.093931
0.989973 0.085654 0.865134
0.989973 0.085504 0.860627
0.989973 0.085367 0.856140
0.989973 0.085245 0.851643
0.989973 0.613964 0.940991
0.090873 0.084507 0.090772
0.090873 0.084504 0.090772
0.090873 0.084582 0.090772
0.090873 0.084398 0.090772
0.090873 0.084198 0.090772
0.090979 0.084015 0.090772
0.091612 0.084189 0.090772
0.095542 0.084856 0.090772
0.109130 0.084936 0.090772
0.210548 0.085507 0.090772
0.506804 0.087270 0.090772
0.762448 0.088345 0.090772
0.889392 0.089152 0.090774
0.940086 0.091598 0.090779
0.964759 0.099184 0.090787
0.977000 0.102177 0.090791
0.982955 0.105901 0.090796
0.986524 0.113697 0.090804
0.989714 0.127233 0.090812
0.989973 0.131989 0.090818
0.989973 0.138168 0.090830
0.989973 0.148026 0.090850
0.989973 0.156350 0.090879
0.989973 0.154487 0.090918
0.989973 0.153763 0.090966
0.989973 0.150423 0.091066
0.989973 0.126801 0.091205
0.989973 0.114289 0.092320
0.989973 0.085561 0.861828
0.989973 0.085412 0.857589
0.989973 0.085282 0.853354
0.989973 0.618953 0.849249
0.989973 0.607604 0.939648
0.090873 0.089026 0.090772
0.090873 0.089176 0.090772
0.090873 0.089251 0.090772
0.090873 0.088658 0.090772
0.090873 0.087456 0.090772
0.090979 0.086374 0.090772
0.091330 0.085793 0.090772
0.092450 0.086502 0.090772
0.097024 0.086455 0.090772
0.117032 0.087349 0.090772
0.256637 0.089747 0.090772
0.506748 0.092274 0.090772
0.747435 0.094669 0.090774
0.885730 0.099495 0.090779
0.941844 0.107193 0.090787
0.962393 0.113699 0.090791
0.975465 0.119004 0.090796
0.982707 0.131573 0.090803
0.986493 0.154794 0.090812
0.989396 0.165042 0.090817
0.989973 0.178191 0.090827
0.989973 0.193652 0.090846
0.989973 0.202916 0.090870
0.989973 0.199126 0.090906
0.989973 0.197007 0.090951
0.989973 0.192264 0.091028
0.989973 0.163780 0.091135
0.989973 0.142907 0.091556
0.989973 0.085457 0.857814
0.989973 0.085301 0.853874
0.989973 0.085185 0.849937
0.989973 0.610688 0.847047
0.989973 0.598119 0.937991
0.090873 0.116632 0.090772
0.090873 0.118043 0.090772
0.090873 0.122551 0.090772
0.090873 0.114588 0.090772
0.090873 0.107068 0.090772
0.090999 0.101808 0.090772
0.091352 0.097765 0.090772
0.091991 0.094075 0.090772
0.093340 0.089362 0.090772
0.099771 0.090434 0.090772
0.148655 0.099087 0.090772
0.279860 0.101646 0.090772
0.504916 0.103191 0.090774
0.752999 0.109047 0.090780
0.895750 0.126309 0.090787
0.939188 0.136796 0.090791
0.960723 0.147205 0.090796
0.974323 0.167283 0.090803
0.982379 0.196809 0.090812
0.986194 0.204975 0.090816
0.989118 0.215474 0.090825
0.989973 0.233018 0.090844
0.989973 0.257661 0.090863
0.989973 0.266397 0.090897
0.989973 0.276841 0.090937
0.989973 0.271365 0.090994
0.989973 0.236361 0.091089
0.989973 0.210263 0.091297
0.989973 0.085388 0.853245
0.989973 0.085183 0.849581
0.989973 0.085121 0.847056
0.989973 0.599390 0.843960
0.989973 0.586361 0.936043
0.090873 0.163935 0.090772
0.090873 0.165816 0.090772
0.090873 0.166239 0.090772
0.090873 0.157611 0.090772
0.090873 0.143629 0.090772
0.090958 0.128112 0.090772
0.091111 0.115738 0.090772
0.091694 0.108484 0.090772
0.092510 0.104287 0.090772
0.095774 0.102180 0.090772
0.110818 0.112475 0.090772
0.174317 0.117593 0.090772
0.299282 0.121075 0.090775
0.547338 0.133991 0.090781
0.791096 0.163427 0.090788
0.894290 0.175297 0.090791
0.937171 0.187878 0.090796
0.960288 0.211391 0.090803
0.974730 0.244522 0.090811
0.982175 0.261804 0.090816
0.985685 0.280184 0.090824
0.988684 0.294809 0.090842
0.989973 0.319891 0.090860
0.989973 0.324139 0.090889
0.989973 0.332064 0.090928
0.989973 0.341780 0.090973
0.989973 0.338733 0.091059
0.989973 0.339580 0.091185
0.989973 0.087522 0.849557
0.989973 0.085145 0.846290
0.989973 0.085055 0.842899
0.989973 0.584997 0.838142
0.989973 0.572650 0.933000
0.090873 0.271084 0.090772
0.090873 0.269340 0.090772
0.090873 0.261217 0.090772
0.090873 0.250608 0.090772
0.090873 0.230436 0.090772
0.090951 0.212662 0.090772
0.091061 0.189731 0.090772
0.091562 0.169196 0.090772
0.092089 0.152799 0.090772
0.093830 0.140177 0.090772
0.101557 0.159126 0.090772
0.121461 0.158729 0.090773
0.194847 0.161689 0.090777
0.343821 0.177541 0.090782
0.622151 0.215119 0.090788
0.799551 0.225760 0.090792
0.895227 0.239947 0.090797
0.939011 0.268498 0.090804
0.961878 0.311655 0.090812
0.974442 0.327482 0.090816
0.982133 0.338878 0.090823
0.985638 0.360545 0.090841
0.988404 0.388427 0.090859
0.989973 0.395328 0.090884
0.989973 0.400285 0.090920
0.989973 0.408744 0.090962
0.989973 0.401854 0.091030
0.989973 0.399396 0.091136
0.989973 0.391752 0.091416
0.989973 0.392566 0.095094
0.989973 0.387504 0.771768
0.989973 0.568804 0.834931
0.989973 0.557835 0.928227
0.090873 0.451716 0.090772
0.090873 0.447597 0.090772
0.090873 0.437047 0.090772
0.090873 0.432345 0.090772
0.090878 0.414199 0.090772
0.090974 0.387371 0.090772
0.091090 0.358961 0.090772
0.091605 0.333430 0.090772
0.092103 0.301371 0.090772
0.093769 0.276432 0.090773
0.098442 0.256753 0.090775
0.108130 0.232240 0.090777
0.137611 0.218353 0.090779
0.234474 0.236225 0.090783
0.437138 0.284180 0.090789
0.657635 0.294816 0.090793
0.811265 0.310415 0.090798
0.903493 0.336032 0.090804
0.943432 0.376003 0.090812
0.962613 0.386977 0.090817
0.974844 0.406003 0.090824
0.982054 0.436362 0.090841
0.985674 0.459792 0.090858
0.988511 0.468590 0.090880
0.989973 0.484442 0.090914
0.989973 0.505129 0.090953
0.989973 0.494888 0.091005
0.989973 0.488053 0.091098
0.989973 0.476867 0.091266
0.989973 0.468958 0.092355
0.989973 0.410381 0.596897
0.989973 0.551884 0.837823
0.989973 0.542290 0.837294
0.090873 0.563366 0.090772
0.090873 0.560063 0.090772
0.090873 0.550933 0.090772
0.090873 0.545677 0.090772
0.090880 0.530353 0.090772
0.090968 0.511422 0.090772
0.091064 0.488733 0.090773
0.091502 0.460606 0.090774
0.091974 0.427467 0.090776
0.093137 0.397415 0.090778
0.096511 0.371200 0.090779
0.103234 0.351318 0.090781
0.116891 0.322000 0.090782
0.169681 0.320848 0.090785
0.298895 0.361366 0.090791
0.480313 0.370194 0.090795
0.687476 0.380494 0.090800
0.833798 0.406808 0.090806
0.915043 0.453554 0.090813
0.945361 0.463781 0.090817
0.963755 0.483072 0.090825
0.975793 0.505236 0.090841
0.982411 0.532539 0.090858
0.985802 0.547136 0.090879
0.988409 0.557331 0.090911
0.989973 0.574036 0.090948
0.989973 0.580122 0.090987
0.989973 0.591959 0.091069
0.989973 0.590568 0.091177
0.989973 0.572769 0.091620
0.989973 0.483090 0.235003
0.989973 0.534607 0.830640
0.989973 0.526325 0.833744
0.090873 0.647049 0.090772
0.090873 0.644820 0.090772
0.090873 0.638319 0.090772
0.090873 0.632719 0.090772
0.090881 0.625263 0.090772
0.090962 0.613521 0.090773
0.091046 0.593220 0.090775
0.091385 0.566298 0.090778
0.091836 0.538268 0.090779
0.092545 0.509875 0.090781
0.094566 0.483902 0.090782
0.098956 0.460587 0.090784
0.108458 0.438048 0.090786
0.137039 0.425316 0.090788
0.224756 0.450221 0.090792
0.344073 0.458351 0.090797
0.537293 0.466074 0.090801
0.735303 0.488984 0.090807
0.867802 0.529178 0.090814
0.919883 0.537274 0.090818
0.948298 0.554808 0.090827
0.965685 0.581083 0.090842
0.977110 0.610468 0.090858
0.982969 0.616932 0.090878
0.986015 0.631596 0.090909
0.988247 0.651318 0.090944
0.989973 0.650561 0.090976
0.989973 0.654827 0.091049
0.989973 0.661371 0.091141
0.989973 0.673769 0.091386
0.989973 0.706014 0.093184
0.989973 0.517503 0.821849
0.989973 0.510354 0.831349
0.090873 0.750288 0.090772
0.090873 0.748428 0.090772
0.090873 0.742795 0.090772
0.090873 0.736857 0.090772
0.090897 0.734165 0.090775
0.090966 0.722697 0.090777
0.091043 0.708108 0.090780
0.091345 0.687618 0.090782
0.091769 0.660676 0.090784
0.092303 0.638004 0.090785
0.093763 0.616193 0.090787
0.097658 0.593194 0.090788
0.104793 0.568566 0.090790
0.120522 0.548272 0.090791
0.182662 0.568157 0.090797
0.259338 0.545913 0.090799
0.399378 0.547138 0.090803
0.604388 0.569331 0.090808
0.785663 0.609505 0.090815
0.880746 0.615791 0.090819
0.926311 0.627855 0.090830
0.952441 0.647998 0.090844
0.968122 0.671734 0.090860
0.979179 0.685732 0.090880
0.983336 0.705068 0.090909
0.986219 0.718738 0.090942
0.988617 0.726253 0.090971
0.989973 0.738819 0.091033
0.989973 0.739875 0.091115
0.989973 0.742424 0.091275
0.989973 0.756455 0.092011
0.989973 0.785369 0.176239
0.989973 0.827245 0.827707
0.090873 0.836178 0.090775
0.090873 0.835549 0.090776
0.090873 0.833589 0.090776
0.090873 0.831256 0.090778
0.090923 0.831133 0.090781
0.090982 0.826446 0.090783
0.091055 0.822158 0.090785
0.091375 0.810032 0.090787
0.091775 0.794604 0.090789
0.092284 0.777766 0.090791
0.093694 0.758279 0.090793
0.097263 0.737514 0.090795
0.103477 0.718000 0.090797
0.116901 0.700633 0.090800
0.156916 0.679163 0.090802
0.221453 0.653605 0.090804
0.307551 0.635481 0.090806
0.474931 0.645624 0.090810
0.688137 0.681095 0.090817
0.814999 0.687605 0.090821
0.895439 0.702197 0.090833
0.934716 0.720408 0.090847
0.956999 0.739151 0.090862
0.970650 0.750575 0.090883
0.980447 0.762912 0.090911
0.983822 0.780104 0.090942
0.986761 0.786635 0.090969
0.988649 0.792868 0.091024
0.989973 0.802001 0.091096
0.989973 0.813537 0.091199
0.989973 0.819006 0.091587
0.989973 0.825562 0.098601
0.989973 0.827767 0.803612
0.090873 0.861373 0.090778
0.090873 0.860747 0.090778
0.090873 0.858750 0.090779
0.090873 0.857477 0.090780
0.090924 0.857089 0.090783
0.090982 0.855953 0.090785
0.091053 0.854113 0.090788
0.091316 0.847989 0.090789
0.091692 0.841783 0.090791
0.092078 0.835123 0.090794
0.093220 0.827465 0.090796
0.095865 0.817568 0.090799
0.099808 0.801290 0.090801
0.109293 0.785537 0.090803
0.132971 0.771647 0.090806
0.185912 0.757207 0.090808
0.254992 0.737260 0.090810
0.373767 0.732060 0.090813
0.573790 0.752377 0.090819
0.734771 0.756231 0.090826
0.844065 0.765061 0.090837
0.912265 0.780819 0.090850
0.943212 0.796269 0.090865
0.961405 0.804485 0.090887
0.973450 0.816081 0.090913
0.981225 0.826170 0.090944
0.984760 0.829034 0.090968
0.986995 0.834224 0.091018
0.988809 0.837698 0.091084
0.989973 0.840404 0.091164
0.989973 0.846969 0.091411
0.989973 0.856553 0.093148
0.989973 0.846761 0.655302
0.090873 0.892746 0.090781
0.090873 0.892197 0.090781
0.090873 0.890418 0.090781
0.090882 0.887948 0.090783
0.090926 0.886327 0.090785
0.090983 0.885048 0.090787
0.091042 0.880617 0.090789
0.091254 0.875752 0.090791
0.091617 0.870029 0.090794
0.091980 0.863110 0.090797
0.092769 0.857212 0.090800
0.094595 0.852600 0.090802
0.098409 0.845503 0.090805
0.105443 0.838426 0.090807
0.119342 0.831727 0.090809
0.159326 0.825738 0.090811
0.224097 0.819661 0.090814
0.313748 0.813636 0.090817
0.474686 0.820758 0.090824
0.635206 0.813870 0.090830
0.768783 0.820794 0.090841
0.875615 0.827311 0.090854
0.923286 0.834256 0.090872
0.949377 0.837583 0.090892
0.965411 0.843056 0.090917
0.976304 0.849398 0.090946
0.982473 0.853417 0.090969
0.985270 0.856318 0.091015
0.987450 0.858079 0.091075
0.988840 0.863698 0.091146
0.989850 0.868568 0.091325
0.989973 0.876360 0.092130
0.989973 0.892730 0.208740
0.090873 0.926413 0.090784
0.090873 0.926247 0.090784
0.090873 0.925703 0.090784
0.090896 0.924274 0.090785
0.090934 0.922440 0.090787
0.090991 0.922895 0.090790
0.091041 0.917770 0.090791
0.091249 0.914804 0.090795
0.091584 0.909486 0.090798
0.091923 0.903080 0.090801
0.092547 0.896339 0.090804
0.093911 0.888999 0.090806
0.097491 0.881494 0.090809
0.102779 0.873502 0.090811
0.113796 0.866049 0.090813
0.140194 0.858919 0.090816
0.193378 0.856168 0.090818
0.266992 0.852445 0.090821
0.400320 0.854989 0.090834
0.549272 0.848917 0.090838
0.696654 0.846480 0.090845
0.820253 0.852265 0.090858
0.897775 0.856774 0.090879
0.933457 0.857965 0.090898
0.955184 0.863679 0.090922
0.969192 0.870451 0.090949
0.980005 0.875039 0.090971
0.983365 0.879802 0.091015
0.985944 0.886219 0.091071
0.987724 0.889535 0.091134
0.988902 0.896311 0.091266
0.989565 0.906774 0.091723
0.989941 0.916791 0.105175
0.090880 0.938641 0.090787
0.090883 0.938552 0.090787
0.090894 0.938254 0.090788
0.090914 0.937809 0.090789
0.090948 0.937404 0.090790
0.090999 0.937405 0.090793
0.091049 0.936653 0.090796
0.091264 0.935909 0.090800
0.091574 0.934615 0.090803
0.091914 0.933019 0.090806
0.092498 0.930986 0.090809
0.093793 0.928705 0.090812
0.096979 0.926155 0.090814
0.101379 0.920383 0.090817
0.110572 0.912861 0.090819
0.133024 0.905882 0.090823
0.179266 0.899184 0.090830
0.244470 0.892956 0.090836
0.339297 0.887896 0.090843
0.469447 0.880525 0.090847
0.618700 0.875977 0.090853
0.754201 0.875386 0.090861
0.860416 0.882184 0.090886
0.914617 0.885227 0.090905
0.943299 0.890505 0.090928
0.961254 0.897145 0.090954
0.973768 0.901255 0.090973
0.981237 0.906763 0.091017
0.984427 0.911722 0.091068
0.986516 0.916688 0.091126
0.987948 0.923431 0.091224
0.988782 0.927004 0.091526
0.989227 0.931893 0.094700
0.090884 0.945009 0.090788
0.090887 0.944930 0.090788
0.090897 0.944662 0.090789
0.090916 0.944248 0.090790
0.090946 0.943824 0.090791
0.090992 0.943661 0.090794
0.091043 0.943330 0.090798
0.091192 0.942510 0.090801
0.091510 0.941826 0.090804
0.091837 0.940915 0.090808
0.092223 0.939637 0.090811
0.093320 0.938325 0.090813
0.095710 0.936894 0.090816
0.099167 0.935067 0.090818
0.106714 0.932845 0.090822
0.120261 0.930457 0.090829
0.157214 0.928189 0.090835
0.215868 0.926101 0.090842
0.286353 0.922025 0.090848
0.401865 0.917488 0.090855
0.548531 0.912129 0.090860
0.694829 0.910881 0.090875
0.809095 0.910806 0.090895
0.885806 0.912903 0.090911
0.926694 0.917642 0.090933
0.951300 0.923532 0.090958
0.967064 0.926030 0.090977
0.977461 0.927911 0.091021
0.982713 0.929618 0.091067
0.985231 0.931420 0.091120
0.986997 0.933376 0.091199
0.987982 0.935913 0.091425
0.988546 0.938616 0.092961
0.090889 0.949731 0.090789
0.090891 0.949684 0.090789
0.090900 0.949524 0.090790
0.090918 0.949269 0.090791
0.090945 0.948990 0.090792
0.090986 0.948824 0.090795
0.091040 0.948823 0.090799
0.091144 0.948210 0.090802
0.091472 0.947972 0.090806
0.091751 0.947210 0.090809
0.092073 0.946593 0.090812
0.093013 0.945656 0.090815
0.094752 0.944339 0.090818
0.098079 0.942946 0.090821
0.103777 0.941547 0.090829
0.114403 0.940123 0.090835
0.138428 0.938671 0.090842
0.185345 0.937302 0.090848
0.249461 0.935929 0.090854
0.340448 0.934520 0.090860
0.474161 0.933108 0.090871
0.626910 0.932253 0.090889
0.755787 0.932086 0.090908
0.847863 0.931048 0.090919
0.909279 0.931942 0.090939
0.939610 0.933813 0.090963
0.959076 0.934973 0.090983
0.971670 0.936241 0.091025
0.980793 0.937525 0.091068
0.983891 0.938506 0.091115
0.985995 0.939942 0.091184
0.987215 0.941446 0.091371
0.987888 0.943981 0.092230
0.090894 0.957227 0.090791
0.090897 0.957152 0.090791
0.090905 0.956895 0.090791
0.090921 0.956480 0.090792
0.090947 0.956008 0.090794
0.090984 0.955675 0.090797
0.091037 0.955816 0.090801
0.091121 0.954912 0.090804
0.091409 0.954239 0.090808
0.091705 0.953337 0.090811
0.092024 0.952412 0.090814
0.092681 0.951033 0.090817
0.093958 0.950027 0.090821
0.097237 0.949223 0.090829
0.101494 0.948346 0.090836
0.109803 0.947458 0.090843
0.128890 0.946541 0.090850
0.168708 0.945314 0.090856
0.227141 0.944056 0.090862
0.302609 0.942963 0.090875
0.416390 0.941928 0.090888
0.560673 0.941090 0.090902
0.703161 0.940757 0.090920
0.807269 0.940064 0.090931
0.881512 0.939698 0.090946
0.923452 0.940293 0.090967
0.949747 0.941111 0.090990
0.965575 0.942029 0.091030
0.976943 0.943115 0.091070
0.982399 0.944053 0.091113
0.984974 0.945319 0.091171
0.986449 0.946640 0.091329
0.987251 0.948296 0.091847
0.090896 0.963061 0.090792
0.090898 0.963016 0.090792
0.090906 0.962861 0.090792
0.090921 0.962607 0.090793
0.090945 0.962306 0.090795
0.090979 0.962062 0.090798
0.091028 0.962053 0.090802
0.091095 0.961756 0.090806
0.091353 0.961208 0.090809
0.091668 0.960887 0.090813
0.091947 0.960106 0.090816
0.092507 0.959429 0.090819
0.093715 0.958669 0.090827
0.096388 0.957399 0.090835
0.099613 0.955893 0.090842
0.107243 0.954342 0.090850
0.120243 0.952761 0.090857
0.154563 0.951162 0.090863
0.208045 0.949994 0.090877
0.268652 0.949209 0.090891
0.364347 0.948528 0.090904
0.502089 0.947909 0.090917
0.642621 0.947400 0.090931
0.756479 0.946898 0.090940
0.848769 0.946566 0.090955
0.907634 0.946468 0.090973
0.938268 0.946613 0.090996
0.957859 0.947159 0.091033
0.971730 0.947832 0.091073
0.980744 0.948453 0.091112
0.983899 0.949195 0.091162
0.985675 0.950163 0.091295
0.986659 0.952572 0.091718
0.090884 0.968177 0.090791
0.090886 0.968140 0.090791
0.090893 0.967997 0.090791
0.090908 0.967753 0.090792
0.090931 0.967450 0.090794
0.090963 0.967166 0.090797
0.091009 0.967035 0.090801
0.091063 0.966949 0.090805
0.091259 0.966339 0.090808
0.091569 0.966038 0.090812
0.091848 0.965374 0.090816
0.092272 0.964844 0.090819
0.093221 0.964010 0.090826
0.095248 0.963225 0.090835
0.098543 0.962348 0.090844
0.104290 0.961330 0.090851
0.114277 0.960298 0.090858
0.136722 0.959255 0.090867
0.180229 0.958228 0.090881
0.238996 0.956807 0.090895
0.317993 0.955482 0.090909
0.435448 0.954304 0.090922
0.572565 0.953310 0.090935
0.707285 0.952502 0.090948
0.810029 0.951683 0.090963
0.883471 0.951292 0.090984
0.924213 0.951091 0.091005
0.949092 0.951121 0.091036
0.966115 0.952264 0.091073
0.977473 0.953372 0.091112
0.982729 0.954666 0.091156
0.984909 0.956183 0.091261
0.986087 0.958579 0.091553
0.090873 0.972093 0.090790
0.090874 0.972061 0.090790
0.090881 0.971950 0.090791
0.090895 0.971763 0.090791
0.090917 0.971525 0.090793
0.090948 0.971292 0.090796
0.090992 0.971154 0.090800
0.091051 0.971266 0.090805
0.091179 0.970744 0.090808
0.091463 0.970409 0.090812
0.091770 0.970085 0.090815
0.092057 0.969536 0.090819
0.092860 0.969013 0.090827
0.094299 0.968413 0.090836
0.097355 0.967614 0.090845
0.101519 0.966759 0.090853
0.109396 0.965843 0.090860
0.127464 0.964871 0.090873
0.163781 0.963890 0.090888
0.218200 0.962934 0.090902
0.280584 0.962025 0.090915
0.375066 0.961192 0.090929
0.506127 0.960440 0.090941
0.649144 0.959843 0.090955
0.760189 0.959357 0.090968
0.853355 0.958927 0.090994
0.910921 0.958825 0.091013
0.939400 0.958542 0.091042
0.959211 0.958652 0.091071
0.972779 0.959328 0.091107
0.981441 0.960172 0.091150
0.984131 0.961104 0.091229
0.985536 0.962628 0.091466
0.090873 0.975683 0.090789
0.090873 0.975656 0.090789
0.090873 0.975563 0.090790
0.090878 0.975404 0.090790
0.090899 0.975200 0.090792
0.090930 0.974992 0.090794
0.090971 0.974853 0.090798
0.091028 0.974904 0.090803
0.091098 0.974650 0.090807
0.091361 0.974300 0.090811
0.091702 0.974203 0.090815
0.091963 0.973641 0.090818
0.092595 0.973291 0.090827
0.093688 0.972664 0.090836
0.096457 0.972094 0.090846
0.099612 0.971415 0.090854
0.106824 0.970660 0.090862
0.118759 0.969866 0.090878
0.146217 0.969039 0.090893
0.192229 0.968225 0.090908
0.251113 0.967352 0.090922
0.333982 0.966524 0.090936
0.455620 0.965763 0.090949
0.585131 0.965087 0.090962
0.715602 0.964567 0.090975
0.815205 0.964145 0.090999
0.887829 0.964101 0.091017
0.926368 0.963713 0.091045
0.951913 0.963694 0.091072
0.967800 0.963714 0.091102
0.979899 0.964388 0.091141
0.983316 0.965240 0.091203
0.985041 0.966593 0.091403
0.090873 0.980204 0.090784
0.090873 0.980177 0.090784
0.090873 0.980081 0.090785
0.090873 0.979914 0.090786
0.090873 0.979689 0.090787
0.090883 0.979435 0.090789
0.090926 0.979210 0.090792
0.090985 0.979111 0.090797
0.091046 0.978978 0.090803
0.091190 0.978566 0.090807
0.091517 0.978326 0.090811
0.091827 0.977967 0.090816
0.092174 0.977522 0.090819
0.093182 0.977049 0.090830
0.095116 0.976490 0.090840
0.098201 0.975852 0.090849
0.103692 0.975193 0.090858
0.112961 0.974456 0.090870
0.132407 0.973665 0.090886
0.171635 0.972879 0.090902
0.226338 0.972117 0.090917
0.292808 0.971394 0.090931
0.391029 0.970729 0.090944
0.519421 0.970138 0.090957
0.659835 0.969639 0.090970
