LUTs/velvia/Velvia50_Classic_Soft.cube
TITLE "Velvia 50 Classic Soft"
# Adobe RGB in/out. REPLACES AgX. Velvia 50 Classic Soft.
LUT_3D_SIZE 33
DOMAIN_MIN 0.0 0.0 0.0
DOMAIN_MAX 1.0 1.0 1.0
0.074298 0.072888 0.089690
0.074298 0.072888 0.089690
0.074298 0.072888 0.089690
0.074332 0.072888 0.089690
0.075623 0.072888 0.089690
0.077263 0.072888 0.089690
0.087249 0.072888 0.089690
0.153744 0.072888 0.089690
0.239312 0.072888 0.089690
0.438505 0.072899 0.089690
0.626003 0.072929 0.089690
0.714045 0.072971 0.089690
0.777230 0.073013 0.089690
0.821180 0.073064 0.089690
0.854398 0.073147 0.089690
0.870256 0.073233 0.089690
0.884318 0.073310 0.089690
0.895195 0.073397 0.089690
0.903827 0.073546 0.089700
0.911474 0.073664 0.089708
0.917267 0.073824 0.089717
0.921574 0.074089 0.089728
0.925610 0.074362 0.089743
0.929498 0.074442 0.089759
0.932359 0.074543 0.089779
0.934908 0.074582 0.089838
0.937822 0.074160 0.090033
0.939287 0.073923 0.092462
0.942385 0.073234 0.577508
0.942385 0.073233 0.577434
0.942385 0.073233 0.577430
0.942385 0.073233 0.577427
0.943554 0.254977 0.777118
0.074298 0.072888 0.089690
0.074298 0.072888 0.089690
0.074298 0.072888 0.089690
0.074345 0.072888 0.089690
0.075278 0.072888 0.089690
0.076429 0.072888 0.089690
0.084655 0.072888 0.089690
0.134044 0.072888 0.089690
0.213865 0.072888 0.089690
0.415763 0.072903 0.089690
0.615126 0.072932 0.089690
0.709466 0.072979 0.089690
0.772185 0.073020 0.089690
0.818703 0.073070 0.089690
0.853338 0.073160 0.089690
0.869399 0.073244 0.089690
0.883660 0.073320 0.089690
0.894817 0.073406 0.089690
0.903550 0.073565 0.089700
0.911270 0.073687 0.089708
0.917143 0.073846 0.089717
0.921485 0.074128 0.089728
0.925546 0.074399 0.089743
0.929454 0.074479 0.089759
0.932328 0.074578 0.089778
0.934886 0.074617 0.089837
0.937810 0.074196 0.090026
0.939279 0.073958 0.092278
0.942385 0.073234 0.577510
0.942385 0.073233 0.577434
0.942385 0.073233 0.577430
0.942385 0.073233 0.577427
0.943554 0.254985 0.777117
0.074298 0.072888 0.089690
0.074298 0.072888 0.089690
0.074298 0.072888 0.089690
0.074298 0.072888 0.089690
0.074573 0.072888 0.089690
0.075347 0.072888 0.089690
0.079297 0.072888 0.089690
0.104386 0.072890 0.089690
0.163756 0.072899 0.089690
0.328609 0.072917 0.089690
0.573876 0.072961 0.089690
0.682695 0.073009 0.089690
0.753010 0.073045 0.089690
0.809257 0.073091 0.089690
0.848986 0.073206 0.089690
0.866141 0.073285 0.089690
0.881167 0.073356 0.089690
0.893389 0.073439 0.089690
0.902506 0.073632 0.089701
0.910504 0.073774 0.089709
0.916679 0.073949 0.089718
0.921151 0.074269 0.089728
0.925309 0.074534 0.089743
0.929290 0.074610 0.089758
0.932215 0.074706 0.089778
0.934807 0.074744 0.089832
0.937763 0.074327 0.090004
0.939252 0.074085 0.091924
0.942385 0.073234 0.577516
0.942385 0.073233 0.577435
0.942385 0.073233 0.577430
0.942385 0.073233 0.577427
0.943554 0.255000 0.777117
0.074298 0.072888 0.089690
0.074298 0.072888 0.089690
0.074298 0.072888 0.089690
0.074298 0.072888 0.089690
0.074324 0.072888 0.089690
0.074581 0.072888 0.089690
0.075918 0.072898 0.089690
0.083253 0.072924 0.089690
0.101949 0.072928 0.089690
0.183320 0.072954 0.089690
0.455014 0.073032 0.089690
0.609545 0.073068 0.089690
0.708960 0.073094 0.089690
0.786745 0.073165 0.089690
0.835039 0.073294 0.089690
0.859515 0.073362 0.089690
0.875990 0.073425 0.089690
0.890442 0.073555 0.089690
0.900367 0.073801 0.089701
0.908941 0.073967 0.089709
0.915737 0.074232 0.089718
0.920478 0.074535 0.089728
0.924835 0.074788 0.089743
0.928962 0.074883 0.089758
0.931988 0.075030 0.089776
0.934649 0.075088 0.089825
0.937671 0.074573 0.089966
0.939196 0.074326 0.091103
0.942385 0.073234 0.577529
0.942385 0.073233 0.577436
0.942385 0.073233 0.577431
0.942385 0.073233 0.577428
0.943554 0.255010 0.777116
0.074298 0.072911 0.089690
0.074298 0.072915 0.089690
0.074298 0.072926 0.089690
0.074298 0.072934 0.089690
0.074298 0.072943 0.089690
0.074372 0.072927 0.089690
0.074937 0.072961 0.089690
0.076886 0.073023 0.089690
0.082511 0.073019 0.089690
0.107010 0.073047 0.089690
0.264697 0.073116 0.089690
0.478208 0.073177 0.089690
0.624232 0.073229 0.089690
0.732604 0.073317 0.089690
0.806828 0.073437 0.089690
0.846055 0.073522 0.089690
0.866509 0.073629 0.089690
0.883863 0.073822 0.089691
0.896535 0.074230 0.089703
0.906164 0.074442 0.089710
0.913928 0.074673 0.089718
0.919306 0.075034 0.089728
0.924014 0.075419 0.089743
0.928398 0.075515 0.089757
0.931601 0.075646 0.089774
0.934380 0.075695 0.089815
0.937515 0.075047 0.089919
0.939101 0.074702 0.090442
0.942385 0.073234 0.577553
0.942385 0.073233 0.577439
0.942385 0.073233 0.577433
0.942385 0.073234 0.577428
0.943554 0.255014 0.777116
0.074298 0.072958 0.089690
0.074298 0.072965 0.089690
0.074298 0.072995 0.089690
0.074298 0.073020 0.089690
0.074298 0.073037 0.089690
0.074298 0.073045 0.089690
0.074490 0.073094 0.089690
0.075406 0.073203 0.089690
0.077196 0.073161 0.089690
0.084324 0.073201 0.089690
0.131696 0.073330 0.089690
0.282558 0.073374 0.089690
0.492010 0.073409 0.089690
0.648914 0.073497 0.089690
0.762336 0.073752 0.089690
0.818172 0.073899 0.089690
0.852545 0.074178 0.089690
0.871605 0.074570 0.089693
0.889704 0.075087 0.089704
0.901298 0.075329 0.089712
0.910503 0.075624 0.089719
0.917314 0.076012 0.089729
0.922637 0.076349 0.089743
0.927460 0.076418 0.089756
0.930964 0.076523 0.089773
0.933941 0.076561 0.089805
0.937259 0.075956 0.089871
0.938943 0.075523 0.090200
0.942385 0.073235 0.577603
0.942385 0.073233 0.577445
0.942385 0.073233 0.577436
0.943553 0.254697 0.577430
0.943554 0.255015 0.777116
0.074298 0.073133 0.089690
0.074298 0.073143 0.089690
0.074298 0.073195 0.089690
0.074298 0.073255 0.089690
0.074298 0.073303 0.089690
0.074298 0.073333 0.089690
0.074407 0.073350 0.089690
0.074989 0.073505 0.089690
0.075747 0.073426 0.089690
0.078453 0.073446 0.089690
0.092219 0.073690 0.089690
0.148244 0.073776 0.089690
0.292419 0.073809 0.089690
0.522428 0.074026 0.089690
0.689453 0.074568 0.089690
0.773020 0.074816 0.089690
0.826866 0.075065 0.089690
0.859324 0.075552 0.089696
0.879699 0.076265 0.089707
0.894638 0.076578 0.089714
0.904941 0.077189 0.089721
0.913593 0.078211 0.089729
0.920251 0.079191 0.089743
0.925854 0.079298 0.089756
0.929892 0.079549 0.089771
0.933209 0.079636 0.089795
0.936832 0.077708 0.089851
0.938675 0.076862 0.090038
0.942386 0.073237 0.577720
0.942385 0.073233 0.577459
0.942385 0.073233 0.577442
0.943554 0.254995 0.577433
0.943554 0.255016 0.777116
0.074298 0.073552 0.089690
0.074298 0.073567 0.089690
0.074298 0.073668 0.089690
0.074298 0.073817 0.089690
0.074298 0.074019 0.089690
0.074298 0.074233 0.089690
0.074391 0.074370 0.089690
0.074713 0.074452 0.089690
0.075175 0.074129 0.089690
0.076335 0.074202 0.089690
0.082273 0.074778 0.089690
0.099573 0.074862 0.089690
0.164098 0.074852 0.089690
0.348124 0.075234 0.089690
0.584628 0.076001 0.089690
0.704590 0.076248 0.089690
0.786979 0.076485 0.089692
0.836397 0.077227 0.089700
0.865496 0.079164 0.089710
0.886130 0.079787 0.089716
0.899508 0.081118 0.089723
0.909492 0.083182 0.089732
0.917384 0.085002 0.089745
0.923475 0.085955 0.089757
0.927953 0.087217 0.089770
0.931909 0.087233 0.089788
0.936056 0.085386 0.089837
0.938190 0.083501 0.089958
0.942388 0.073246 0.578128
0.942385 0.073234 0.577505
0.942385 0.073233 0.577462
0.943554 0.255011 0.577441
0.943554 0.255016 0.777116
0.074298 0.074075 0.089690
0.074298 0.074103 0.089690
0.074298 0.074260 0.089690
0.074298 0.074523 0.089690
0.074298 0.074788 0.089690
0.074298 0.075128 0.089690
0.074338 0.075413 0.089690
0.074449 0.075591 0.089690
0.074935 0.075710 0.089690
0.075645 0.075823 0.089690
0.078574 0.076796 0.089690
0.085390 0.076854 0.089690
0.107366 0.076719 0.089690
0.186593 0.077183 0.089690
0.436962 0.079195 0.089690
0.604240 0.079779 0.089690
0.714835 0.080616 0.089696
0.800564 0.082759 0.089704
0.849612 0.085341 0.089714
0.872061 0.086312 0.089719
0.890571 0.087809 0.089726
0.903461 0.089387 0.089735
0.913860 0.091738 0.089748
0.921272 0.092935 0.089759
0.926496 0.094950 0.089771
0.930613 0.097812 0.089786
0.934834 0.098386 0.089832
0.937299 0.100063 0.089920
0.942449 0.073460 0.582737
0.942387 0.073242 0.577976
0.942385 0.073235 0.577589
0.943554 0.255016 0.577479
0.943554 0.255017 0.777116
0.074298 0.075513 0.089690
0.074298 0.075548 0.089690
0.074298 0.075728 0.089690
0.074298 0.076112 0.089690
0.074298 0.076505 0.089690
0.074298 0.077034 0.089690
0.074312 0.077636 0.089690
0.074417 0.078362 0.089690
0.074742 0.078945 0.089690
0.075223 0.079364 0.089690
0.076814 0.083743 0.089690
0.080518 0.083815 0.089690
0.089754 0.083179 0.089690
0.126670 0.084063 0.089690
0.276701 0.086871 0.089690
0.475834 0.087283 0.089696
0.628846 0.087740 0.089701
0.742856 0.089600 0.089709
0.817015 0.094556 0.089718
0.855836 0.096287 0.089723
0.878984 0.098582 0.089729
0.895883 0.104071 0.089739
0.907760 0.110753 0.089751
0.917631 0.113697 0.089761
0.924164 0.116441 0.089773
0.929113 0.120320 0.089788
0.933907 0.120045 0.089829
0.936811 0.121276 0.089896
0.939363 0.121176 0.090059
0.941110 0.123803 0.091273
0.942904 0.124776 0.464796
0.943554 0.255021 0.584414
0.943554 0.255018 0.777116
0.074298 0.081131 0.089690
0.074298 0.081287 0.089690
0.074298 0.082035 0.089690
0.074298 0.083828 0.089690
0.074298 0.085472 0.089690
0.074298 0.087000 0.089690
0.074317 0.088639 0.089690
0.074415 0.090274 0.089690
0.074708 0.091930 0.089690
0.075169 0.093240 0.089690
0.076093 0.094280 0.089690
0.078361 0.094273 0.089690
0.083383 0.092730 0.089690
0.099797 0.094247 0.089690
0.176391 0.101687 0.089696
0.338264 0.102104 0.089701
0.523729 0.102642 0.089706
0.667264 0.107050 0.089713
0.773335 0.118187 0.089722
0.829889 0.120002 0.089727
0.862960 0.124638 0.089733
0.885233 0.131976 0.089744
0.901207 0.145089 0.089755
0.913392 0.151768 0.089764
0.920973 0.162984 0.089775
0.926589 0.175226 0.089791
0.932379 0.172276 0.089828
0.936021 0.171501 0.089879
0.938868 0.168806 0.090012
0.940822 0.168120 0.090414
0.942801 0.138863 0.234929
0.943554 0.255025 0.603728
0.943554 0.255034 0.606800
0.074298 0.088664 0.089690
0.074298 0.088803 0.089690
0.074298 0.089454 0.089690
0.074298 0.091801 0.089690
0.074298 0.094768 0.089690
0.074298 0.099016 0.089690
0.074303 0.104382 0.089690
0.074393 0.108774 0.089690
0.074568 0.113154 0.089690
0.075010 0.117257 0.089690
0.075630 0.120006 0.089690
0.077051 0.122354 0.089690
0.079852 0.118012 0.089690
0.088602 0.121774 0.089692
0.125325 0.134150 0.089702
0.207774 0.133027 0.089707
0.400458 0.133216 0.089712
0.583626 0.145943 0.089718
0.710460 0.166950 0.089726
0.793303 0.168657 0.089731
0.842968 0.176839 0.089739
0.871116 0.192959 0.089749
0.892413 0.220661 0.089760
0.906604 0.233025 0.089768
0.917356 0.242305 0.089778
0.924296 0.258518 0.089798
0.930575 0.267047 0.089831
0.934594 0.288032 0.089871
0.938005 0.293805 0.089985
0.940322 0.279383 0.090222
0.942554 0.196623 0.110129
0.943554 0.255038 0.603820
0.943554 0.255054 0.609640
0.074298 0.102140 0.089690
0.074298 0.102457 0.089690
0.074298 0.103851 0.089690
0.074298 0.107605 0.089690
0.074298 0.113731 0.089690
0.074298 0.121538 0.089690
0.074298 0.128147 0.089690
0.074371 0.135511 0.089690
0.074456 0.148951 0.089690
0.074854 0.158063 0.089690
0.075257 0.164263 0.089690
0.076183 0.168322 0.089690
0.078420 0.172118 0.089691
0.083725 0.178675 0.089698
0.102882 0.221012 0.089708
0.158559 0.217606 0.089712
0.273226 0.215463 0.089717
0.472436 0.230749 0.089723
0.638017 0.260428 0.089731
0.739938 0.261286 0.089738
0.810554 0.274010 0.089745
0.854771 0.301274 0.089755
0.879767 0.323580 0.089765
0.899224 0.328407 0.089772
0.912070 0.345429 0.089782
0.920633 0.369609 0.089806
0.928407 0.370863 0.089836
0.933285 0.378647 0.089874
0.937220 0.390093 0.089973
0.939650 0.406362 0.090132
0.941611 0.444053 0.091026
0.943554 0.255244 0.603884
0.943554 0.255190 0.616224
0.074298 0.134549 0.089690
0.074298 0.135445 0.089690
0.074298 0.139283 0.089690
0.074298 0.148962 0.089690
0.074298 0.163608 0.089690
0.074298 0.174535 0.089690
0.074298 0.192019 0.089690
0.074363 0.216679 0.089690
0.074442 0.235455 0.089690
0.074761 0.249643 0.089690
0.075148 0.262046 0.089690
0.075874 0.274385 0.089691
0.077382 0.285240 0.089697
0.080765 0.295420 0.089703
0.091728 0.331903 0.089713
0.120421 0.330009 0.089718
0.183872 0.326642 0.089722
0.360692 0.338033 0.089728
0.562212 0.369974 0.089738
0.678773 0.370409 0.089744
0.768569 0.378388 0.089752
0.829428 0.396793 0.089761
0.864936 0.418275 0.089770
0.889617 0.428379 0.089777
0.904969 0.446048 0.089786
0.916839 0.460090 0.089816
0.925597 0.468904 0.089843
0.931176 0.484113 0.089880
0.936211 0.488235 0.089968
0.939084 0.494877 0.090086
0.941300 0.514982 0.090459
0.942727 0.546452 0.106330
0.943520 0.597215 0.623190
0.074298 0.243536 0.089690
0.074298 0.244613 0.089690
0.074298 0.249041 0.089690
0.074298 0.259779 0.089690
0.074298 0.290167 0.089690
0.074298 0.310724 0.089690
0.074298 0.330193 0.089690
0.074368 0.354505 0.089690
0.074442 0.373528 0.089690
0.074743 0.390883 0.089690
0.075119 0.406107 0.089695
0.075751 0.418312 0.089701
0.077002 0.428061 0.089707
0.079720 0.436125 0.089713
0.086244 0.443088 0.089719
0.102215 0.439192 0.089723
0.146822 0.435532 0.089727
0.258237 0.447075 0.089733
0.466269 0.471621 0.089745
0.606445 0.470504 0.089751
0.713056 0.476768 0.089758
0.798175 0.492112 0.089766
0.848965 0.509005 0.089775
0.875439 0.518830 0.089782
0.896826 0.528625 0.089799
0.910980 0.542963 0.089827
0.922165 0.549394 0.089852
0.929155 0.556331 0.089893
0.934751 0.566838 0.089970
0.938178 0.579998 0.090069
0.940796 0.588144 0.090339
0.942468 0.602790 0.093426
0.943486 0.611791 0.607943
0.074298 0.343098 0.089690
0.074298 0.344242 0.089690
0.074298 0.348847 0.089690
0.074298 0.359053 0.089690
0.074298 0.377064 0.089690
0.074298 0.396789 0.089690
0.074298 0.422740 0.089690
0.074359 0.443162 0.089690
0.074429 0.460396 0.089690
0.074660 0.477213 0.089693
0.075015 0.491138 0.089699
0.075443 0.502921 0.089705
0.076340 0.513288 0.089711
0.078544 0.521182 0.089717
0.082945 0.526750 0.089722
0.092746 0.530958 0.089727
0.119789 0.528459 0.089732
0.184938 0.535908 0.089740
0.367925 0.555354 0.089752
0.533664 0.554164 0.089758
0.654305 0.557412 0.089764
0.754396 0.568333 0.089772
0.821544 0.580063 0.089781
0.860485 0.585476 0.089789
0.886367 0.594754 0.089812
0.903702 0.608842 0.089839
0.918078 0.614607 0.089861
0.926207 0.626083 0.089909
0.932995 0.634779 0.089978
0.937380 0.644443 0.090064
0.940215 0.659147 0.090278
0.942004 0.682350 0.091508
0.943339 0.665047 0.455889
0.074298 0.439013 0.089690
0.074298 0.440002 0.089690
0.074298 0.443818 0.089690
0.074298 0.450434 0.089690
0.074298 0.463647 0.089690
0.074298 0.482454 0.089690
0.074298 0.499312 0.089690
0.074351 0.518692 0.089690
0.074418 0.534137 0.089690
0.074580 0.547022 0.089696
0.074922 0.558609 0.089703
0.075256 0.568616 0.089709
0.076044 0.577039 0.089715
0.077531 0.583732 0.089720
0.080428 0.589215 0.089726
0.087127 0.594064 0.089731
0.104204 0.598493 0.089738
0.157167 0.606079 0.089747
0.281914 0.625011 0.089759
0.449639 0.623395 0.089764
0.593504 0.626581 0.089770
0.706462 0.636536 0.089778
0.791508 0.650060 0.089787
0.842857 0.653961 0.089804
0.872275 0.662270 0.089826
0.895364 0.672784 0.089851
0.912411 0.679695 0.089871
0.922864 0.687479 0.089926
0.930887 0.696250 0.089990
0.936179 0.707193 0.090065
0.939580 0.717229 0.090240
0.941698 0.730846 0.090878
0.942997 0.756501 0.117986
0.074298 0.530727 0.089690
0.074298 0.531282 0.089690
0.074298 0.533434 0.089690
0.074298 0.538095 0.089690
0.074298 0.546985 0.089690
0.074298 0.562892 0.089690
0.074298 0.573002 0.089690
0.074353 0.588411 0.089690
0.074414 0.601905 0.089695
0.074538 0.614658 0.089702
0.074867 0.627180 0.089708
0.075192 0.638838 0.089714
0.075851 0.649800 0.089720
0.076954 0.656102 0.089725
0.079370 0.661779 0.089731
0.084461 0.666363 0.089738
0.096329 0.670379 0.089746
0.126317 0.674364 0.089753
0.206153 0.690379 0.089765
0.360742 0.689094 0.089769
0.521585 0.691031 0.089775
0.649448 0.699285 0.089783
0.749814 0.709021 0.089802
0.816110 0.712489 0.089819
0.857929 0.721080 0.089839
0.884829 0.729525 0.089863
0.905139 0.735397 0.089895
0.918717 0.742014 0.089946
0.928104 0.751487 0.090004
0.934767 0.757125 0.090071
0.938832 0.767149 0.090225
0.941209 0.776815 0.090565
0.942803 0.784825 0.096936
0.074298 0.609953 0.089690
0.074298 0.610508 0.089690
0.074298 0.612626 0.089690
0.074298 0.617071 0.089690
0.074298 0.625205 0.089690
0.074298 0.640420 0.089690
0.074303 0.652574 0.089690
0.074359 0.665222 0.089696
0.074415 0.676641 0.089702
0.074539 0.689203 0.089709
0.074856 0.700526 0.089715
0.075170 0.710809 0.089721
0.075748 0.719471 0.089727
0.076649 0.726029 0.089733
0.078881 0.731209 0.089741
0.083207 0.735928 0.089749
0.091858 0.739750 0.089756
0.116254 0.742911 0.089763
0.174932 0.746429 0.089770
0.283726 0.745506 0.089775
0.450459 0.747459 0.089781
0.594999 0.753702 0.089794
0.706271 0.761620 0.089817
0.787504 0.764178 0.089833
0.840232 0.769011 0.089852
0.871523 0.773980 0.089880
0.896844 0.776518 0.089918
0.913350 0.780216 0.089966
0.925125 0.783752 0.090019
0.932855 0.787517 0.090080
0.937960 0.792724 0.090222
0.940812 0.796268 0.090460
0.942559 0.806784 0.092998
0.074298 0.673179 0.089690
0.074298 0.673599 0.089690
0.074298 0.675191 0.089690
0.074298 0.678484 0.089690
0.074298 0.684380 0.089690
0.074298 0.694506 0.089690
0.074303 0.705952 0.089692
0.074352 0.716259 0.089698
0.074408 0.727746 0.089705
0.074488 0.738141 0.089711
0.074781 0.747034 0.089717
0.075083 0.755914 0.089723
0.075504 0.763844 0.089729
0.076280 0.769247 0.089736
0.077990 0.772945 0.089745
0.081090 0.775325 0.089752
0.087340 0.777419 0.089760
0.102444 0.779310 0.089767
0.138498 0.780864 0.089773
0.216213 0.782628 0.089780
0.370008 0.783323 0.089786
0.535486 0.786368 0.089808
0.655102 0.789828 0.089831
0.747946 0.791092 0.089846
0.815355 0.793809 0.089865
0.858008 0.795947 0.089905
0.887004 0.796950 0.089941
0.906214 0.800573 0.089987
0.921273 0.804582 0.090035
0.930515 0.809059 0.090091
0.936989 0.814150 0.090225
0.940261 0.821651 0.090429
0.942333 0.831737 0.091949
0.074298 0.730282 0.089690
0.074298 0.730611 0.089690
0.074298 0.731849 0.089690
0.074298 0.734369 0.089690
0.074298 0.738781 0.089690
0.074298 0.746152 0.089690
0.074305 0.756811 0.089696
0.074349 0.763870 0.089701
0.074406 0.772299 0.089708
0.074456 0.776207 0.089714
0.074731 0.781006 0.089720
0.075031 0.785537 0.089726
0.075329 0.789273 0.089732
0.076079 0.792638 0.089741
0.077396 0.795241 0.089749
0.079714 0.796326 0.089756
0.084693 0.797201 0.089764
0.094813 0.799318 0.089771
0.121551 0.801481 0.089777
0.180963 0.803280 0.089784
0.298545 0.805327 0.089799
0.466405 0.808134 0.089821
0.604384 0.812055 0.089844
0.707435 0.813576 0.089859
0.789015 0.816319 0.089884
0.842134 0.820253 0.089930
0.874187 0.822951 0.089964
0.898260 0.826592 0.090007
0.916521 0.830903 0.090052
0.927819 0.834736 0.090107
0.935675 0.840422 0.090234
0.939707 0.846620 0.090412
0.942080 0.856698 0.091508
0.074298 0.775574 0.089690
0.074298 0.775726 0.089690
0.074298 0.776294 0.089690
0.074298 0.777429 0.089690
0.074298 0.779366 0.089690
0.074298 0.782498 0.089694
0.074308 0.787499 0.089700
0.074350 0.790949 0.089705
0.074400 0.795156 0.089712
0.074452 0.797011 0.089718
0.074706 0.802106 0.089724
0.074977 0.806687 0.089729
0.075262 0.811351 0.089738
0.075933 0.815519 0.089746
0.076970 0.819113 0.089754
0.079101 0.822343 0.089762
0.083133 0.825030 0.089769
0.090841 0.827356 0.089776
0.110431 0.829382 0.089783
0.160171 0.831478 0.089797
0.241312 0.833280 0.089815
0.402188 0.835293 0.089833
0.554591 0.838649 0.089855
0.661520 0.840313 0.089869
0.752892 0.842774 0.089907
0.819045 0.846353 0.089953
0.861271 0.849162 0.089985
0.889499 0.852487 0.090026
0.910226 0.856551 0.090069
0.924425 0.859079 0.090130
0.933969 0.862553 0.090245
0.939044 0.866633 0.090404
0.941791 0.872625 0.091193
0.074298 0.797722 0.089690
0.074298 0.797883 0.089690
0.074298 0.798480 0.089690
0.074298 0.799659 0.089690
0.074298 0.801637 0.089692
0.074298 0.804769 0.089697
0.074306 0.809651 0.089703
0.074351 0.814277 0.089709
0.074396 0.818648 0.089715
0.074451 0.824417 0.089721
0.074661 0.828866 0.089727
0.074942 0.833968 0.089734
0.075226 0.838881 0.089743
0.075792 0.842787 0.089751
0.076557 0.846447 0.089759
0.078523 0.849750 0.089767
0.081834 0.852657 0.089774
0.088029 0.855135 0.089781
0.102425 0.857010 0.089793
0.134874 0.858277 0.089812
0.198588 0.859606 0.089830
0.343498 0.860851 0.089848
0.495820 0.862200 0.089865
0.614383 0.863302 0.089888
0.712885 0.864762 0.089927
0.795088 0.866837 0.089973
0.847968 0.868746 0.090004
0.877667 0.870651 0.090043
0.902903 0.872707 0.090084
0.920295 0.874566 0.090153
0.931924 0.876590 0.090255
0.938244 0.879237 0.090400
0.941536 0.882992 0.091034
0.074298 0.826370 0.089690
0.074298 0.826507 0.089690
0.074298 0.827015 0.089690
0.074298 0.828012 0.089690
0.074298 0.829669 0.089693
0.074298 0.832266 0.089698
0.074298 0.836268 0.089703
0.074345 0.841192 0.089710
0.074386 0.844768 0.089715
0.074439 0.850067 0.089722
0.074600 0.854380 0.089727
0.074887 0.858501 0.089735
0.075144 0.861253 0.089744
0.075599 0.864160 0.089753
0.076322 0.866779 0.089761
0.077853 0.868915 0.089769
0.080252 0.870712 0.089776
0.085237 0.872065 0.089783
0.096307 0.873260 0.089798
0.120723 0.874248 0.089817
0.175962 0.875067 0.089836
0.277535 0.875887 0.089853
0.428945 0.876760 0.089871
0.571465 0.877695 0.089906
0.675768 0.878459 0.089945
0.763005 0.879614 0.089989
0.826638 0.880876 0.090019
0.865274 0.882030 0.090058
0.894692 0.883606 0.090097
0.915437 0.885201 0.090176
0.929401 0.887101 0.090267
0.937361 0.889357 0.090395
0.941240 0.891927 0.090914
0.074298 0.853140 0.089690
0.074298 0.853269 0.089690
0.074298 0.853743 0.089690
0.074298 0.854665 0.089691
0.074298 0.856177 0.089694
0.074298 0.857826 0.089698
0.074298 0.860173 0.089704
0.074340 0.863718 0.089711
0.074379 0.865814 0.089716
0.074427 0.868801 0.089723
0.074559 0.871702 0.089729
0.074816 0.873940 0.089737
0.075090 0.875934 0.089746
0.075449 0.877813 0.089755
0.076124 0.879400 0.089763
0.077370 0.880905 0.089771
0.079505 0.882225 0.089779
0.083854 0.883336 0.089786
0.091612 0.884304 0.089806
0.110964 0.885170 0.089825
0.154780 0.885965 0.089844
0.223558 0.886736 0.089861
0.366085 0.887495 0.089886
0.508985 0.888374 0.089923
0.630229 0.889304 0.089959
0.729819 0.890013 0.090003
0.804907 0.890942 0.090032
0.853094 0.891571 0.090069
0.885001 0.892568 0.090116
0.908832 0.893563 0.090189
0.926322 0.894807 0.090277
0.936338 0.896206 0.090390
0.940912 0.900220 0.090811
0.074298 0.871382 0.089690
0.074298 0.871447 0.089690
0.074298 0.871683 0.089690
0.074298 0.872140 0.089691
0.074298 0.872879 0.089694
0.074298 0.873977 0.089699
0.074298 0.875339 0.089704
0.074328 0.877352 0.089711
0.074371 0.879021 0.089717
0.074417 0.880714 0.089723
0.074527 0.883080 0.089730
0.074761 0.884663 0.089739
0.075050 0.886753 0.089749
0.075296 0.888345 0.089757
0.075988 0.889919 0.089766
0.076990 0.890928 0.089774
0.078920 0.891796 0.089781
0.082428 0.892553 0.089794
0.088640 0.893196 0.089814
0.102796 0.893773 0.089834
0.132761 0.894292 0.089852
0.189035 0.894789 0.089870
0.313388 0.895271 0.089906
0.461857 0.895761 0.089941
0.590600 0.896349 0.089977
0.695245 0.897517 0.090012
0.777964 0.899436 0.090040
0.835657 0.900401 0.090077
0.873134 0.902107 0.090127
0.901383 0.903793 0.090198
0.922415 0.905927 0.090279
0.934917 0.908447 0.090383
0.940661 0.911201 0.090726
0.074298 0.885316 0.089690
0.074298 0.885357 0.089690
0.074298 0.885507 0.089690
0.074298 0.885793 0.089690
0.074298 0.886254 0.089690
0.074298 0.886947 0.089692
0.074298 0.887971 0.089698
0.074298 0.889501 0.089706
0.074351 0.890695 0.089714
0.074395 0.891613 0.089720
0.074450 0.892881 0.089727
0.074674 0.894074 0.089735
0.074942 0.895215 0.089745
0.075215 0.896358 0.089755
0.075767 0.898335 0.089764
0.076436 0.900107 0.089772
0.078249 0.901777 0.089780
0.080969 0.903167 0.089790
0.085810 0.904307 0.089811
0.096804 0.905333 0.089831
0.120163 0.906277 0.089850
0.171522 0.907169 0.089868
0.258627 0.908053 0.089902
0.404805 0.908969 0.089938
0.543219 0.909784 0.089973
