LUTs/velvia/Velvia50_Modern_IlfochromeM.cube
TITLE "Velvia 50 Modern IlfochromeM"
# Adobe RGB in/out. REPLACES AgX. Velvia 50 Modern IlfochromeM.
LUT_3D_SIZE 9
DOMAIN_MIN 0.0 0.0 0.0
DOMAIN_MAX 1.0 1.0 1.0
0.118305 0.082367 0.079686
0.264728 0.092321 0.082258
0.707086 0.125119 0.089766
0.940048 0.175084 0.104328
0.971268 0.227755 0.119883
0.976412 0.267958 0.138114
0.977914 0.281643 0.172933
0.978299 0.188209 0.722972
0.976445 0.527008 0.835520
0.119017 0.132194 0.081673
0.128336 0.126087 0.082974
0.343631 0.153813 0.089803
0.826875 0.206525 0.103902
0.962030 0.255372 0.118958
0.973963 0.292259 0.136215
0.976804 0.304559 0.166630
0.977808 0.185918 0.712915
0.975943 0.521720 0.831588
0.120406 0.326872 0.088118
0.126809 0.314488 0.091544
0.170997 0.271307 0.094480
0.397584 0.296836 0.105232
0.817477 0.341348 0.118749
0.957635 0.383992 0.133899
0.972279 0.405822 0.156179
0.975663 0.208355 0.684727
0.974299 0.504695 0.816044
0.123784 0.538181 0.099446
0.128383 0.527410 0.102522
0.157369 0.491339 0.107673
0.253064 0.451193 0.112071
0.487306 0.461626 0.121250
0.842654 0.497822 0.134567
0.958643 0.530557 0.152865
0.970768 0.545181 0.187509
0.971825 0.480135 0.656015
0.126891 0.721903 0.108613
0.130374 0.716101 0.111224
0.151610 0.696923 0.117468
0.210859 0.659852 0.123118
0.355587 0.626290 0.128819
0.604382 0.627046 0.138441
0.895677 0.656529 0.154300
0.963024 0.682248 0.178318
0.968928 0.721888 0.377212
0.128717 0.838833 0.114464
0.131256 0.834565 0.116461
0.148247 0.828726 0.124067
0.190201 0.811740 0.131572
0.298043 0.790158 0.138701
0.465880 0.772003 0.146671
0.752910 0.768915 0.158121
0.939848 0.785849 0.177402
0.964362 0.810364 0.233760
0.128004 0.904098 0.115026
0.129974 0.902105 0.116944
0.142210 0.899368 0.125001
0.174849 0.893322 0.134553
0.255884 0.883186 0.144538
0.389009 0.871483 0.153951
0.595975 0.863370 0.164122
0.874552 0.861236 0.177814
0.957182 0.873325 0.211066
0.121397 0.941784 0.098579
0.122315 0.940278 0.101027
0.131177 0.937134 0.114504
0.156554 0.934541 0.127341
0.212983 0.930511 0.139496
0.329321 0.924607 0.151081
0.484470 0.919278 0.161796
0.772123 0.916698 0.173129
0.951833 0.917242 0.194659
0.118317 0.933038 0.079918
0.118316 0.932056 0.079943
0.118314 0.954483 0.080263
0.118351 0.949667 0.093741
0.167155 0.957571 0.109871
0.263887 0.950722 0.124608
0.391322 0.944612 0.134594
0.579995 0.940949 0.141164
0.949218 0.939997 0.143160
0.118799 0.086523 0.149503
0.272079 0.100166 0.370475
0.767101 0.132296 0.213043
0.951121 0.178375 0.182566
0.971599 0.227029 0.164860
0.975861 0.266503 0.171263
0.977486 0.282031 0.208872
0.978036 0.187016 0.717584
0.976185 0.524272 0.833482
0.120444 0.121394 0.120880
0.141845 0.117082 0.119363
0.469305 0.152637 0.141267
0.883762 0.206378 0.156773
0.965673 0.252619 0.156875
0.973545 0.289623 0.165903
0.976269 0.304166 0.198795
0.977505 0.184789 0.707619
0.975684 0.519005 0.829570
0.126280 0.295399 0.128643
0.135423 0.274397 0.126246
0.195279 0.238648 0.122303
0.487767 0.279465 0.134348
0.862041 0.331329 0.145565
0.959876 0.376152 0.156964
0.971904 0.401132 0.180365
0.975297 0.215080 0.680977
0.974046 0.502131 0.813127
0.129959 0.503771 0.129664
0.136310 0.491344 0.130965
0.171743 0.455633 0.132032
0.287770 0.422124 0.133590
0.540884 0.444122 0.141421
0.867270 0.486576 0.153333
0.959379 0.522788 0.171930
0.970453 0.541239 0.208130
0.971588 0.477792 0.785173
0.131432 0.697393 0.128070
0.135954 0.689719 0.130479
0.161003 0.669191 0.136386
0.230214 0.634199 0.141550
0.383208 0.605975 0.147148
0.640734 0.613634 0.154783
0.904776 0.647227 0.170692
0.962751 0.676211 0.195568
0.968718 0.720590 0.422456
0.131702 0.826230 0.127014
0.134674 0.822243 0.129303
0.153807 0.816044 0.137413
0.198747 0.799292 0.146035
0.313542 0.778761 0.153810
0.487220 0.762192 0.162500
0.773665 0.762286 0.173327
0.943019 0.781639 0.192587
0.963886 0.808665 0.253654
0.130114 0.898994 0.123819
0.132043 0.897080 0.126052
0.145818 0.894283 0.134558
0.180262 0.888120 0.145921
0.265227 0.878121 0.156676
0.400890 0.867065 0.167217
0.615252 0.859823 0.178612
0.884455 0.858865 0.191449
0.956976 0.872210 0.224616
0.122290 0.939947 0.104320
0.123430 0.938536 0.107004
0.132819 0.935536 0.121212
0.159822 0.932871 0.134743
0.218431 0.928795 0.148609
0.335605 0.923044 0.161353
0.494124 0.918008 0.173305
0.785127 0.915718 0.185526
0.951950 0.916738 0.206156
0.118313 0.935264 0.130363
0.118313 0.934288 0.130117
0.118314 0.956335 0.129294
0.118359 0.951015 0.127992
0.169035 0.956854 0.115046
0.266958 0.950057 0.130646
0.394918 0.944093 0.141782
0.587596 0.940586 0.148657
0.950360 0.939818 0.150764
0.119146 0.100920 0.337621
0.188985 0.127619 0.783734
0.727602 0.157107 0.743901
0.954301 0.204443 0.643873
0.971788 0.241764 0.550732
0.975367 0.276910 0.541742
0.976703 0.292021 0.595891
0.977553 0.202210 0.729017
0.975645 0.518597 0.829284
0.124493 0.152822 0.338318
0.168485 0.175419 0.474314
0.541475 0.187397 0.493419
0.902731 0.223154 0.465860
0.967261 0.263223 0.449662
0.973150 0.296899 0.470863
0.975477 0.311711 0.533721
0.976840 0.206011 0.721427
0.975139 0.513337 0.825342
0.130983 0.251475 0.245437
0.142984 0.238305 0.233670
0.220717 0.218764 0.220972
0.570031 0.268099 0.268599
0.898830 0.325280 0.308077
0.962474 0.371196 0.343392
0.971319 0.397627 0.381765
0.974465 0.312568 0.682946
0.973491 0.496523 0.806729
0.140759 0.449036 0.245129
0.150136 0.437886 0.240708
0.192741 0.402042 0.227792
0.337075 0.373153 0.219928
0.649826 0.415244 0.244923
0.906060 0.468217 0.278409
0.960563 0.508676 0.303988
0.969789 0.533381 0.383346
0.971029 0.472386 0.778943
0.146115 0.648194 0.234552
0.152873 0.640423 0.234489
0.183783 0.617737 0.233243
0.277608 0.584946 0.230112
0.449554 0.564294 0.230852
0.752865 0.584721 0.248911
0.924131 0.625886 0.268823
0.962194 0.660544 0.308931
0.968175 0.718473 0.589094
0.146959 0.798414 0.222857
0.151777 0.794603 0.224160
0.175480 0.786282 0.229254
0.239624 0.768439 0.232943
0.364555 0.748728 0.236489
0.562977 0.737248 0.242592
0.833952 0.744658 0.252376
0.947830 0.768399 0.279317
0.962582 0.804159 0.364580
0.142003 0.884723 0.199684
0.145363 0.883042 0.201822
0.162638 0.879799 0.210420
0.203789 0.873095 0.220218
0.303628 0.863423 0.228748
0.449830 0.854134 0.237046
0.690399 0.849333 0.246741
0.909793 0.851251 0.262423
0.956376 0.868859 0.299311
0.130578 0.931723 0.167238
0.132275 0.930877 0.170037
0.146344 0.929352 0.185456
0.176768 0.926780 0.200637
0.249189 0.922698 0.214221
0.367160 0.917545 0.225561
0.541239 0.913504 0.236006
0.830407 0.911311 0.247321
0.952143 0.915076 0.265569
0.118309 0.933630 0.129955
0.118310 0.958041 0.129714
0.118315 0.954759 0.128910
0.118474 0.949568 0.127646
0.180170 0.953716 0.148160
0.282075 0.947385 0.171571
0.412518 0.942037 0.186762
0.623580 0.939125 0.195165
0.951145 0.939126 0.200282
0.120270 0.127900 0.588157
0.146929 0.166421 0.876316
0.638153 0.206345 0.902186
0.952602 0.251094 0.895388
0.973073 0.284600 0.864796
0.975778 0.307858 0.836026
0.976577 0.319392 0.834034
0.976830 0.289244 0.862814
0.975285 0.514842 0.851105
0.125897 0.179484 0.607786
0.155728 0.213125 0.799563
0.553759 0.252043 0.876744
0.921091 0.277837 0.853984
0.968676 0.301368 0.818936
0.973516 0.323675 0.799193
0.975300 0.336705 0.810795
0.976026 0.305306 0.852989
0.974766 0.509476 0.847224
0.137148 0.275746 0.462769
0.154101 0.279811 0.476740
0.288502 0.286000 0.526560
0.647011 0.307518 0.562846
0.911827 0.348259 0.602041
0.963733 0.386090 0.638671
0.971042 0.411573 0.699215
0.973170 0.420399 0.791568
0.973070 0.492319 0.834754
0.147184 0.409291 0.391565
0.157279 0.402293 0.385736
0.204452 0.374989 0.368499
0.359880 0.355316 0.357139
0.698291 0.407239 0.409843
0.912696 0.464222 0.464772
0.959988 0.506648 0.525896
0.969201 0.536647 0.650717
0.970539 0.467743 0.810786
0.156960 0.601903 0.377862
0.164660 0.595607 0.374948
0.200105 0.576065 0.366926
0.307171 0.545154 0.355020
0.489533 0.527672 0.351154
0.794550 0.562723 0.378405
0.929291 0.610369 0.419620
0.960635 0.651788 0.492270
0.967607 0.719176 0.746629
0.159698 0.768433 0.355683
0.165392 0.764864 0.355115
0.193114 0.756080 0.354938
0.271380 0.738642 0.351988
0.405623 0.720663 0.349793
0.624267 0.712482 0.353095
0.864900 0.727987 0.370535
0.948238 0.756603 0.407828
0.960983 0.800438 0.603360
0.154742 0.868942 0.326381
0.159152 0.867441 0.327086
0.179565 0.864111 0.331195
0.234317 0.857431 0.335499
0.340805 0.848296 0.338984
0.500482 0.838369 0.343283
0.760458 0.834730 0.350512
0.921935 0.842945 0.366291
0.955366 0.865319 0.462735
0.140183 0.924578 0.286342
0.143193 0.923935 0.287740
0.159436 0.922767 0.295991
0.193666 0.920162 0.305101
0.277268 0.916247 0.314118
0.401709 0.910445 0.322025
0.595040 0.905283 0.329755
0.864701 0.904891 0.339200
0.951875 0.912997 0.381780
0.118307 0.941961 0.255877
0.118308 0.955495 0.254993
0.118315 0.952359 0.252045
0.133300 0.955421 0.213232
0.199147 0.948549 0.261980
0.305464 0.943392 0.275044
0.440369 0.939054 0.284633
0.679906 0.936956 0.290204
0.951214 0.938366 0.308361
0.122377 0.165188 0.826692
0.133757 0.198670 0.911857
0.506940 0.262186 0.952998
0.938581 0.305338 0.953099
0.974957 0.347485 0.948749
0.977186 0.356626 0.926465
0.977274 0.361666 0.908655
0.976868 0.344422 0.904576
0.975286 0.514853 0.902232
0.126920 0.209619 0.835734
0.143714 0.240032 0.900682
0.458982 0.301425 0.947212
0.921492 0.342238 0.948828
0.970867 0.360525 0.934126
0.974954 0.369950 0.910795
0.975972 0.376145 0.898481
0.976043 0.360538 0.898286
0.974751 0.509324 0.897459
0.147728 0.347751 0.808827
0.167256 0.358546 0.833799
0.337666 0.377602 0.875065
0.736490 0.384563 0.871000
0.931740 0.399521 0.859887
0.967547 0.425694 0.856011
0.971637 0.442479 0.860800
0.973220 0.453933 0.873655
0.972997 0.491591 0.882048
0.153857 0.419855 0.606857
0.165190 0.419796 0.609168
0.232468 0.418423 0.623988
0.430364 0.419581 0.644914
0.762202 0.445248 0.680264
0.923180 0.486366 0.729483
0.961266 0.522624 0.769632
0.969120 0.552107 0.822843
0.970357 0.587121 0.865017
0.163310 0.570531 0.546269
0.171863 0.567065 0.543291
0.212251 0.554099 0.535167
0.325628 0.527998 0.520360
0.509126 0.510300 0.511517
0.815500 0.558851 0.567475
0.931672 0.609855 0.631465
0.959792 0.654192 0.721787
0.967250 0.724375 0.828650
0.168840 0.741682 0.515283
0.175158 0.738975 0.513491
0.206851 0.731955 0.510013
0.292437 0.716573 0.502730
0.432741 0.694204 0.496073
0.659083 0.685776 0.498664
0.877870 0.717004 0.533061
0.947694 0.750342 0.596985
0.959626 0.799813 0.765269
0.164696 0.854463 0.477060
0.169688 0.853252 0.476708
0.192535 0.850353 0.477555
0.257883 0.843899 0.477741
0.368112 0.831717 0.477602
0.539677 0.821868 0.479618
0.796906 0.820854 0.488106
0.926689 0.834398 0.515981
0.954209 0.863214 0.668706
0.148485 0.918312 0.426125
0.151833 0.917751 0.426646
0.169918 0.916630 0.431751
0.209451 0.914187 0.437128
0.300398 0.908455 0.442646
0.431661 0.901851 0.448086
0.642628 0.898042 0.454696
0.888809 0.899409 0.465873
0.951361 0.911261 0.552229
0.118306 0.942417 0.416162
0.118307 0.943678 0.414737
0.118312 0.945721 0.409973
0.151915 0.948032 0.370737
0.212281 0.944826 0.384050
0.321835 0.940297 0.393573
0.462230 0.936627 0.400282
0.724172 0.935270 0.404457
0.951050 0.938321 0.457982
0.125205 0.213625 0.932419
0.132287 0.233790 0.958366
0.420475 0.319364 0.980665
0.914345 0.360254 0.981022
0.974609 0.408909 0.981191
0.978553 0.418568 0.969119
0.978241 0.415301 0.951953
0.977487 0.401349 0.941737
0.975635 0.518500 0.930135
0.128637 0.246313 0.935115
0.138260 0.268446 0.956969
0.401425 0.350769 0.979877
0.900804 0.391379 0.980465
0.973061 0.436434 0.980030
0.976838 0.431541 0.961270
0.977222 0.429901 0.946713
0.976659 0.417614 0.938259
0.975090 0.512831 0.926636
0.152508 0.394254 0.936795
0.169713 0.412717 0.948101
0.367661 0.473340 0.971419
0.784712 0.473541 0.960923
0.949247 0.472052 0.947046
0.969828 0.476556 0.936125
0.972961 0.483816 0.927620
0.973848 0.492733 0.922348
0.973294 0.494555 0.915174
0.163378 0.470490 0.849232
0.175486 0.474392 0.855408
0.269617 0.491217 0.875725
0.496194 0.499436 0.881019
0.822892 0.510593 0.879622
0.940769 0.529371 0.880142
0.965370 0.553559 0.884001
0.969660 0.577932 0.891398
0.970504 0.621261 0.898513
0.169686 0.571935 0.750648
0.178243 0.570948 0.751032
0.229337 0.570570 0.757643
0.357829 0.562508 0.761717
0.582802 0.563624 0.768270
0.844058 0.589398 0.790185
0.939211 0.628679 0.822482
0.960785 0.668607 0.849306
0.967247 0.734767 0.877721
0.174232 0.724113 0.693722
0.181327 0.722625 0.692442
0.217194 0.718607 0.691208
0.307906 0.704540 0.687091
0.453025 0.683495 0.680081
0.677255 0.670750 0.675347
0.886776 0.716168 0.731802
0.947824 0.751914 0.783123
0.959040 0.803311 0.848331
0.171033 0.842096 0.645752
0.176252 0.840745 0.644866
0.201199 0.837643 0.644506
0.272246 0.830378 0.643664
0.387065 0.819579 0.643064
0.566932 0.810102 0.644518
0.815142 0.810243 0.655358
0.928069 0.829780 0.700913
0.953296 0.862800 0.810236
0.153020 0.913146 0.589645
0.156796 0.912349 0.589428
0.176137 0.910726 0.591920
0.220449 0.907027 0.594129
0.315942 0.901513 0.597124
0.452603 0.895722 0.601203
0.675965 0.892835 0.608032
0.899862 0.895584 0.622923
0.950742 0.910595 0.745692
0.118310 0.940308 0.492807
0.118311 0.941368 0.495591
0.118332 0.942855 0.506595
0.153726 0.945786 0.521816
0.217435 0.942529 0.531244
0.328965 0.938380 0.537319
0.473600 0.935262 0.541749
0.747513 0.934465 0.544421
0.950782 0.938558 0.658073
0.128563 0.265538 0.981491
0.134409 0.279975 0.986520
0.339751 0.366362 0.987618
0.898802 0.412453 0.987618
0.973776 0.459395 0.987618
0.979796 0.482306 0.987618
0.979258 0.467232 0.980545
0.978181 0.453554 0.969535
0.976214 0.524552 0.957656
0.131487 0.293721 0.981969
0.139379 0.308614 0.986259
0.339952 0.393266 0.987618
0.883052 0.440364 0.987618
0.972906 0.485759 0.987618
0.978460 0.491553 0.985484
0.978407 0.479388 0.978840
0.977602 0.467222 0.966180
0.975669 0.518803 0.955263
0.154100 0.428593 0.982706
0.168012 0.442028 0.985079
0.344239 0.504180 0.987618
0.821654 0.547331 0.987618
0.959662 0.537302 0.983396
0.972396 0.530752 0.976374
0.974669 0.527155 0.963761
0.974856 0.531275 0.954757
0.973860 0.499937 0.947086
0.174251 0.537413 0.956441
0.186946 0.541501 0.958887
0.295762 0.562989 0.963230
0.559218 0.572499 0.959428
0.869291 0.575485 0.952212
0.953375 0.581516 0.945538
0.968450 0.590651 0.940559
0.970695 0.607562 0.937654
0.970940 0.667090 0.937319
0.177383 0.603486 0.893064
0.186476 0.604868 0.895159
0.250403 0.614299 0.902560
0.401389 0.620013 0.904920
0.666192 0.625647 0.902927
0.883727 0.639206 0.902179
0.949003 0.660195 0.904466
0.963749 0.690777 0.909448
0.967619 0.748816 0.917343
0.179272 0.722755 0.844420
0.186166 0.722214 0.845050
0.226311 0.722349 0.849184
0.328079 0.718263 0.852622
0.492814 0.711152 0.851954
0.751318 0.714406 0.853120
0.903874 0.733107 0.864124
0.950024 0.761834 0.878110
0.959590 0.810450 0.895189
0.173663 0.832226 0.801720
0.179341 0.831433 0.801674
0.206306 0.829839 0.803776
0.281194 0.824754 0.807366
0.402052 0.816134 0.810490
0.590765 0.807045 0.810972
0.822111 0.802497 0.810637
0.930197 0.830618 0.841256
0.953089 0.864479 0.876241
0.153235 0.908091 0.754438
0.157174 0.907412 0.753990
0.177411 0.906039 0.754948
0.223884 0.902897 0.756618
0.323039 0.898043 0.760104
0.464568 0.892765 0.764818
0.696059 0.890158 0.771546
0.903268 0.893514 0.786231
0.950243 0.910964 0.854375
0.118407 0.936536 0.614895
0.118428 0.939411 0.613259
0.118615 0.941598 0.608542
0.146538 0.945605 0.690403
0.213138 0.941816 0.692762
0.326227 0.937839 0.695737
0.471832 0.935045 0.698611
0.745194 0.934683 0.700329
0.950554 0.939218 0.828062
0.134460 0.319300 0.988027
0.141917 0.327691 0.988148
0.373331 0.397570 0.988311
0.915620 0.443231 0.988336
0.975089 0.486318 0.988354
0.981291 0.521919 0.988168
0.980354 0.499574 0.987618
0.978962 0.479728 0.984711
0.976864 0.546428 0.979435
0.138132 0.343209 0.988013
0.146382 0.352725 0.988127
0.376463 0.423294 0.988293
0.907603 0.466940 0.988321
0.974454 0.509895 0.988341
0.980121 0.529741 0.987805
0.979573 0.510098 0.987618
0.978417 0.492813 0.983576
0.976327 0.545379 0.978660
0.164003 0.470068 0.987958
0.177363 0.479090 0.988038
0.392751 0.532885 0.988195
0.863559 0.572224 0.988245
0.969364 0.585124 0.987724
0.975476 0.571055 0.987618
0.976633 0.558601 0.984101
0.976119 0.553023 0.979728
0.974538 0.575397 0.971768
0.190267 0.600751 0.987618
0.205191 0.602874 0.987618
0.355608 0.623625 0.987618
0.674874 0.627177 0.987333
0.920825 0.623436 0.983579
0.966276 0.620477 0.979835
0.970870 0.619488 0.973018
0.972091 0.626980 0.965728
0.971624 0.692459 0.960509
0.189464 0.650208 0.968144
0.200193 0.651854 0.968301
0.289746 0.665540 0.967840
0.471540 0.672182 0.964012
0.779802 0.675145 0.958758
0.921982 0.680324 0.953827
0.957956 0.689849 0.950003
0.967473 0.708440 0.947565
0.968281 0.761118 0.946334
0.185118 0.735991 0.935707
0.192856 0.736209 0.936282
0.248141 0.740807 0.937692
0.361885 0.741604 0.936216
0.565707 0.741227 0.933000
0.824463 0.744825 0.929660
0.925683 0.755072 0.928517
0.954659 0.773474 0.930399
0.961267 0.818413 0.933254
0.174984 0.830986 0.899468
0.180650 0.830551 0.900467
0.212486 0.831189 0.904948
0.293214 0.828551 0.908211
0.429044 0.823168 0.907283
0.648057 0.818751 0.903849
0.860919 0.822311 0.902819
0.939199 0.838797 0.908053
0.954054 0.867662 0.917121
0.148204 0.908279 0.864568
0.151976 0.907565 0.864824
0.173212 0.905921 0.868074
0.220921 0.902947 0.872511
0.324770 0.898541 0.878308
0.474525 0.893786 0.882499
0.718662 0.891035 0.884505
0.904759 0.890844 0.885071
0.950247 0.912298 0.905010
0.118311 0.931221 0.792623
0.118312 0.940479 0.793423
0.118337 0.939822 0.803457
0.136758 0.945630 0.821665
0.196479 0.943366 0.822462
0.309650 0.939122 0.825980
0.453259 0.936329 0.829254
0.710194 0.936069 0.830556
0.950412 0.940254 0.893876
0.382065 0.315016 0.989434
0.473268 0.319515 0.989434
0.865698 0.338642 0.989434
0.973377 0.369536 0.989436
0.981008 0.408066 0.989440
0.983971 0.443131 0.989447
0.981944 0.408339 0.988104
0.979954 0.353903 0.987618
0.977447 0.537673 0.984539
0.382130 0.334316 0.989429
0.471229 0.339413 0.989430
0.860697 0.358842 0.989430
0.972962 0.390836 0.989433
0.980878 0.430399 0.989436
0.983097 0.453347 0.989171
0.981259 0.420466 0.987866
0.979449 0.364450 0.987618
0.976925 0.532105 0.984307
0.392490 0.435905 0.989407
0.469782 0.440692 0.989408
0.840608 0.459633 0.989410
0.970997 0.490146 0.989415
0.979775 0.517970 0.989267
0.979969 0.501604 0.988136
0.978982 0.475354 0.987618
0.977751 0.433546 0.986904
0.975177 0.513777 0.981775
0.402468 0.609619 0.989149
0.450621 0.608130 0.989041
0.756983 0.605215 0.988676
0.950856 0.599708 0.988091
0.971207 0.590543 0.987618
0.974162 0.578901 0.987618
0.974553 0.562706 0.985360
0.974014 0.549891 0.981515
0.972421 0.683313 0.977520
0.322246 0.670336 0.987618
0.349005 0.669523 0.987618
0.520834 0.668746 0.987496
0.845890 0.666739 0.985383
0.946891 0.662495 0.982842
0.965362 0.657783 0.980210
0.968882 0.651993 0.976346
0.969712 0.653227 0.969958
0.969180 0.741791 0.964524
0.253983 0.744730 0.978650
0.272345 0.744055 0.978144
0.373372 0.743328 0.975318
0.633228 0.741669 0.970884
0.865189 0.738899 0.965852
0.937748 0.737701 0.961213
0.955942 0.738207 0.957392
0.962690 0.744100 0.954324
0.964002 0.804159 0.951896
0.195332 0.831519 0.962231
0.204526 0.830631 0.961533
0.267132 0.828916 0.959159
0.418019 0.825409 0.955282
0.687132 0.819943 0.950736
0.876632 0.816265 0.946652
0.935446 0.816243 0.943952
0.952502 0.821260 0.942613
0.956425 0.860506 0.942137
0.145405 0.906269 0.950624
0.149308 0.905612 0.950772
0.170925 0.904132 0.950130
0.245341 0.901195 0.947607
0.402429 0.896068 0.944057
0.673325 0.890999 0.940334
0.887150 0.888507 0.937342
0.942768 0.888913 0.935986
0.951810 0.908007 0.936282
0.118310 0.924949 0.866782
0.118310 0.939110 0.885536
0.118319 0.937291 0.883378
0.122291 0.936739 0.879856
0.165031 0.948769 0.919544
0.279201 0.942472 0.937012
0.437712 0.939105 0.935891
0.724416 0.938818 0.934824
0.950399 0.941699 0.934580
