LUTs/velvia/Velvia50_Modern_RadianceIII.cube
TITLE "Velvia 50 Modern RadianceIII"
# Adobe RGB in/out. REPLACES AgX. Velvia 50 Modern RadianceIII.
LUT_3D_SIZE 33
DOMAIN_MIN 0.0 0.0 0.0
DOMAIN_MAX 1.0 1.0 1.0
0.087650 0.087576 0.084044
0.093894 0.088062 0.084472
0.098371 0.088210 0.084599
0.133183 0.089578 0.085020
0.263493 0.092133 0.085528
0.334362 0.093404 0.085924
0.469449 0.099633 0.086748
0.619277 0.107900 0.087325
0.698237 0.113800 0.087712
0.800536 0.122500 0.088263
0.898920 0.137367 0.090023
0.938961 0.150569 0.091200
0.960689 0.161066 0.092092
0.972549 0.177110 0.094442
0.981765 0.199746 0.098802
0.983908 0.212086 0.101352
0.985644 0.223703 0.104182
0.987040 0.237882 0.108271
0.987441 0.255084 0.113377
0.987751 0.262063 0.116536
0.987958 0.268986 0.121580
0.988098 0.277205 0.129473
0.988217 0.283472 0.138856
0.988326 0.282772 0.148772
0.988364 0.282791 0.162554
0.988380 0.280620 0.182238
0.988445 0.262291 0.215477
0.988407 0.250409 0.326243
0.988502 0.175858 0.714875
0.988344 0.173107 0.706163
0.988186 0.170554 0.697607
0.988029 0.168059 0.689059
0.987967 0.526645 0.855105
0.087705 0.089437 0.084211
0.088915 0.089134 0.084287
0.096411 0.088405 0.084352
0.128522 0.090019 0.084953
0.231789 0.092524 0.085536
0.301880 0.093753 0.085926
0.436653 0.100305 0.086745
0.588716 0.109100 0.087323
0.673035 0.114778 0.087709
0.781956 0.123464 0.088258
0.889298 0.138786 0.090003
0.934482 0.151877 0.091181
0.957294 0.162265 0.092075
0.971215 0.178530 0.094397
0.981433 0.201096 0.098757
0.983641 0.213418 0.101309
0.985428 0.224979 0.104124
0.986952 0.239085 0.108212
0.987395 0.256286 0.113314
0.987718 0.263120 0.116469
0.987930 0.270017 0.121452
0.988074 0.278223 0.129326
0.988197 0.284487 0.138652
0.988310 0.283783 0.148511
0.988349 0.283797 0.162190
0.988367 0.281628 0.181667
0.988434 0.263304 0.214193
0.988397 0.251458 0.322444
0.988494 0.175721 0.714411
0.988336 0.172980 0.705737
0.988179 0.170439 0.697220
0.988022 0.167956 0.688700
0.987961 0.526394 0.854778
0.087747 0.090412 0.084277
0.088053 0.090445 0.084421
0.089396 0.089909 0.084384
0.100713 0.091416 0.084805
0.148270 0.094201 0.085478
0.221190 0.096998 0.085847
0.343878 0.102991 0.086734
0.496730 0.114697 0.087337
0.589398 0.119033 0.087716
0.709219 0.127480 0.088252
0.846791 0.144558 0.089951
0.910450 0.157069 0.091126
0.944155 0.167343 0.092026
0.966306 0.184007 0.094253
0.977772 0.206243 0.098610
0.982660 0.218454 0.101165
0.984639 0.229773 0.103927
0.986317 0.243576 0.108008
0.987227 0.260547 0.113095
0.987594 0.267034 0.116238
0.987829 0.273821 0.121006
0.987989 0.281972 0.128810
0.988126 0.288097 0.137938
0.988249 0.287421 0.147600
0.988297 0.287414 0.160919
0.988322 0.285325 0.179685
0.988393 0.267023 0.209854
0.988361 0.255318 0.309276
0.988463 0.175234 0.712733
0.988308 0.172529 0.704215
0.988153 0.170030 0.695840
0.987998 0.167591 0.687417
0.987939 0.525493 0.853609
0.087947 0.095560 0.084595
0.088196 0.095783 0.084713
0.089545 0.095529 0.084839
0.092864 0.093785 0.084918
0.112156 0.100031 0.085480
0.144214 0.101419 0.085816
0.232159 0.109487 0.086692
0.364635 0.122763 0.087320
0.464068 0.127154 0.087715
0.585951 0.135357 0.088258
0.744762 0.157645 0.089927
0.848837 0.169788 0.091075
0.910738 0.180098 0.091969
0.949302 0.195464 0.094065
0.970210 0.217248 0.098399
0.979506 0.228834 0.100948
0.983118 0.239282 0.103616
0.985103 0.252580 0.107677
0.986726 0.268595 0.112730
0.987335 0.274728 0.115846
0.987639 0.281257 0.120242
0.987832 0.289071 0.127920
0.987994 0.294837 0.136702
0.988137 0.294110 0.146023
0.988201 0.294051 0.158731
0.988238 0.292038 0.176312
0.988319 0.274205 0.202929
0.988296 0.262416 0.287455
0.988408 0.174356 0.709696
0.988257 0.171712 0.701458
0.988107 0.169289 0.693321
0.987955 0.166939 0.685088
0.987899 0.523846 0.851484
0.088329 0.119614 0.085116
0.088745 0.120157 0.085272
0.090248 0.121183 0.085473
0.094298 0.118671 0.085646
0.103906 0.114651 0.085814
0.117490 0.109888 0.085954
0.158777 0.120577 0.086683
0.255286 0.134339 0.087305
0.341824 0.138956 0.087719
0.455274 0.150447 0.088265
0.610821 0.174987 0.089987
0.732525 0.187712 0.091091
0.833536 0.197901 0.091953
0.907703 0.214196 0.093950
0.951218 0.237737 0.098221
0.969468 0.246948 0.100730
0.979071 0.255698 0.103271
0.983139 0.267171 0.107282
0.985179 0.282158 0.112270
0.986783 0.287466 0.115338
0.987313 0.293050 0.119372
0.987588 0.300190 0.126726
0.987793 0.305772 0.135066
0.987968 0.304918 0.143894
0.988057 0.304735 0.155792
0.988113 0.302714 0.171862
0.988209 0.285844 0.194320
0.988199 0.273516 0.259164
0.988326 0.173093 0.705272
0.988183 0.170522 0.697432
0.988038 0.168207 0.689577
0.987892 0.166164 0.681676
0.987841 0.521428 0.848366
0.088903 0.148898 0.085590
0.089139 0.148813 0.085676
0.090449 0.150610 0.085832
0.093354 0.146170 0.086201
0.099502 0.136343 0.086261
0.111239 0.130421 0.086472
0.134198 0.135903 0.086805
0.188381 0.157044 0.087402
0.254452 0.158977 0.087752
0.344469 0.170578 0.088273
0.477977 0.197258 0.089986
0.595052 0.209427 0.091115
0.710632 0.219228 0.092001
0.826943 0.234608 0.094024
0.912353 0.256600 0.098147
0.948926 0.266515 0.100587
0.967837 0.276128 0.103000
0.977445 0.289394 0.106929
0.982823 0.302683 0.111810
0.984928 0.306262 0.114794
0.986492 0.310784 0.118530
0.987203 0.317199 0.125360
0.987501 0.322291 0.133371
0.987735 0.321169 0.141421
0.987860 0.320730 0.152392
0.987943 0.318686 0.166824
0.988061 0.302353 0.185123
0.988070 0.290232 0.228777
0.988220 0.171495 0.699516
0.988085 0.168974 0.692132
0.987948 0.166793 0.684676
0.987904 0.523913 0.677201
0.987764 0.518247 0.844264
0.089816 0.217660 0.086459
0.090196 0.219521 0.086566
0.091437 0.220462 0.086777
0.094766 0.213158 0.086916
0.100676 0.199318 0.087007
0.111235 0.185898 0.087070
0.125742 0.175496 0.087190
0.155788 0.188254 0.087622
0.199086 0.187394 0.087906
0.269324 0.198134 0.088363
0.376241 0.224901 0.090126
0.477932 0.236543 0.091222
0.581334 0.243406 0.092025
0.704693 0.257708 0.094056
0.832576 0.278976 0.098195
0.903631 0.289397 0.100628
0.945158 0.295377 0.102895
0.967169 0.305953 0.106691
0.977363 0.321355 0.111451
0.982553 0.327863 0.114339
0.984446 0.336019 0.117762
0.985945 0.344413 0.124010
0.987066 0.349041 0.131643
0.987400 0.347167 0.138886
0.987601 0.346107 0.148904
0.987724 0.343707 0.161769
0.987872 0.327058 0.176616
0.987906 0.314096 0.206080
0.988089 0.169719 0.692530
0.987964 0.167107 0.685589
0.987836 0.165099 0.678693
0.987801 0.519791 0.671724
0.987668 0.514344 0.839224
0.091046 0.293031 0.087101
0.091309 0.294430 0.087163
0.092752 0.298832 0.087367
0.096629 0.290655 0.087577
0.102580 0.278748 0.087713
0.112799 0.265307 0.087873
0.126351 0.252309 0.087976
0.146928 0.241703 0.088137
0.167898 0.221844 0.088127
0.220623 0.229242 0.088594
0.304694 0.256256 0.090389
0.388050 0.264781 0.091388
0.476438 0.269830 0.092184
0.586298 0.282342 0.094329
0.720757 0.301978 0.098317
0.824599 0.309792 0.100641
0.898430 0.316681 0.102897
0.942359 0.329284 0.106648
0.966290 0.346008 0.111271
0.976556 0.350049 0.114041
0.982315 0.356311 0.117232
0.984179 0.365839 0.123068
0.985659 0.375210 0.130312
0.986871 0.378867 0.136755
0.987214 0.384088 0.145749
0.987420 0.381367 0.157283
0.987629 0.367191 0.170094
0.987701 0.352912 0.191423
0.987937 0.168570 0.684486
0.987823 0.165052 0.678029
0.987706 0.163497 0.671748
0.987680 0.514834 0.665342
0.987550 0.509782 0.833324
0.091539 0.327157 0.087358
0.091734 0.328356 0.087431
0.092946 0.328623 0.087643
0.096395 0.323058 0.087862
0.101090 0.314478 0.088035
0.109549 0.303352 0.088162
0.119959 0.292140 0.088301
0.136862 0.281322 0.088412
0.156796 0.272400 0.088742
0.189939 0.266523 0.089209
0.257945 0.287657 0.090755
0.323276 0.293985 0.091642
0.397064 0.297402 0.092489
0.490256 0.307743 0.094735
0.610816 0.326832 0.098636
0.718462 0.334260 0.100857
0.819352 0.341403 0.103066
0.897079 0.353652 0.106706
0.943355 0.370326 0.111225
0.965744 0.376712 0.113912
0.975181 0.385732 0.116945
0.981946 0.392795 0.122405
0.983917 0.400343 0.129341
0.985481 0.402381 0.135239
0.986514 0.406488 0.143677
0.987078 0.411446 0.154163
0.987314 0.409900 0.165864
0.987424 0.410330 0.183064
0.987771 0.200061 0.677968
0.987665 0.164092 0.669848
0.987553 0.161885 0.664038
0.987536 0.509263 0.658194
0.987407 0.504644 0.826664
0.092467 0.381226 0.087918
0.092724 0.380352 0.087956
0.094104 0.376500 0.088077
0.097071 0.372612 0.088279
0.101274 0.364680 0.088463
0.108969 0.354483 0.088863
0.117988 0.342392 0.089223
0.132577 0.330486 0.089545
0.150391 0.320143 0.089874
0.175702 0.312225 0.090251
0.227386 0.324050 0.091363
0.277324 0.323790 0.091984
0.337832 0.325714 0.092852
0.417440 0.335625 0.095345
0.521288 0.356081 0.099102
0.616777 0.362558 0.101189
0.719935 0.368578 0.103423
0.824138 0.379928 0.106941
0.902025 0.397964 0.111387
0.942650 0.404120 0.113972
0.965630 0.409973 0.116829
0.975055 0.420562 0.122002
0.981708 0.432037 0.128679
0.983697 0.434775 0.134187
0.985108 0.436722 0.141873
0.986097 0.440011 0.151562
0.987002 0.437336 0.161981
0.987155 0.436374 0.176704
0.987299 0.433360 0.199298
0.987360 0.433683 0.268131
0.987419 0.431668 0.598176
0.987367 0.503193 0.654261
0.987249 0.499025 0.819365
0.094708 0.456074 0.088870
0.095025 0.454578 0.088934
0.096265 0.450705 0.089182
0.098920 0.448960 0.089695
0.103793 0.442108 0.090166
0.110784 0.431615 0.090588
0.119414 0.419960 0.090971
0.133973 0.407190 0.091299
0.150885 0.394936 0.091593
0.174713 0.383886 0.091921
0.209838 0.374879 0.092383
0.250847 0.365491 0.092835
0.294622 0.358168 0.093578
0.361587 0.367138 0.096099
0.451217 0.387681 0.099718
0.534548 0.392799 0.101701
0.626113 0.397603 0.103922
0.732990 0.408522 0.107297
0.838663 0.426985 0.111695
0.904317 0.431458 0.114147
0.943636 0.438950 0.116924
0.965419 0.450452 0.121957
0.975152 0.458982 0.128294
0.981799 0.462772 0.133510
0.983466 0.469598 0.140588
0.984672 0.478311 0.149421
0.985875 0.474028 0.158700
0.986532 0.471135 0.171301
0.987031 0.466352 0.189397
0.987126 0.462931 0.229530
0.987215 0.440642 0.512527
0.987185 0.496744 0.657803
0.987079 0.493037 0.657155
0.096009 0.501132 0.089823
0.096271 0.499875 0.089875
0.097279 0.496378 0.090076
0.099453 0.494350 0.090506
0.103866 0.488372 0.090940
0.110339 0.480848 0.091390
0.118283 0.471424 0.091822
0.130692 0.459284 0.092175
0.146313 0.447136 0.092632
0.164764 0.435597 0.093067
0.195293 0.424998 0.093982
0.233240 0.416234 0.095061
0.269068 0.401262 0.095395
0.319712 0.400658 0.097022
0.396878 0.420879 0.100479
0.468766 0.424580 0.102299
0.549620 0.428828 0.104677
0.646329 0.439262 0.107934
0.757808 0.456739 0.112060
0.846105 0.460675 0.114443
0.908144 0.469013 0.117281
0.945962 0.478355 0.122142
0.966375 0.489230 0.128273
0.975498 0.494914 0.133247
0.981712 0.498832 0.139854
0.983286 0.505165 0.148178
0.984654 0.507446 0.156430
0.985448 0.511960 0.167265
0.986152 0.511420 0.182194
0.986587 0.504688 0.207683
0.986969 0.469020 0.388588
0.986982 0.490041 0.649018
0.986694 0.486784 0.652808
0.096898 0.537523 0.090476
0.097119 0.536462 0.090521
0.097961 0.533359 0.090694
0.099724 0.530676 0.091053
0.103975 0.527045 0.091500
0.109819 0.521207 0.091951
0.116725 0.512449 0.092482
0.127233 0.502245 0.093034
0.141574 0.491472 0.093937
0.157370 0.480226 0.094824
0.181996 0.469368 0.095715
0.213935 0.459276 0.096599
0.252257 0.451075 0.097647
0.294019 0.446328 0.098869
0.354736 0.455532 0.101383
0.417550 0.458465 0.103241
0.487110 0.461676 0.105530
0.573778 0.471531 0.108717
0.677774 0.487909 0.112809
0.772268 0.491084 0.114948
0.857531 0.497867 0.117677
0.916245 0.507805 0.122612
0.949196 0.519681 0.128615
0.967872 0.522907 0.133211
0.976073 0.530136 0.139511
0.981575 0.539550 0.147431
0.983343 0.539191 0.154839
0.984382 0.541212 0.164528
0.985214 0.544302 0.177439
0.985719 0.548854 0.197280
0.986064 0.561182 0.245603
0.986376 0.483282 0.640086
0.986122 0.480419 0.649883
0.098025 0.583587 0.091303
0.098216 0.582653 0.091343
0.098935 0.579827 0.091496
0.100796 0.576839 0.091805
0.105001 0.575482 0.092362
0.110173 0.569680 0.092990
0.116470 0.562252 0.094100
0.126164 0.553771 0.095288
0.139339 0.543974 0.096353
0.153655 0.533208 0.097258
0.174608 0.522539 0.098108
0.203837 0.512439 0.099031
0.238534 0.503103 0.099905
0.275632 0.495353 0.100931
0.329551 0.502948 0.103497
0.377686 0.494441 0.104609
0.438665 0.494915 0.106583
0.513998 0.503392 0.109533
0.607885 0.519199 0.113522
0.696653 0.522339 0.115658
0.791475 0.528328 0.118448
0.872950 0.537974 0.123330
0.926562 0.548126 0.129073
0.954292 0.553104 0.133513
0.968859 0.560697 0.139544
0.976622 0.567670 0.146953
0.981889 0.571483 0.153799
0.983131 0.577827 0.162448
0.984212 0.578358 0.173643
0.984877 0.579640 0.189975
0.985327 0.586688 0.220457
0.985529 0.602535 0.364330
0.985528 0.631634 0.645443
0.099461 0.643281 0.092486
0.099629 0.642458 0.092542
0.100529 0.639896 0.092748
0.102771 0.636853 0.093232
0.106774 0.636693 0.094660
0.111453 0.630597 0.095853
0.117502 0.625046 0.097195
0.126984 0.617237 0.098377
0.139515 0.608051 0.099516
0.153392 0.597983 0.100519
0.173501 0.587604 0.101492
0.200865 0.577170 0.102336
0.234071 0.567295 0.103494
0.269087 0.558425 0.104727
0.309503 0.550776 0.106132
0.352370 0.540633 0.107035
0.400987 0.532000 0.108049
0.466260 0.536845 0.110580
0.549951 0.551462 0.114390
0.629456 0.553766 0.116371
0.720268 0.559227 0.119334
0.812994 0.568518 0.124376
0.886910 0.577994 0.129834
0.933391 0.583732 0.134078
0.958634 0.589926 0.139809
0.970166 0.599384 0.146923
0.978086 0.603292 0.153257
0.981917 0.607016 0.161187
0.983154 0.612460 0.171043
0.983944 0.619317 0.184416
0.984538 0.622561 0.206849
0.984838 0.629449 0.287348
0.984930 0.632313 0.624802
0.100283 0.681544 0.093402
0.100544 0.680810 0.093503
0.101515 0.678473 0.093879
0.103459 0.675435 0.094622
0.106862 0.674163 0.095869
0.111431 0.670446 0.097155
0.117307 0.667037 0.098627
0.125373 0.658881 0.099731
0.136797 0.650659 0.100874
0.149983 0.641901 0.102016
0.166037 0.631920 0.103052
0.190596 0.621709 0.104313
0.220930 0.612037 0.105571
0.254849 0.602635 0.106822
0.289696 0.594312 0.108071
0.331950 0.587066 0.109459
0.375357 0.577042 0.110313
0.430207 0.574419 0.112104
0.501177 0.584638 0.115395
0.573447 0.586576 0.117396
0.655614 0.591003 0.120456
0.749595 0.599812 0.125543
0.837816 0.609045 0.130833
0.900552 0.613938 0.134830
0.940222 0.620827 0.140418
0.962873 0.630239 0.147210
0.972688 0.633960 0.153040
0.978719 0.640726 0.160454
0.982053 0.645271 0.169291
0.983057 0.648838 0.180797
0.983737 0.657527 0.198975
0.984096 0.672406 0.244891
0.984302 0.657251 0.539770
0.101246 0.718483 0.094730
0.101479 0.717854 0.094823
0.102342 0.715816 0.095164
0.104049 0.712921 0.095831
0.107005 0.710993 0.096933
0.111529 0.709474 0.098308
0.116368 0.704219 0.099560
0.123713 0.698464 0.100829
0.134340 0.691714 0.102035
0.146541 0.683581 0.103358
0.160447 0.674567 0.104821
0.182180 0.665018 0.106137
0.209582 0.655583 0.107376
0.240750 0.646229 0.108650
0.273504 0.637466 0.109894
0.311474 0.629679 0.111155
0.354265 0.622949 0.112536
0.403883 0.619376 0.114224
0.466146 0.623648 0.116964
0.526211 0.619515 0.118589
0.600932 0.623684 0.121987
0.688425 0.631720 0.126862
0.782554 0.640767 0.132025
0.861757 0.645121 0.135862
0.915092 0.652342 0.141311
0.947217 0.660755 0.147731
0.966542 0.666109 0.153216
0.974062 0.671639 0.160042
0.979951 0.677415 0.168117
0.982079 0.684271 0.178137
0.982939 0.689994 0.193268
0.983412 0.699182 0.223621
0.983631 0.718464 0.378397
0.102433 0.759901 0.096372
0.102644 0.759348 0.096458
0.103421 0.757530 0.096772
0.104945 0.754893 0.097382
0.107635 0.752761 0.098374
0.112187 0.753289 0.099848
0.116294 0.747338 0.100943
0.123573 0.743900 0.102358
0.133277 0.737748 0.103943
0.144552 0.730358 0.105490
0.157408 0.722606 0.107048
0.177010 0.714171 0.108466
0.202577 0.705258 0.109857
0.231648 0.695808 0.111043
0.263439 0.687032 0.112361
0.297297 0.678670 0.113607
0.337186 0.671149 0.114871
0.381728 0.664811 0.116265
0.438988 0.668207 0.119582
0.491046 0.660114 0.121002
0.554206 0.656878 0.123510
0.634165 0.664571 0.128295
0.723946 0.673128 0.133340
0.809745 0.677040 0.137154
0.881334 0.684249 0.142425
0.929847 0.692210 0.148545
0.956232 0.697622 0.153659
0.968938 0.703254 0.160003
0.975881 0.710865 0.167473
0.980692 0.714805 0.176399
0.982132 0.722574 0.189426
0.982696 0.734617 0.211548
0.983016 0.746202 0.305487
0.103886 0.804416 0.098395
0.104079 0.804015 0.098475
0.104788 0.802681 0.098768
0.106169 0.800688 0.099334
0.108742 0.798880 0.100246
0.112820 0.798885 0.101610
0.116963 0.795672 0.102881
0.123970 0.792935 0.104819
0.132964 0.787752 0.106556
0.144244 0.782236 0.108335
0.156589 0.775311 0.109922
0.175099 0.767595 0.111503
0.198749 0.759041 0.112892
0.226767 0.750370 0.114226
0.257449 0.741650 0.115474
0.289752 0.733588 0.116848
0.327018 0.725874 0.118506
0.368474 0.718724 0.120297
0.415450 0.712858 0.122838
0.463691 0.704110 0.124190
0.519880 0.698730 0.126355
0.587410 0.698032 0.129784
0.670439 0.706076 0.134678
0.756543 0.709688 0.138547
0.838154 0.715916 0.143596
0.900082 0.723531 0.149539
0.941000 0.728256 0.154291
0.962934 0.734604 0.160300
0.971792 0.740333 0.167087
0.977425 0.746084 0.175196
0.981297 0.753912 0.186645
0.982030 0.761880 0.204732
0.982408 0.778396 0.265282
0.104186 0.833405 0.099022
0.104363 0.833038 0.099098
0.105013 0.831805 0.099377
0.106271 0.829895 0.099910
0.108602 0.827948 0.100762
0.112220 0.827200 0.102023
0.116496 0.825681 0.103659
0.122082 0.821930 0.105397
0.130945 0.818810 0.107335
0.141594 0.814670 0.109178
0.152559 0.808895 0.110754
0.167591 0.802998 0.112349
0.189501 0.796607 0.113865
0.215657 0.789709 0.115275
0.245102 0.781643 0.116636
0.275162 0.773515 0.118221
0.309748 0.765858 0.120068
0.348349 0.758860 0.122404
0.391034 0.752278 0.124657
0.439516 0.747011 0.127199
0.490743 0.740804 0.129253
0.553296 0.739361 0.132601
0.624171 0.739274 0.136365
0.704817 0.741699 0.139967
0.792448 0.747190 0.144875
0.869481 0.754030 0.150584
0.922072 0.758623 0.155061
0.950060 0.764923 0.160777
0.967186 0.770675 0.167015
0.973958 0.776785 0.174365
0.978726 0.783458 0.184480
0.981349 0.792949 0.199868
0.981829 0.804303 0.241240
0.104469 0.862738 0.099664
0.104633 0.862427 0.099737
0.105234 0.861376 0.100004
0.106391 0.859623 0.100513
0.108532 0.857692 0.101319
0.111791 0.856543 0.102499
0.116241 0.856535 0.104547
0.120816 0.852314 0.106134
0.129742 0.850676 0.108299
0.138729 0.845461 0.109910
0.149819 0.841252 0.111719
0.163138 0.836398 0.113438
0.183201 0.830314 0.114993
0.207044 0.823921 0.116420
0.235087 0.817543 0.118158
0.264547 0.811089 0.120026
0.295481 0.804547 0.122309
0.331533 0.798424 0.124670
0.371856 0.793009 0.127092
0.415958 0.787380 0.129403
0.465900 0.782542 0.131944
0.523158 0.779622 0.135218
0.588879 0.779051 0.139292
0.659053 0.775520 0.141744
0.742197 0.778561 0.146132
0.825700 0.784953 0.151724
0.893322 0.789301 0.155928
0.935876 0.794157 0.161301
0.960517 0.799417 0.167170
0.970349 0.803811 0.173750
0.976018 0.810268 0.182885
0.979314 0.817082 0.196280
0.981135 0.828668 0.226328
0.104841 0.883606 0.100463
0.104994 0.883432 0.100534
0.105555 0.882838 0.100791
0.106655 0.881881 0.101281
0.108641 0.880791 0.102052
0.111616 0.880022 0.103381
0.115979 0.880348 0.105562
0.120222 0.878263 0.107208
0.127903 0.876715 0.109190
0.137204 0.874641 0.111073
0.148081 0.872517 0.112983
0.159489 0.869356 0.114640
0.177791 0.864687 0.116329
0.200675 0.859304 0.118220
0.227169 0.853247 0.120242
0.255896 0.847156 0.122878
0.284517 0.840903 0.125305
0.318957 0.834814 0.127723
0.356432 0.829015 0.130131
0.398650 0.823998 0.132634
0.444417 0.819276 0.135041
0.495668 0.815467 0.137921
0.557444 0.813958 0.141958
0.622538 0.810821 0.144257
0.697886 0.809170 0.147780
0.783058 0.811854 0.152783
0.863211 0.815561 0.156799
0.915783 0.819737 0.161945
0.948787 0.824698 0.167447
0.966344 0.828997 0.173411
0.973265 0.834838 0.181629
0.977244 0.841574 0.193499
0.979412 0.852905 0.216811
0.104915 0.902068 0.100972
0.105060 0.901916 0.101041
0.105588 0.901394 0.101294
0.106618 0.900541 0.101773
0.108474 0.899532 0.102523
0.111228 0.898714 0.103982
0.115219 0.898681 0.106074
0.119539 0.897687 0.108030
0.126365 0.895853 0.109881
0.135983 0.894780 0.112077
0.145375 0.892173 0.113801
0.156742 0.889917 0.115686
0.173836 0.887389 0.117751
0.194392 0.884002 0.119856
0.219310 0.880526 0.122540
0.247041 0.876951 0.125232
0.275130 0.873318 0.127922
0.307517 0.869653 0.130486
0.343153 0.864469 0.132979
0.382595 0.859206 0.135491
0.426263 0.854500 0.138395
0.474132 0.850241 0.141305
0.528914 0.846756 0.144264
0.589520 0.843329 0.146484
0.659874 0.841068 0.149919
0.739574 0.840403 0.154285
0.822203 0.841393 0.157511
0.889562 0.845112 0.162462
0.936023 0.849716 0.167749
0.960247 0.853984 0.173260
0.970371 0.859112 0.180522
0.975154 0.865582 0.191290
0.977810 0.872884 0.210713
0.104136 0.919407 0.100521
0.104274 0.919263 0.100590
0.104776 0.918767 0.100842
0.105733 0.917938 0.101317
0.107371 0.916906 0.102060
0.109953 0.915939 0.103316
0.113658 0.915496 0.105359
0.118177 0.915204 0.107676
0.123845 0.913133 0.109431
0.132824 0.912113 0.111726
0.141971 0.909864 0.113581
0.153232 0.908072 0.115651
0.166054 0.905260 0.117533
0.186440 0.902618 0.119994
0.210619 0.899672 0.123035
0.236825 0.896260 0.125720
0.264316 0.892812 0.128489
0.293684 0.889339 0.131150
0.327740 0.885926 0.133779
0.364722 0.882636 0.136450
0.405845 0.879577 0.139374
0.450671 0.876863 0.142247
0.500657 0.874579 0.145241
0.559491 0.872723 0.148277
0.625006 0.870845 0.151688
0.701044 0.869950 0.155992
0.785357 0.869490 0.158686
0.860638 0.869558 0.162801
0.918062 0.872177 0.167757
0.950091 0.874721 0.173197
0.967230 0.877697 0.179612
0.973091 0.881193 0.189058
0.976265 0.887090 0.206011
0.103374 0.931754 0.100138
0.103506 0.931683 0.100207
0.103985 0.931439 0.100457
0.104896 0.931028 0.100929
0.106336 0.930506 0.101663
0.108750 0.929992 0.102743
0.112217 0.929690 0.104743
0.117143 0.929935 0.107446
0.121729 0.928790 0.109131
0.129461 0.927971 0.111302
0.139367 0.926725 0.113551
0.149236 0.924613 0.115479
0.161446 0.922607 0.117663
0.180275 0.920310 0.120390
0.201557 0.917465 0.123393
0.227253 0.914557 0.126421
0.255074 0.911454 0.129372
0.282433 0.908164 0.132235
0.315069 0.904857 0.134918
0.350032 0.901640 0.137923
0.388385 0.898589 0.140873
0.430745 0.895798 0.143814
0.477425 0.893289 0.146728
0.531223 0.891297 0.149825
0.592958 0.889677 0.152956
0.664031 0.888249 0.157244
0.745882 0.887909 0.159782
0.825153 0.886969 0.163539
0.893742 0.887334 0.167596
0.938583 0.889582 0.172552
0.963777 0.892393 0.178710
0.970996 0.895505 0.186970
0.974779 0.900613 0.201908
0.102311 0.939670 0.099495
0.102438 0.939611 0.099565
0.102900 0.939404 0.099818
0.103778 0.939053 0.100294
0.105163 0.938602 0.101033
0.107292 0.938143 0.102087
0.110588 0.937837 0.103873
0.115236 0.937949 0.106559
0.119623 0.937388 0.108706
0.126597 0.936615 0.110793
0.137104 0.936402 0.113472
0.145930 0.935163 0.115299
0.158212 0.934391 0.117808
0.173411 0.933010 0.120356
0.194896 0.931756 0.123881
0.219307 0.930263 0.127073
0.245480 0.928604 0.130109
0.272450 0.925879 0.133107
0.302838 0.922708 0.136082
0.336500 0.919591 0.139287
0.372967 0.916572 0.142421
0.413091 0.913762 0.145490
0.457143 0.911182 0.148492
0.505969 0.908896 0.151473
0.563604 0.907137 0.154679
0.629640 0.905715 0.157904
0.708093 0.905568 0.160280
0.791621 0.904260 0.164027
0.871344 0.904195 0.167726
0.925195 0.904263 0.171812
0.955959 0.906533 0.177396
0.968806 0.909413 0.184838
0.973445 0.913994 0.198397
0.099486 0.949692 0.096712
0.099558 0.949631 0.096789
0.099823 0.949418 0.097066
0.100645 0.949047 0.097589
0.102035 0.948546 0.098400
0.104064 0.947984 0.099557
0.107007 0.947484 0.101141
0.111679 0.947264 0.103511
0.116746 0.946969 0.106433
0.122024 0.946053 0.108544
0.131171 0.945522 0.111242
0.141268 0.944724 0.113647
0.151888 0.943739 0.115885
0.165454 0.942692 0.118476
0.185577 0.941454 0.121734
0.207978 0.940044 0.125099
0.234798 0.938587 0.128523
0.261916 0.936960 0.131688
0.289090 0.935215 0.134658
0.321221 0.933484 0.137888
0.355862 0.931807 0.141127
0.393960 0.930216 0.144297
0.436018 0.928757 0.147403
0.482267 0.926927 0.150458
