LUTs/velvia/Velvia50_Classic_ExtraPunchy.cube
TITLE "Velvia 50 Classic ExtraPunchy"
# Adobe RGB in/out. REPLACES AgX. Velvia 50 Classic ExtraPunchy.
LUT_3D_SIZE 5
DOMAIN_MIN 0.0 0.0 0.0
DOMAIN_MAX 1.0 1.0 1.0
0.070631 0.072407 0.079283
0.210532 0.072407 0.079283
0.965195 0.072630 0.079283
0.986696 0.073344 0.079157
0.989754 0.237648 0.876851
0.070631 0.073100 0.079283
0.070925 0.074100 0.079283
0.802693 0.077895 0.079275
0.985270 0.090023 0.079168
0.989754 0.237683 0.876849
0.070631 0.432867 0.079283
0.070687 0.564013 0.079283
0.088049 0.657726 0.079215
0.958263 0.746820 0.079090
0.989594 0.878059 0.085544
0.070631 0.970021 0.079283
0.070669 0.975201 0.079246
0.072957 0.982469 0.079157
0.691132 0.985335 0.078901
0.988993 0.988300 0.078429
0.070631 0.993789 0.079283
0.070631 0.996842 0.079283
0.071030 0.997062 0.079269
0.176445 0.997055 0.079154
0.988899 0.997120 0.079055
0.070631 0.072407 0.078582
0.213423 0.072413 0.207927
0.970224 0.072716 0.091437
0.986670 0.073668 0.228770
0.989754 0.237683 0.876874
0.070631 0.072931 0.078767
0.073135 0.074446 0.078069
0.939584 0.078455 0.078285
0.985739 0.091578 0.080141
0.989754 0.237683 0.876850
0.070661 0.370237 0.078812
0.071019 0.478219 0.078663
0.251227 0.603590 0.078267
0.975844 0.719455 0.078246
0.989580 0.884034 0.628024
0.070665 0.964313 0.078875
0.070844 0.971496 0.078773
0.077092 0.979695 0.078428
0.851747 0.983713 0.078148
0.989139 0.988098 0.079737
0.070631 0.994423 0.079201
0.070631 0.996877 0.079201
0.071273 0.997031 0.079076
0.230242 0.997034 0.078658
0.989539 0.997115 0.078447
0.070631 0.072416 0.489763
0.080393 0.072664 0.909803
0.962826 0.073425 0.909799
0.986309 0.077299 0.925740
0.989754 0.237683 0.950781
0.070636 0.073476 0.490620
0.072741 0.075465 0.816290
0.939659 0.083302 0.872367
0.985567 0.114153 0.903554
0.989754 0.237695 0.946140
0.070817 0.354064 0.231776
0.071587 0.449443 0.375591
0.616731 0.621277 0.625291
0.981980 0.723688 0.755035
0.989529 0.899864 0.940787
0.070880 0.957508 0.133676
0.071280 0.967808 0.170283
0.116060 0.976614 0.332683
0.941543 0.981972 0.492466
0.989247 0.988332 0.863191
0.070631 0.996715 0.119347
0.070631 0.996821 0.119344
0.072341 0.996961 0.107547
0.413143 0.996996 0.164283
0.989694 0.997118 0.448600
0.070631 0.072676 0.959018
0.071931 0.073611 0.978833
0.955913 0.077748 0.979780
0.985978 0.089780 0.981305
0.989754 0.237621 0.984441
0.070650 0.075299 0.963182
0.072028 0.082243 0.975710
0.935676 0.105834 0.978080
0.985377 0.174830 0.980083
0.989753 0.237074 0.983780
0.070956 0.430011 0.942245
0.072245 0.523582 0.956509
0.712493 0.651337 0.971023
0.982707 0.767058 0.975367
0.989489 0.919476 0.983309
0.071024 0.960927 0.898173
0.071618 0.969069 0.911609
0.176764 0.977157 0.943220
0.958206 0.982495 0.958271
0.989295 0.989321 0.979296
0.070631 0.996733 0.724208
0.070631 0.996856 0.726332
0.072498 0.996988 0.874362
0.472609 0.997018 0.892184
0.989723 0.997142 0.966103
0.072766 0.072972 0.992597
0.593083 0.073238 0.992598
0.980543 0.074649 0.992604
0.987257 0.077654 0.992633
0.989754 0.237691 0.992550
0.072953 0.075588 0.992568
0.511891 0.077771 0.992571
0.977622 0.084921 0.992584
0.987120 0.099750 0.992618
0.989754 0.237775 0.992643
0.073080 0.446079 0.992490
0.161815 0.481488 0.992506
0.963334 0.570874 0.992535
0.986450 0.652205 0.992581
0.989739 0.898708 0.992710
0.071416 0.966909 0.992453
0.073804 0.969757 0.992484
0.833401 0.974498 0.992533
0.984335 0.978988 0.992585
0.989701 0.987391 0.992693
0.070631 0.996641 0.969881
0.070631 0.996877 0.977704
0.071057 0.997142 0.991517
0.346475 0.997109 0.992662
0.989754 0.997177 0.992722
