LUTs/velvia/Velvia50_Modern_RadianceIII.cube
TITLE "Velvia 50 Modern RadianceIII"
# Adobe RGB in/out. REPLACES AgX. Velvia 50 Modern RadianceIII.
LUT_3D_SIZE 9
DOMAIN_MIN 0.0 0.0 0.0
DOMAIN_MAX 1.0 1.0 1.0
0.087650 0.087576 0.084044
0.263493 0.092133 0.085528
0.698237 0.113800 0.087712
0.960689 0.161066 0.092092
0.985644 0.223703 0.104182
0.987958 0.268986 0.121580
0.988364 0.282791 0.162554
0.988502 0.175858 0.714875
0.987967 0.526645 0.855105
0.088329 0.119614 0.085116
0.103906 0.114651 0.085814
0.341824 0.138956 0.087719
0.833536 0.197901 0.091953
0.979071 0.255698 0.103271
0.987313 0.293050 0.119372
0.988057 0.304735 0.155792
0.988326 0.173093 0.705272
0.987841 0.521428 0.848366
0.091539 0.327157 0.087358
0.101090 0.314478 0.088035
0.156796 0.272400 0.088742
0.397064 0.297402 0.092489
0.819352 0.341403 0.103066
0.975181 0.385732 0.116945
0.986514 0.406488 0.143677
0.987771 0.200061 0.677968
0.987407 0.504644 0.826664
0.096898 0.537523 0.090476
0.103975 0.527045 0.091500
0.141574 0.491472 0.093937
0.252257 0.451075 0.097647
0.487110 0.461676 0.105530
0.857531 0.497867 0.117677
0.976073 0.530136 0.139511
0.985214 0.544302 0.177439
0.986122 0.480419 0.649883
0.101246 0.718483 0.094730
0.107005 0.710993 0.096933
0.134340 0.691714 0.102035
0.209582 0.655583 0.107376
0.354265 0.622949 0.112536
0.600932 0.623684 0.121987
0.915092 0.652342 0.141311
0.979951 0.677415 0.168117
0.983631 0.718464 0.378397
0.104469 0.862738 0.099664
0.108532 0.857692 0.101319
0.129742 0.850676 0.108299
0.183201 0.830314 0.114993
0.295481 0.804547 0.122309
0.465900 0.782542 0.131944
0.742197 0.778561 0.146132
0.960517 0.799417 0.167170
0.981135 0.828668 0.226328
0.103374 0.931754 0.100138
0.106336 0.930506 0.101663
0.121729 0.928790 0.109131
0.161446 0.922607 0.117663
0.255074 0.911454 0.129372
0.388385 0.898589 0.140873
0.592958 0.889677 0.152956
0.893742 0.887334 0.167596
0.974779 0.900613 0.201908
0.092859 0.965385 0.090184
0.094607 0.964609 0.091004
0.108395 0.962440 0.099698
0.140624 0.959713 0.111217
0.211998 0.955473 0.123298
0.326414 0.949262 0.137283
0.484350 0.943658 0.150334
0.765554 0.940944 0.162757
0.970041 0.941517 0.184820
0.087650 0.958131 0.084047
0.087650 0.957098 0.084048
0.087650 0.971900 0.084084
0.087650 0.969434 0.088427
0.152582 0.973478 0.095792
0.262722 0.969975 0.108781
0.390722 0.966839 0.117707
0.577816 0.964954 0.125330
0.967723 0.964464 0.127718
0.088061 0.089827 0.135320
0.270233 0.095837 0.371562
0.759325 0.119708 0.203942
0.969410 0.164259 0.172455
0.985928 0.222797 0.153789
0.987820 0.267478 0.160832
0.988227 0.283181 0.199651
0.988408 0.174418 0.709733
0.987901 0.523943 0.851609
0.091587 0.110517 0.105165
0.121225 0.106681 0.103670
0.469335 0.137637 0.125453
0.903050 0.197727 0.144426
0.981633 0.252601 0.144556
0.987195 0.290543 0.154969
0.987923 0.304362 0.189265
0.988232 0.171734 0.700210
0.987776 0.518752 0.844916
0.100090 0.296035 0.112379
0.114305 0.275507 0.110241
0.190359 0.237225 0.106570
0.487558 0.280602 0.117437
0.881094 0.331641 0.130609
0.977164 0.378287 0.144667
0.986190 0.402030 0.170237
0.987679 0.208055 0.674301
0.987336 0.502116 0.823383
0.106314 0.503733 0.113290
0.115226 0.491477 0.114451
0.157708 0.455587 0.115393
0.285328 0.421960 0.116688
0.540808 0.443893 0.125636
0.886381 0.486773 0.140097
0.976724 0.522480 0.161520
0.984943 0.540485 0.198889
0.985919 0.478106 0.792012
0.108838 0.692172 0.111868
0.114856 0.684695 0.114017
0.145827 0.664689 0.119530
0.230616 0.630631 0.125791
0.382535 0.603207 0.132521
0.635359 0.610652 0.141917
0.928713 0.643280 0.160244
0.979709 0.671532 0.185796
0.983451 0.716820 0.422317
0.109309 0.847679 0.110926
0.113529 0.842896 0.112968
0.137375 0.835467 0.120713
0.195385 0.815437 0.131176
0.310671 0.791167 0.140696
0.487026 0.769909 0.151128
0.767468 0.770030 0.162961
0.963234 0.794408 0.182597
0.980714 0.826635 0.248736
0.106557 0.928555 0.108069
0.109904 0.926742 0.110069
0.126694 0.923663 0.117667
0.168673 0.916882 0.131038
0.263950 0.905885 0.144304
0.400412 0.893735 0.156458
0.611237 0.885782 0.168422
0.903750 0.884731 0.181418
0.974597 0.899388 0.215899
0.094556 0.964438 0.092089
0.096368 0.963711 0.093371
0.111175 0.960760 0.105492
0.144441 0.957955 0.117870
0.218328 0.953667 0.134293
0.333175 0.947618 0.149836
0.493741 0.942322 0.162937
0.781730 0.939914 0.175439
0.970144 0.940987 0.196861
0.087650 0.960474 0.113914
0.087650 0.959446 0.113694
0.087650 0.972846 0.112960
0.087650 0.970125 0.111798
0.154517 0.973112 0.100154
0.265535 0.969634 0.114166
0.394364 0.966572 0.126068
0.585004 0.964768 0.134351
0.968735 0.964372 0.136888
0.089244 0.096531 0.338047
0.181510 0.115892 0.790362
0.718099 0.142667 0.738052
0.972227 0.195450 0.638038
0.986091 0.240652 0.548616
0.987696 0.278033 0.540050
0.988031 0.292824 0.591604
0.988244 0.192826 0.720426
0.987766 0.518349 0.844428
0.097963 0.137845 0.338763
0.153951 0.161391 0.474334
0.541368 0.174878 0.493009
0.925823 0.217976 0.465870
0.982196 0.264079 0.449651
0.987084 0.297461 0.470879
0.987724 0.311695 0.532402
0.988066 0.197295 0.713405
0.987639 0.513165 0.837705
0.108059 0.251338 0.239392
0.122801 0.236810 0.226225
0.220993 0.212516 0.212095
0.568400 0.269132 0.265597
0.919532 0.325421 0.307520
0.979464 0.372996 0.343966
0.985688 0.398697 0.383003
0.987454 0.312554 0.676227
0.987180 0.496585 0.816193
0.119728 0.448884 0.239053
0.132318 0.437560 0.234197
0.186747 0.402895 0.219219
0.334757 0.375146 0.211007
0.643954 0.415434 0.238827
0.929895 0.468375 0.276209
0.977773 0.508570 0.303250
0.984372 0.532872 0.384602
0.985438 0.472613 0.784026
0.127052 0.644218 0.227226
0.136081 0.636675 0.227154
0.174035 0.614639 0.225742
0.275344 0.582764 0.221874
0.449529 0.562798 0.222797
0.742154 0.582546 0.243217
0.946520 0.622556 0.265839
0.979217 0.656258 0.308412
0.982983 0.714114 0.585112
0.128071 0.814390 0.214062
0.134569 0.809844 0.215423
0.162137 0.799931 0.220807
0.238946 0.777948 0.225402
0.363564 0.752646 0.229425
0.561729 0.737992 0.236265
0.844269 0.747444 0.247245
0.966492 0.777897 0.277192
0.979560 0.821250 0.365540
0.121443 0.913145 0.190200
0.126121 0.911296 0.192402
0.147749 0.907730 0.201243
0.201820 0.900361 0.211308
0.300960 0.889736 0.220220
0.449806 0.879538 0.230058
0.682435 0.874271 0.240827
0.933332 0.876375 0.258962
0.974065 0.895706 0.298382
0.107359 0.956748 0.156480
0.110310 0.955857 0.159569
0.127329 0.954254 0.175368
0.163545 0.951548 0.191182
0.248419 0.947255 0.205155
0.366267 0.941835 0.216886
0.541144 0.937630 0.228876
0.838888 0.936262 0.241465
0.970316 0.939239 0.262327
0.087650 0.958754 0.113550
0.087650 0.973718 0.113335
0.087650 0.972041 0.112617
0.087662 0.969383 0.111489
0.168535 0.971508 0.133747
0.279467 0.968264 0.161150
0.412192 0.965514 0.176686
0.619125 0.964015 0.185363
0.969431 0.964015 0.190815
0.091365 0.116118 0.584216
0.128036 0.152522 0.909605
0.632917 0.197689 0.939851
0.970722 0.250919 0.934209
0.987062 0.285764 0.893239
0.987800 0.307865 0.855975
0.988000 0.319364 0.852557
0.988063 0.290183 0.890978
0.987676 0.514648 0.877627
0.099597 0.165365 0.602959
0.139664 0.205723 0.808147
0.553005 0.251965 0.910256
0.943726 0.278964 0.880908
0.983414 0.301706 0.829918
0.987187 0.323671 0.807731
0.987680 0.336881 0.820762
0.987862 0.305444 0.879773
0.987538 0.509358 0.873206
0.116098 0.276863 0.462774
0.137774 0.280949 0.476764
0.286100 0.287119 0.525489
0.641294 0.307542 0.560148
0.935205 0.348134 0.597476
0.980578 0.387722 0.632972
0.985449 0.411949 0.692133
0.987090 0.420324 0.799178
0.987062 0.492438 0.853792
0.128344 0.409783 0.392537
0.141469 0.403133 0.386965
0.202670 0.377164 0.369543
0.358715 0.355592 0.357941
0.689911 0.407834 0.410014
0.936004 0.464315 0.464780
0.977264 0.506569 0.524838
0.983866 0.536036 0.644703
0.985017 0.467893 0.820751
0.141097 0.599248 0.379055
0.150017 0.593125 0.376108
0.197113 0.574181 0.367937
0.304433 0.544276 0.355779
0.489275 0.527305 0.351833
0.792894 0.561279 0.379604
0.951261 0.607478 0.419447
0.977836 0.647718 0.491886
0.982494 0.715027 0.741607
0.144296 0.777940 0.356455
0.150769 0.773346 0.355876
0.187270 0.762062 0.355694
0.269587 0.739768 0.352683
0.405206 0.716912 0.350452
0.619775 0.706867 0.353814
0.883985 0.726205 0.371623
0.966854 0.762733 0.408089
0.978144 0.816805 0.598734
0.138518 0.895798 0.326505
0.143657 0.894148 0.327229
0.167620 0.890491 0.331448
0.234282 0.883157 0.335868
0.338776 0.873133 0.339448
0.500110 0.862209 0.343856
0.751103 0.857891 0.351181
0.944502 0.867421 0.367288
0.973171 0.891818 0.462741
0.118972 0.949233 0.284881
0.123091 0.948555 0.286424
0.143989 0.947327 0.294950
0.188045 0.944588 0.304412
0.275029 0.940470 0.313834
0.401242 0.935721 0.322036
0.592070 0.932495 0.329969
0.883783 0.932250 0.339669
0.970078 0.937313 0.383019
0.087650 0.965476 0.251335
0.087650 0.972417 0.250300
0.087650 0.970813 0.246857
0.111854 0.972379 0.204137
0.195894 0.968861 0.258488
0.302761 0.966211 0.272565
0.440319 0.963978 0.282994
0.672491 0.962253 0.288968
0.969492 0.963623 0.307817
0.094733 0.151300 0.840005
0.112498 0.188624 0.947863
0.506806 0.263005 0.978147
0.959432 0.305474 0.978214
0.987592 0.347381 0.975316
0.988152 0.357026 0.959933
0.988174 0.362544 0.945212
0.988073 0.344398 0.941833
0.987676 0.514659 0.939890
0.101301 0.201554 0.855473
0.123816 0.238751 0.938604
0.458984 0.301760 0.974290
0.944094 0.342271 0.975368
0.985299 0.361294 0.965536
0.987591 0.371628 0.946985
0.987848 0.378281 0.936778
0.987866 0.361308 0.936615
0.987534 0.509208 0.935929
0.129038 0.347639 0.818550
0.152686 0.359126 0.852154
0.335394 0.379665 0.907700
0.726565 0.386274 0.901517
0.953510 0.400498 0.887638
0.982443 0.425345 0.883219
0.985961 0.442225 0.888680
0.987104 0.453859 0.905553
0.987041 0.491721 0.918351
0.137444 0.419808 0.602072
0.150562 0.419753 0.604277
0.232648 0.418450 0.618667
0.430281 0.419549 0.639052
0.753259 0.445037 0.673603
0.945646 0.486566 0.720853
0.978395 0.522319 0.771746
0.983796 0.551007 0.834315
0.984860 0.584875 0.893492
0.148541 0.568831 0.544364
0.157855 0.565479 0.541526
0.211150 0.552935 0.533781
0.322447 0.527630 0.519415
0.509075 0.510171 0.510751
0.816378 0.557533 0.564552
0.953447 0.606979 0.625953
0.977090 0.650063 0.713749
0.982187 0.721619 0.843346
0.154317 0.743645 0.514441
0.161784 0.740193 0.512685
0.205314 0.731251 0.509276
0.289980 0.711614 0.502138
0.432671 0.689065 0.495612
0.652737 0.680853 0.498152
0.897095 0.712181 0.531773
0.966371 0.754711 0.592648
0.976944 0.816060 0.766008
0.150054 0.879899 0.477084
0.155198 0.878571 0.476731
0.186459 0.875390 0.477579
0.257090 0.868507 0.477766
0.367256 0.854269 0.477627
0.539663 0.842446 0.479597
0.795335 0.841231 0.487842
0.948870 0.857492 0.515125
0.972146 0.889506 0.662298
0.130066 0.942642 0.426031
0.134647 0.942052 0.426558
0.155477 0.940873 0.431718
0.208082 0.938304 0.437101
0.297791 0.934478 0.442626
0.431588 0.930346 0.448073
0.637150 0.927802 0.454691
0.908151 0.928815 0.465882
0.969622 0.936230 0.550042
0.087650 0.965710 0.416048
0.087650 0.966359 0.414687
0.087650 0.967409 0.410138
0.134760 0.968596 0.371830
0.211184 0.966949 0.385315
0.318767 0.964618 0.394459
0.462240 0.961907 0.400877
0.714831 0.960480 0.404868
0.969347 0.963600 0.457981
0.098855 0.206319 0.964391
0.110332 0.231255 0.981452
0.420256 0.319336 0.986892
0.937522 0.360997 0.987028
0.987494 0.409420 0.987056
0.988593 0.418588 0.983688
0.988481 0.415488 0.977451
0.988228 0.402236 0.970632
0.987764 0.518253 0.962959
0.104350 0.245653 0.966199
0.117257 0.269492 0.980790
0.400954 0.350631 0.986435
0.922714 0.392752 0.986776
0.987059 0.436086 0.986524
0.988065 0.431118 0.982058
0.988161 0.429437 0.973957
0.988020 0.417683 0.968305
0.987627 0.512665 0.960074
0.135577 0.395488 0.967325
0.155227 0.413035 0.974883
0.366787 0.473583 0.984163
0.781212 0.473788 0.981986
0.967748 0.472273 0.974179
0.984405 0.476853 0.966876
0.987031 0.484050 0.960885
0.987280 0.492847 0.956535
0.987125 0.494644 0.950608
0.148621 0.470686 0.875492
0.162143 0.474653 0.882531
0.267968 0.491351 0.908704
0.495753 0.499458 0.916778
0.827514 0.510459 0.914646
0.961307 0.528987 0.915439
0.981549 0.552412 0.921337
0.984261 0.575985 0.930877
0.984987 0.618063 0.936804
0.155196 0.570188 0.746852
0.165629 0.569233 0.747355
0.229824 0.568868 0.756003
0.356588 0.561071 0.761344
0.580467 0.562151 0.769954
0.859678 0.587088 0.797629
0.959971 0.625269 0.833909
0.977970 0.664119 0.875577
0.982184 0.734831 0.911746
0.160762 0.721286 0.686763
0.170289 0.719399 0.685512
0.216889 0.714291 0.684305
0.305153 0.699133 0.680280
0.453009 0.678630 0.673425
0.669978 0.666209 0.668795
0.906097 0.711081 0.722981
0.966487 0.756723 0.789554
0.976425 0.820236 0.874466
0.156840 0.866453 0.639868
0.162981 0.864915 0.639005
0.198509 0.861383 0.638655
0.270387 0.852660 0.637834
0.386424 0.839702 0.637251
0.565470 0.828354 0.638666
0.815840 0.828524 0.649240
0.950139 0.851942 0.693794
0.971337 0.889051 0.820133
0.136285 0.937406 0.585638
0.140907 0.936909 0.585431
0.162855 0.935896 0.587811
0.220681 0.933586 0.589922
0.313020 0.930135 0.592781
0.452587 0.925247 0.596676
0.668754 0.922069 0.603194
0.921195 0.925096 0.617630
0.969074 0.935815 0.740386
0.087650 0.964624 0.492409
0.087650 0.965170 0.495139
0.087650 0.965935 0.505926
0.137262 0.967442 0.520842
0.217170 0.965768 0.530039
0.326032 0.963630 0.535834
0.473643 0.960471 0.540057
0.737061 0.959632 0.542603
0.969109 0.963722 0.651897
0.104241 0.266478 0.987107
0.113255 0.281114 0.987949
0.337640 0.367691 0.988634
0.919486 0.412785 0.988697
0.987260 0.459409 0.988726
0.989017 0.482560 0.988181
0.988845 0.467374 0.986822
0.988460 0.453474 0.983774
0.987909 0.524218 0.981247
0.108934 0.294441 0.987187
0.118260 0.308592 0.987906
0.337856 0.394548 0.988582
0.902332 0.440077 0.988660
0.987016 0.485967 0.988695
0.988560 0.491683 0.987776
0.988540 0.479681 0.985835
0.988256 0.467364 0.983079
0.987772 0.518552 0.979655
0.137773 0.428095 0.987311
0.153463 0.441767 0.987708
0.342480 0.504137 0.988328
0.825646 0.546383 0.988477
0.976975 0.536671 0.987426
0.986614 0.530325 0.985185
0.987511 0.526791 0.982576
0.987564 0.530832 0.979318
0.987284 0.499953 0.974206
0.160785 0.536779 0.980439
0.178687 0.540739 0.981561
0.293243 0.561536 0.982466
0.558173 0.570733 0.981674
0.888423 0.573620 0.977623
0.971407 0.579449 0.973173
0.983220 0.588306 0.969845
0.985151 0.604749 0.967900
0.985361 0.662640 0.967676
0.164338 0.600787 0.932278
0.178037 0.602131 0.934020
0.249621 0.611297 0.940161
0.400918 0.616851 0.942119
0.659484 0.622324 0.940466
0.903015 0.635493 0.939846
0.967532 0.655917 0.941742
0.980592 0.685726 0.945869
0.982505 0.752758 0.952400
0.167178 0.719564 0.870013
0.177610 0.718877 0.870731
0.227093 0.719048 0.875438
0.325079 0.713838 0.879355
0.492466 0.705572 0.878595
0.740682 0.708764 0.879923
0.927668 0.732718 0.892473
0.968437 0.769449 0.912338
0.976911 0.828771 0.934044
0.160063 0.854881 0.810568
0.167282 0.853928 0.810515
0.204735 0.852013 0.812876
0.278655 0.845908 0.816908
0.401589 0.835574 0.820419
0.588012 0.824699 0.820961
0.826336 0.819264 0.820584
0.952093 0.852949 0.864975
0.971154 0.890895 0.909490
0.136582 0.934251 0.751807
0.141346 0.933827 0.751221
0.164380 0.932968 0.752474
0.224691 0.931001 0.754659
0.319931 0.927802 0.759227
0.464585 0.921993 0.765415
0.687797 0.919124 0.774267
0.926690 0.922817 0.793198
0.968632 0.936045 0.881353
0.087652 0.961811 0.609806
0.087654 0.964162 0.608212
0.087715 0.965289 0.603680
0.127563 0.967350 0.683518
0.212178 0.965401 0.685824
0.323090 0.963183 0.688734
0.471869 0.960243 0.691544
0.734853 0.959862 0.693223
0.968907 0.964062 0.842342
0.113307 0.319273 0.989738
0.121324 0.328051 0.989844
0.372579 0.398642 0.989986
0.938694 0.442989 0.990008
0.987627 0.486519 0.990023
0.989491 0.521623 0.989861
0.989194 0.499594 0.988659
0.988739 0.480016 0.987647
0.988072 0.545509 0.986179
0.117123 0.343217 0.989726
0.127374 0.352759 0.989825
0.375736 0.423069 0.989970
0.931316 0.467077 0.989995
0.987451 0.509771 0.990012
0.989120 0.529345 0.989545
0.988947 0.509971 0.988400
0.988544 0.492926 0.987456
0.987937 0.544494 0.985731
0.149343 0.470257 0.989679
0.164307 0.479387 0.989748
0.392169 0.532392 0.989885
0.882628 0.570467 0.989929
0.984006 0.582935 0.989475
0.987724 0.569337 0.988481
0.988014 0.557291 0.987545
0.987885 0.551893 0.986349
0.987475 0.573535 0.984235
0.183293 0.598127 0.988830
0.203548 0.600192 0.988790
0.354286 0.620360 0.988585
0.667720 0.623811 0.988086
0.943481 0.620176 0.987457
0.981801 0.617302 0.986411
0.985301 0.616341 0.984494
0.986352 0.623619 0.982985
0.985950 0.687364 0.981899
0.182176 0.646178 0.983486
0.197225 0.647782 0.983518
0.287340 0.661129 0.983423
0.471577 0.667604 0.982629
0.775099 0.670493 0.981534
0.944545 0.675540 0.978699
0.975465 0.684822 0.976151
0.982379 0.702931 0.974526
0.983074 0.768529 0.973704
0.176085 0.736390 0.966595
0.186909 0.736669 0.966981
0.247381 0.742528 0.967926
0.360794 0.743545 0.966937
0.564312 0.743064 0.964780
0.829888 0.747656 0.962567
0.947946 0.760770 0.961625
0.972544 0.784440 0.963176
0.978396 0.838305 0.964951
0.161595 0.853391 0.937597
0.169263 0.852869 0.938425
0.211422 0.853635 0.942141
0.290742 0.850467 0.944845
0.428942 0.844006 0.944076
0.642282 0.838710 0.941230
0.879960 0.842978 0.940377
0.959961 0.862696 0.944714
0.972008 0.894392 0.952217
0.129684 0.934368 0.892980
0.134844 0.933922 0.893271
0.159509 0.932894 0.897075
0.221230 0.931033 0.903814
0.321603 0.928271 0.912641
0.474570 0.923117 0.919040
0.709375 0.920089 0.922124
0.928697 0.919879 0.923010
0.968635 0.936877 0.942193
0.087650 0.956219 0.800361
0.087650 0.964712 0.801258
0.087650 0.964374 0.812518
0.115692 0.967362 0.832989
0.192187 0.966198 0.833886
0.306860 0.964013 0.838792
0.453244 0.961593 0.844377
0.701179 0.961320 0.846601
0.968781 0.964596 0.932953
0.381383 0.315008 0.991151
0.473310 0.319486 0.991151
0.884791 0.338767 0.991152
0.987148 0.371173 0.991154
0.989402 0.408619 0.991159
0.990340 0.442887 0.991168
0.989698 0.408879 0.989806
0.989067 0.354047 0.988767
0.988218 0.537031 0.987618
0.381449 0.334552 0.991146
0.471265 0.339519 0.991146
0.879736 0.359451 0.991147
0.987031 0.392235 0.991150
0.989360 0.429949 0.991155
0.990064 0.453264 0.990816
0.989481 0.420388 0.989598
0.988907 0.365595 0.988594
0.988087 0.531636 0.987579
0.391905 0.435549 0.991117
0.469813 0.440410 0.991118
0.854408 0.459651 0.991121
0.985410 0.490295 0.991127
0.989011 0.517732 0.990937
0.989072 0.501596 0.989834
0.988746 0.475631 0.988914
0.988306 0.433154 0.988014
0.987649 0.513598 0.987154
0.402011 0.606749 0.990790
0.450599 0.605302 0.990660
0.746808 0.602468 0.990304
0.969175 0.597113 0.989794
0.985591 0.588201 0.989169
0.987369 0.576921 0.988467
0.987479 0.561262 0.987755
0.987327 0.548862 0.987111
0.986636 0.678453 0.985421
0.319164 0.665805 0.988399
0.347475 0.665012 0.988333
0.521226 0.664255 0.988113
0.862481 0.662298 0.987759
0.965660 0.658160 0.987333
0.981547 0.653565 0.986628
0.983592 0.647919 0.985179
0.984305 0.649122 0.983861
0.983848 0.743783 0.982735
0.253166 0.747535 0.985724
0.270479 0.746673 0.985549
0.372621 0.745746 0.984968
0.628258 0.743628 0.984053
0.884276 0.740095 0.983011
0.958718 0.738568 0.982046
0.973681 0.739214 0.981071
0.979655 0.746731 0.979030
0.980816 0.821250 0.977413
0.190440 0.854031 0.982258
0.202765 0.852965 0.982113
0.265694 0.850904 0.981618
0.417767 0.846695 0.979668
0.679340 0.840138 0.976640
0.895843 0.835732 0.973916
0.956745 0.835705 0.972113
0.970633 0.841718 0.971218
0.974109 0.886533 0.970900
0.126179 0.933112 0.976565
0.131187 0.932701 0.976664
0.156707 0.931775 0.976237
0.244609 0.929935 0.974553
0.401971 0.925628 0.972183
0.666250 0.920049 0.969694
0.906474 0.917307 0.967691
0.963018 0.917754 0.966783
0.970020 0.934199 0.966981
0.087650 0.949622 0.895507
0.087650 0.964007 0.923738
0.087650 0.962605 0.920384
0.094558 0.962025 0.915003
0.150399 0.968973 0.954219
0.276815 0.965738 0.967470
0.437655 0.964004 0.966719
0.715063 0.963856 0.966004
0.968770 0.965340 0.965840
