LUTs/velvia/Velvia50_Classic_IlfochromeP.cube
TITLE "Velvia 50 Classic IlfochromeP"
# Adobe RGB in/out. REPLACES AgX. Velvia 50 Classic IlfochromeP.
LUT_3D_SIZE 9
DOMAIN_MIN 0.0 0.0 0.0
DOMAIN_MAX 1.0 1.0 1.0
0.139782 0.101046 0.099244
0.179282 0.107920 0.100874
0.389727 0.119701 0.102927
0.665917 0.138150 0.105661
0.849839 0.164952 0.110322
0.919229 0.191112 0.117681
0.950923 0.207107 0.135851
0.968372 0.159349 0.502798
0.970547 0.391792 0.658321
0.139929 0.125131 0.100597
0.145126 0.132043 0.101785
0.240650 0.138811 0.103730
0.536316 0.158975 0.106294
0.812289 0.183794 0.110938
0.911511 0.209879 0.117946
0.949754 0.224132 0.134429
0.968372 0.159400 0.502817
0.970547 0.391805 0.658319
0.140245 0.197419 0.102470
0.142633 0.212358 0.103669
0.164003 0.225006 0.105544
0.306239 0.238949 0.108611
0.606555 0.258582 0.113416
0.863896 0.283906 0.120260
0.941785 0.301464 0.133358
0.968491 0.176641 0.504922
0.970547 0.391806 0.658318
0.141549 0.312371 0.104698
0.143166 0.325672 0.105694
0.155484 0.350913 0.108531
0.215084 0.363311 0.112537
0.399801 0.378440 0.117548
0.713948 0.397463 0.125975
0.907764 0.419953 0.136962
0.958784 0.434981 0.156999
0.970547 0.391865 0.524950
0.142683 0.450980 0.107358
0.144097 0.460712 0.108373
0.152552 0.493072 0.112305
0.187481 0.518356 0.117122
0.301346 0.530892 0.124221
0.515785 0.547072 0.132969
0.824355 0.568003 0.143056
0.948653 0.590775 0.158206
0.969511 0.631228 0.323580
0.143874 0.612384 0.110291
0.144994 0.618503 0.111444
0.151659 0.644967 0.115632
0.174836 0.670698 0.122632
0.251238 0.686666 0.131174
0.408803 0.695618 0.139928
0.679658 0.707631 0.150551
0.917419 0.723637 0.162897
0.967803 0.752260 0.210282
0.144136 0.748184 0.112018
0.145081 0.751549 0.113064
0.150250 0.767403 0.117469
0.167222 0.787793 0.126232
0.224820 0.802316 0.135853
0.345123 0.810385 0.145516
0.540336 0.817627 0.155958
0.851271 0.827737 0.167093
0.965632 0.846540 0.196336
0.141712 0.864583 0.106925
0.142169 0.864907 0.107788
0.146748 0.869698 0.113947
0.159935 0.878888 0.123060
0.202200 0.887677 0.134336
0.298185 0.892694 0.145211
0.450162 0.896397 0.155988
0.738792 0.902106 0.165824
0.963798 0.910995 0.185104
0.139782 0.885200 0.099289
0.139782 0.885203 0.099295
0.139782 0.926635 0.099440
0.139783 0.927384 0.106405
0.168875 0.947908 0.114063
0.248975 0.947463 0.126331
0.374533 0.947182 0.136699
0.563920 0.949132 0.143409
0.965029 0.953779 0.146509
0.139851 0.104624 0.116498
0.177820 0.110508 0.203118
0.423889 0.122061 0.138342
0.721692 0.140641 0.131546
0.865768 0.166722 0.127819
0.921364 0.192687 0.132861
0.950923 0.209148 0.152715
0.968372 0.159398 0.502819
0.970547 0.391805 0.658322
0.140612 0.123641 0.113156
0.156994 0.135553 0.125023
0.336743 0.140513 0.124039
0.635737 0.161924 0.127574
0.838845 0.185674 0.127427
0.914962 0.211103 0.132599
0.949837 0.225876 0.149611
0.968372 0.159476 0.502848
0.970547 0.391805 0.658319
0.142255 0.190591 0.112178
0.146431 0.202508 0.114471
0.185328 0.217145 0.119206
0.391124 0.236619 0.125903
0.696440 0.258626 0.129140
0.878124 0.283492 0.134027
0.942888 0.301605 0.145976
0.968524 0.181743 0.505840
0.970547 0.391806 0.658318
0.143497 0.304351 0.113204
0.146147 0.315853 0.115001
0.162657 0.339608 0.120392
0.244431 0.354294 0.127697
0.453917 0.373700 0.133296
0.757314 0.395094 0.138893
0.914441 0.418310 0.148718
0.958991 0.434900 0.168887
0.970547 0.391823 0.658313
0.144346 0.442762 0.113975
0.146369 0.452043 0.115640
0.157269 0.481762 0.121784
0.201068 0.507344 0.130235
0.330010 0.522648 0.138565
0.555115 0.541963 0.145257
0.845689 0.564866 0.154704
0.949881 0.589257 0.168461
0.969492 0.632262 0.362050
0.145151 0.605820 0.115226
0.146592 0.612039 0.116710
0.154825 0.637651 0.123450
0.181264 0.663051 0.132446
0.264956 0.680992 0.141806
0.431225 0.691240 0.151836
0.710472 0.704790 0.161192
0.923817 0.721883 0.172705
0.967849 0.752368 0.227436
0.145109 0.744805 0.115875
0.146240 0.748212 0.117166
0.151977 0.763800 0.124031
0.170500 0.783784 0.133757
0.231861 0.798928 0.144169
0.357070 0.807465 0.155309
0.561232 0.815333 0.165529
0.864959 0.826242 0.177253
0.965871 0.846248 0.210147
0.142148 0.862683 0.108807
0.142588 0.863181 0.110137
0.147628 0.868274 0.117455
0.161740 0.877555 0.129106
0.206457 0.886161 0.141121
0.304955 0.891290 0.153174
0.459907 0.895290 0.163824
0.753417 0.901247 0.174658
0.964382 0.910688 0.197176
0.139782 0.889689 0.126675
0.139782 0.889693 0.126675
0.139782 0.929957 0.126675
0.139783 0.929957 0.126671
0.170668 0.947479 0.117233
0.251747 0.947022 0.131727
0.378257 0.946845 0.142584
0.572099 0.948896 0.150240
0.967300 0.953673 0.153433
0.139996 0.110800 0.184768
0.157993 0.119926 0.430762
0.390728 0.129574 0.397517
0.712855 0.149023 0.361096
0.869334 0.174117 0.337383
0.923147 0.200850 0.350697
0.950760 0.217650 0.402639
0.968436 0.169151 0.516576
0.970547 0.391806 0.658354
0.141587 0.128033 0.185162
0.152621 0.136181 0.261261
0.336606 0.147398 0.300866
0.653373 0.168312 0.296597
0.851743 0.193410 0.294725
0.918594 0.218192 0.317213
0.949870 0.233451 0.369816
0.968460 0.172792 0.518453
0.970547 0.391806 0.658325
0.144563 0.188510 0.167634
0.150362 0.198948 0.177148
0.229050 0.230985 0.218676
0.474446 0.237415 0.222579
0.768828 0.261272 0.235804
0.895240 0.286175 0.256932
0.944852 0.304696 0.286767
0.967937 0.250972 0.514121
0.970547 0.391806 0.658319
0.147607 0.296868 0.164915
0.151289 0.306531 0.169086
0.178869 0.327899 0.182468
0.307899 0.344910 0.198336
0.569354 0.368398 0.214270
0.832569 0.392793 0.230830
0.927351 0.416187 0.246724
0.959625 0.435308 0.312493
0.970547 0.391808 0.658323
0.149434 0.432970 0.163161
0.152593 0.440957 0.166201
0.168263 0.464653 0.176385
0.236884 0.489473 0.191088
0.402893 0.508376 0.205476
0.679827 0.531968 0.221790
0.886803 0.557975 0.233713
0.953160 0.584451 0.266808
0.969421 0.636299 0.506958
0.150570 0.594476 0.162843
0.153086 0.600296 0.165188
0.165052 0.622170 0.174095
0.208493 0.645814 0.188254
0.318112 0.664745 0.203689
0.506413 0.680558 0.217842
0.792944 0.697130 0.229771
0.939739 0.716181 0.252477
0.968002 0.752863 0.332099
0.149836 0.735815 0.157310
0.151299 0.739309 0.159422
0.160436 0.753619 0.167216
0.188915 0.771996 0.179980
0.262999 0.787806 0.196354
0.405648 0.798723 0.212059
0.641244 0.808412 0.226469
0.898007 0.820895 0.244999
0.966576 0.845268 0.280848
0.146295 0.851456 0.146214
0.147261 0.853028 0.148469
0.154241 0.860903 0.158941
0.171886 0.871828 0.170515
0.227517 0.880056 0.187151
0.336718 0.885739 0.204319
0.504902 0.890904 0.219448
0.810240 0.897812 0.233653
0.965870 0.909557 0.254797
0.139782 0.889694 0.126678
0.139782 0.929955 0.126678
0.139782 0.929957 0.126677
0.139794 0.929966 0.126678
0.180402 0.944850 0.144359
0.266021 0.944786 0.163679
0.396340 0.945167 0.176793
0.610142 0.947688 0.187289
0.969157 0.953156 0.195317
0.140227 0.120017 0.314528
0.147070 0.132620 0.528414
0.346368 0.145908 0.575869
0.665987 0.164095 0.563039
0.858288 0.189302 0.558924
0.920016 0.215957 0.567273
0.949811 0.234137 0.603237
0.965808 0.224931 0.686274
0.970547 0.391805 0.697991
0.141950 0.136393 0.324558
0.148801 0.148597 0.444386
0.304585 0.164462 0.529164
0.619795 0.181239 0.526642
0.842614 0.207957 0.530591
0.915955 0.231909 0.545680
0.948973 0.249368 0.586483
0.965492 0.237898 0.680351
0.970547 0.391806 0.698413
0.146704 0.199662 0.300867
0.153162 0.210087 0.324737
0.225799 0.228840 0.387991
0.485295 0.245579 0.421247
0.777701 0.269416 0.445942
0.896877 0.295144 0.471815
0.944671 0.315402 0.518718
0.962833 0.327992 0.625001
0.970547 0.391806 0.699950
0.150808 0.296077 0.277965
0.156749 0.305013 0.287015
0.193529 0.325997 0.312815
0.360764 0.359862 0.354847
0.628341 0.369966 0.366628
0.853422 0.395356 0.389974
0.931460 0.419963 0.431536
0.959546 0.442937 0.528178
0.970547 0.391826 0.700411
0.155322 0.428062 0.268996
0.159269 0.435196 0.274181
0.182963 0.456523 0.290713
0.271403 0.480679 0.310957
0.462504 0.501654 0.329826
0.747622 0.527956 0.349817
0.902642 0.555523 0.373703
0.954471 0.585390 0.431377
0.969282 0.643754 0.661748
0.157303 0.586928 0.260280
0.160051 0.592397 0.263990
0.177017 0.612162 0.277228
0.233945 0.634508 0.294222
0.364642 0.654093 0.311709
0.582293 0.671953 0.328216
0.842953 0.691861 0.346857
0.945572 0.713034 0.375905
0.968072 0.755124 0.549176
0.156597 0.728902 0.249860
0.158758 0.732253 0.252816
0.169475 0.745335 0.264120
0.210447 0.762437 0.280106
0.302452 0.777943 0.297089
0.459814 0.790997 0.313447
0.723204 0.802632 0.329162
0.919853 0.816881 0.348708
0.967079 0.845087 0.440696
0.150595 0.845363 0.231543
0.152224 0.847184 0.233954
0.161290 0.855272 0.245466
0.186563 0.866170 0.260938
0.250360 0.874925 0.278262
0.371582 0.881083 0.294781
0.561909 0.887079 0.309984
0.857238 0.894824 0.325162
0.966936 0.908807 0.371336
0.139782 0.907666 0.221124
0.139782 0.929952 0.221124
0.139782 0.929956 0.221123
0.149082 0.941479 0.190740
0.199484 0.940201 0.238806
0.289994 0.941398 0.256588
0.425073 0.942756 0.271052
0.669527 0.945883 0.280986
0.969842 0.952777 0.302860
0.140855 0.132249 0.467356
0.143995 0.142823 0.595659
0.279666 0.168458 0.709212
0.618071 0.186484 0.709544
0.841086 0.210432 0.709207
0.915262 0.235810 0.716877
0.948468 0.255712 0.733530
0.964153 0.258687 0.762655
0.970547 0.391806 0.790093
0.142191 0.147209 0.477529
0.146352 0.159764 0.573000
0.254089 0.184575 0.690379
0.582361 0.204470 0.695599
0.826857 0.227029 0.697629
0.911427 0.250915 0.707964
0.947656 0.269775 0.728067
0.963866 0.272407 0.759903
0.970547 0.391806 0.787352
0.147592 0.212571 0.467593
0.153291 0.222530 0.502166
0.219763 0.245478 0.600340
0.477070 0.263317 0.637178
0.768989 0.283351 0.651776
0.894577 0.310127 0.670885
0.943766 0.331792 0.699450
0.961988 0.350676 0.742756
0.970547 0.391811 0.778658
0.154349 0.306923 0.431376
0.159848 0.315153 0.446791
0.203013 0.337540 0.491948
0.366642 0.358022 0.537628
0.646738 0.378079 0.566812
0.859301 0.404245 0.598225
0.932018 0.429860 0.641990
0.959189 0.455668 0.706498
0.970547 0.495192 0.778736
0.159548 0.428427 0.403370
0.164173 0.435369 0.411062
0.194653 0.455892 0.436942
0.296757 0.480518 0.469648
0.507474 0.515071 0.506042
0.778220 0.530608 0.524768
0.909085 0.559445 0.562453
0.954856 0.591474 0.638011
0.969091 0.653746 0.758736
0.162597 0.584262 0.387966
0.166041 0.589721 0.392086
0.189750 0.608196 0.408171
0.255738 0.629851 0.432109
0.401649 0.650118 0.458243
0.639034 0.669256 0.479127
0.868806 0.690758 0.504788
0.947999 0.713640 0.552656
0.968022 0.759521 0.718983
0.162010 0.725630 0.373049
0.164723 0.728871 0.376031
0.180678 0.741073 0.387479
0.229150 0.757300 0.405046
0.333960 0.772708 0.426772
0.504138 0.786517 0.448339
0.773028 0.799893 0.468101
0.931632 0.815190 0.494936
0.967273 0.846744 0.641073
0.155661 0.842780 0.351833
0.157594 0.844537 0.354136
0.167406 0.851985 0.364597
0.200702 0.862215 0.379304
0.273467 0.871660 0.396386
0.404131 0.878133 0.415111
0.616380 0.884721 0.433328
0.885153 0.893196 0.452994
0.967469 0.909323 0.535102
0.139782 0.913678 0.364610
0.139782 0.917242 0.364610
0.139782 0.924662 0.364609
0.160156 0.934655 0.336627
0.210845 0.938132 0.356169
0.307150 0.939706 0.372319
0.448658 0.941458 0.385328
0.717242 0.945001 0.394712
0.970161 0.953554 0.455196
0.141786 0.148794 0.640498
0.143619 0.157076 0.727036
0.236310 0.193590 0.801365
0.567782 0.213120 0.803478
0.825073 0.234938 0.804484
0.910340 0.257849 0.807251
0.947071 0.278623 0.813133
0.963105 0.290602 0.824207
0.970547 0.391806 0.827073
0.142563 0.162233 0.650313
0.145019 0.170958 0.722366
0.228444 0.208357 0.796688
0.540856 0.227503 0.800181
0.813320 0.249204 0.801785
0.906784 0.271567 0.804958
0.946304 0.292994 0.811489
0.962831 0.305242 0.823238
0.970547 0.391806 0.827073
0.148184 0.228725 0.656495
0.152452 0.236604 0.693247
0.214216 0.264322 0.764575
0.459997 0.283231 0.780974
0.759893 0.304598 0.787404
0.891712 0.327833 0.794800
0.942803 0.350689 0.804104
0.961276 0.373985 0.817800
0.970547 0.391811 0.827072
0.156372 0.319674 0.613637
0.161129 0.326741 0.634380
0.207458 0.351362 0.699363
0.372378 0.373554 0.739398
0.656354 0.394245 0.755688
0.861062 0.416770 0.768722
0.931914 0.442925 0.786135
0.958818 0.472313 0.807680
0.970257 0.524327 0.827893
0.163055 0.437866 0.571462
0.167420 0.443954 0.581609
0.204412 0.466172 0.621919
0.314083 0.491753 0.670297
0.523958 0.515123 0.703335
0.794488 0.538373 0.727315
0.912308 0.567800 0.751441
0.955036 0.600474 0.786824
0.968908 0.665404 0.825085
0.166558 0.586876 0.541032
0.170983 0.591993 0.546655
0.199690 0.609768 0.567855
0.273635 0.631134 0.600807
0.427980 0.651805 0.637539
0.681756 0.676762 0.672619
0.879178 0.693267 0.700018
0.949308 0.717285 0.745448
0.967980 0.765428 0.813086
0.166204 0.726331 0.518040
0.169021 0.729385 0.521158
0.190246 0.740926 0.534755
0.243179 0.756521 0.556426
0.357400 0.771838 0.582877
0.540920 0.786022 0.611033
0.805068 0.800072 0.639512
0.937967 0.816122 0.681739
0.967385 0.849644 0.789774
0.158675 0.843560 0.494719
0.160586 0.845219 0.496844
0.173004 0.852121 0.506519
0.210734 0.861648 0.520783
0.291679 0.870926 0.540075
0.429117 0.877510 0.560584
0.657590 0.884412 0.581090
0.900449 0.893304 0.606043
0.967717 0.910799 0.732303
0.139782 0.916006 0.437950
0.139782 0.919120 0.442098
0.139783 0.925130 0.457844
0.161746 0.935511 0.477588
0.216373 0.938315 0.494474
0.316211 0.939837 0.508965
0.462070 0.941780 0.521016
0.739083 0.945444 0.530320
0.970265 0.954728 0.653223
0.142550 0.169799 0.806267
0.144124 0.175377 0.836682
0.202735 0.216176 0.860603
0.536950 0.236488 0.862725
0.815834 0.257875 0.863705
0.907636 0.279821 0.865287
0.946370 0.300957 0.868716
0.962500 0.318129 0.874969
0.970547 0.391782 0.880345
0.143374 0.180802 0.809118
0.145299 0.188084 0.835081
0.202820 0.228306 0.858857
0.517020 0.249021 0.861486
0.806276 0.270035 0.862674
0.904654 0.292990 0.864394
0.945665 0.314713 0.867948
0.962248 0.331900 0.874409
0.970547 0.391773 0.879875
0.148495 0.243512 0.813527
0.151887 0.249798 0.827871
0.204636 0.278626 0.850431
0.454614 0.300982 0.855854
0.760494 0.322660 0.858144
0.891753 0.345481 0.860559
0.942568 0.368080 0.864698
0.960935 0.394138 0.871541
0.970544 0.391569 0.877734
0.157695 0.334440 0.797466
0.162017 0.340315 0.807362
0.207249 0.364834 0.831664
0.379965 0.388486 0.844239
0.671977 0.409544 0.849564
0.866456 0.431915 0.853532
0.933051 0.455447 0.858790
0.958813 0.487713 0.867028
0.969803 0.559343 0.880310
0.165408 0.450121 0.762255
0.169944 0.455492 0.771991
0.208925 0.478413 0.801911
0.327401 0.504635 0.822236
0.550755 0.527864 0.833871
0.809541 0.551073 0.841336
0.916220 0.576820 0.849320
0.955542 0.609106 0.859876
0.968833 0.676705 0.875881
0.169926 0.595612 0.726957
0.175679 0.600192 0.733294
0.206485 0.617472 0.756201
0.289301 0.639219 0.787234
0.453181 0.659770 0.808593
0.713563 0.679574 0.821455
0.887846 0.697502 0.832844
0.950613 0.721569 0.848424
0.968050 0.771097 0.870401
0.168458 0.730737 0.691099
0.173155 0.733690 0.695287
0.196334 0.744696 0.712046
0.253317 0.759669 0.737812
0.374721 0.774780 0.764616
0.571053 0.788939 0.788703
0.824144 0.802444 0.804969
0.942309 0.818607 0.825786
0.967584 0.853011 0.862117
0.159384 0.848111 0.659478
0.161572 0.849611 0.662049
0.175361 0.855851 0.672276
0.215661 0.864683 0.689002
0.301807 0.872811 0.711379
0.445232 0.879207 0.734637
0.685461 0.886136 0.754657
0.909083 0.895027 0.777810
0.967933 0.912944 0.845401
0.139786 0.915688 0.548773
0.139788 0.921415 0.548808
0.139828 0.927980 0.549723
0.157880 0.939359 0.639426
0.214228 0.940722 0.654683
0.315673 0.941841 0.669654
0.462935 0.943647 0.681861
0.739633 0.947285 0.690311
0.970351 0.956403 0.818639
0.144133 0.193558 0.899356
0.145919 0.197836 0.902265
0.216657 0.230132 0.906189
0.570363 0.250359 0.906793
0.830446 0.270292 0.907218
0.912465 0.292177 0.907936
0.947450 0.312285 0.909337
0.963045 0.328941 0.912927
0.970547 0.402670 0.914942
0.144982 0.204911 0.899020
0.146958 0.209341 0.901748
0.217982 0.241212 0.905741
0.554263 0.261367 0.906429
0.823346 0.281496 0.906898
0.910289 0.304327 0.907650
0.946938 0.324670 0.909087
0.962832 0.342107 0.912663
0.970547 0.406172 0.914942
0.150831 0.262812 0.897715
0.154841 0.266970 0.899618
0.224829 0.293111 0.903396
0.496098 0.313578 0.904604
0.790396 0.334026 0.905348
0.900061 0.355841 0.906299
0.944485 0.377463 0.907908
0.961755 0.401097 0.911339
0.970547 0.443514 0.914942
0.160173 0.348790 0.893437
0.164751 0.353139 0.895294
0.225276 0.376354 0.899617
0.422846 0.396828 0.901751
0.725213 0.416765 0.902994
0.881046 0.438291 0.904264
0.938588 0.460781 0.906156
0.960077 0.491978 0.909588
0.969851 0.573640 0.914936
0.168049 0.462470 0.882617
0.174393 0.467240 0.885797
0.222913 0.489682 0.893631
0.359070 0.512728 0.897442
0.613211 0.534135 0.899730
0.841032 0.556368 0.901512
0.925667 0.580898 0.903727
0.957531 0.610428 0.907374
0.969108 0.682557 0.912873
0.173761 0.605937 0.864528
0.179353 0.609841 0.868365
0.216287 0.626918 0.879969
0.310723 0.646199 0.889600
0.493428 0.665081 0.894808
0.761997 0.683409 0.897686
0.902933 0.700004 0.900445
0.953699 0.722035 0.904551
0.968510 0.774043 0.910923
0.170483 0.738001 0.836679
0.175202 0.740602 0.840515
0.201783 0.751511 0.854352
0.263690 0.765256 0.870174
0.397498 0.779091 0.882624
0.618031 0.792361 0.890586
0.854775 0.804407 0.895210
0.946903 0.819771 0.900381
0.968147 0.854901 0.908588
0.157203 0.857720 0.804826
0.159334 0.858855 0.806719
0.173109 0.863704 0.815798
0.215096 0.870748 0.831213
0.305785 0.876844 0.850598
0.457216 0.882751 0.866434
0.712604 0.889257 0.878200
0.914709 0.895781 0.885569
0.968368 0.914966 0.904834
0.139782 0.912456 0.740055
0.139782 0.927730 0.742221
0.139783 0.929822 0.757073
0.151741 0.943208 0.783393
0.201537 0.946069 0.793775
0.302305 0.946114 0.804832
0.447231 0.947342 0.814527
0.712240 0.950583 0.820125
0.970439 0.958423 0.896004
0.220346 0.191367 0.932992
0.260848 0.193668 0.932995
0.498287 0.202834 0.933003
0.811430 0.217761 0.933031
0.901599 0.234569 0.933087
0.938082 0.250313 0.933197
0.954503 0.257421 0.933499
0.966343 0.248806 0.934118
0.970547 0.391809 0.932331
0.220373 0.200862 0.932928
0.259771 0.203186 0.932931
0.493178 0.212412 0.932943
0.806885 0.227272 0.932977
0.900019 0.244359 0.933038
0.937461 0.260080 0.933156
0.954360 0.267417 0.933461
0.966254 0.258343 0.934091
0.970547 0.391810 0.933642
0.224720 0.246937 0.932576
0.259101 0.249174 0.932587
0.472888 0.257985 0.932627
0.782784 0.272047 0.932701
0.892382 0.289053 0.932800
0.934443 0.305970 0.932960
0.953624 0.315808 0.933282
0.965777 0.311884 0.933923
0.970547 0.391842 0.933642
0.231967 0.338885 0.931981
0.255963 0.340958 0.932011
0.430081 0.349147 0.932113
0.731824 0.362352 0.932260
0.876070 0.378085 0.932420
0.927671 0.394085 0.932637
0.952004 0.406703 0.933000
0.964877 0.420250 0.933608
0.970547 0.557502 0.934499
0.227721 0.454905 0.931478
0.244058 0.456920 0.931529
0.365384 0.465673 0.931698
0.642118 0.479760 0.931895
0.842966 0.495766 0.932119
0.916428 0.512766 0.932386
0.949360 0.528276 0.932767
0.963925 0.549360 0.933387
0.970449 0.652467 0.934583
0.212185 0.601842 0.930903
0.224281 0.603779 0.931033
0.302386 0.611803 0.931447
0.512429 0.623731 0.931729
0.778042 0.636479 0.931988
0.896693 0.650251 0.932287
0.944923 0.664069 0.932672
0.962616 0.682508 0.933265
0.970263 0.752083 0.934362
0.186657 0.739720 0.930600
0.194119 0.741147 0.930782
0.236753 0.747217 0.931330
0.371498 0.756021 0.931754
0.622948 0.764771 0.932082
0.849737 0.774143 0.932403
0.932384 0.783703 0.932821
0.960615 0.794884 0.933360
0.970207 0.840825 0.934345
0.156023 0.861670 0.927314
0.158236 0.862532 0.928505
0.171786 0.866435 0.930774
0.232273 0.871447 0.931870
0.379374 0.875136 0.932418
0.648880 0.878934 0.932823
0.885324 0.883763 0.933215
0.955179 0.888272 0.933708
0.970309 0.909025 0.934495
0.139782 0.906861 0.830128
0.139782 0.929956 0.856914
0.139782 0.929957 0.856914
0.142872 0.933463 0.856981
0.171112 0.956417 0.909167
0.273806 0.952725 0.932705
0.433180 0.952525 0.933913
0.725447 0.955319 0.934438
0.970547 0.959865 0.934753
