LUTs/velvia/Velvia50_Classic_IlfochromeP.cube
TITLE "Velvia 50 Classic IlfochromeP"
# Adobe RGB in/out. REPLACES AgX. Velvia 50 Classic IlfochromeP.
LUT_3D_SIZE 5
DOMAIN_MIN 0.0 0.0 0.0
DOMAIN_MAX 1.0 1.0 1.0
0.139782 0.101046 0.099244
0.389727 0.119701 0.102927
0.849839 0.164952 0.110322
0.950923 0.207107 0.135851
0.970547 0.391792 0.658321
0.140245 0.197419 0.102470
0.164003 0.225006 0.105544
0.606555 0.258582 0.113416
0.941785 0.301464 0.133358
0.970547 0.391806 0.658318
0.142683 0.450980 0.107358
0.152552 0.493072 0.112305
0.301346 0.530892 0.124221
0.824355 0.568003 0.143056
0.969511 0.631228 0.323580
0.144136 0.748184 0.112018
0.150250 0.767403 0.117469
0.224820 0.802316 0.135853
0.540336 0.817627 0.155958
0.965632 0.846540 0.196336
0.139782 0.885200 0.099289
0.139782 0.926635 0.099440
0.168875 0.947908 0.114063
0.374533 0.947182 0.136699
0.965029 0.953779 0.146509
0.139996 0.110800 0.184768
0.390728 0.129574 0.397517
0.869334 0.174117 0.337383
0.950760 0.217650 0.402639
0.970547 0.391806 0.658354
0.144563 0.188510 0.167634
0.229050 0.230985 0.218676
0.768828 0.261272 0.235804
0.944852 0.304696 0.286767
0.970547 0.391806 0.658319
0.149434 0.432970 0.163161
0.168263 0.464653 0.176385
0.402893 0.508376 0.205476
0.886803 0.557975 0.233713
0.969421 0.636299 0.506958
0.149836 0.735815 0.157310
0.160436 0.753619 0.167216
0.262999 0.787806 0.196354
0.641244 0.808412 0.226469
0.966576 0.845268 0.280848
0.139782 0.889694 0.126678
0.139782 0.929957 0.126677
0.180402 0.944850 0.144359
0.396340 0.945167 0.176793
0.969157 0.953156 0.195317
0.140855 0.132249 0.467356
0.279666 0.168458 0.709212
0.841086 0.210432 0.709207
0.948468 0.255712 0.733530
0.970547 0.391806 0.790093
0.147592 0.212571 0.467593
0.219763 0.245478 0.600340
0.768989 0.283351 0.651776
0.943766 0.331792 0.699450
0.970547 0.391811 0.778658
0.159548 0.428427 0.403370
0.194653 0.455892 0.436942
0.507474 0.515071 0.506042
0.909085 0.559445 0.562453
0.969091 0.653746 0.758736
0.162010 0.725630 0.373049
0.180678 0.741073 0.387479
0.333960 0.772708 0.426772
0.773028 0.799893 0.468101
0.967273 0.846744 0.641073
0.139782 0.913678 0.364610
0.139782 0.924662 0.364609
0.210845 0.938132 0.356169
0.448658 0.941458 0.385328
0.970161 0.953554 0.455196
0.142550 0.169799 0.806267
0.202735 0.216176 0.860603
0.815834 0.257875 0.863705
0.946370 0.300957 0.868716
0.970547 0.391782 0.880345
0.148495 0.243512 0.813527
0.204636 0.278626 0.850431
0.760494 0.322660 0.858144
0.942568 0.368080 0.864698
0.970544 0.391569 0.877734
0.165408 0.450121 0.762255
0.208925 0.478413 0.801911
0.550755 0.527864 0.833871
0.916220 0.576820 0.849320
0.968833 0.676705 0.875881
0.168458 0.730737 0.691099
0.196334 0.744696 0.712046
0.374721 0.774780 0.764616
0.824144 0.802444 0.804969
0.967584 0.853011 0.862117
0.139786 0.915688 0.548773
0.139828 0.927980 0.549723
0.214228 0.940722 0.654683
0.462935 0.943647 0.681861
0.970351 0.956403 0.818639
0.220346 0.191367 0.932992
0.498287 0.202834 0.933003
0.901599 0.234569 0.933087
0.954503 0.257421 0.933499
0.970547 0.391809 0.932331
0.224720 0.246937 0.932576
0.472888 0.257985 0.932627
0.892382 0.289053 0.932800
0.953624 0.315808 0.933282
0.970547 0.391842 0.933642
0.227721 0.454905 0.931478
0.365384 0.465673 0.931698
0.842966 0.495766 0.932119
0.949360 0.528276 0.932767
0.970449 0.652467 0.934583
0.186657 0.739720 0.930600
0.236753 0.747217 0.931330
0.622948 0.764771 0.932082
0.932384 0.783703 0.932821
0.970207 0.840825 0.934345
0.139782 0.906861 0.830128
0.139782 0.929957 0.856914
0.171112 0.956417 0.909167
0.433180 0.952525 0.933913
0.970547 0.959865 0.934753
