LUTs/velvia/Velvia50_Classic_IlfochromeM.cube
TITLE "Velvia 50 Classic IlfochromeM"
# Adobe RGB in/out. REPLACES AgX. Velvia 50 Classic IlfochromeM.
LUT_3D_SIZE 9
DOMAIN_MIN 0.0 0.0 0.0
DOMAIN_MAX 1.0 1.0 1.0
0.118305 0.082367 0.079686
0.170703 0.085701 0.081396
0.389178 0.098686 0.083635
0.661952 0.120499 0.089266
0.842379 0.147796 0.099379
0.907944 0.176434 0.111753
0.933890 0.193377 0.130507
0.949250 0.142092 0.507906
0.950399 0.387196 0.660435
0.118701 0.105096 0.081272
0.125023 0.112667 0.082102
0.236667 0.121257 0.085254
0.537035 0.141741 0.090964
0.812729 0.168833 0.100482
0.902503 0.196320 0.112154
0.932580 0.211460 0.129145
0.949250 0.142139 0.507926
0.950399 0.387210 0.660432
0.119139 0.183108 0.082925
0.121590 0.198945 0.085115
0.152375 0.212390 0.088956
0.305094 0.227114 0.096088
0.604509 0.248483 0.104749
0.853627 0.276896 0.114699
0.923773 0.295297 0.128095
0.949313 0.160701 0.510270
0.950399 0.387211 0.660432
0.120079 0.306518 0.087226
0.122252 0.319584 0.089356
0.139548 0.346148 0.095855
0.204351 0.358585 0.103247
0.399295 0.372911 0.111551
0.708326 0.393427 0.120354
0.899856 0.418232 0.131572
0.942706 0.434399 0.153814
0.950399 0.387276 0.532365
0.121674 0.450790 0.093119
0.123692 0.460648 0.095391
0.135615 0.490260 0.102858
0.178237 0.513386 0.110908
0.299922 0.525176 0.118530
0.517232 0.540239 0.127666
0.822278 0.559672 0.138256
0.931346 0.581175 0.155274
0.949852 0.623233 0.326290
0.123325 0.603622 0.099324
0.124840 0.609986 0.101393
0.134478 0.637551 0.108666
0.165913 0.664411 0.116879
0.249393 0.682485 0.125691
0.408339 0.694093 0.134601
0.675228 0.709744 0.146378
0.906670 0.726439 0.161291
0.948949 0.754161 0.212664
0.123756 0.750214 0.102379
0.124961 0.753473 0.104132
0.132458 0.768818 0.111432
0.157442 0.787905 0.120622
0.215799 0.802360 0.130509
0.344294 0.811030 0.141003
0.540902 0.818817 0.152555
0.843526 0.829696 0.167128
0.947800 0.848433 0.199463
0.120241 0.861688 0.092239
0.120693 0.861925 0.093999
0.127284 0.865488 0.105788
0.146509 0.874424 0.117323
0.191654 0.882968 0.129056
0.296586 0.887844 0.140678
0.449899 0.891442 0.152592
0.738232 0.896990 0.165356
0.946829 0.905625 0.188680
0.118315 0.880560 0.079883
0.118314 0.880563 0.079909
0.118312 0.918617 0.080207
0.118346 0.919127 0.091188
0.160081 0.933042 0.106015
0.246729 0.932741 0.120725
0.373786 0.932551 0.131319
0.563569 0.933868 0.138690
0.947481 0.937005 0.142062
0.118630 0.084177 0.109967
0.169127 0.088597 0.205842
0.423496 0.101039 0.132970
0.717760 0.123363 0.126100
0.855123 0.149610 0.122196
0.909447 0.178098 0.127548
0.933890 0.195543 0.148693
0.949250 0.142138 0.507928
0.950399 0.387210 0.660436
0.119439 0.103104 0.104288
0.141845 0.117082 0.119363
0.336290 0.123216 0.118341
0.632767 0.144699 0.121953
0.833706 0.170759 0.121807
0.904938 0.197615 0.127259
0.932674 0.213316 0.145373
0.949250 0.142211 0.507961
0.950399 0.387211 0.660432
0.120814 0.175884 0.102645
0.126841 0.188508 0.106819
0.176204 0.204025 0.113598
0.390581 0.224703 0.120280
0.691432 0.248535 0.123500
0.868370 0.276453 0.128760
0.924890 0.295442 0.141494
0.949331 0.166735 0.511292
0.950399 0.387211 0.660432
0.122704 0.298265 0.104368
0.126444 0.310014 0.107722
0.150506 0.333776 0.114815
0.241394 0.349856 0.122075
0.453749 0.368426 0.128028
0.759105 0.390822 0.133536
0.904570 0.416414 0.144419
0.942939 0.434316 0.169686
0.950399 0.387230 0.660427
0.124102 0.442369 0.105842
0.126753 0.451879 0.108678
0.142267 0.479930 0.116037
0.190614 0.503270 0.124658
0.329851 0.517423 0.133199
0.555111 0.535489 0.140727
0.839090 0.556762 0.151043
0.932723 0.579599 0.169043
0.949842 0.624310 0.364294
0.125059 0.596799 0.108058
0.127066 0.603263 0.110286
0.138551 0.629924 0.117729
0.172581 0.656423 0.127090
0.264442 0.675173 0.136722
0.430867 0.688411 0.147752
0.704972 0.706035 0.158935
0.911173 0.724740 0.174706
0.948974 0.754266 0.229781
0.125000 0.746941 0.109030
0.126574 0.750241 0.110974
0.134883 0.765332 0.118332
0.161600 0.784341 0.128501
0.223995 0.798722 0.139603
0.356177 0.807892 0.151773
0.560988 0.816350 0.164945
0.854476 0.828087 0.179930
0.947927 0.848218 0.212532
0.120672 0.860296 0.096662
0.121496 0.860660 0.099049
0.128644 0.864390 0.111410
0.149236 0.873128 0.123467
0.195561 0.881494 0.135884
0.303736 0.886479 0.149201
0.459957 0.890367 0.162576
0.755487 0.896156 0.176946
0.947139 0.905327 0.200253
0.118311 0.884923 0.121064
0.118311 0.884927 0.121065
0.118312 0.920876 0.121065
0.118354 0.920877 0.121061
0.161756 0.932752 0.111075
0.249992 0.932443 0.126299
0.377632 0.932324 0.137676
0.571421 0.933709 0.146046
0.948683 0.936934 0.149513
0.118925 0.089008 0.188344
0.143375 0.098909 0.432378
0.390183 0.109775 0.400705
0.707271 0.131831 0.363346
0.858513 0.157814 0.339825
0.910702 0.186756 0.353016
0.933707 0.204561 0.405882
0.949284 0.152166 0.523263
0.950399 0.387211 0.660464
0.120117 0.108194 0.188738
0.135703 0.117877 0.264928
0.336158 0.130160 0.304137
0.649826 0.151242 0.299969
0.843905 0.178862 0.298128
0.907497 0.205138 0.320052
0.932710 0.221399 0.372005
0.949297 0.156302 0.525358
0.950399 0.387211 0.660438
0.124403 0.173690 0.167884
0.132600 0.184730 0.179809
0.220717 0.218764 0.220972
0.475039 0.225527 0.224897
0.769786 0.251607 0.238744
0.887603 0.279328 0.260570
0.927089 0.298620 0.290297
0.949020 0.239684 0.520524
0.950399 0.387211 0.660432
0.128606 0.290575 0.164090
0.133998 0.300508 0.169996
0.170258 0.321754 0.186042
0.306852 0.339573 0.201344
0.568786 0.363404 0.216585
0.828762 0.388295 0.233223
0.913657 0.414068 0.250289
0.943641 0.434734 0.315460
0.950399 0.387214 0.660436
0.131482 0.432340 0.161656
0.135667 0.440519 0.165882
0.159206 0.464263 0.178931
0.231425 0.486975 0.194521
0.402401 0.504209 0.208065
0.675391 0.526186 0.224104
0.878116 0.550366 0.236422
0.936398 0.574913 0.270470
0.949804 0.628515 0.512537
0.132911 0.585016 0.161216
0.136295 0.591060 0.164470
0.153839 0.613802 0.176300
0.197430 0.638434 0.191831
0.317688 0.658192 0.206381
0.508092 0.674720 0.220134
0.792118 0.696060 0.232128
0.922342 0.719216 0.256083
0.949054 0.754745 0.334646
0.131963 0.738232 0.154190
0.134018 0.741617 0.156749
0.147413 0.755476 0.167300
0.179592 0.773262 0.183148
0.262557 0.787916 0.199480
0.405169 0.798502 0.214412
0.638095 0.808909 0.228809
0.890717 0.822333 0.248522
0.948300 0.847496 0.284469
0.126650 0.852052 0.141747
0.128002 0.853208 0.144153
0.137772 0.858991 0.156165
0.162894 0.867560 0.172197
0.218932 0.875560 0.190728
0.336266 0.881084 0.206975
0.506617 0.886104 0.221749
0.810855 0.892818 0.236355
0.947927 0.904229 0.258419
0.118308 0.884928 0.121068
0.118309 0.920876 0.121067
0.118313 0.920876 0.121066
0.118460 0.920883 0.121067
0.171858 0.930974 0.139796
0.265468 0.930931 0.162374
0.395819 0.931189 0.179401
0.607985 0.932893 0.190866
0.949665 0.936585 0.198504
0.119133 0.099000 0.317440
0.127733 0.113388 0.535863
0.345483 0.128632 0.583759
0.662020 0.146918 0.570825
0.849144 0.174525 0.566670
0.908499 0.202762 0.575100
0.932644 0.222133 0.609651
0.947893 0.212310 0.690314
0.950399 0.387210 0.703179
0.120476 0.118147 0.327249
0.130726 0.131393 0.445173
0.303345 0.147295 0.536620
0.617334 0.166220 0.534073
0.836673 0.194279 0.538062
0.905638 0.219751 0.553298
0.931705 0.237919 0.593810
0.947726 0.226026 0.683819
0.950399 0.387211 0.703643
0.127222 0.185491 0.304138
0.136392 0.196540 0.327425
0.216935 0.216475 0.390558
0.486304 0.233984 0.423426
0.778008 0.260885 0.446633
0.889445 0.288804 0.473340
0.926886 0.309574 0.525654
0.946318 0.321845 0.629788
0.950399 0.387211 0.705331
0.133268 0.289762 0.281610
0.141473 0.298946 0.290542
0.183889 0.319901 0.315773
0.359880 0.355316 0.357139
0.625608 0.364890 0.368839
0.845250 0.391110 0.392669
0.916542 0.418243 0.433105
0.943553 0.442548 0.535625
0.950399 0.387233 0.705838
0.139303 0.427212 0.272654
0.145337 0.434619 0.277828
0.174008 0.456472 0.294181
0.270651 0.478939 0.313966
0.462651 0.498087 0.332417
0.748839 0.522416 0.352142
0.895935 0.548090 0.375897
0.937868 0.575783 0.432956
0.949731 0.636286 0.663579
0.142319 0.577206 0.263940
0.146718 0.582858 0.267657
0.168261 0.603391 0.280872
0.226951 0.626649 0.297633
0.363766 0.647071 0.314698
0.581201 0.665723 0.330838
0.836939 0.689216 0.349201
0.927894 0.716167 0.378106
0.949091 0.756934 0.556828
0.141240 0.731538 0.253447
0.144550 0.734782 0.256424
0.160642 0.747454 0.267786
0.199536 0.764012 0.283738
0.301090 0.779014 0.300453
0.459861 0.790752 0.316389
0.719567 0.802699 0.331765
0.908384 0.818015 0.351040
0.948566 0.847363 0.441710
0.132949 0.847566 0.234013
0.135197 0.848908 0.236690
0.148614 0.854857 0.249019
0.177370 0.862850 0.264603
0.248359 0.870572 0.281909
0.370738 0.876558 0.298183
0.561638 0.882386 0.313018
0.848304 0.889914 0.327842
0.948491 0.903500 0.373523
0.118307 0.902392 0.223434
0.118307 0.920873 0.223434
0.118313 0.920876 0.223434
0.131061 0.928693 0.194192
0.189159 0.927828 0.241939
0.288342 0.928639 0.260223
0.424685 0.929558 0.274706
0.665441 0.931673 0.284605
0.950027 0.936329 0.306080
0.119543 0.112924 0.468364
0.123523 0.125527 0.602490
0.278509 0.151391 0.715517
0.615665 0.171589 0.715882
0.835470 0.196905 0.715511
0.905149 0.223866 0.723955
0.931139 0.245159 0.740422
0.947017 0.248605 0.767574
0.950399 0.387211 0.793351
0.120716 0.129966 0.479724
0.126731 0.142495 0.580881
0.252755 0.169633 0.694819
0.581266 0.190583 0.700551
0.824254 0.214545 0.702780
0.902443 0.239618 0.714144
0.930229 0.261293 0.735475
0.946865 0.264285 0.765012
0.950399 0.387212 0.790749
0.128578 0.199171 0.468628
0.136557 0.209757 0.507201
0.209901 0.233879 0.606914
0.477763 0.253974 0.641003
0.769935 0.276301 0.654425
0.886857 0.304208 0.673449
0.925873 0.325548 0.704782
0.945869 0.345888 0.749032
0.950399 0.387216 0.782490
0.137910 0.300911 0.432955
0.146353 0.309331 0.447429
0.192400 0.331519 0.495841
0.365771 0.353571 0.545167
0.643410 0.372570 0.574634
0.849954 0.400891 0.604915
0.916933 0.429155 0.645430
0.943161 0.455596 0.712531
0.950399 0.492195 0.782564
0.145813 0.427617 0.406573
0.152613 0.434796 0.413830
0.184814 0.455825 0.438185
0.295149 0.478792 0.470921
0.509126 0.510300 0.511517
0.778489 0.524909 0.532181
0.900790 0.551732 0.570234
0.938300 0.581901 0.641770
0.949630 0.646709 0.763925
0.150423 0.574738 0.390532
0.155452 0.580082 0.394918
0.180381 0.599268 0.411104
0.254700 0.621799 0.433643
0.401152 0.642924 0.458211
0.635957 0.662905 0.481511
0.857922 0.687785 0.510120
0.930614 0.716754 0.560341
0.949065 0.761190 0.726274
0.149610 0.728369 0.375242
0.153379 0.731508 0.378232
0.172090 0.743327 0.390014
0.220833 0.759041 0.408155
0.333629 0.773951 0.428625
0.505872 0.786771 0.448881
0.773679 0.799757 0.469195
0.916662 0.816196 0.499161
0.948669 0.848583 0.644587
0.139817 0.845662 0.354145
0.142763 0.846957 0.356433
0.157753 0.852441 0.366822
0.190278 0.859952 0.381514
0.272616 0.867397 0.399499
0.403645 0.873690 0.417647
0.614027 0.880095 0.434790
0.876263 0.888332 0.453245
0.948772 0.904001 0.542617
0.118306 0.908232 0.366836
0.118307 0.911693 0.366836
0.118311 0.917274 0.366834
0.146908 0.924067 0.339084
0.199976 0.926425 0.358452
0.306058 0.927492 0.374510
0.448388 0.928679 0.387725
0.712350 0.931077 0.397716
0.950195 0.936853 0.455308
0.120314 0.131595 0.644059
0.122905 0.139957 0.734671
0.230549 0.179053 0.805822
0.567277 0.199752 0.808643
0.822845 0.222970 0.809988
0.901676 0.247634 0.813689
0.929574 0.271241 0.821570
0.946462 0.284080 0.832342
0.950399 0.387212 0.834885
0.121444 0.145014 0.653081
0.124875 0.154216 0.730003
0.220011 0.194704 0.799612
0.541403 0.215049 0.804242
0.813547 0.237748 0.806382
0.899164 0.263330 0.810622
0.928715 0.286579 0.819365
0.946316 0.299181 0.831482
0.950399 0.387212 0.834885
0.129665 0.216352 0.658758
0.135487 0.224687 0.697968
0.203484 0.255110 0.769361
0.460051 0.276173 0.784690
0.761498 0.298519 0.790798
0.883635 0.321691 0.797820
0.924794 0.345903 0.809480
0.945456 0.368695 0.826653
0.950399 0.387217 0.834884
0.140898 0.313738 0.619304
0.148392 0.320626 0.638428
0.196480 0.346640 0.704686
0.371559 0.368287 0.745898
0.652709 0.389890 0.761086
0.851362 0.414712 0.773220
0.916860 0.442535 0.789593
0.942744 0.471283 0.814263
0.950246 0.519003 0.835612
0.151057 0.437353 0.579328
0.157777 0.443589 0.589196
0.193685 0.465656 0.626946
0.313410 0.489057 0.672806
0.525200 0.510347 0.709053
0.793546 0.532149 0.734889
0.903066 0.559483 0.757129
0.938501 0.591244 0.790247
0.949533 0.658880 0.833121
0.156321 0.577158 0.548605
0.162050 0.582439 0.554282
0.189348 0.600902 0.575687
0.272776 0.623135 0.607355
0.427606 0.644683 0.641336
0.677255 0.670750 0.675347
0.869554 0.691041 0.705406
0.932080 0.720285 0.751542
0.949043 0.766907 0.821507
0.155725 0.729048 0.524897
0.160218 0.732005 0.528379
0.180849 0.743184 0.542266
0.239928 0.758286 0.564148
0.356509 0.773109 0.590397
0.541464 0.786331 0.616900
0.804923 0.799950 0.643151
0.921102 0.817199 0.685341
0.948728 0.850719 0.793048
0.144421 0.846237 0.498920
0.147643 0.847460 0.501281
0.163943 0.852541 0.512048
0.199854 0.859536 0.527961
0.290038 0.866683 0.547638
0.428749 0.873085 0.568347
0.653904 0.879794 0.588704
0.893466 0.888436 0.612289
0.948904 0.905435 0.739276
0.118310 0.910493 0.439131
0.118311 0.913517 0.443026
0.118327 0.917593 0.457789
0.149244 0.924649 0.479790
0.205799 0.926550 0.498647
0.315669 0.927581 0.514774
0.462200 0.928897 0.528221
0.738581 0.931376 0.537788
0.950250 0.937645 0.655754
0.121416 0.152900 0.812372
0.123736 0.159254 0.843403
0.192144 0.202995 0.865965
0.537645 0.224568 0.868016
0.815538 0.247663 0.868751
0.899766 0.272522 0.869937
0.928788 0.294776 0.872506
0.946141 0.312233 0.877184
0.950399 0.387185 0.881199
0.122501 0.165773 0.816188
0.125264 0.173241 0.841985
0.192222 0.215905 0.864224
0.518436 0.237558 0.866844
0.806309 0.261589 0.867978
0.897657 0.286575 0.869268
0.927999 0.308903 0.871931
0.946007 0.325654 0.876766
0.950399 0.387175 0.880848
0.130238 0.231840 0.822098
0.134767 0.238366 0.835593
0.193890 0.271244 0.855828
0.454471 0.294801 0.861232
0.762057 0.316649 0.863514
0.883681 0.340198 0.865921
0.924532 0.363103 0.869496
0.945080 0.389772 0.874620
0.950398 0.386951 0.879250
0.142918 0.328136 0.800620
0.149619 0.334549 0.813838
0.196288 0.360028 0.838957
0.379374 0.383569 0.850095
0.667808 0.406732 0.854964
0.855672 0.431260 0.858918
0.917657 0.455369 0.864157
0.942738 0.485368 0.871242
0.950006 0.551637 0.881173
0.154390 0.449909 0.767201
0.161080 0.455415 0.776260
0.197851 0.476866 0.806550
0.327356 0.500803 0.830592
0.550921 0.522329 0.840913
0.810052 0.543957 0.847525
0.905825 0.567845 0.854720
0.939069 0.600214 0.865240
0.949494 0.670691 0.877865
0.161063 0.586195 0.734610
0.166820 0.590952 0.740202
0.195587 0.608914 0.761564
0.287655 0.631558 0.790636
0.452987 0.652997 0.815485
0.707955 0.673691 0.829899
0.879289 0.696543 0.840003
0.933543 0.724436 0.853828
0.949080 0.772392 0.873767
0.159537 0.733315 0.695609
0.164105 0.736174 0.700208
0.186264 0.746836 0.718636
0.251844 0.761333 0.744418
0.373979 0.775954 0.769399
0.570417 0.788923 0.792032
0.822111 0.802497 0.810637
0.924241 0.819871 0.833743
0.948833 0.853195 0.867473
0.145517 0.849590 0.661496
0.149004 0.850695 0.663855
0.166478 0.855283 0.674972
0.204940 0.861761 0.693308
0.300408 0.868516 0.717901
0.444944 0.874734 0.741455
0.680832 0.881470 0.760125
0.900788 0.890112 0.781684
0.949018 0.907519 0.851123
0.118395 0.910184 0.556421
0.118417 0.915062 0.556457
0.118609 0.919533 0.557381
0.143201 0.927258 0.643072
0.203496 0.928181 0.657095
0.315098 0.928938 0.672102
0.463097 0.930161 0.685475
0.739241 0.932621 0.694745
0.950296 0.938774 0.827398
0.123751 0.179018 0.897228
0.126126 0.183550 0.900261
0.206141 0.217853 0.904354
0.569755 0.238977 0.904983
0.827087 0.261880 0.905427
0.903176 0.285729 0.906175
0.929998 0.306429 0.907637
0.946430 0.322770 0.911382
0.950399 0.399156 0.913484
0.124823 0.191050 0.896877
0.127578 0.195748 0.899722
0.207744 0.229457 0.903886
0.554292 0.251717 0.904603
0.821481 0.274315 0.905092
0.901640 0.298241 0.905877
0.929425 0.318607 0.907376
0.946317 0.336508 0.911106
0.950399 0.403014 0.913484
0.133302 0.253398 0.895517
0.138575 0.258111 0.897501
0.215810 0.286701 0.901441
0.497530 0.307761 0.902700
0.789761 0.327726 0.903476
0.893029 0.351425 0.904468
0.926678 0.371987 0.906146
0.945746 0.397425 0.909725
0.950399 0.443139 0.913484
0.146938 0.343821 0.891058
0.153418 0.348589 0.892993
0.216328 0.370937 0.897499
0.422447 0.392728 0.899725
0.721968 0.414707 0.901021
0.871651 0.437788 0.902346
0.921536 0.460711 0.904319
0.944137 0.489262 0.907899
0.950032 0.564899 0.913478
0.158842 0.462261 0.882894
0.165436 0.466635 0.885237
0.213590 0.487166 0.891259
0.358182 0.508169 0.895232
0.610957 0.528206 0.897618
0.835427 0.548875 0.899476
0.912474 0.571623 0.901785
0.941301 0.601588 0.905589
0.949639 0.677169 0.911325
0.164757 0.596920 0.869369
0.170781 0.600978 0.872243
0.205695 0.618745 0.880918
0.309846 0.638836 0.888007
0.494754 0.658543 0.892487
0.763450 0.678271 0.895487
0.896263 0.699798 0.898364
0.937002 0.724887 0.902645
0.949323 0.775241 0.909291
0.161584 0.740350 0.843401
0.166307 0.742870 0.846799
0.191270 0.753435 0.859735
0.263223 0.766741 0.873598
0.396982 0.780124 0.882899
0.615626 0.791963 0.888725
0.846333 0.804606 0.892906
0.929386 0.821123 0.898297
0.949131 0.854584 0.906855
0.142165 0.856655 0.810446
0.145436 0.857488 0.812977
0.164056 0.861044 0.824874
0.204364 0.866510 0.838557
0.304614 0.872437 0.855994
0.457168 0.878179 0.870797
0.707029 0.884503 0.879598
0.904759 0.890844 0.885071
0.949248 0.909483 0.902939
0.118310 0.907045 0.746512
0.118311 0.919362 0.748532
0.118333 0.920785 0.762376
0.134583 0.929864 0.786989
0.191045 0.931799 0.796847
0.300935 0.931830 0.810453
0.446953 0.932659 0.823440
0.706678 0.934848 0.828718
0.950342 0.940134 0.893733
0.210608 0.176703 0.932696
0.260483 0.179134 0.932699
0.499806 0.188853 0.932708
0.812048 0.204679 0.932738
0.894761 0.222590 0.932798
0.921182 0.238924 0.932916
0.937904 0.247137 0.933238
0.948177 0.237335 0.933902
0.950399 0.387215 0.931988
0.210642 0.186768 0.932628
0.259385 0.189225 0.932631
0.494495 0.199002 0.932644
0.807006 0.214803 0.932680
0.892982 0.232718 0.932746
0.920748 0.250222 0.932872
0.937743 0.258617 0.933198
0.948129 0.248206 0.933872
0.950399 0.387216 0.933391
0.215684 0.235394 0.932251
0.258605 0.237717 0.932263
0.473423 0.247791 0.932305
0.782715 0.263876 0.932385
0.884388 0.282416 0.932491
0.918633 0.299930 0.932661
0.936918 0.309970 0.933007
0.947877 0.306016 0.933692
0.950399 0.387251 0.933392
0.224118 0.332987 0.931614
0.254961 0.335251 0.931646
0.429718 0.344212 0.931755
0.729879 0.357676 0.931913
0.866066 0.372576 0.932084
0.913882 0.389714 0.932316
0.935102 0.403599 0.932705
0.947400 0.418560 0.933355
0.950399 0.549928 0.934309
0.219170 0.454814 0.930748
0.240958 0.456879 0.930838
0.364511 0.465198 0.931140
0.638940 0.478099 0.931489
0.836949 0.492719 0.931761
0.905971 0.508204 0.932047
0.932139 0.522716 0.932456
0.946896 0.542365 0.933118
0.950348 0.645374 0.934399
0.201455 0.592665 0.930145
0.215174 0.594679 0.930280
0.301021 0.603018 0.930713
0.513960 0.615427 0.931194
0.778325 0.628703 0.931622
0.889238 0.643062 0.931941
0.927169 0.657486 0.932354
0.946202 0.677105 0.932988
0.950250 0.753990 0.934162
0.177459 0.742015 0.929828
0.184374 0.743398 0.930018
0.231226 0.749277 0.930590
0.370651 0.757802 0.931239
0.620387 0.766271 0.931722
0.842298 0.775339 0.932066
0.917189 0.784269 0.932513
0.944729 0.794380 0.933090
0.950220 0.843795 0.934144
0.140367 0.859553 0.926397
0.143748 0.860185 0.927641
0.162801 0.863044 0.930009
0.224475 0.867189 0.931444
0.378780 0.870776 0.932082
0.645482 0.874469 0.932516
0.876455 0.879163 0.932935
0.938662 0.883546 0.933462
0.950274 0.903712 0.934305
0.118309 0.901610 0.837594
0.118309 0.920876 0.862288
0.118318 0.920877 0.862289
0.121901 0.923258 0.862355
0.162171 0.938783 0.907460
0.272938 0.936294 0.932389
0.432832 0.936159 0.933682
0.722247 0.938043 0.934244
0.950399 0.941699 0.934580
