LUTs/velvia/Velvia50_Classic_Soft.cube
TITLE "Velvia 50 Classic Soft"
# Adobe RGB in/out. REPLACES AgX. Velvia 50 Classic Soft.
LUT_3D_SIZE 9
DOMAIN_MIN 0.0 0.0 0.0
DOMAIN_MAX 1.0 1.0 1.0
0.074298 0.072888 0.089690
0.075623 0.072888 0.089690
0.239312 0.072888 0.089690
0.777230 0.073013 0.089690
0.884318 0.073310 0.089690
0.917267 0.073824 0.089717
0.932359 0.074543 0.089779
0.942385 0.073234 0.577508
0.943554 0.254977 0.777118
0.074298 0.072911 0.089690
0.074298 0.072943 0.089690
0.082511 0.073019 0.089690
0.624232 0.073229 0.089690
0.866509 0.073629 0.089690
0.913928 0.074673 0.089718
0.931601 0.075646 0.089774
0.942385 0.073234 0.577553
0.943554 0.255014 0.777116
0.074298 0.074075 0.089690
0.074298 0.074788 0.089690
0.074935 0.075710 0.089690
0.107366 0.076719 0.089690
0.714835 0.080616 0.089696
0.890571 0.087809 0.089726
0.926496 0.094950 0.089771
0.942449 0.073460 0.582737
0.943554 0.255017 0.777116
0.074298 0.102140 0.089690
0.074298 0.113731 0.089690
0.074456 0.148951 0.089690
0.078420 0.172118 0.089691
0.273226 0.215463 0.089717
0.810554 0.274010 0.089745
0.912070 0.345429 0.089782
0.937220 0.390093 0.089973
0.943554 0.255190 0.616224
0.074298 0.439013 0.089690
0.074298 0.463647 0.089690
0.074418 0.534137 0.089690
0.076044 0.577039 0.089715
0.104204 0.598493 0.089738
0.593504 0.626581 0.089770
0.872275 0.662270 0.089826
0.930887 0.696250 0.089990
0.942997 0.756501 0.117986
0.074298 0.730282 0.089690
0.074298 0.738781 0.089690
0.074406 0.772299 0.089708
0.075329 0.789273 0.089732
0.084693 0.797201 0.089764
0.298545 0.805327 0.089799
0.789015 0.816319 0.089884
0.916521 0.830903 0.090052
0.942080 0.856698 0.091508
0.074298 0.853140 0.089690
0.074298 0.856177 0.089694
0.074379 0.865814 0.089716
0.075090 0.875934 0.089746
0.079505 0.882225 0.089779
0.154780 0.885965 0.089844
0.630229 0.889304 0.089959
0.885001 0.892568 0.090116
0.940912 0.900220 0.090811
0.074298 0.910325 0.089690
0.074298 0.910456 0.089690
0.074298 0.912003 0.089700
0.074726 0.915755 0.089734
0.077033 0.919321 0.089774
0.102185 0.921347 0.089842
0.431331 0.922782 0.089959
0.828194 0.924824 0.090090
0.939924 0.927986 0.090438
0.074298 0.918318 0.089690
0.074298 0.918320 0.089690
0.074298 0.933956 0.089690
0.074298 0.934268 0.089690
0.075164 0.942741 0.089700
0.084260 0.942558 0.089747
0.197144 0.942443 0.089781
0.665661 0.943243 0.089829
0.940587 0.945079 0.089850
0.074298 0.072888 0.089712
0.075527 0.072888 0.091119
0.351310 0.072891 0.089786
0.816041 0.073036 0.089765
0.891250 0.073333 0.089752
0.918146 0.073867 0.089769
0.932359 0.074639 0.089914
0.942385 0.073234 0.577559
0.943554 0.255013 0.777118
0.074298 0.072901 0.089695
0.074533 0.072984 0.089742
0.137192 0.073035 0.089738
0.748763 0.073269 0.089751
0.879137 0.073673 0.089750
0.915507 0.074730 0.089769
0.931655 0.075773 0.089871
0.942386 0.073236 0.577629
0.943554 0.255015 0.777116
0.074298 0.073810 0.089690
0.074298 0.074324 0.089703
0.075939 0.075129 0.089723
0.243801 0.076532 0.089745
0.800397 0.080631 0.089757
0.897234 0.087706 0.089773
0.927144 0.095019 0.089847
0.942467 0.073587 0.585003
0.943554 0.255017 0.777116
0.074298 0.096494 0.089695
0.074298 0.104925 0.089705
0.074869 0.128339 0.089726
0.083247 0.156217 0.089751
0.444166 0.198637 0.089771
0.841074 0.264876 0.089791
0.915292 0.339935 0.089865
0.937332 0.389855 0.090160
0.943554 0.255068 0.777113
0.074298 0.413384 0.089700
0.074298 0.442404 0.089708
0.074551 0.511762 0.089730
0.076915 0.558296 0.089760
0.129375 0.584353 0.089788
0.652384 0.617664 0.089842
0.882356 0.657705 0.089942
0.931684 0.693746 0.090149
0.942987 0.757943 0.157231
0.074298 0.721179 0.089706
0.074298 0.729802 0.089713
0.074447 0.765021 0.089735
0.075736 0.784259 0.089768
0.088269 0.795348 0.089815
0.371499 0.801312 0.089902
0.808626 0.813723 0.090030
0.919155 0.829308 0.090237
0.942104 0.856763 0.092474
0.074298 0.850088 0.089709
0.074298 0.853165 0.089715
0.074410 0.863653 0.089738
0.075206 0.874373 0.089772
0.080600 0.880648 0.089835
0.173341 0.884614 0.089950
0.661602 0.888248 0.090086
0.890956 0.892102 0.090315
0.941040 0.900049 0.091499
0.074298 0.909555 0.089690
0.074298 0.909757 0.089690
0.074309 0.911540 0.089716
0.074824 0.915213 0.089756
0.077468 0.918708 0.089810
0.106532 0.920781 0.089921
0.461326 0.922386 0.090064
0.838506 0.924518 0.090271
0.940239 0.927877 0.090849
0.074298 0.920135 0.089748
0.074298 0.920136 0.089748
0.074298 0.935336 0.089748
0.074298 0.935336 0.089748
0.075210 0.942565 0.089715
0.084786 0.942377 0.089766
0.206385 0.942305 0.089822
0.678048 0.943146 0.089879
0.941809 0.945044 0.089924
0.074298 0.072888 0.090433
0.074599 0.072888 0.365415
0.242521 0.072929 0.243701
0.809948 0.073097 0.155758
0.892786 0.073428 0.128467
0.918880 0.074244 0.141893
0.932253 0.075167 0.263201
0.942420 0.073365 0.605939
0.943554 0.255017 0.777137
0.074298 0.072923 0.090439
0.074419 0.072992 0.096209
0.137004 0.073085 0.107490
0.765429 0.073354 0.105864
0.885227 0.073887 0.105151
0.917006 0.075208 0.114388
0.931677 0.076315 0.169947
0.942433 0.073411 0.607737
0.943554 0.255017 0.777120
0.074298 0.073752 0.090129
0.074381 0.074150 0.090313
0.079966 0.076140 0.091948
0.499894 0.076586 0.092099
0.848033 0.081534 0.093179
0.905832 0.088496 0.095554
0.928420 0.096690 0.102341
0.942152 0.078637 0.603279
0.943554 0.255017 0.777116
0.074308 0.092732 0.090078
0.074401 0.097850 0.090165
0.075596 0.116268 0.090402
0.108450 0.134098 0.090903
0.673885 0.182454 0.091770
0.876173 0.257945 0.092732
0.920605 0.332937 0.094264
0.937674 0.391052 0.112279
0.943554 0.255023 0.777119
0.074361 0.384225 0.090056
0.074418 0.407895 0.090095
0.075139 0.472456 0.090300
0.081740 0.528105 0.090586
0.283395 0.560056 0.091224
0.789130 0.600346 0.092038
0.901604 0.647696 0.092958
0.933808 0.686311 0.097402
0.942949 0.763563 0.587771
0.074386 0.702363 0.090051
0.074425 0.712009 0.090082
0.074985 0.743882 0.090261
0.077675 0.772863 0.090501
0.118398 0.785372 0.091144
0.578903 0.795233 0.091940
0.857878 0.806713 0.092652
0.925664 0.824117 0.094939
0.942186 0.857062 0.124205
0.074370 0.841954 0.089977
0.074401 0.845118 0.090006
0.074759 0.857519 0.090119
0.076114 0.868563 0.090361
0.087746 0.875939 0.090812
0.289629 0.880553 0.091625
0.753977 0.885053 0.092400
0.907214 0.890428 0.094095
0.941420 0.899474 0.100380
0.074298 0.903097 0.089848
0.074298 0.904016 0.089863
0.074440 0.908606 0.089999
0.075241 0.912875 0.090199
0.079799 0.916231 0.090470
0.137158 0.918537 0.091172
0.575607 0.920625 0.091954
0.865526 0.923290 0.092951
0.941040 0.927476 0.095260
0.074298 0.920137 0.089748
0.074298 0.935335 0.089748
0.074298 0.935336 0.089748
0.074298 0.935339 0.089748
0.075693 0.941485 0.089836
0.088554 0.941459 0.090062
0.261164 0.941616 0.090307
0.717447 0.942651 0.090473
0.942807 0.944872 0.090764
0.074298 0.072888 0.112968
0.074298 0.072950 0.622837
0.157945 0.073075 0.702856
0.777296 0.073298 0.683269
0.888343 0.073774 0.676932
0.917592 0.075040 0.689801
0.931638 0.076364 0.732618
0.941006 0.075704 0.795294
0.943554 0.255014 0.804554
0.074298 0.072994 0.118560
0.074347 0.073094 0.416367
0.106293 0.073303 0.624274
0.733619 0.073576 0.619450
0.880912 0.074583 0.627009
0.915917 0.076206 0.653994
0.931095 0.078255 0.717002
0.940836 0.076618 0.790836
0.943554 0.255016 0.804887
0.074298 0.074186 0.107490
0.074426 0.074682 0.118665
0.079612 0.075987 0.212689
0.527904 0.077528 0.332663
0.852090 0.083994 0.421861
0.906650 0.091904 0.490824
0.928303 0.104561 0.607991
0.939404 0.116375 0.751521
0.943554 0.255017 0.806097
0.074391 0.092352 0.099772
0.074516 0.096871 0.102428
0.076333 0.114099 0.112366
0.178881 0.166447 0.146815
0.741747 0.186238 0.164247
0.886027 0.265674 0.218764
0.922288 0.345462 0.368459
0.937631 0.413917 0.622387
0.943554 0.255075 0.806461
0.074454 0.370160 0.097869
0.074683 0.390723 0.098971
0.075821 0.453592 0.103718
0.090222 0.509222 0.111863
0.466625 0.548619 0.122394
0.834429 0.593444 0.140863
0.909524 0.642861 0.178461
0.934657 0.687690 0.367832
0.942874 0.771492 0.779130
0.074553 0.689946 0.096044
0.074734 0.698927 0.096797
0.075474 0.729973 0.099616
0.081074 0.761078 0.104959
0.183258 0.778353 0.112067
0.693554 0.790093 0.121120
0.881071 0.801882 0.137435
0.928887 0.821249 0.183433
0.942224 0.858428 0.660160
0.074506 0.835686 0.094575
0.074649 0.838725 0.094986
0.075179 0.850567 0.096825
0.077871 0.862834 0.100224
0.104915 0.871712 0.106051
0.461138 0.877179 0.112538
0.817121 0.882372 0.121868
0.917525 0.888961 0.139572
0.941690 0.899368 0.403586
0.074386 0.899530 0.092786
0.074413 0.900598 0.092983
0.074802 0.905325 0.094141
0.076000 0.910891 0.096153
0.084532 0.914140 0.099835
0.190943 0.916648 0.105172
0.662624 0.919079 0.111599
0.887844 0.922205 0.118915
0.941613 0.927210 0.173237
0.074298 0.926804 0.091986
0.074298 0.935334 0.091986
0.074298 0.935336 0.091986
0.074353 0.940098 0.090575
0.076751 0.939572 0.093482
0.098046 0.940065 0.095507
0.354363 0.940624 0.098307
0.780618 0.941910 0.100409
0.943175 0.944735 0.108250
0.074298 0.072945 0.479350
0.074298 0.073053 0.725991
0.092876 0.073356 0.813376
0.731978 0.073696 0.813637
0.880192 0.074698 0.813372
0.915631 0.076478 0.819377
0.930767 0.079762 0.833034
0.940115 0.080652 0.851422
0.943554 0.255017 0.863273
0.074298 0.073084 0.508862
0.074298 0.073240 0.698657
0.085215 0.073645 0.798544
0.693659 0.074418 0.802668
0.873464 0.075856 0.804268
0.913886 0.078624 0.812397
0.930240 0.084093 0.828101
0.939961 0.084821 0.849814
0.943554 0.255018 0.861660
0.074308 0.074797 0.479915
0.074427 0.075529 0.575956
0.078946 0.077515 0.730087
0.502980 0.082233 0.762015
0.848130 0.087671 0.773259
0.905501 0.100415 0.785420
0.927715 0.120433 0.805704
0.938948 0.148452 0.839731
0.943554 0.255031 0.856696
0.074441 0.098128 0.367826
0.074720 0.104362 0.424899
0.077116 0.126354 0.550567
0.183408 0.163477 0.639864
0.759170 0.214143 0.689089
0.888760 0.302212 0.728237
0.922516 0.375270 0.766147
0.937439 0.451497 0.811246
0.943554 0.537701 0.856717
0.074701 0.371195 0.265897
0.074943 0.391231 0.295658
0.076379 0.452044 0.390273
0.101396 0.508846 0.484722
0.581221 0.571473 0.585503
0.852288 0.598004 0.615876
0.912726 0.649829 0.682366
0.934906 0.697404 0.762731
0.942772 0.778124 0.849131
0.074866 0.686034 0.212621
0.075033 0.694512 0.225392
0.076155 0.724472 0.284169
0.085557 0.754581 0.370722
0.279850 0.775721 0.457862
0.751885 0.788329 0.513983
0.892519 0.800869 0.582405
0.930463 0.821802 0.666314
0.942197 0.861080 0.821022
0.074837 0.832714 0.177007
0.074969 0.835658 0.183720
0.075707 0.846714 0.211375
0.079981 0.859741 0.272163
0.133470 0.868988 0.351308
0.573946 0.875438 0.430484
0.850301 0.881098 0.481105
0.922358 0.888183 0.558371
0.941794 0.900339 0.765361
0.074458 0.898014 0.143229
0.074572 0.899045 0.145965
0.075098 0.903407 0.161108
0.076877 0.909365 0.191316
0.090885 0.912807 0.239389
0.286184 0.915448 0.312086
0.730366 0.918124 0.375581
0.900776 0.921550 0.446381
0.941900 0.927393 0.635452
0.074298 0.928937 0.161129
0.074298 0.930197 0.161129
0.074298 0.933135 0.161126
0.074740 0.937282 0.127852
0.077922 0.938718 0.148408
0.107960 0.939368 0.175393
0.426366 0.940090 0.205944
0.812862 0.941547 0.233859
0.943346 0.945004 0.451814
0.074298 0.073095 0.764867
0.074298 0.073202 0.827299
0.081610 0.073891 0.870971
0.671504 0.074826 0.872705
0.872616 0.076419 0.873531
0.913348 0.080366 0.875800
0.929861 0.086491 0.880618
0.939551 0.089991 0.889329
0.943554 0.255018 0.891034
0.074298 0.073273 0.772394
0.074298 0.073388 0.823662
0.079900 0.074602 0.867144
0.631006 0.075891 0.869998
0.867004 0.078216 0.871316
0.911584 0.084589 0.873920
0.929363 0.090876 0.879272
0.939403 0.097002 0.888752
0.943554 0.255019 0.891034
0.074328 0.075979 0.776043
0.074416 0.076531 0.800811
0.078322 0.082576 0.852542
0.461510 0.087641 0.857897
0.842637 0.096635 0.861691
0.904067 0.116193 0.866038
0.927089 0.148479 0.873219
0.938565 0.199617 0.884435
0.943554 0.255031 0.891034
0.074491 0.108031 0.741674
0.074794 0.114943 0.759609
0.077570 0.149899 0.805635
0.192600 0.198137 0.837743
0.768238 0.262303 0.847345
0.889476 0.334847 0.854007
0.922473 0.413881 0.860944
0.937238 0.489841 0.876152
0.943398 0.587224 0.891521
0.074888 0.398619 0.696275
0.075099 0.417033 0.710503
0.077260 0.475876 0.748855
0.115174 0.531924 0.785012
0.605817 0.571558 0.808761
0.858460 0.611423 0.827516
0.914323 0.661974 0.844852
0.935022 0.712304 0.861349
0.942673 0.785804 0.889851
0.075058 0.689870 0.645826
0.075218 0.698261 0.655712
0.076772 0.726652 0.690699
0.090939 0.756370 0.730495
0.361934 0.776839 0.762326
0.790444 0.793231 0.786523
0.897767 0.803172 0.806151
0.931312 0.825123 0.841321
0.942175 0.864630 0.880580
0.075041 0.833351 0.607341
0.075167 0.836124 0.610326
0.076179 0.846581 0.634846
0.083004 0.859271 0.673004
0.173832 0.868468 0.712194
0.631101 0.875245 0.739411
0.863075 0.881181 0.764020
0.924943 0.888612 0.791697
0.941855 0.902038 0.863086
0.074644 0.898472 0.557848
0.074767 0.899446 0.562982
0.075270 0.903486 0.586683
0.077908 0.909039 0.609967
0.098749 0.912506 0.644149
0.364923 0.915194 0.679488
0.769402 0.917999 0.709811
0.908432 0.921593 0.735065
0.942033 0.927917 0.831892
0.074298 0.929760 0.394260
0.074298 0.930859 0.408406
0.074298 0.933330 0.456981
0.074824 0.937636 0.509048
0.078566 0.938794 0.557257
0.116816 0.939422 0.592530
0.465737 0.940222 0.610190
0.828400 0.941730 0.626489
0.943402 0.945393 0.774114
0.074298 0.073373 0.874993
0.074298 0.073443 0.896666
0.077088 0.075057 0.910321
0.625178 0.076523 0.911592
0.868208 0.080375 0.912179
0.912007 0.086790 0.913126
0.929405 0.094705 0.915176
0.939224 0.106769 0.918667
0.943554 0.254946 0.921357
0.074298 0.073567 0.877330
0.074298 0.073741 0.895783
0.077096 0.075948 0.909273
0.595292 0.078172 0.910850
0.863635 0.084165 0.911562
0.910525 0.090874 0.912592
0.928948 0.104008 0.914718
0.939089 0.120548 0.918387
0.943554 0.254919 0.921123
0.074338 0.077251 0.880940
0.074409 0.078358 0.891508
0.077283 0.086491 0.904205
0.446604 0.094717 0.907469
0.843001 0.110359 0.908845
0.904087 0.135485 0.910294
0.926936 0.181694 0.912774
0.938381 0.261980 0.916862
0.943552 0.254318 0.920052
0.074579 0.123265 0.867766
0.074838 0.129023 0.875892
0.077549 0.174665 0.893759
0.211012 0.245355 0.900732
0.782915 0.317082 0.903682
0.891499 0.381171 0.906072
0.922938 0.450956 0.909233
0.937235 0.525165 0.914167
0.943154 0.649681 0.921340
0.075003 0.436282 0.851188
0.075191 0.451066 0.854891
0.077718 0.503931 0.871419
0.126714 0.553681 0.888057
0.645830 0.593286 0.895067
0.865189 0.633594 0.899172
0.916026 0.675137 0.903535
0.935350 0.725734 0.909884
0.942633 0.793193 0.919124
0.075191 0.704243 0.827238
0.075386 0.711837 0.832815
0.077471 0.737348 0.847646
0.097757 0.766712 0.861591
0.441603 0.782100 0.876900
0.810341 0.794970 0.887420
0.902129 0.807054 0.894459
0.932158 0.829023 0.902994
0.942212 0.868026 0.916182
0.075148 0.837351 0.799113
0.075274 0.840029 0.802421
0.076448 0.849990 0.815597
0.085074 0.861168 0.836803
0.197543 0.870213 0.852566
0.676461 0.876380 0.862456
0.872174 0.882284 0.873929
0.926767 0.889709 0.890269
0.941962 0.904006 0.911228
0.074690 0.901140 0.777798
0.074816 0.902019 0.779307
0.075365 0.905664 0.786332
0.078486 0.910365 0.797455
0.104500 0.913277 0.815075
0.416781 0.915885 0.834064
0.792963 0.918698 0.846740
0.912725 0.922287 0.856463
0.942149 0.928677 0.901355
0.074298 0.929648 0.659449
0.074298 0.931783 0.659510
0.074298 0.934515 0.661127
0.074591 0.939225 0.763947
0.078323 0.939787 0.774975
0.116400 0.940248 0.784564
0.467506 0.940991 0.791794
0.828789 0.942485 0.798490
0.943449 0.945947 0.885120
0.074298 0.073891 0.930170
0.074298 0.074096 0.930322
0.078598 0.076079 0.931632
0.675415 0.078491 0.931886
0.875167 0.084236 0.932065
0.914400 0.090559 0.932366
0.930106 0.102071 0.932954
0.939518 0.117432 0.934266
0.943554 0.296901 0.934995
0.074298 0.074439 0.930152
0.074298 0.074648 0.930295
0.078747 0.076961 0.931444
0.651101 0.081567 0.931733
0.871794 0.087208 0.931930
0.913322 0.096481 0.932246
0.929774 0.112601 0.932849
0.939404 0.130766 0.934170
0.943554 0.307767 0.934995
0.074391 0.082060 0.929871
0.074447 0.083318 0.930183
0.079506 0.090932 0.930457
0.555500 0.103101 0.930965
0.856916 0.122819 0.931278
0.908239 0.159635 0.931678
0.928182 0.211901 0.932354
0.938823 0.289824 0.933690
0.943554 0.415683 0.934995
0.074742 0.143835 0.927738
0.074971 0.153702 0.928664
0.079555 0.207916 0.930183
0.348635 0.271321 0.930295
0.818552 0.334833 0.930360
0.898708 0.399885 0.930822
0.925196 0.463800 0.931618
0.937918 0.532301 0.933054
0.943180 0.670491 0.934993
0.075129 0.467566 0.922492
0.075305 0.478290 0.924077
0.079295 0.528455 0.927834
0.176326 0.567507 0.929735
0.725116 0.604086 0.930189
0.880167 0.644813 0.930283
0.919915 0.681103 0.930596
0.936543 0.727567 0.932130
0.942781 0.795856 0.934246
0.075289 0.721341 0.912672
0.075628 0.726753 0.914966
0.078556 0.750493 0.921169
0.112606 0.773119 0.925969
0.549428 0.785593 0.928422
0.843910 0.796135 0.929857
0.909669 0.809345 0.930227
0.934157 0.829446 0.930943
0.942460 0.869785 0.933539
0.075205 0.843934 0.896664
0.075354 0.846288 0.898731
0.076989 0.856142 0.906566
0.087931 0.864527 0.916047
0.265151 0.872255 0.922495
0.731939 0.877707 0.926459
0.886672 0.883196 0.928622
0.929752 0.890075 0.930223
0.942264 0.905109 0.932640
0.074546 0.906753 0.873812
0.074687 0.907414 0.875364
0.075272 0.909969 0.882798
0.078422 0.912433 0.893492
0.107071 0.914923 0.904305
0.455584 0.917325 0.913812
0.809809 0.919960 0.920285
0.915402 0.922562 0.923963
0.942383 0.929393 0.931062
0.074298 0.928504 0.838133
0.074298 0.934411 0.839414
0.074298 0.935280 0.848157
0.074407 0.940810 0.859326
0.076964 0.941986 0.865436
0.104820 0.942005 0.873816
0.422096 0.942509 0.881759
0.809607 0.943837 0.886334
0.943496 0.946614 0.929018
0.079011 0.073831 0.941866
0.087169 0.073894 0.941868
0.560502 0.074339 0.941873
0.866097 0.075175 0.941890
0.909005 0.076394 0.941924
0.924990 0.078480 0.941991
0.934678 0.080220 0.942175
0.941294 0.078121 0.942552
0.943554 0.255026 0.941464
0.079014 0.074244 0.941827
0.086863 0.074356 0.941829
0.548862 0.074790 0.941836
0.863916 0.075874 0.941857
0.908218 0.077365 0.941894
0.924737 0.081127 0.941966
0.934585 0.083441 0.942152
0.941246 0.080534 0.942535
0.943554 0.255030 0.942262
0.079494 0.077710 0.941613
0.086646 0.078209 0.941620
0.498062 0.080412 0.941644
0.854028 0.084721 0.941689
0.904402 0.089417 0.941749
0.923506 0.097453 0.941847
0.934108 0.104889 0.942043
0.940990 0.101754 0.942433
0.943554 0.255123 0.942262
0.080624 0.127643 0.941251
0.085630 0.129646 0.941269
0.367859 0.144783 0.941331
0.823255 0.170528 0.941421
0.896197 0.214165 0.941518
0.920737 0.261821 0.941650
0.933060 0.309311 0.941871
0.940505 0.346428 0.942241
0.943554 0.647011 0.942783
0.079822 0.449634 0.940944
0.083175 0.454565 0.940976
0.183314 0.474752 0.941079
0.754803 0.507074 0.941198
0.881077 0.538669 0.941335
0.916112 0.567572 0.941497
0.931346 0.593993 0.941729
0.939992 0.630587 0.942106
0.943501 0.777277 0.942834
0.078091 0.714577 0.940738
0.079446 0.717800 0.940784
0.104873 0.729475 0.940933
0.588654 0.746054 0.941097
0.852220 0.763757 0.941255
0.906558 0.775809 0.941437
0.928466 0.784928 0.941671
0.939287 0.795839 0.942032
0.943402 0.856591 0.942700
0.076004 0.845490 0.940629
0.076357 0.846781 0.940694
0.081711 0.852267 0.940890
0.190770 0.858970 0.941113
0.736621 0.864236 0.941312
0.884269 0.869845 0.941508
0.922665 0.874341 0.941762
0.938208 0.878761 0.942091
0.943371 0.896866 0.942690
0.074468 0.909052 0.939452
0.074615 0.909494 0.939879
0.075239 0.910973 0.940692
0.080694 0.912719 0.941183
0.209425 0.914226 0.941517
0.761192 0.915774 0.941764
0.900862 0.917736 0.942002
0.935115 0.919562 0.942302
0.943426 0.927287 0.942781
0.074298 0.926518 0.892848
0.074298 0.935336 0.908106
0.074298 0.935336 0.908106
0.074298 0.936789 0.908146
0.075221 0.945951 0.932883
0.090994 0.944714 0.941692
0.377781 0.944632 0.942427
0.818719 0.945588 0.942746
0.943554 0.947380 0.942937
