LUTs/velvia/Velvia50_Modern_IlfochromeM.cube
TITLE "Velvia 50 Modern IlfochromeM"
# Adobe RGB in/out. REPLACES AgX. Velvia 50 Modern IlfochromeM.
LUT_3D_SIZE 33
DOMAIN_MIN 0.0 0.0 0.0
DOMAIN_MAX 1.0 1.0 1.0
0.118305 0.082367 0.079686
0.121963 0.083909 0.081119
0.124763 0.084062 0.081266
0.150768 0.085904 0.081597
0.264728 0.092321 0.082258
0.336708 0.096595 0.083193
0.469418 0.105334 0.085416
0.623740 0.118435 0.087964
0.707086 0.125119 0.089766
0.801930 0.135408 0.092815
0.879676 0.152396 0.098105
0.915910 0.164450 0.101615
0.940048 0.175084 0.104328
0.954663 0.189242 0.108272
0.966147 0.208089 0.113441
0.969250 0.218417 0.116507
0.971268 0.227755 0.119883
0.972993 0.239241 0.124036
0.974418 0.254832 0.129762
0.975586 0.261277 0.133407
0.976412 0.267958 0.138114
0.976967 0.276087 0.144622
0.977446 0.282320 0.152341
0.977808 0.281624 0.160407
0.977914 0.281643 0.172933
0.977959 0.279483 0.192252
0.978140 0.261497 0.224212
0.978033 0.250631 0.326125
0.978299 0.188209 0.722972
0.977857 0.185929 0.713848
0.977321 0.183809 0.704896
0.976692 0.181733 0.696070
0.976445 0.527008 0.835520
0.118609 0.085509 0.080624
0.119122 0.084979 0.080822
0.123458 0.084293 0.080978
0.147331 0.086840 0.081556
0.231515 0.093578 0.082274
0.304566 0.097649 0.083197
0.436713 0.106525 0.085405
0.591505 0.119786 0.087954
0.680480 0.126240 0.089746
0.785308 0.136521 0.092788
0.870157 0.153661 0.098046
0.911042 0.165771 0.101558
0.936087 0.176321 0.104278
0.953158 0.190414 0.108218
0.964952 0.209232 0.113388
0.968939 0.219491 0.116447
0.971017 0.228778 0.119824
0.972790 0.240337 0.123970
0.974254 0.255889 0.129691
0.975451 0.262297 0.133327
0.976299 0.268952 0.138010
0.976873 0.277100 0.144500
0.977366 0.283330 0.152178
0.977761 0.282629 0.160174
0.977873 0.282643 0.172580
0.977923 0.280486 0.191695
0.978109 0.262475 0.222982
0.978005 0.251583 0.322423
0.978276 0.188095 0.722480
0.977836 0.185824 0.713402
0.977292 0.183713 0.704492
0.976665 0.181647 0.695703
0.976421 0.526756 0.835329
0.118624 0.087624 0.080796
0.118792 0.087689 0.081059
0.119255 0.086657 0.081016
0.126610 0.090117 0.081482
0.163080 0.098390 0.082155
0.220886 0.101522 0.083040
0.345535 0.111556 0.085364
0.497199 0.126140 0.088020
0.592224 0.131519 0.089784
0.718505 0.141156 0.092756
0.835610 0.158780 0.097894
0.891084 0.171005 0.101392
0.921558 0.181136 0.104125
0.947620 0.194912 0.108048
0.960563 0.213561 0.113213
0.967800 0.223537 0.116246
0.970100 0.232608 0.119624
0.972051 0.244425 0.123758
0.973657 0.259813 0.129445
0.974961 0.266074 0.133049
0.975894 0.272721 0.137650
0.976535 0.280828 0.144071
0.977081 0.287041 0.151606
0.977571 0.286321 0.159362
0.977726 0.286314 0.171347
0.977795 0.284163 0.189733
0.977996 0.266064 0.218789
0.977905 0.255037 0.309757
0.978190 0.187692 0.720723
0.977757 0.185449 0.711810
0.977190 0.183374 0.703048
0.976571 0.181343 0.694391
0.976334 0.525845 0.834648
0.118694 0.099865 0.081262
0.118922 0.100108 0.081386
0.119306 0.099832 0.081498
0.121401 0.097746 0.081538
0.133514 0.106034 0.082159
0.159628 0.108537 0.082978
0.231926 0.120225 0.085198
0.365587 0.135712 0.087939
0.464053 0.140779 0.089780
0.588593 0.150698 0.092786
0.755326 0.171585 0.097823
0.836954 0.183172 0.101238
0.891369 0.191705 0.103952
0.927159 0.204456 0.107826
0.952024 0.222570 0.112963
0.962522 0.231860 0.115988
0.968332 0.240516 0.119309
0.970639 0.252600 0.123423
0.972526 0.267580 0.129036
0.974040 0.273623 0.132577
0.975137 0.280117 0.137032
0.975906 0.288076 0.143330
0.976553 0.294138 0.150614
0.977124 0.293373 0.158035
0.977379 0.293311 0.169223
0.977527 0.291194 0.186392
0.977789 0.273103 0.212059
0.977723 0.261617 0.288739
0.978035 0.186965 0.717545
0.977605 0.184771 0.708925
0.977003 0.182757 0.700429
0.976400 0.180799 0.692008
0.976175 0.524174 0.833408
0.119017 0.132194 0.081673
0.119109 0.132785 0.081796
0.119545 0.133901 0.082146
0.122163 0.131069 0.082498
0.128336 0.126087 0.082974
0.138508 0.120680 0.083253
0.172616 0.133242 0.085166
0.256094 0.149673 0.087869
0.343631 0.153813 0.089803
0.455283 0.164326 0.092827
0.614813 0.187488 0.097998
0.742749 0.197931 0.101287
0.826875 0.206525 0.103902
0.888366 0.220117 0.107689
0.929244 0.239108 0.112752
0.951187 0.247490 0.115729
0.962030 0.255372 0.118958
0.968357 0.266207 0.123024
0.970727 0.281013 0.128521
0.972593 0.286369 0.131966
0.973963 0.292259 0.136215
0.974943 0.299771 0.142332
0.975753 0.305652 0.149269
0.976451 0.304751 0.156352
0.976804 0.304559 0.166630
0.977027 0.302430 0.181978
0.977414 0.284679 0.203684
0.977374 0.272417 0.262612
0.977808 0.185918 0.712915
0.977308 0.183782 0.704713
0.976730 0.181856 0.696600
0.976148 0.180152 0.688519
0.975943 0.521720 0.831588
0.119121 0.162761 0.082385
0.119138 0.162675 0.082561
0.119614 0.164491 0.083011
0.121696 0.160202 0.083745
0.125809 0.151482 0.083864
0.132864 0.144744 0.084386
0.151506 0.151132 0.085639
0.193906 0.170980 0.088305
0.255268 0.172928 0.089984
0.346083 0.183829 0.092873
0.477922 0.205980 0.097996
0.598182 0.216229 0.101360
0.719930 0.224159 0.104050
0.822513 0.236490 0.107776
0.892967 0.256165 0.112664
0.926750 0.265574 0.115559
0.949347 0.275015 0.118683
0.960193 0.288415 0.122666
0.967989 0.302397 0.128005
0.970436 0.306168 0.131349
0.972254 0.310801 0.135343
0.973571 0.317205 0.141189
0.974632 0.322350 0.147850
0.975522 0.321216 0.154388
0.976020 0.320772 0.163622
0.976352 0.318707 0.177068
0.976823 0.302050 0.194941
0.976858 0.289296 0.235918
0.977455 0.184590 0.706894
0.976916 0.182495 0.699213
0.976369 0.180677 0.691587
0.976195 0.524242 0.683943
0.975635 0.518493 0.829188
0.119399 0.222900 0.084349
0.119528 0.224395 0.084711
0.120327 0.225153 0.085532
0.122393 0.219281 0.086073
0.126590 0.207726 0.086477
0.132861 0.196458 0.086770
0.145093 0.187908 0.087332
0.170172 0.198370 0.089275
0.201651 0.197673 0.090829
0.271097 0.206723 0.093375
0.376964 0.228715 0.098410
0.477877 0.238083 0.101683
0.583720 0.244270 0.104124
0.713909 0.257138 0.107815
0.826241 0.277848 0.112721
0.884337 0.288418 0.115608
0.922649 0.294706 0.118575
0.948593 0.305842 0.122426
0.960100 0.321403 0.127602
0.967675 0.327519 0.130840
0.969876 0.335821 0.134644
0.971618 0.344438 0.140068
0.973086 0.349191 0.146421
0.974272 0.347265 0.152364
0.974989 0.346177 0.160524
0.975478 0.343712 0.172172
0.976066 0.326781 0.186694
0.976204 0.314106 0.215120
0.976933 0.183115 0.699620
0.976435 0.180939 0.692521
0.975925 0.179241 0.685468
0.975785 0.520060 0.678342
0.975255 0.514534 0.826234
0.120021 0.292239 0.086917
0.120227 0.293710 0.087205
0.121309 0.298341 0.088167
0.123604 0.289741 0.089028
0.127591 0.277622 0.089771
0.133970 0.264408 0.090645
0.145533 0.252355 0.091214
0.161941 0.242721 0.092110
0.179749 0.226263 0.092052
0.220399 0.232185 0.094177
0.307437 0.255863 0.099189
0.388678 0.263901 0.102185
0.476387 0.268772 0.104517
0.588959 0.281196 0.108138
0.730392 0.301654 0.112865
0.820960 0.309811 0.115623
0.879191 0.316686 0.118578
0.919605 0.328911 0.122382
0.947602 0.346076 0.127401
0.959189 0.350226 0.130506
0.967399 0.355973 0.134161
0.969565 0.364673 0.139311
0.971286 0.373212 0.145318
0.972695 0.376762 0.150656
0.973611 0.382260 0.157818
0.974345 0.379394 0.167945
0.975098 0.365906 0.180228
0.975386 0.352864 0.200872
0.976326 0.182159 0.691392
0.975873 0.179192 0.684790
0.975405 0.177591 0.678366
0.975303 0.515031 0.671817
0.974807 0.509906 0.821962
0.120406 0.326872 0.088118
0.120559 0.327971 0.088424
0.121468 0.328234 0.089390
0.123448 0.323112 0.090589
0.126809 0.314488 0.091544
0.131839 0.303101 0.092251
0.140927 0.291302 0.093030
0.153437 0.280181 0.093654
0.170997 0.271307 0.094480
0.195002 0.265582 0.095722
0.258730 0.286572 0.100279
0.326400 0.293242 0.102954
0.397584 0.296836 0.105232
0.490541 0.307729 0.108619
0.614808 0.326574 0.113243
0.727983 0.334016 0.115879
0.817477 0.341348 0.118749
0.877854 0.353541 0.122441
0.920688 0.368763 0.127349
0.946986 0.374578 0.130361
0.957635 0.383992 0.133899
0.966801 0.391424 0.138778
0.969261 0.399358 0.144512
0.971079 0.401501 0.149429
0.972279 0.405822 0.156179
0.973129 0.411042 0.165190
0.973968 0.409415 0.176139
0.974358 0.409868 0.193022
0.975663 0.208355 0.684727
0.975240 0.178204 0.676424
0.974817 0.175928 0.670484
0.974756 0.509379 0.664509
0.974299 0.504695 0.816044
0.121075 0.379246 0.090893
0.121286 0.378325 0.091103
0.122067 0.374386 0.091778
0.123899 0.370846 0.092906
0.126906 0.363616 0.093910
0.131507 0.354301 0.094726
0.139071 0.342363 0.095762
0.150325 0.330144 0.096701
0.165023 0.320179 0.097666
0.184869 0.312239 0.098778
0.226635 0.324023 0.102109
0.279752 0.323785 0.103999
0.339929 0.325549 0.106100
0.417697 0.335417 0.109342
0.520894 0.355763 0.113797
0.621101 0.361679 0.116279
0.729529 0.367171 0.119112
0.820654 0.377879 0.122678
0.882748 0.396856 0.127531
0.919921 0.403331 0.130428
0.946858 0.409492 0.133759
0.957493 0.420649 0.138454
0.965943 0.432446 0.143961
0.969004 0.435142 0.148522
0.970645 0.437060 0.154747
0.971795 0.440299 0.162886
0.972856 0.437665 0.172378
0.973400 0.436718 0.186781
0.973912 0.433749 0.208528
0.974131 0.434067 0.270944
0.974340 0.432083 0.602775
0.974154 0.503224 0.660489
0.973737 0.498997 0.809553
0.122365 0.456113 0.094742
0.122528 0.454640 0.094924
0.123361 0.450828 0.095643
0.125265 0.449110 0.097141
0.128260 0.442364 0.098529
0.132545 0.432030 0.099781
0.140531 0.420014 0.100927
0.151343 0.406561 0.101916
0.165504 0.393673 0.102805
0.184225 0.382047 0.103805
0.211088 0.372910 0.104980
0.251640 0.364355 0.106057
0.297167 0.357670 0.107249
0.362649 0.365858 0.110235
0.451237 0.386047 0.114528
0.534282 0.391428 0.116998
0.630962 0.396477 0.119619
0.743238 0.407964 0.123039
0.830259 0.427425 0.127876
0.885015 0.431875 0.130625
0.920993 0.439254 0.133874
0.946619 0.450579 0.138418
0.957603 0.458975 0.143641
0.966270 0.462704 0.147964
0.968737 0.469420 0.153724
0.970138 0.478000 0.160984
0.971537 0.473778 0.169194
0.972301 0.470932 0.181420
0.972961 0.466226 0.198917
0.973299 0.462861 0.236582
0.973615 0.440920 0.513329
0.973506 0.496684 0.664110
0.973130 0.492926 0.663448
0.123190 0.501134 0.097515
0.123365 0.499859 0.097668
0.124038 0.496313 0.098262
0.125763 0.494257 0.099536
0.128309 0.488196 0.100834
0.132291 0.480570 0.102190
0.139404 0.471216 0.103503
0.148945 0.459272 0.104499
0.161417 0.447315 0.105572
0.177667 0.435952 0.106614
0.198674 0.425329 0.107727
0.233126 0.416087 0.109005
0.270820 0.400324 0.109401
0.322813 0.399689 0.111330
0.397401 0.420984 0.115431
0.468737 0.424888 0.117840
0.550184 0.429307 0.120386
0.652334 0.439561 0.123683
0.765876 0.456767 0.128285
0.835159 0.460641 0.130956
0.888802 0.468844 0.134206
0.923524 0.478044 0.138567
0.947698 0.489067 0.143623
0.957994 0.494829 0.147747
0.965957 0.498802 0.153138
0.968527 0.505223 0.159878
0.970117 0.507537 0.167193
0.971040 0.512115 0.177494
0.971859 0.511568 0.192211
0.972365 0.504740 0.216675
0.972810 0.468852 0.387438
0.972825 0.489889 0.655130
0.972490 0.486587 0.659005
0.123784 0.538181 0.099446
0.123931 0.537086 0.099582
0.124491 0.533883 0.100098
0.126015 0.531114 0.101174
0.128383 0.527410 0.102522
0.131994 0.521496 0.103898
0.137749 0.512612 0.105214
0.146265 0.502262 0.106535
0.157369 0.491339 0.107673
0.171467 0.479940 0.108724
0.189335 0.469193 0.109780
0.214652 0.459264 0.110828
0.253064 0.451193 0.112071
0.296553 0.446519 0.113520
0.356042 0.455579 0.116551
0.417806 0.458466 0.118927
0.487306 0.461626 0.121250
0.575722 0.471321 0.124537
0.685479 0.487728 0.129125
0.777527 0.490946 0.131522
0.842654 0.497822 0.134567
0.896788 0.507900 0.138945
0.927043 0.519948 0.143908
0.949386 0.523221 0.147717
0.958643 0.530557 0.152865
0.965462 0.540274 0.159212
0.968593 0.539903 0.165788
0.969801 0.541990 0.174846
0.970768 0.545181 0.187509
0.971356 0.549883 0.206564
0.971756 0.562622 0.250968
0.972120 0.483037 0.645976
0.971825 0.480135 0.656015
0.124533 0.585796 0.101927
0.124660 0.584831 0.102049
0.125279 0.581907 0.102511
0.126654 0.578815 0.103452
0.129076 0.577412 0.104928
0.132196 0.571410 0.106431
0.137505 0.563729 0.107867
0.145394 0.554963 0.109274
0.155449 0.544842 0.110536
0.168198 0.533727 0.111609
0.184156 0.522848 0.112617
0.205462 0.512601 0.113712
0.239208 0.503132 0.114750
0.277920 0.495273 0.115968
0.332239 0.502976 0.119187
0.378398 0.494349 0.120316
0.438719 0.494830 0.122316
0.513871 0.503426 0.125452
0.611715 0.519459 0.129924
0.705412 0.522645 0.132351
0.793179 0.528700 0.135268
0.853985 0.538647 0.139522
0.903189 0.549131 0.144289
0.932592 0.554274 0.147967
0.950499 0.562122 0.152891
0.959263 0.569331 0.158786
0.966594 0.573275 0.164868
0.968347 0.579838 0.172830
0.969603 0.580388 0.183746
0.970376 0.581714 0.199465
0.970900 0.588987 0.228973
0.971134 0.605284 0.363395
0.971133 0.635232 0.651477
0.125770 0.647229 0.105225
0.125927 0.646381 0.105357
0.126513 0.643741 0.105850
0.127690 0.640607 0.106839
0.130240 0.640442 0.108530
0.133016 0.634164 0.109943
0.138522 0.628449 0.111535
0.146058 0.620410 0.112937
0.155600 0.610959 0.114289
0.167942 0.600602 0.115478
0.183434 0.589929 0.116705
0.203043 0.579158 0.117891
0.234075 0.568943 0.119185
0.270840 0.559773 0.120436
0.312349 0.551868 0.121860
0.353759 0.541393 0.122774
0.401457 0.532481 0.123798
0.466238 0.537481 0.126626
0.550534 0.552577 0.130897
0.634494 0.554958 0.133208
0.729879 0.560602 0.136174
0.813247 0.570208 0.140364
0.867794 0.580011 0.144922
0.909857 0.585944 0.148432
0.937650 0.592318 0.153102
0.951974 0.602043 0.158759
0.960917 0.606063 0.164388
0.966694 0.609894 0.171607
0.968374 0.615495 0.181164
0.969292 0.622552 0.194283
0.969982 0.625891 0.215866
0.970331 0.632983 0.288635
0.970438 0.635931 0.630284
0.126383 0.686485 0.107040
0.126521 0.685732 0.107159
0.127033 0.683333 0.107604
0.128049 0.680216 0.108485
0.130291 0.678911 0.109963
0.133001 0.675098 0.111488
0.138309 0.671600 0.113233
0.144830 0.663234 0.114543
0.153390 0.654803 0.115900
0.164626 0.645806 0.117441
0.178515 0.635526 0.118735
0.195434 0.625013 0.120016
0.220663 0.615059 0.121291
0.255661 0.605388 0.122558
0.292147 0.596827 0.123821
0.334468 0.589375 0.125369
0.376087 0.579025 0.126326
0.430291 0.576312 0.128335
0.501512 0.586877 0.132035
0.575370 0.588871 0.134310
0.662114 0.593425 0.137205
0.759239 0.602483 0.141342
0.829701 0.611981 0.145751
0.881290 0.617016 0.149051
0.917280 0.624106 0.153588
0.942598 0.633796 0.159015
0.954820 0.637627 0.164197
0.961632 0.644596 0.170895
0.967094 0.649279 0.179452
0.968261 0.652936 0.190834
0.969051 0.661846 0.208213
0.969469 0.677108 0.250358
0.969708 0.661563 0.541448
0.126891 0.721903 0.108613
0.127013 0.721407 0.108723
0.127466 0.719798 0.109127
0.128433 0.717566 0.109918
0.130374 0.716101 0.111224
0.133071 0.714946 0.112854
0.137407 0.709762 0.114341
0.143640 0.703853 0.115847
0.151610 0.696923 0.117468
0.161611 0.688576 0.119046
0.173975 0.679326 0.120531
0.189467 0.669529 0.121865
0.210859 0.659852 0.123118
0.241445 0.650261 0.124461
0.275617 0.641239 0.125857
0.314362 0.633219 0.127270
0.355587 0.626290 0.128819
0.404316 0.622613 0.130711
0.466124 0.627010 0.133916
0.525634 0.622756 0.135397
0.604382 0.627046 0.138441
0.696722 0.635320 0.142446
0.785788 0.644639 0.146738
0.845417 0.649124 0.149938
0.895677 0.656529 0.154300
0.924889 0.665156 0.159479
0.947886 0.670648 0.164352
0.956373 0.676321 0.170496
0.963024 0.682248 0.178318
0.967124 0.689284 0.188200
0.968124 0.695158 0.202663
0.968674 0.704591 0.231513
0.968928 0.721888 0.377212
0.127514 0.754395 0.110560
0.127624 0.753963 0.110661
0.128029 0.752544 0.111033
0.129038 0.750485 0.111756
0.130738 0.748818 0.112934
0.133536 0.749231 0.114682
0.137336 0.744575 0.115982
0.143539 0.741882 0.117923
0.150836 0.737057 0.119640
0.159916 0.731253 0.121210
0.171498 0.725153 0.122787
0.185731 0.718516 0.124255
0.204379 0.710830 0.125815
0.231359 0.701126 0.127145
0.264669 0.692117 0.128623
0.299894 0.683536 0.130019
0.339330 0.675819 0.131436
0.382407 0.669317 0.133081
0.439041 0.672800 0.136442
0.491353 0.664499 0.137646
0.555028 0.661180 0.139667
0.639471 0.669071 0.143642
0.733740 0.677850 0.147824
0.810819 0.681863 0.150977
0.862278 0.689261 0.155186
0.906008 0.697433 0.160204
0.934849 0.702988 0.164745
0.950589 0.708772 0.170458
0.958426 0.716004 0.177696
0.963862 0.719000 0.186478
0.967186 0.725128 0.198944
0.967842 0.734599 0.220447
0.968214 0.743686 0.306130
0.128322 0.790048 0.112958
0.128453 0.789711 0.113053
0.128933 0.788591 0.113401
0.129862 0.786917 0.114072
0.131376 0.785398 0.115154
0.133989 0.785403 0.116870
0.137978 0.782701 0.118562
0.143824 0.780377 0.120529
0.150608 0.776039 0.122289
0.159654 0.771766 0.124108
0.170828 0.766391 0.125888
0.184476 0.760391 0.127661
0.201387 0.753724 0.129218
0.225950 0.746949 0.130713
0.258238 0.740119 0.132130
0.292204 0.733790 0.133782
0.329883 0.727727 0.135321
0.369287 0.722093 0.137077
0.415733 0.717519 0.139126
0.463676 0.709651 0.140212
0.519538 0.704126 0.142022
0.590130 0.703410 0.144881
0.677742 0.711669 0.148926
0.764855 0.715108 0.152094
0.829923 0.719877 0.156115
0.880825 0.725882 0.161089
0.918127 0.729601 0.165304
0.942669 0.734589 0.170747
0.953809 0.739085 0.177322
0.960170 0.743593 0.185285
0.964545 0.749718 0.196359
0.967068 0.755938 0.213810
0.967507 0.768787 0.268306
0.128526 0.814322 0.113702
0.128645 0.814016 0.113792
0.129084 0.812986 0.114123
0.129930 0.811390 0.114756
0.131296 0.809762 0.115768
0.133560 0.809137 0.117450
0.137530 0.807866 0.119352
0.142465 0.804729 0.121115
0.149131 0.802116 0.123077
0.157386 0.798649 0.125054
0.167132 0.793807 0.126821
0.179546 0.788857 0.128609
0.194702 0.783488 0.130308
0.216135 0.777554 0.131890
0.245839 0.771306 0.133527
0.277411 0.764995 0.135062
0.312599 0.759038 0.136892
0.349854 0.753582 0.138777
0.391629 0.748441 0.140599
0.439568 0.744319 0.142728
0.491042 0.739455 0.144439
0.554066 0.738322 0.147214
0.628909 0.738254 0.150343
0.714039 0.740157 0.153229
0.794119 0.744460 0.157128
0.850555 0.749810 0.162018
0.900406 0.753397 0.165984
0.927984 0.758310 0.171210
0.948612 0.762788 0.177253
0.956254 0.767536 0.184462
0.961640 0.772713 0.194343
0.964649 0.780390 0.209083
0.966378 0.789954 0.247116
0.128717 0.838833 0.114464
0.128828 0.838560 0.114551
0.129233 0.837637 0.114867
0.130010 0.836170 0.115471
0.131256 0.834565 0.116461
0.133256 0.833609 0.118122
0.137285 0.833602 0.120254
0.141550 0.830090 0.121861
0.148247 0.828726 0.124067
0.154924 0.824381 0.125875
0.164467 0.820872 0.127903
0.176396 0.816822 0.129830
0.190201 0.811740 0.131572
0.208476 0.806394 0.133267
0.235246 0.801055 0.135005
0.265879 0.795647 0.136858
0.298043 0.790158 0.138701
0.334081 0.785015 0.140610
0.372613 0.780445 0.142639
0.416235 0.775751 0.144564
0.465880 0.772003 0.146671
0.522694 0.769738 0.149409
0.591678 0.769295 0.152689
0.665737 0.766553 0.154645
0.752910 0.768915 0.158121
0.821690 0.773871 0.163030
0.874138 0.777238 0.166750
0.912557 0.781427 0.171718
0.939848 0.785849 0.177402
0.952181 0.789540 0.183851
0.958581 0.794959 0.192855
0.962305 0.800670 0.205590
0.964362 0.810364 0.233760
0.128968 0.857840 0.115412
0.129071 0.857681 0.115496
0.129449 0.857140 0.115802
0.130170 0.856268 0.116408
0.131319 0.855276 0.117492
0.133132 0.854574 0.119070
0.137033 0.854872 0.121282
0.141118 0.852972 0.122948
0.146819 0.851561 0.125068
0.153684 0.849670 0.127179
0.162920 0.847734 0.129320
0.173196 0.844718 0.131177
0.186298 0.840545 0.133159
0.202894 0.835905 0.135061
0.226395 0.830866 0.137032
0.256700 0.825793 0.139159
0.287042 0.820580 0.141143
0.322032 0.815499 0.143165
0.357678 0.810654 0.145168
0.399151 0.806459 0.147241
0.444455 0.802507 0.149246
0.496106 0.799316 0.151592
0.558448 0.798052 0.154815
0.627185 0.795423 0.156639
0.706715 0.794037 0.159523
0.786192 0.796288 0.163969
0.846367 0.799395 0.167519
0.896361 0.802893 0.172342
0.926598 0.807044 0.177670
0.947663 0.810639 0.183515
0.955472 0.815519 0.191658
0.959966 0.821140 0.202887
0.962415 0.830581 0.225489
0.129018 0.874648 0.116016
0.129116 0.874510 0.116099
0.129472 0.874036 0.116426
0.130149 0.873259 0.117099
0.131222 0.872341 0.118154
0.132857 0.871596 0.119680
0.136302 0.871567 0.121801
0.140621 0.870662 0.123780
0.145545 0.868993 0.125843
0.152802 0.868016 0.128304
0.160618 0.865642 0.130236
0.170953 0.863588 0.132385
0.183653 0.861286 0.134634
0.197965 0.858201 0.136719
0.219274 0.855034 0.138887
0.247797 0.851776 0.141082
0.277377 0.848465 0.143330
0.310320 0.845115 0.145463
0.344863 0.840353 0.147526
0.383267 0.835824 0.149640
0.426402 0.831909 0.151971
0.474088 0.828364 0.154295
0.528345 0.825460 0.156644
0.592353 0.822604 0.158398
0.666602 0.820719 0.161427
0.750154 0.820163 0.165298
0.819370 0.820989 0.168147
0.870418 0.824090 0.172844
0.912717 0.827926 0.177963
0.939533 0.831480 0.183365
0.952206 0.835746 0.190562
0.957605 0.841330 0.200743
0.960605 0.848068 0.219641
0.128492 0.890415 0.115481
0.128585 0.890285 0.115563
0.128924 0.889834 0.115862
0.129569 0.889080 0.116459
0.130586 0.888142 0.117502
0.132070 0.887263 0.119003
0.134799 0.886861 0.121077
0.139285 0.886595 0.123422
0.143735 0.884712 0.125338
0.150505 0.883785 0.127911
0.157710 0.881740 0.129990
0.167787 0.880111 0.132342
0.178526 0.877553 0.134435
0.192521 0.875149 0.136831
0.211786 0.872468 0.139285
0.237253 0.869363 0.141491
0.265627 0.866225 0.143804
0.296212 0.863062 0.146013
0.330554 0.859954 0.148186
0.365671 0.856956 0.150412
0.406254 0.854169 0.152755
0.450693 0.851696 0.155044
0.501010 0.849614 0.157417
0.560611 0.847922 0.159966
0.629792 0.846209 0.162997
0.710052 0.845394 0.166807
0.788049 0.844897 0.169181
0.844686 0.844988 0.173173
0.897917 0.847424 0.177970
0.928017 0.849743 0.183303
0.948662 0.852456 0.189661
0.955275 0.855642 0.198602
0.958860 0.861014 0.215053
0.128004 0.904098 0.115026
0.128073 0.903986 0.115108
0.128389 0.903596 0.115405
0.129005 0.902939 0.115965
0.129974 0.902105 0.116944
0.131381 0.901285 0.118422
0.133558 0.900803 0.120452
0.138151 0.901195 0.123189
0.142210 0.899368 0.125001
0.148040 0.898195 0.127435
0.155473 0.897064 0.129956
0.163899 0.895145 0.132136
0.174849 0.893322 0.134553
0.188095 0.891235 0.137152
0.203584 0.888650 0.139573
0.226488 0.886007 0.142077
0.255884 0.883186 0.144538
0.285170 0.880193 0.146911
0.318036 0.877186 0.149132
0.351491 0.874259 0.151594
0.389009 0.871483 0.153951
0.430822 0.868943 0.156288
0.477372 0.866658 0.158590
0.530778 0.864845 0.161343
0.595975 0.863370 0.164122
0.670985 0.862069 0.167911
0.756233 0.861760 0.170243
0.821327 0.860903 0.173887
0.874552 0.861236 0.177814
0.915499 0.863283 0.182662
0.943956 0.865843 0.188768
0.952911 0.868676 0.196661
0.957182 0.873325 0.211066
0.127450 0.915486 0.114263
0.127516 0.915430 0.114346
0.127758 0.915233 0.114646
0.128250 0.914899 0.115211
0.129185 0.914470 0.116089
0.130540 0.914033 0.117541
0.132433 0.913742 0.119569
0.136319 0.913849 0.122292
0.140683 0.913116 0.124525
0.145738 0.911877 0.126865
0.153612 0.911536 0.129867
0.161091 0.909552 0.131919
0.172154 0.908315 0.134686
0.183375 0.906105 0.137125
0.198362 0.904103 0.139964
0.219271 0.901718 0.142622
0.246220 0.899073 0.145150
0.274477 0.896296 0.147632
0.305543 0.893415 0.150116
0.338693 0.890582 0.152685
0.373715 0.887838 0.155183
0.413405 0.885284 0.157614
0.457147 0.882938 0.160158
0.506132 0.880859 0.162807
0.564959 0.879260 0.165646
0.634689 0.877967 0.168492
0.717369 0.877833 0.170727
0.793320 0.876642 0.174361
0.852397 0.876583 0.177940
0.902342 0.876646 0.181928
0.934530 0.878710 0.187466
0.950440 0.881330 0.194676
0.955676 0.885495 0.207651
0.125793 0.925016 0.110962
0.125861 0.924958 0.111053
0.126107 0.924755 0.111382
0.126574 0.924402 0.112001
0.127305 0.923926 0.112964
0.128443 0.923391 0.114337
0.130374 0.922916 0.116217
0.133176 0.922707 0.119202
0.137770 0.922426 0.122165
0.142423 0.921555 0.124343
0.149296 0.921051 0.127369
0.157106 0.920292 0.130065
0.166480 0.919355 0.132624
0.178127 0.918360 0.135294
0.191904 0.917183 0.138238
0.209353 0.915842 0.140971
0.234913 0.914456 0.143831
0.263007 0.912431 0.146459
0.291530 0.909634 0.148910
0.324374 0.906864 0.151565
0.357128 0.904183 0.154153
0.394519 0.901644 0.156670
0.436079 0.899316 0.159187
0.482329 0.897247 0.161906
