LUTs/velvia/Velvia50_Modern_Soft.cube
TITLE "Velvia 50 Modern Soft"
# Adobe RGB in/out. REPLACES AgX. Velvia 50 Modern Soft.
LUT_3D_SIZE 5
DOMAIN_MIN 0.0 0.0 0.0
DOMAIN_MAX 1.0 1.0 1.0
0.074298 0.072888 0.089690
0.809842 0.073050 0.089690
0.961934 0.076785 0.089743
0.961934 0.089176 0.090210
0.961934 0.601864 0.891459
0.074298 0.121880 0.089690
0.075641 0.086506 0.089690
0.869379 0.138070 0.089739
0.961934 0.315158 0.090000
0.961934 0.560968 0.877242
0.074298 0.826643 0.089708
0.074908 0.807322 0.089735
0.172469 0.760596 0.089773
0.909410 0.784326 0.089979
0.961934 0.826629 0.181407
0.074298 0.927428 0.089727
0.074548 0.925697 0.089761
0.085888 0.919412 0.089866
0.708399 0.911110 0.090079
0.950450 0.915295 0.091400
0.074298 0.942739 0.089690
0.074298 0.952602 0.089690
0.075406 0.953564 0.089712
0.246200 0.948805 0.089799
0.942353 0.946546 0.089857
0.074298 0.072891 0.126643
0.821904 0.073420 0.836474
0.961934 0.079065 0.649525
0.961934 0.093409 0.719870
0.961934 0.586485 0.886855
0.074352 0.081495 0.093809
0.079966 0.076140 0.091948
0.911349 0.120141 0.109061
0.961934 0.290646 0.191907
0.961934 0.545713 0.871529
0.074712 0.779064 0.092823
0.076327 0.749145 0.092734
0.430193 0.669538 0.092556
0.926704 0.760055 0.097048
0.961765 0.823418 0.710360
0.074539 0.920051 0.090822
0.075234 0.918001 0.091356
0.106466 0.911133 0.092396
0.799674 0.900936 0.093930
0.949630 0.913421 0.105609
0.074298 0.943098 0.089777
0.074298 0.952688 0.089774
0.076144 0.952363 0.089907
0.313820 0.947545 0.090412
0.944312 0.946120 0.090851
0.074298 0.073555 0.884471
0.576327 0.084311 0.951209
0.961934 0.151540 0.950620
0.961934 0.178105 0.933318
0.961934 0.579693 0.930776
0.074770 0.152058 0.872818
0.139179 0.230129 0.917217
0.931115 0.298412 0.906657
0.961934 0.413713 0.907208
0.961934 0.536589 0.921926
0.075253 0.679378 0.641774
0.079167 0.653532 0.621520
0.581221 0.571473 0.585503
0.931076 0.738606 0.753092
0.959517 0.828966 0.886272
0.075287 0.905013 0.501283
0.077131 0.901747 0.502686
0.185594 0.893154 0.502821
0.859827 0.889996 0.530646
0.947427 0.911045 0.782403
0.074298 0.947731 0.305789
0.074298 0.949347 0.279513
0.079170 0.948910 0.197352
0.465796 0.944893 0.242162
0.944216 0.945724 0.457384
0.074308 0.085125 0.962786
0.142841 0.191279 0.965564
0.961934 0.460616 0.965681
0.961934 0.479766 0.962326
0.961934 0.597350 0.953760
0.074994 0.373704 0.963376
0.154631 0.560003 0.965178
0.952972 0.621060 0.963711
0.961934 0.602136 0.956969
0.961934 0.552066 0.950023
0.076000 0.730100 0.928698
0.084850 0.744545 0.930909
0.781347 0.759734 0.931057
0.942134 0.786630 0.931678
0.960415 0.851837 0.936331
0.075801 0.893301 0.868445
0.078613 0.892610 0.869711
0.282615 0.888156 0.873839
0.872174 0.882284 0.873929
0.946289 0.911578 0.918034
0.074298 0.944848 0.737522
0.074298 0.947331 0.731593
0.079252 0.947438 0.797061
0.490621 0.943957 0.801274
0.943711 0.946164 0.885731
0.218325 0.109088 0.967665
0.896031 0.132679 0.967665
0.961934 0.319916 0.967665
0.961934 0.320499 0.967196
0.961934 0.621758 0.964163
0.250018 0.394422 0.967665
0.883262 0.461192 0.967665
0.961934 0.585346 0.967665
0.961934 0.500093 0.965927
0.961934 0.577745 0.962923
0.122125 0.792972 0.965268
0.598856 0.791981 0.964905
0.939988 0.788072 0.963442
0.961934 0.781467 0.960946
0.961934 0.845280 0.957260
0.077443 0.893096 0.956260
0.089048 0.892342 0.954582
0.797387 0.889730 0.950634
0.933258 0.888202 0.948251
0.949680 0.909671 0.947224
0.074298 0.937819 0.910813
0.074298 0.945219 0.922816
0.075295 0.950818 0.937092
0.398010 0.946109 0.943682
0.943554 0.947380 0.942937
