LUTs/velvia/Velvia50_Classic_ExtraPunchy.cube
TITLE "Velvia 50 Classic ExtraPunchy"
# Adobe RGB in/out. REPLACES AgX. Velvia 50 Classic ExtraPunchy.
LUT_3D_SIZE 33
DOMAIN_MIN 0.0 0.0 0.0
DOMAIN_MAX 1.0 1.0 1.0
0.070631 0.072407 0.079283
0.070631 0.072407 0.079283
0.070631 0.072407 0.079283
0.070647 0.072407 0.079283
0.071241 0.072407 0.079283
0.072018 0.072407 0.079283
0.076815 0.072407 0.079283
0.132681 0.072407 0.079283
0.210532 0.072407 0.079283
0.430040 0.072408 0.079283
0.685368 0.072413 0.079283
0.801583 0.072420 0.079283
0.872431 0.072426 0.079283
0.918651 0.072452 0.079283
0.946517 0.072513 0.079283
0.957097 0.072575 0.079283
0.965195 0.072630 0.079283
0.971762 0.072694 0.079283
0.977257 0.072802 0.079269
0.981722 0.072884 0.079257
0.983012 0.072968 0.079245
0.984068 0.073107 0.079230
0.985054 0.073249 0.079208
0.986001 0.073291 0.079185
0.986696 0.073344 0.079157
0.987313 0.073364 0.079073
0.988101 0.073144 0.078826
0.988524 0.073020 0.078159
0.989417 0.072575 0.615664
0.989417 0.072575 0.615574
0.989417 0.072575 0.615569
0.989417 0.072575 0.615566
0.989754 0.237648 0.876851
0.070631 0.072407 0.079283
0.070631 0.072407 0.079283
0.070631 0.072407 0.079283
0.070653 0.072407 0.079283
0.071083 0.072407 0.079283
0.071610 0.072407 0.079283
0.075364 0.072407 0.079283
0.116580 0.072407 0.079283
0.189784 0.072407 0.079283
0.396088 0.072409 0.079283
0.670576 0.072414 0.079283
0.795160 0.072421 0.079283
0.867955 0.072427 0.079283
0.916710 0.072457 0.079283
0.945230 0.072522 0.079283
0.956602 0.072583 0.079283
0.964817 0.072638 0.079283
0.971520 0.072700 0.079283
0.977081 0.072815 0.079269
0.981680 0.072897 0.079257
0.982982 0.072980 0.079245
0.984046 0.073127 0.079230
0.985038 0.073269 0.079208
0.985990 0.073310 0.079186
0.986688 0.073362 0.079158
0.987308 0.073382 0.079075
0.988097 0.073163 0.078830
0.988522 0.073039 0.078127
0.989417 0.072575 0.615666
0.989417 0.072575 0.615575
0.989417 0.072575 0.615569
0.989417 0.072575 0.615566
0.989754 0.237655 0.876851
0.070631 0.072407 0.079283
0.070631 0.072407 0.079283
0.070631 0.072407 0.079283
0.070631 0.072407 0.079283
0.070758 0.072407 0.079283
0.071115 0.072407 0.079283
0.072877 0.072407 0.079283
0.088214 0.072407 0.079283
0.141591 0.072408 0.079283
0.294611 0.072411 0.079283
0.608340 0.072418 0.079283
0.763467 0.072425 0.079283
0.850884 0.072439 0.079283
0.908398 0.072472 0.079283
0.940322 0.072555 0.079283
0.954716 0.072612 0.079283
0.963386 0.072664 0.079283
0.970609 0.072724 0.079283
0.976417 0.072864 0.079269
0.981493 0.072942 0.079257
0.982868 0.073034 0.079244
0.983964 0.073201 0.079230
0.984981 0.073339 0.079208
0.985950 0.073379 0.079186
0.986661 0.073429 0.079159
0.987289 0.073448 0.079081
0.988084 0.073231 0.078844
0.988514 0.073105 0.078064
0.989417 0.072575 0.615673
0.989417 0.072575 0.615575
0.989417 0.072575 0.615570
0.989417 0.072575 0.615566
0.989754 0.237668 0.876851
0.070631 0.072407 0.079283
0.070631 0.072407 0.079283
0.070631 0.072407 0.079283
0.070631 0.072407 0.079283
0.070644 0.072407 0.079283
0.070762 0.072407 0.079283
0.071376 0.072408 0.079283
0.074557 0.072412 0.079283
0.086471 0.072413 0.079283
0.161931 0.072417 0.079283
0.453343 0.072429 0.079283
0.663011 0.072455 0.079283
0.794451 0.072474 0.079283
0.881077 0.072525 0.079283
0.929479 0.072619 0.079283
0.950762 0.072668 0.079283
0.960407 0.072714 0.079283
0.968726 0.072808 0.079283
0.975057 0.072956 0.079267
0.980503 0.073043 0.079256
0.982636 0.073181 0.079244
0.983800 0.073340 0.079230
0.984865 0.073471 0.079208
0.985870 0.073520 0.079187
0.986606 0.073597 0.079161
0.987250 0.073627 0.079092
0.988057 0.073359 0.078891
0.988498 0.073230 0.078315
0.989417 0.072576 0.615688
0.989417 0.072575 0.615577
0.989417 0.072575 0.615571
0.989417 0.072575 0.615567
0.989754 0.237677 0.876850
0.070631 0.072410 0.079283
0.070631 0.072411 0.079283
0.070631 0.072413 0.079283
0.070631 0.072414 0.079283
0.070631 0.072415 0.079283
0.070666 0.072413 0.079283
0.070926 0.072418 0.079283
0.071830 0.072428 0.079283
0.074108 0.072427 0.079283
0.090593 0.072440 0.079283
0.233433 0.072490 0.079283
0.486294 0.072534 0.079283
0.682955 0.072572 0.079283
0.827722 0.072636 0.079283
0.905447 0.072723 0.079283
0.938048 0.072784 0.079283
0.954929 0.072862 0.079283
0.964934 0.072967 0.079283
0.972616 0.073181 0.079266
0.978741 0.073291 0.079255
0.982228 0.073411 0.079243
0.983512 0.073599 0.079229
0.984665 0.073866 0.079209
0.985733 0.073944 0.079188
0.986512 0.074049 0.079163
0.987185 0.074088 0.079105
0.988012 0.073606 0.078958
0.988470 0.073426 0.078577
0.989417 0.072576 0.615718
0.989417 0.072575 0.615581
0.989417 0.072575 0.615573
0.989417 0.072576 0.615568
0.989754 0.237680 0.876850
0.070631 0.072418 0.079283
0.070631 0.072419 0.079283
0.070631 0.072423 0.079283
0.070631 0.072427 0.079283
0.070631 0.072432 0.079283
0.070631 0.072439 0.079283
0.070720 0.072474 0.079283
0.071142 0.072553 0.079283
0.071985 0.072522 0.079283
0.075178 0.072552 0.079283
0.114192 0.072645 0.079283
0.249992 0.072677 0.079283
0.504059 0.072702 0.079283
0.716730 0.072766 0.079283
0.859198 0.072931 0.079283
0.916293 0.073007 0.079283
0.944267 0.073153 0.079283
0.957877 0.073358 0.079279
0.968280 0.073627 0.079263
0.975649 0.073794 0.079253
0.981492 0.074031 0.079242
0.983023 0.074342 0.079229
0.984328 0.074613 0.079208
0.985505 0.074668 0.079189
0.986357 0.074752 0.079166
0.987079 0.074783 0.079120
0.987938 0.074298 0.079027
0.988425 0.073950 0.078724
0.989417 0.072576 0.615777
0.989417 0.072575 0.615588
0.989417 0.072575 0.615576
0.989754 0.237404 0.615569
0.989754 0.237681 0.876849
0.070631 0.072502 0.079283
0.070631 0.072509 0.079283
0.070631 0.072547 0.079283
0.070631 0.072591 0.079283
0.070631 0.072625 0.079283
0.070631 0.072647 0.079283
0.070682 0.072660 0.079283
0.070950 0.072772 0.079283
0.071298 0.072715 0.079283
0.072549 0.072729 0.079283
0.079960 0.072898 0.079283
0.128198 0.072943 0.079283
0.264693 0.072960 0.079283
0.545041 0.073074 0.079283
0.772452 0.073356 0.079283
0.868696 0.073486 0.079283
0.923100 0.073615 0.079283
0.950646 0.073973 0.079275
0.962542 0.074546 0.079260
0.971406 0.074797 0.079250
0.977965 0.075260 0.079240
0.982159 0.075933 0.079227
0.983744 0.076796 0.079207
0.985114 0.076890 0.079190
0.986097 0.077111 0.079168
0.986902 0.077187 0.079134
0.987815 0.075587 0.079055
0.988348 0.075024 0.078823
0.989418 0.072578 0.615919
0.989417 0.072575 0.615604
0.989417 0.072575 0.615585
0.989754 0.237664 0.615573
0.989754 0.237682 0.876849
0.070631 0.072806 0.079283
0.070631 0.072817 0.079283
0.070631 0.072886 0.079283
0.070631 0.072965 0.079283
0.070631 0.073070 0.079283
0.070631 0.073182 0.079283
0.070675 0.073254 0.079283
0.070823 0.073296 0.079283
0.071036 0.073128 0.079283
0.071567 0.073166 0.079283
0.074018 0.073466 0.079283
0.084892 0.073509 0.079283
0.141901 0.073504 0.079283
0.312641 0.073718 0.079283
0.622161 0.074334 0.079283
0.788333 0.074532 0.079283
0.881361 0.074722 0.079281
0.930538 0.075284 0.079270
0.954342 0.076772 0.079255
0.966234 0.077320 0.079246
0.974510 0.078201 0.079237
0.980852 0.079719 0.079224
0.983041 0.081110 0.079205
0.984533 0.081835 0.079189
0.985625 0.082881 0.079169
0.986586 0.082896 0.079144
0.987591 0.081402 0.079074
0.988207 0.079963 0.078903
0.989418 0.072584 0.616409
0.989417 0.072575 0.615660
0.989417 0.072575 0.615608
0.989754 0.237678 0.615583
0.989754 0.237682 0.876849
0.070631 0.073100 0.079283
0.070631 0.073114 0.079283
0.070631 0.073196 0.079283
0.070631 0.073333 0.079283
0.070631 0.073471 0.079283
0.070631 0.073648 0.079283
0.070650 0.073861 0.079283
0.070701 0.074005 0.079283
0.070925 0.074100 0.079283
0.071251 0.074191 0.079283
0.072596 0.074971 0.079283
0.075777 0.075018 0.079283
0.090916 0.074910 0.079283
0.167967 0.075257 0.079283
0.427881 0.076799 0.079283
0.655836 0.077314 0.079283
0.802693 0.077895 0.079275
0.897840 0.079396 0.079264
0.940807 0.081368 0.079250
0.958140 0.082107 0.079242
0.968808 0.083430 0.079233
0.977024 0.084893 0.079219
0.982214 0.086850 0.079201
0.983994 0.088031 0.079186
0.985270 0.090023 0.079168
0.986272 0.092528 0.079146
0.987295 0.093014 0.079081
0.987950 0.094787 0.078957
0.989436 0.072739 0.621958
0.989418 0.072582 0.616227
0.989417 0.072576 0.615761
0.989754 0.237682 0.615629
0.989754 0.237683 0.876849
0.070631 0.073942 0.079283
0.070631 0.073970 0.079283
0.070631 0.074114 0.079283
0.070631 0.074423 0.079283
0.070631 0.074738 0.079283
0.070631 0.075163 0.079283
0.070638 0.075542 0.079283
0.070686 0.076066 0.079283
0.070837 0.076580 0.079283
0.071058 0.076949 0.079283
0.071793 0.080148 0.079283
0.073348 0.080204 0.079283
0.078328 0.079717 0.079283
0.109331 0.080393 0.079283
0.244281 0.082560 0.079283
0.483251 0.082942 0.079275
0.689244 0.083366 0.079268
0.841808 0.085090 0.079257
0.915386 0.089633 0.079244
0.948265 0.091236 0.079237
0.962131 0.093180 0.079228
0.972200 0.098922 0.079213
0.979753 0.106144 0.079196
0.983101 0.108454 0.079182
0.984701 0.110598 0.079166
0.985907 0.114017 0.079145
0.987071 0.113686 0.079086
0.987809 0.115168 0.078990
0.988546 0.115047 0.078810
0.989050 0.118221 0.078248
0.989567 0.119464 0.467859
0.989754 0.237686 0.623978
0.989754 0.237684 0.876849
0.070631 0.078208 0.079283
0.070631 0.078303 0.079283
0.070631 0.078840 0.079283
0.070631 0.080213 0.079283
0.070631 0.081468 0.079283
0.070631 0.082679 0.079283
0.070640 0.084200 0.079283
0.070686 0.085715 0.079283
0.070821 0.087037 0.079283
0.071033 0.088332 0.079283
0.071456 0.089360 0.079283
0.072513 0.089354 0.079283
0.074644 0.087827 0.079283
0.085041 0.089327 0.079283
0.153076 0.096508 0.079275
0.302033 0.096931 0.079267
0.547101 0.097475 0.079260
0.742046 0.101943 0.079251
0.868976 0.112049 0.079238
0.925462 0.113635 0.079231
0.952846 0.119271 0.079222
0.965720 0.129834 0.079206
0.975591 0.140766 0.079191
0.982118 0.146678 0.079178
0.983921 0.157243 0.079162
0.985293 0.168755 0.079140
0.986700 0.165983 0.079087
0.987582 0.165254 0.079015
0.988403 0.162720 0.078838
0.988967 0.162075 0.078594
0.989537 0.136181 0.197974
0.989754 0.237690 0.650306
0.989754 0.237698 0.654786
0.070631 0.084222 0.079283
0.070631 0.084351 0.079283
0.070631 0.084955 0.079283
0.070631 0.086910 0.079283
0.070631 0.089843 0.079283
0.070631 0.093632 0.079283
0.070634 0.099237 0.079283
0.070675 0.103980 0.079283
0.070756 0.108029 0.079283
0.070960 0.111247 0.079283
0.071244 0.113639 0.079283
0.071912 0.116469 0.079283
0.073091 0.111898 0.079283
0.077566 0.115768 0.079281
0.108071 0.132678 0.079266
0.184937 0.131741 0.079260
0.370963 0.131980 0.079253
0.620417 0.141390 0.079244
0.796554 0.160975 0.079232
0.889029 0.162580 0.079225
0.935651 0.170271 0.079213
0.957594 0.183838 0.079199
0.969985 0.207604 0.079184
0.979021 0.218462 0.079172
0.983034 0.226586 0.079158
0.984733 0.240732 0.079130
0.986263 0.248151 0.079083
0.987237 0.268851 0.079025
0.988154 0.274680 0.078864
0.988823 0.260135 0.078710
0.989466 0.186382 0.081978
0.989754 0.237701 0.650439
0.989754 0.237715 0.658936
0.070631 0.096967 0.079283
0.070631 0.097288 0.079283
0.070631 0.098699 0.079283
0.070631 0.102505 0.079283
0.070631 0.108481 0.079283
0.070631 0.115484 0.079283
0.070631 0.124180 0.079283
0.070665 0.133692 0.079283
0.070704 0.144022 0.079283
0.070888 0.152610 0.079283
0.071073 0.158447 0.079283
0.071497 0.162266 0.079283
0.072536 0.165834 0.079282
0.074840 0.171995 0.079273
0.087012 0.207913 0.079258
0.136880 0.204916 0.079252
0.241139 0.203028 0.079246
0.478904 0.216466 0.079237
0.701778 0.242395 0.079225
0.838098 0.243142 0.079216
0.909973 0.254733 0.079205
0.946971 0.282234 0.079191
0.962581 0.304455 0.079177
0.974329 0.309961 0.079166
0.981845 0.325604 0.079153
0.983838 0.352106 0.079118
0.985736 0.353654 0.079076
0.986920 0.363293 0.079022
0.987927 0.377574 0.078881
0.988629 0.398085 0.078765
0.989194 0.438319 0.078344
0.989754 0.237881 0.650533
0.989754 0.237834 0.668583
0.070631 0.132975 0.079283
0.070631 0.133644 0.079283
0.070631 0.136492 0.079283
0.070631 0.144032 0.079283
0.070631 0.157831 0.079283
0.070631 0.168106 0.079283
0.070631 0.183184 0.079283
0.070662 0.204100 0.079283
0.070698 0.220591 0.079283
0.070845 0.232997 0.079283
0.071023 0.243803 0.079283
0.071356 0.255110 0.079282
0.072078 0.266035 0.079273
0.073442 0.276311 0.079265
0.079636 0.313959 0.079250
0.102904 0.311792 0.079244
0.165772 0.307946 0.079238
0.328308 0.319368 0.079230
0.595032 0.352556 0.079215
0.758011 0.353093 0.079206
0.864743 0.362971 0.079196
0.925102 0.385991 0.079183
0.954017 0.411209 0.079170
0.968231 0.421753 0.079160
0.977983 0.441089 0.079147
0.982907 0.460723 0.079104
0.985051 0.473174 0.079066
0.986408 0.494881 0.079013
0.987635 0.500812 0.078889
0.988466 0.510412 0.078793
0.989105 0.539094 0.078567
0.989516 0.582716 0.080993
0.989744 0.656158 0.678829
0.070631 0.227662 0.079283
0.070631 0.228603 0.079283
0.070631 0.232471 0.079283
0.070631 0.241830 0.079283
0.070631 0.271005 0.079283
0.070631 0.290875 0.079283
0.070631 0.312002 0.079283
0.070664 0.333590 0.079283
0.070698 0.356947 0.079283
0.070837 0.378564 0.079283
0.071010 0.397761 0.079276
0.071300 0.411248 0.079268
0.071888 0.421421 0.079259
0.073041 0.429847 0.079251
0.076255 0.437129 0.079243
0.086626 0.433053 0.079237
0.127037 0.429227 0.079231
0.227600 0.442516 0.079222
0.471033 0.477032 0.079205
0.658816 0.475444 0.079197
0.800195 0.484362 0.079187
0.894941 0.506409 0.079175
0.940306 0.531005 0.079162
0.960089 0.543139 0.079153
0.972801 0.555700 0.079129
0.981620 0.577398 0.079088
0.984213 0.587211 0.079054
0.985917 0.597853 0.078995
0.987275 0.614078 0.078885
0.988204 0.634584 0.078804
0.988959 0.645034 0.078639
0.989441 0.663004 0.078328
0.989734 0.674074 0.656456
0.070631 0.323640 0.079283
0.070631 0.324604 0.079283
0.070631 0.328481 0.079283
0.070631 0.339141 0.079283
0.070631 0.361327 0.079283
0.070631 0.385986 0.079283
0.070631 0.415866 0.079283
0.070660 0.437208 0.079283
0.070692 0.461155 0.079283
0.070799 0.484998 0.079280
0.070962 0.505002 0.079271
0.071159 0.522107 0.079262
0.071569 0.537294 0.079253
0.072584 0.545611 0.079245
0.074350 0.552883 0.079238
0.080308 0.559215 0.079230
0.102241 0.555452 0.079224
0.166632 0.566691 0.079212
0.336920 0.596350 0.079195
0.562551 0.594521 0.079187
0.724150 0.599515 0.079178
0.852121 0.616398 0.079167
0.918936 0.634686 0.079154
0.951349 0.641766 0.079142
0.966370 0.653138 0.079110
0.977177 0.670445 0.079072
0.983211 0.677541 0.079040
0.985200 0.691690 0.078972
0.986850 0.702430 0.078874
0.987973 0.714389 0.078807
0.988792 0.741930 0.078676
0.989307 0.778470 0.078157
0.989692 0.751175 0.454616
0.070631 0.432867 0.079283
0.070631 0.433901 0.079283
0.070631 0.437992 0.079283
0.070631 0.447194 0.079283
0.070631 0.465736 0.079283
0.070631 0.492499 0.079283
0.070631 0.516851 0.079283
0.070656 0.542993 0.079283
0.070687 0.564013 0.079283
0.070762 0.583586 0.079275
0.070919 0.601358 0.079265
0.071073 0.616836 0.079256
0.071434 0.629956 0.079248
0.072152 0.639630 0.079240
0.073313 0.646346 0.079233
0.076748 0.652292 0.079226
0.088049 0.657726 0.079215
0.135619 0.667047 0.079202
0.249044 0.690367 0.079186
0.445716 0.688373 0.079179
0.637693 0.692304 0.079170
0.790953 0.704604 0.079159
0.886852 0.724146 0.079146
0.935564 0.731917 0.079121
0.958263 0.746820 0.079090
0.971869 0.763346 0.079055
0.981915 0.774264 0.079026
0.984384 0.786612 0.078947
0.986338 0.800593 0.078858
0.987626 0.818131 0.078806
0.988609 0.831320 0.078699
0.989219 0.847596 0.078402
0.989594 0.878059 0.085544
0.070631 0.558867 0.079283
0.070631 0.559703 0.079283
0.070631 0.562951 0.079283
0.070631 0.570003 0.079283
0.070631 0.583529 0.079283
0.070631 0.607969 0.079283
0.070631 0.623657 0.079283
0.070657 0.645361 0.079283
0.070685 0.661917 0.079276
0.070742 0.677603 0.079267
0.070894 0.693044 0.079258
0.071044 0.707451 0.079249
0.071346 0.723629 0.079241
0.071864 0.736200 0.079233
0.072905 0.746051 0.079226
0.075255 0.753240 0.079215
0.082719 0.759557 0.079204
0.109000 0.765838 0.079193
0.183645 0.791227 0.079177
0.328371 0.789181 0.079170
0.543707 0.792265 0.079162
0.717464 0.805447 0.079151
0.848030 0.821071 0.079123
0.914676 0.825656 0.079100
0.949801 0.835922 0.079071
0.965488 0.846016 0.079037
0.978091 0.853037 0.078992
0.983368 0.860951 0.078920
0.985662 0.872284 0.078843
0.987279 0.878587 0.078802
0.988393 0.887063 0.078709
0.989078 0.898077 0.078525
0.989538 0.909021 0.078904
0.070631 0.671812 0.079283
0.070631 0.672494 0.079283
0.070631 0.675101 0.079283
0.070631 0.680576 0.079283
0.070631 0.690606 0.079283
0.070631 0.709408 0.079283
0.070634 0.729151 0.079283
0.070660 0.751450 0.079276
0.070686 0.769435 0.079267
0.070743 0.789355 0.079257
0.070889 0.807434 0.079248
0.071034 0.823650 0.079240
0.071298 0.834000 0.079232
0.071711 0.841837 0.079223
0.072716 0.848030 0.079211
0.074526 0.853673 0.079200
0.079722 0.858243 0.079189
0.098438 0.862024 0.079179
0.151747 0.866233 0.079169
0.251716 0.865128 0.079163
0.446877 0.867465 0.079154
0.640323 0.874935 0.079136
0.790685 0.882391 0.079103
0.881997 0.884554 0.079080
0.933523 0.888634 0.079052
0.957830 0.894210 0.079014
0.972813 0.897672 0.078959
0.982109 0.902721 0.078891
0.984936 0.907554 0.078834
0.986816 0.912673 0.078797
0.988141 0.918914 0.078710
0.988964 0.923162 0.078566
0.989467 0.935772 0.078253
0.070631 0.763969 0.079283
0.070631 0.764631 0.079283
0.070631 0.767144 0.079283
0.070631 0.772347 0.079283
0.070631 0.781689 0.079283
0.070631 0.797808 0.079283
0.070634 0.816137 0.079281
0.070656 0.830161 0.079272
0.070682 0.843889 0.079263
0.070719 0.856319 0.079253
0.070854 0.866956 0.079245
0.070993 0.877561 0.079236
0.071187 0.884271 0.079228
0.071542 0.888833 0.079218
0.072368 0.892797 0.079206
0.073567 0.896044 0.079195
0.076866 0.898902 0.079184
0.086758 0.901484 0.079174
0.120231 0.903606 0.079165
0.191648 0.906017 0.079155
0.339030 0.906967 0.079147
0.564619 0.911132 0.079115
0.725247 0.915442 0.079082
0.846361 0.916957 0.079061
0.914083 0.920214 0.079034
0.949849 0.922777 0.078977
0.966735 0.923980 0.078926
0.978773 0.928323 0.078862
0.983994 0.933131 0.078824
0.986248 0.938500 0.078790
0.987860 0.943755 0.078708
0.988805 0.949326 0.078584
0.989402 0.956788 0.078069
0.070631 0.846921 0.079283
0.070631 0.847315 0.079283
0.070631 0.848795 0.079283
0.070631 0.851808 0.079283
0.070631 0.857084 0.079283
0.070631 0.865901 0.079283
0.070635 0.878321 0.079275
0.070655 0.884294 0.079268
0.070681 0.891917 0.079258
0.070705 0.897248 0.079250
0.070831 0.903801 0.079241
0.070969 0.909995 0.079232
0.071107 0.914777 0.079223
0.071450 0.918810 0.079212
0.072085 0.921931 0.079200
0.073038 0.923232 0.079189
0.075386 0.924281 0.079179
0.081666 0.926819 0.079169
0.104090 0.929412 0.079159
0.157242 0.931570 0.079150
0.271139 0.934025 0.079128
0.471207 0.937390 0.079096
0.656030 0.942094 0.079065
0.792315 0.943328 0.079044
0.883829 0.945368 0.079008
0.935002 0.948289 0.078942
0.959367 0.950290 0.078894
0.973715 0.952985 0.078842
0.982829 0.956172 0.078814
0.985592 0.959000 0.078780
0.987499 0.963186 0.078703
0.988645 0.967739 0.078595
0.989329 0.971128 0.078157
0.070631 0.896384 0.079283
0.070631 0.896591 0.079283
0.070631 0.897366 0.079283
0.070631 0.898916 0.079283
0.070631 0.901560 0.079283
0.070631 0.905840 0.079279
0.070636 0.912651 0.079269
0.070655 0.916786 0.079262
0.070679 0.921829 0.079253
0.070703 0.924052 0.079244
0.070820 0.930162 0.079236
0.070945 0.935655 0.079228
0.071076 0.941250 0.079216
0.071383 0.944773 0.079203
0.071872 0.947443 0.079192
0.072801 0.949838 0.079181
0.074476 0.951829 0.079171
0.079049 0.953550 0.079161
0.093537 0.955048 0.079151
0.138340 0.956596 0.079131
0.212334 0.957926 0.079105
0.373768 0.959410 0.079079
0.586349 0.961882 0.079048
0.734103 0.963106 0.079028
0.850779 0.964915 0.078975
0.916978 0.967543 0.078910
0.951824 0.968819 0.078864
0.968163 0.969824 0.078830
0.981317 0.971062 0.078804
0.984765 0.972195 0.078766
0.987086 0.973747 0.078697
0.988454 0.975566 0.078600
0.989246 0.978228 0.078279
0.070631 0.924905 0.079283
0.070631 0.925098 0.079283
0.070631 0.925814 0.079283
0.070631 0.927228 0.079283
0.070631 0.929599 0.079280
0.070631 0.933355 0.079274
0.070635 0.939211 0.079265
0.070656 0.943850 0.079257
0.070677 0.947098 0.079249
0.070702 0.951375 0.079239
0.070799 0.954666 0.079231
0.070929 0.958433 0.079221
0.071059 0.962053 0.079208
0.071319 0.964925 0.079196
0.071668 0.967612 0.079185
0.072576 0.968996 0.079174
0.073851 0.969875 0.079163
0.077249 0.970622 0.079154
0.086747 0.971268 0.079137
0.117261 0.971836 0.079110
0.177600 0.972430 0.079084
0.306927 0.972987 0.079058
0.508987 0.973590 0.079034
0.669568 0.974082 0.079001
0.799956 0.974733 0.078946
0.891195 0.975657 0.078882
0.939533 0.976506 0.078843
0.961372 0.977352 0.078819
0.976670 0.978264 0.078794
0.983755 0.979087 0.078752
0.986590 0.979983 0.078690
0.988223 0.981152 0.078602
0.989173 0.982807 0.078341
0.070631 0.952821 0.079283
0.070631 0.952923 0.079283
0.070631 0.953298 0.079283
0.070631 0.954035 0.079283
0.070631 0.955260 0.079279
0.070631 0.957178 0.079273
0.070631 0.960129 0.079265
0.070653 0.963752 0.079255
0.070672 0.966379 0.079248
0.070697 0.969092 0.079238
0.070771 0.970394 0.079230
0.070903 0.971936 0.079219
0.071021 0.973167 0.079207
0.071230 0.974464 0.079194
0.071561 0.975631 0.079182
0.072312 0.976581 0.079172
0.073246 0.977379 0.079161
0.075691 0.977979 0.079151
0.082704 0.978509 0.079129
0.103221 0.978947 0.079102
0.152685 0.979309 0.079076
0.245035 0.979672 0.079051
0.416715 0.980058 0.079026
0.605587 0.980471 0.078976
0.753835 0.980808 0.078921
0.859793 0.981318 0.078858
0.922922 0.981875 0.078834
0.954214 0.982383 0.078810
0.971440 0.983077 0.078787
0.982562 0.983778 0.078738
0.985977 0.984612 0.078683
0.987968 0.985350 0.078606
0.989087 0.986050 0.078388
0.070631 0.970021 0.079283
0.070631 0.970059 0.079283
0.070631 0.970202 0.079283
0.070631 0.970480 0.079282
0.070631 0.970935 0.079278
0.070631 0.971634 0.079272
0.070631 0.972684 0.079264
0.070651 0.974267 0.079253
0.070669 0.975201 0.079246
0.070691 0.976530 0.079237
0.070752 0.977818 0.079228
0.070871 0.978810 0.079217
0.070996 0.979693 0.079204
0.071161 0.980523 0.079191
0.071471 0.981224 0.079179
0.072072 0.981887 0.079168
0.072957 0.982469 0.079157
0.074913 0.982958 0.079147
0.079559 0.983384 0.079118
0.093947 0.983765 0.079091
0.133525 0.984114 0.079065
0.197466 0.984452 0.079040
0.334976 0.984785 0.079004
0.526089 0.985081 0.078952
0.691132 0.985335 0.078901
0.823788 0.985528 0.078844
0.903114 0.985782 0.078826
0.944934 0.985953 0.078804
0.965587 0.986224 0.078775
0.980434 0.986495 0.078731
0.985228 0.986833 0.078677
0.987672 0.987213 0.078608
0.988993 0.988300 0.078429
0.070631 0.977676 0.079283
0.070631 0.977705 0.079283
0.070631 0.977810 0.079283
0.070631 0.978013 0.079282
0.070631 0.978340 0.079278
0.070631 0.978826 0.079272
0.070631 0.979429 0.079264
0.070645 0.980320 0.079253
0.070665 0.981056 0.079245
0.070686 0.981803 0.079237
0.070737 0.982845 0.079226
0.070845 0.983542 0.079214
0.070978 0.984460 0.079200
0.071091 0.985073 0.079188
0.071408 0.985503 0.079176
0.071882 0.985778 0.079165
0.072731 0.986014 0.079154
0.074076 0.986220 0.079136
0.077587 0.986395 0.079107
0.086962 0.986552 0.079079
0.115313 0.986693 0.079052
0.169933 0.986828 0.079027
0.282800 0.986959 0.078977
0.464029 0.987092 0.078926
0.632595 0.987251 0.078875
0.778175 0.987568 0.078838
0.873082 0.988087 0.078822
0.929961 0.988348 0.078799
0.958759 0.988809 0.078768
0.975703 0.989264 0.078725
0.984274 0.989839 0.078676
0.987315 0.990516 0.078613
0.988921 0.991300 0.078462
0.070631 0.983829 0.079283
0.070631 0.983847 0.079283
0.070631 0.983912 0.079283
0.070631 0.984038 0.079283
0.070631 0.984241 0.079283
0.070631 0.984545 0.079280
0.070631 0.984971 0.079272
0.070632 0.985389 0.079261
0.070656 0.985714 0.079249
0.070676 0.985964 0.079241
0.070702 0.986309 0.079231
0.070805 0.986634 0.079219
0.070929 0.986944 0.079205
0.071054 0.987254 0.079192
0.071307 0.987789 0.079179
0.071613 0.988269 0.079167
0.072469 0.988720 0.079156
0.073521 0.989095 0.079140
0.076012 0.989402 0.079111
0.083038 0.989679 0.079083
0.102633 0.989933 0.079056
0.148645 0.990172 0.079030
0.227951 0.990410 0.078982
0.378028 0.990656 0.078931
