LUTs/velvia/Velvia50_Classic_IlfochromeP.cube
TITLE "Velvia 50 Classic IlfochromeP"
# Adobe RGB in/out. REPLACES AgX. Velvia 50 Classic IlfochromeP.
LUT_3D_SIZE 33
DOMAIN_MIN 0.0 0.0 0.0
DOMAIN_MAX 1.0 1.0 1.0
0.139782 0.101046 0.099244
0.140792 0.102424 0.099795
0.141816 0.102898 0.099951
0.148299 0.104475 0.100334
0.179282 0.107920 0.100874
0.204442 0.109324 0.101194
0.261144 0.112218 0.101698
0.344722 0.117296 0.102480
0.389727 0.119701 0.102927
0.452288 0.123243 0.103516
0.537504 0.129747 0.104420
0.605471 0.134402 0.105013
0.665917 0.138150 0.105661
0.728905 0.144417 0.106599
0.783756 0.153242 0.108028
0.820119 0.159296 0.108947
0.849839 0.164952 0.110322
0.874089 0.171688 0.111966
0.891234 0.179783 0.114059
0.906564 0.185328 0.115675
0.919229 0.191112 0.117681
0.929715 0.197704 0.120993
0.939606 0.203296 0.125431
0.946512 0.204990 0.129825
0.950923 0.207107 0.135851
0.954858 0.207952 0.144662
0.959900 0.199132 0.161433
0.962615 0.194383 0.227276
0.968372 0.159349 0.502798
0.968371 0.159272 0.502768
0.968371 0.159267 0.502766
0.968371 0.159270 0.502765
0.970547 0.391792 0.658321
0.139803 0.104846 0.099582
0.140098 0.105716 0.099812
0.142128 0.103885 0.099843
0.148714 0.105759 0.100409
0.173333 0.108812 0.100982
0.195867 0.110091 0.101260
0.251029 0.113152 0.101742
0.334430 0.118076 0.102548
0.381019 0.120430 0.102976
0.444847 0.123828 0.103551
0.530196 0.130551 0.104451
0.599178 0.135087 0.105036
0.660549 0.138887 0.105688
0.725425 0.145230 0.106630
0.780971 0.154066 0.108052
0.818324 0.160102 0.108981
0.848462 0.165695 0.110350
0.873342 0.172402 0.111990
0.890681 0.180666 0.114077
0.906153 0.186173 0.115692
0.918928 0.191922 0.117692
0.929497 0.198491 0.120998
0.939450 0.204074 0.125421
0.946444 0.205753 0.129791
0.950876 0.207857 0.135770
0.954825 0.208695 0.144473
0.959877 0.199866 0.160938
0.962601 0.195080 0.224885
0.968372 0.159351 0.502799
0.968371 0.159272 0.502768
0.968371 0.159267 0.502766
0.968371 0.159271 0.502765
0.970547 0.391795 0.658321
0.139809 0.106484 0.099649
0.139881 0.106984 0.099918
0.140212 0.107395 0.100031
0.144024 0.109282 0.100646
0.157602 0.112447 0.101197
0.175103 0.113073 0.101413
0.222929 0.116915 0.101944
0.301630 0.121812 0.102805
0.350487 0.123267 0.103155
0.416817 0.126443 0.103677
0.504106 0.133597 0.104562
0.575160 0.137656 0.105130
0.640222 0.141746 0.105789
0.711609 0.148254 0.106742
0.770411 0.157328 0.108142
0.811521 0.163077 0.109103
0.843158 0.168433 0.110449
0.870522 0.175024 0.112077
0.888598 0.183929 0.114143
0.904611 0.189271 0.115756
0.917801 0.194892 0.117731
0.928681 0.201375 0.121021
0.938868 0.206918 0.125388
0.946192 0.208540 0.129675
0.950700 0.210595 0.135492
0.954702 0.211408 0.143864
0.959790 0.202566 0.159249
0.962550 0.197632 0.216643
0.968372 0.159357 0.502802
0.968371 0.159273 0.502769
0.968371 0.159268 0.502767
0.968371 0.159274 0.502765
0.970547 0.391800 0.658320
0.139853 0.112134 0.100075
0.139913 0.112742 0.100248
0.140176 0.114293 0.100558
0.141859 0.114905 0.100851
0.148077 0.120933 0.101480
0.157730 0.119747 0.101647
0.184911 0.123106 0.102249
0.244458 0.128277 0.103118
0.297795 0.129406 0.103422
0.365466 0.132977 0.103896
0.456998 0.140209 0.104775
0.526435 0.144893 0.105371
0.598479 0.148606 0.105982
0.676330 0.154414 0.106955
0.748488 0.163792 0.108313
0.797291 0.168928 0.109336
0.832184 0.173883 0.110639
0.863540 0.180193 0.112242
0.884342 0.190254 0.114270
0.901471 0.195251 0.115880
0.915520 0.200603 0.117811
0.927040 0.206947 0.121075
0.937701 0.212359 0.125344
0.945687 0.213867 0.129487
0.950351 0.215823 0.135025
0.954458 0.216586 0.142958
0.959620 0.207754 0.156484
0.962447 0.202550 0.202758
0.968372 0.159372 0.502807
0.968371 0.159275 0.502769
0.968371 0.159268 0.502767
0.968371 0.159285 0.502766
0.970547 0.391803 0.658319
0.139929 0.125131 0.100597
0.139976 0.125949 0.100799
0.140213 0.128926 0.101120
0.141831 0.131096 0.101462
0.145126 0.132043 0.101785
0.149956 0.129198 0.101962
0.164046 0.133575 0.102621
0.200783 0.139232 0.103445
0.240650 0.138811 0.103730
0.305691 0.141975 0.104228
0.397367 0.151396 0.105086
0.468131 0.155274 0.105743
0.536316 0.158975 0.106294
0.618729 0.165503 0.107286
0.707238 0.174908 0.108581
0.765547 0.178891 0.109701
0.812289 0.183794 0.110938
0.848888 0.191030 0.112502
0.876738 0.200575 0.114472
0.895904 0.204974 0.116081
0.911511 0.209879 0.117946
0.924183 0.215870 0.121189
0.935688 0.221040 0.125317
0.944819 0.222349 0.129264
0.949754 0.224132 0.134429
0.954043 0.224812 0.141790
0.959330 0.216051 0.153067
0.962270 0.210503 0.185406
0.968372 0.159400 0.502817
0.968371 0.159278 0.502770
0.968371 0.159270 0.502768
0.968372 0.159388 0.502766
0.970547 0.391805 0.658319
0.139968 0.133325 0.100932
0.139995 0.133867 0.101050
0.140178 0.136461 0.101275
0.141159 0.138876 0.101631
0.143132 0.140712 0.101890
0.147200 0.141778 0.102395
0.156353 0.148697 0.103061
0.175979 0.157135 0.103859
0.203788 0.154144 0.104073
0.249254 0.157022 0.104572
0.332259 0.166456 0.105529
0.402520 0.169874 0.106162
0.471559 0.172609 0.106829
0.552808 0.177990 0.107744
0.650093 0.188486 0.109025
0.724679 0.193857 0.110210
0.778891 0.199499 0.111363
0.822950 0.207688 0.112882
0.861624 0.216580 0.114793
0.886192 0.219822 0.116385
0.904609 0.223839 0.118226
0.919341 0.229187 0.121403
0.932314 0.233922 0.125353
0.943375 0.234919 0.129069
0.948772 0.236475 0.133804
0.953365 0.237047 0.140526
0.958857 0.228417 0.149565
0.961977 0.222451 0.170569
0.968372 0.159458 0.502837
0.968371 0.159284 0.502773
0.968371 0.159273 0.502769
0.970546 0.391698 0.502766
0.970547 0.391805 0.658318
0.140066 0.152415 0.101466
0.140106 0.152991 0.101539
0.140251 0.156588 0.101768
0.141251 0.160908 0.102156
0.142986 0.164415 0.102675
0.146404 0.166717 0.103111
0.151737 0.167999 0.103556
0.165130 0.178270 0.104358
0.181483 0.173995 0.104550
0.215371 0.175654 0.104979
0.277620 0.186261 0.106053
0.342558 0.189361 0.106786
0.406867 0.190545 0.107362
0.483652 0.196442 0.108222
0.579601 0.207634 0.109766
0.661437 0.212978 0.110884
0.736916 0.216292 0.111945
0.796782 0.222849 0.113385
0.840038 0.232740 0.115342
0.872987 0.237296 0.116830
0.893459 0.243053 0.118672
0.910835 0.249182 0.121776
0.926487 0.253303 0.125517
0.940207 0.253753 0.128986
0.947120 0.254814 0.133312
0.952235 0.255179 0.139370
0.958065 0.246922 0.146560
0.961481 0.240281 0.161820
0.968373 0.159607 0.502885
0.968371 0.159298 0.502778
0.968371 0.159279 0.502772
0.970547 0.391799 0.502768
0.970547 0.391806 0.658318
0.140194 0.180074 0.102068
0.140221 0.180797 0.102149
0.140411 0.185465 0.102545
0.141575 0.190868 0.103010
0.143106 0.196295 0.103450
0.146268 0.200626 0.103910
0.150837 0.203472 0.104368
0.159729 0.205199 0.104830
0.169299 0.198511 0.104989
0.193571 0.200001 0.105533
0.239434 0.212150 0.106734
0.293298 0.213589 0.107449
0.350726 0.213462 0.107974
0.422646 0.218545 0.108773
0.509640 0.229034 0.110565
0.592457 0.232495 0.111580
0.676674 0.235915 0.112641
0.750418 0.243331 0.114014
0.810178 0.253190 0.116053
0.853637 0.255817 0.117425
0.882633 0.260054 0.119329
0.902577 0.266480 0.122456
0.919511 0.273064 0.125974
0.934368 0.276519 0.129176
0.944133 0.281532 0.133084
0.950228 0.281596 0.138546
0.956634 0.274454 0.144588
0.960581 0.267633 0.155850
0.968377 0.160216 0.503051
0.968372 0.159349 0.502797
0.968371 0.159298 0.502780
0.970547 0.391804 0.502771
0.970547 0.391806 0.658318
0.140245 0.197419 0.102470
0.140265 0.197978 0.102546
0.140496 0.201178 0.102835
0.141479 0.206695 0.103251
0.142633 0.212358 0.103669
0.144899 0.217128 0.104091
0.148485 0.220958 0.104585
0.154964 0.223384 0.104997
0.164003 0.225006 0.105544
0.179617 0.226564 0.106107
0.216443 0.239666 0.107484
0.255045 0.240211 0.108122
0.306239 0.238949 0.108611
0.369468 0.243009 0.109679
0.451841 0.253321 0.111446
0.522971 0.255786 0.112440
0.606555 0.258582 0.113416
0.696688 0.264955 0.114709
0.771450 0.274291 0.116870
0.823906 0.277911 0.118206
0.863896 0.283906 0.120260
0.890503 0.288971 0.123356
0.911374 0.294796 0.126700
0.928978 0.297292 0.129699
0.941785 0.301464 0.133358
0.948231 0.306477 0.138389
0.954745 0.307287 0.143878
0.958930 0.309637 0.153122
0.968491 0.176641 0.504922
0.968376 0.159975 0.502989
0.968372 0.159430 0.502831
0.970547 0.391805 0.502787
0.970547 0.391806 0.658318
0.140311 0.222318 0.103036
0.140360 0.222792 0.103093
0.140809 0.225256 0.103307
0.141625 0.230592 0.103663
0.142606 0.236214 0.104072
0.144473 0.241903 0.104542
0.147696 0.246387 0.104995
0.152479 0.249819 0.105558
0.160185 0.252269 0.106123
0.171174 0.254034 0.106814
0.200086 0.268507 0.108180
0.231501 0.268770 0.108802
0.269944 0.266469 0.109485
0.327359 0.269663 0.110656
0.400775 0.280143 0.112413
0.466984 0.281795 0.113338
0.539410 0.283627 0.114251
0.629509 0.289546 0.115713
0.723056 0.300650 0.117800
0.787545 0.303987 0.119319
0.838521 0.307563 0.121489
0.875448 0.314791 0.124434
0.899101 0.323015 0.127659
0.920112 0.325642 0.130418
0.936056 0.328049 0.133842
0.945920 0.331685 0.138524
0.953313 0.331426 0.143457
0.958026 0.332585 0.151421
0.962756 0.332490 0.163433
0.966001 0.334939 0.206589
0.969338 0.335884 0.461210
0.970547 0.391807 0.505602
0.970547 0.391806 0.658318
0.140910 0.260091 0.103793
0.141001 0.260549 0.103837
0.141349 0.262738 0.104017
0.142055 0.268814 0.104414
0.143078 0.274766 0.104841
0.144870 0.280660 0.105366
0.147845 0.286629 0.106009
0.152347 0.291382 0.106740
0.159658 0.295197 0.107481
0.169087 0.297925 0.108194
0.188478 0.300079 0.108906
0.214558 0.300066 0.109838
0.245131 0.296864 0.110526
0.293724 0.300011 0.111619
0.359113 0.311799 0.113406
0.419248 0.312326 0.114278
0.484044 0.313003 0.115228
0.564980 0.318474 0.116744
0.661772 0.329662 0.119054
0.741188 0.331386 0.120690
0.804820 0.335738 0.122907
0.851757 0.343344 0.125704
0.886012 0.349262 0.128784
0.910428 0.352240 0.131353
0.928247 0.357723 0.134637
0.942016 0.365167 0.138907
0.950954 0.363406 0.143327
0.956579 0.362940 0.150205
0.961838 0.361306 0.159904
0.965465 0.360888 0.183371
0.969146 0.346851 0.395039
0.970547 0.391809 0.514336
0.970547 0.391812 0.517475
0.141277 0.286706 0.104295
0.141351 0.287148 0.104340
0.141630 0.289153 0.104507
0.142205 0.294929 0.104834
0.143104 0.301087 0.105260
0.144679 0.308172 0.105878
0.147438 0.315179 0.106608
0.150912 0.320578 0.107379
0.157533 0.325161 0.108110
0.165561 0.328772 0.108788
0.179384 0.331389 0.109840
0.202382 0.333593 0.110904
0.227999 0.329495 0.111491
0.266201 0.333051 0.112662
0.326026 0.344931 0.114390
0.378765 0.344412 0.115348
0.438987 0.344544 0.116407
0.508946 0.349581 0.117860
0.600552 0.360171 0.120492
0.685960 0.361215 0.122287
0.760440 0.366022 0.124457
0.821923 0.372024 0.127115
0.868598 0.379840 0.130090
0.896786 0.384099 0.132498
0.919444 0.387417 0.135709
0.936379 0.392984 0.139717
0.948173 0.395805 0.143656
0.954374 0.400694 0.149686
0.960237 0.401986 0.157854
0.964536 0.398717 0.171862
0.968686 0.373110 0.306939
0.970547 0.391813 0.514380
0.970547 0.391819 0.520441
0.141549 0.312371 0.104698
0.141611 0.312771 0.104737
0.141842 0.314517 0.104877
0.142306 0.319153 0.105170
0.143166 0.325672 0.105694
0.144527 0.332830 0.106276
0.146939 0.339408 0.107055
0.149890 0.345491 0.107820
0.155484 0.350913 0.108531
0.162361 0.355133 0.109441
0.172500 0.358511 0.110496
0.190339 0.361012 0.111476
0.215084 0.363311 0.112537
0.246638 0.366805 0.113632
0.299281 0.379934 0.115580
0.346809 0.379020 0.116581
0.399801 0.378440 0.117548
0.465336 0.383269 0.119312
0.545544 0.393622 0.122415
0.626437 0.393908 0.123994
0.713948 0.397463 0.125975
0.784737 0.403917 0.128666
0.840182 0.412305 0.131551
0.882070 0.414332 0.133774
0.907764 0.419953 0.136962
0.927417 0.427867 0.140757
0.944833 0.428310 0.144336
0.952353 0.431039 0.149840
0.958784 0.434981 0.156999
0.963289 0.440449 0.167739
0.966932 0.452610 0.201054
0.970547 0.391883 0.514433
0.970547 0.391865 0.524950
0.141874 0.345096 0.105223
0.141926 0.345465 0.105272
0.142121 0.347019 0.105451
0.142507 0.350919 0.105795
0.143444 0.358104 0.106319
0.144681 0.364756 0.107024
0.146864 0.371743 0.107750
0.149527 0.378770 0.108488
0.154453 0.384977 0.109435
0.160472 0.389972 0.110514
0.168441 0.394160 0.111528
0.184017 0.397552 0.112602
0.205606 0.400061 0.113595
0.232585 0.402343 0.114604
0.276092 0.415788 0.116779
0.320450 0.415000 0.117792
0.368127 0.413593 0.118945
0.427506 0.417736 0.120974
0.499032 0.427996 0.124198
0.572577 0.428150 0.125789
0.656706 0.430949 0.127737
0.740536 0.437252 0.130282
0.809013 0.444358 0.133023
0.861409 0.447612 0.135354
0.893515 0.453433 0.138369
0.918190 0.459161 0.141904
0.939575 0.463068 0.145387
0.949098 0.469806 0.150322
0.956916 0.471611 0.156598
0.962240 0.474504 0.165472
0.966354 0.483131 0.186625
0.969007 0.500375 0.297822
0.970483 0.530150 0.528598
0.142265 0.387850 0.106100
0.142311 0.388227 0.106143
0.142478 0.389765 0.106322
0.142916 0.393406 0.106732
0.143881 0.401174 0.107385
0.145140 0.407187 0.108015
0.147193 0.415077 0.108729
0.149735 0.422443 0.109815
0.154404 0.429249 0.110966
0.160191 0.435250 0.112081
0.167829 0.440364 0.113217
0.181565 0.444370 0.114243
0.201905 0.447511 0.115442
0.226788 0.450071 0.116697
0.257859 0.452256 0.117965
0.298233 0.451036 0.119210
0.341987 0.449884 0.120620
0.395481 0.453855 0.122881
0.462330 0.464281 0.125999
0.524351 0.463783 0.127546
0.604115 0.466567 0.129505
0.693151 0.473302 0.131986
0.770376 0.480586 0.134741
0.831019 0.484762 0.137025
0.877315 0.489783 0.139840
0.905568 0.498312 0.143223
0.931159 0.502111 0.146679
0.945984 0.506192 0.151212
0.954617 0.512338 0.156781
0.960559 0.520095 0.164165
0.965417 0.524865 0.178654
0.968526 0.533384 0.238250
0.970421 0.538585 0.518668
0.142482 0.419258 0.106736
0.142521 0.419600 0.106788
0.142671 0.420965 0.106976
0.143165 0.424093 0.107332
0.143980 0.430487 0.107895
0.145238 0.437251 0.108515
0.147204 0.445802 0.109491
0.149348 0.452279 0.110540
0.153396 0.459285 0.111634
0.158922 0.466764 0.112829
0.165674 0.472878 0.113895
0.176546 0.477978 0.115005
0.193706 0.482412 0.116330
0.216180 0.485755 0.117593
0.242873 0.488662 0.119065
0.279262 0.491177 0.120919
0.319723 0.489684 0.122436
0.368654 0.494126 0.124707
0.430102 0.505618 0.127887
0.487010 0.504919 0.129411
0.556392 0.506826 0.131221
0.641687 0.513209 0.133683
0.729417 0.520133 0.136585
0.799484 0.523305 0.138729
0.854135 0.528719 0.141416
0.890983 0.536884 0.144761
0.921198 0.540206 0.148100
0.941074 0.546788 0.152345
0.951905 0.551747 0.157367
0.959081 0.556208 0.163794
0.964337 0.565858 0.175066
0.967662 0.581749 0.210283
0.970146 0.569909 0.457286
0.142683 0.450980 0.107358
0.142744 0.451291 0.107403
0.142967 0.452513 0.107569
0.143397 0.455233 0.107882
0.144097 0.460712 0.108373
0.145390 0.469076 0.109090
0.147027 0.476423 0.110110
0.148986 0.484703 0.111183
0.152552 0.493072 0.112305
0.157710 0.500712 0.113437
0.163739 0.507528 0.114532
0.172465 0.513374 0.115835
0.187481 0.518356 0.117122
0.207076 0.522284 0.118522
0.231106 0.525490 0.120192
0.260690 0.528317 0.122196
0.301346 0.530892 0.124221
0.346037 0.535288 0.126446
0.402232 0.546175 0.129697
0.455478 0.545250 0.131158
0.515785 0.547072 0.132969
0.595034 0.552747 0.135596
0.683319 0.559604 0.138446
0.760257 0.562291 0.140467
0.824355 0.568003 0.143056
0.874422 0.575211 0.146535
0.908450 0.579936 0.149677
0.932871 0.585247 0.153595
0.948653 0.590775 0.158206
0.956857 0.597393 0.163857
0.963160 0.603436 0.172899
0.967094 0.612791 0.197796
0.969511 0.631228 0.323580
0.143065 0.491039 0.108071
0.143119 0.491370 0.108112
0.143317 0.492653 0.108259
0.143697 0.495425 0.108538
0.144307 0.500690 0.109066
0.145721 0.510035 0.110092
0.147116 0.515979 0.110984
0.149074 0.525021 0.112113
0.152288 0.532871 0.113227
0.157072 0.540235 0.114303
0.162613 0.547415 0.115613
0.169969 0.553778 0.116976
0.183565 0.559425 0.118417
0.201438 0.563765 0.120055
0.223590 0.567666 0.122185
0.249974 0.570811 0.124186
0.285868 0.573564 0.126129
0.327009 0.576292 0.128211
0.378171 0.587213 0.131437
0.427525 0.586347 0.132865
0.483398 0.587609 0.134778
0.553163 0.592614 0.137470
0.636847 0.598495 0.140279
0.721788 0.600585 0.142211
0.793080 0.605748 0.144862
0.850909 0.611839 0.148395
0.893855 0.616068 0.151330
0.922750 0.620828 0.154982
0.944366 0.627632 0.159268
0.954641 0.631675 0.164341
0.961771 0.639624 0.171992
0.966185 0.651768 0.190405
0.969149 0.663913 0.264636
0.143502 0.537525 0.108935
0.143550 0.537845 0.108997
0.143728 0.539065 0.109219
0.144067 0.541623 0.109639
0.144698 0.546286 0.110290
0.146057 0.554465 0.111221
0.147433 0.561336 0.112162
0.149338 0.570029 0.113285
0.152361 0.577849 0.114362
0.157093 0.586421 0.115727
0.162401 0.593365 0.117123
0.169135 0.599573 0.118700
0.181497 0.604783 0.120588
0.198512 0.609319 0.122754
0.219184 0.613052 0.124807
0.244225 0.616450 0.126951
0.276494 0.619200 0.129027
0.315484 0.621473 0.131014
0.358139 0.624001 0.133094
0.403040 0.623337 0.134618
0.455711 0.624740 0.136621
0.516818 0.629221 0.139277
0.594770 0.634896 0.142030
0.677442 0.636869 0.143915
0.755926 0.641352 0.146816
0.822777 0.647495 0.150269
0.877350 0.651320 0.153008
0.910344 0.656912 0.156483
0.938415 0.662279 0.160397
0.951689 0.668016 0.165040
0.960155 0.675984 0.171846
0.965448 0.683814 0.186666
0.968695 0.697207 0.234096
0.143690 0.575481 0.109609
0.143734 0.575768 0.109665
0.143895 0.576858 0.109870
0.144202 0.579109 0.110255
0.144832 0.583134 0.110852
0.146041 0.589718 0.111705
0.147439 0.596644 0.112721
0.149002 0.602853 0.113724
0.151838 0.610557 0.114875
0.156327 0.618043 0.116326
0.160865 0.624435 0.117663
0.167078 0.630807 0.119367
0.177470 0.636559 0.121497
0.192364 0.641571 0.123679
0.211383 0.645937 0.125795
0.234016 0.649521 0.127879
0.261484 0.652681 0.130004
0.298594 0.655541 0.132049
0.337692 0.657894 0.134051
0.381878 0.660571 0.136372
0.430757 0.661627 0.138327
0.487550 0.666263 0.140983
0.556921 0.671547 0.143735
0.634875 0.673482 0.145856
0.720730 0.677650 0.148737
0.793290 0.682835 0.152080
0.855473 0.685898 0.154678
0.896005 0.690435 0.158004
0.928981 0.694805 0.161624
0.948079 0.699691 0.165864
0.958356 0.705257 0.172028
0.964423 0.713474 0.184465
0.968275 0.724555 0.218825
0.143874 0.612384 0.110291
0.143915 0.612621 0.110344
0.144062 0.613513 0.110534
0.144342 0.615328 0.110892
0.144994 0.618503 0.111444
0.146081 0.623802 0.112275
0.147516 0.631450 0.113344
0.148854 0.636584 0.114250
0.151659 0.644967 0.115632
0.155515 0.650851 0.116916
0.160009 0.658110 0.118435
0.165997 0.664997 0.120381
0.174836 0.670698 0.122632
0.188190 0.675852 0.124776
0.205749 0.680589 0.126955
0.226734 0.683991 0.129120
0.251238 0.686666 0.131174
0.283975 0.689068 0.133215
0.321746 0.691424 0.135488
0.362132 0.693385 0.137673
0.408803 0.695618 0.139928
0.462397 0.698681 0.142548
0.523061 0.702965 0.145525
0.596375 0.704629 0.147740
0.679658 0.707631 0.150551
0.759063 0.711942 0.153857
0.828380 0.714901 0.156318
0.880156 0.718898 0.159467
0.917419 0.723637 0.162897
0.943927 0.727856 0.166726
0.956045 0.734124 0.172513
0.963395 0.740969 0.183249
0.967803 0.752260 0.210282
0.144078 0.649896 0.111053
0.144115 0.650125 0.111102
0.144251 0.650982 0.111281
0.144532 0.652696 0.111616
0.145213 0.655625 0.112173
0.146203 0.660375 0.112964
0.147599 0.667988 0.114031
0.148908 0.673264 0.114998
0.151257 0.680272 0.116390
0.155225 0.686082 0.117761
0.159629 0.692106 0.119567
0.164888 0.697102 0.121728
0.172687 0.702196 0.124034
0.185211 0.706755 0.126258
0.201598 0.710692 0.128468
0.221159 0.714233 0.130705
0.243840 0.717182 0.132797
0.273328 0.719738 0.135041
0.309162 0.721965 0.137334
0.347958 0.724269 0.139624
0.390352 0.726253 0.141799
0.439656 0.728470 0.143992
0.495699 0.732168 0.147247
0.561178 0.734004 0.149385
0.640098 0.736720 0.152209
0.725904 0.740674 0.155498
0.801175 0.743781 0.157875
0.861118 0.747461 0.160918
0.904051 0.752017 0.164160
0.936696 0.756202 0.167661
0.953408 0.761969 0.173138
0.962164 0.768769 0.182612
0.967267 0.779873 0.204794
0.144218 0.687331 0.111674
0.144253 0.687506 0.111725
0.144380 0.688155 0.111910
0.144719 0.689440 0.112256
0.145352 0.691594 0.112788
0.146267 0.695009 0.113536
0.147546 0.700338 0.114543
0.148951 0.705396 0.115794
0.151055 0.710183 0.117079
0.155079 0.716510 0.118759
0.158937 0.721396 0.120634
0.164157 0.727010 0.123019
0.171297 0.732425 0.125421
0.182375 0.736734 0.127656
0.197634 0.740778 0.129886
0.215992 0.744431 0.132100
0.237296 0.747649 0.134401
0.264059 0.750394 0.136805
0.298564 0.752776 0.139123
0.335044 0.754874 0.141389
0.375210 0.757075 0.143625
0.420827 0.759142 0.146176
0.472114 0.761382 0.148787
0.529695 0.763216 0.150887
0.603882 0.765648 0.153667
0.688592 0.769111 0.156948
0.768720 0.772303 0.159258
0.835729 0.775702 0.162214
0.889390 0.780046 0.165359
0.926594 0.784280 0.168625
0.950252 0.789481 0.173761
0.960680 0.795903 0.182357
0.966792 0.803967 0.201222
0.144176 0.718655 0.111828
0.144209 0.718805 0.111878
0.144329 0.719363 0.112057
0.144612 0.720458 0.112391
0.145209 0.722280 0.112906
0.146069 0.725137 0.113629
0.147264 0.729544 0.114599
0.148681 0.734973 0.116022
0.150596 0.738922 0.117225
0.154226 0.744781 0.118975
0.158012 0.749558 0.120965
0.163032 0.755245 0.123449
0.168360 0.759809 0.125680
0.178913 0.764644 0.128093
0.193270 0.769013 0.130452
0.210265 0.772585 0.132614
0.230338 0.775831 0.134992
0.254207 0.778688 0.137415
0.285815 0.781217 0.139783
0.320798 0.783466 0.142049
0.358827 0.785565 0.144326
0.401007 0.787672 0.146940
0.449440 0.789919 0.149571
0.503049 0.792329 0.152170
0.570596 0.794239 0.154939
0.650802 0.796710 0.158188
0.736595 0.799417 0.160419
0.809717 0.801897 0.163331
0.873093 0.805290 0.166311
0.914793 0.808733 0.169564
0.946362 0.812844 0.174428
0.959046 0.817742 0.181986
0.966242 0.825681 0.198583
0.144136 0.748184 0.112018
0.144168 0.748327 0.112066
0.144282 0.748852 0.112240
0.144514 0.749874 0.112565
0.145081 0.751549 0.113064
0.145894 0.754127 0.113764
0.147017 0.758016 0.114702
0.148552 0.763908 0.116331
0.150250 0.767403 0.117469
0.153297 0.772395 0.119178
0.157389 0.777922 0.121514
0.161589 0.782676 0.123821
0.167222 0.787793 0.126232
0.176631 0.792635 0.128736
0.189122 0.796253 0.131022
0.205494 0.799480 0.133312
0.224820 0.802316 0.135853
0.247203 0.804707 0.138352
0.275728 0.806795 0.140717
0.309423 0.808666 0.143040
0.345123 0.810385 0.145516
0.384519 0.812053 0.148155
0.429521 0.813697 0.150727
0.479998 0.815605 0.153358
0.540336 0.817627 0.155958
0.615806 0.819576 0.159199
0.703791 0.822537 0.161342
0.780331 0.824543 0.164167
0.851271 0.827737 0.167093
0.901252 0.830929 0.170095
0.941358 0.834932 0.174998
0.957151 0.839454 0.181698
0.965632 0.846540 0.196336
0.144030 0.777246 0.112065
0.144060 0.777382 0.112113
0.144171 0.777882 0.112285
0.144379 0.778848 0.112606
0.144859 0.780409 0.113098
0.145639 0.782770 0.113789
0.146714 0.786263 0.114717
0.148174 0.791445 0.116321
0.149910 0.795440 0.117669
0.152462 0.799069 0.119354
0.156906 0.804157 0.122070
0.160478 0.807570 0.124240
0.166401 0.812089 0.126883
0.174030 0.815542 0.129222
0.186329 0.819276 0.131729
0.201787 0.822491 0.134136
0.219533 0.825263 0.136710
0.240224 0.827688 0.139245
0.266344 0.829750 0.141685
0.299146 0.831604 0.144047
0.333282 0.833274 0.146817
0.370659 0.834876 0.149511
0.412848 0.836429 0.152120
0.460167 0.838013 0.154669
0.513777 0.839916 0.157306
0.583401 0.841933 0.159907
0.666698 0.845202 0.161956
0.749366 0.846848 0.164778
0.826162 0.849762 0.167527
0.886362 0.852646 0.170462
0.931772 0.856303 0.175147
0.954873 0.860630 0.181263
0.965167 0.867173 0.194499
0.143461 0.808982 0.110975
0.143492 0.809070 0.111022
0.143605 0.809393 0.111191
0.143816 0.810012 0.111508
0.144146 0.811009 0.112025
0.144714 0.812509 0.112769
0.145810 0.814730 0.113768
0.147304 0.818055 0.115203
0.148988 0.821747 0.116941
0.151003 0.824680 0.118376
0.155027 0.828739 0.120784
0.159136 0.832571 0.123415
0.164159 0.836251 0.125930
0.170870 0.839947 0.128571
0.181884 0.843326 0.131132
0.196027 0.846347 0.133513
0.213570 0.849199 0.136275
0.233485 0.851575 0.138871
0.256517 0.853526 0.141333
0.287010 0.855285 0.143728
0.320153 0.856904 0.146468
0.355840 0.858434 0.149201
0.395596 0.859954 0.151856
0.440666 0.861527 0.154439
