LUTs/velvia/Velvia50_Modern_ExtraPunchy.cube
TITLE "Velvia 50 Modern ExtraPunchy"
# Adobe RGB in/out. REPLACES AgX. Velvia 50 Modern ExtraPunchy.
LUT_3D_SIZE 33
DOMAIN_MIN 0.0 0.0 0.0
DOMAIN_MAX 1.0 1.0 1.0
0.070631 0.072407 0.079283
0.070631 0.072407 0.079283
0.070631 0.072407 0.079283
0.070899 0.072407 0.079283
0.077426 0.072407 0.079283
0.119655 0.072407 0.079283
0.488683 0.072410 0.079283
0.838062 0.072424 0.079283
0.909108 0.072442 0.079283
0.952184 0.072502 0.079283
0.976287 0.072672 0.079283
0.984153 0.072797 0.079283
0.987557 0.072950 0.079277
0.990999 0.073247 0.079259
0.993859 0.073862 0.079238
0.994565 0.074427 0.079225
0.994565 0.074963 0.079207
0.994565 0.076227 0.079186
0.994565 0.079191 0.079161
0.994565 0.080413 0.079142
0.994565 0.081649 0.079092
0.994565 0.083256 0.079033
0.994565 0.084890 0.078904
0.994565 0.084692 0.078819
0.994565 0.084698 0.078718
0.994565 0.084109 0.078545
0.994565 0.080454 0.078086
0.994565 0.078279 0.085488
0.994565 0.073222 0.914112
0.994565 0.073168 0.908834
0.994565 0.073117 0.903621
0.994565 0.073066 0.898445
0.994565 0.661866 0.969166
0.070631 0.072407 0.079283
0.070631 0.072407 0.079283
0.070631 0.072407 0.079283
0.070843 0.072407 0.079283
0.073820 0.072407 0.079283
0.090621 0.072407 0.079283
0.362910 0.072411 0.079283
0.788927 0.072425 0.079283
0.888317 0.072448 0.079283
0.947361 0.072515 0.079283
0.973573 0.072683 0.079283
0.983457 0.072817 0.079283
0.987003 0.072967 0.079277
0.990560 0.073274 0.079260
0.993675 0.073925 0.079238
0.994565 0.074485 0.079226
0.994565 0.075048 0.079208
0.994565 0.076427 0.079186
0.994565 0.079407 0.079161
0.994565 0.080603 0.079143
0.994565 0.081832 0.079093
0.994565 0.083474 0.079034
0.994565 0.085213 0.078907
0.994565 0.084989 0.078820
0.994565 0.084993 0.078721
0.994565 0.084382 0.078552
0.994565 0.080636 0.078072
0.994565 0.078450 0.084234
0.994565 0.073220 0.913828
0.994565 0.073165 0.908575
0.994565 0.073114 0.903384
0.994565 0.073064 0.898228
0.994565 0.661293 0.969100
0.070631 0.072407 0.079283
0.070631 0.072407 0.079283
0.070631 0.072407 0.079283
0.070631 0.072407 0.079283
0.071068 0.072407 0.079283
0.073145 0.072408 0.079283
0.136392 0.072414 0.079283
0.586556 0.072448 0.079283
0.789689 0.072474 0.079283
0.914971 0.072565 0.079283
0.962874 0.072723 0.079283
0.979511 0.072893 0.079283
0.984956 0.073051 0.079278
0.988940 0.073379 0.079260
0.992715 0.074164 0.079239
0.994354 0.074699 0.079227
0.994565 0.075362 0.079209
0.994565 0.077166 0.079188
0.994565 0.080141 0.079162
0.994565 0.081302 0.079146
0.994565 0.082528 0.079096
0.994565 0.084476 0.079037
0.994565 0.086398 0.078916
0.994565 0.086168 0.078825
0.994565 0.086166 0.078733
0.994565 0.085479 0.078570
0.994565 0.081300 0.078063
0.994565 0.079238 0.081913
0.994565 0.073210 0.912815
0.994565 0.073156 0.907651
0.994565 0.073106 0.902540
0.994565 0.073056 0.897456
0.994565 0.659233 0.968864
0.070631 0.072407 0.079283
0.070631 0.072407 0.079283
0.070631 0.072407 0.079283
0.070631 0.072407 0.079283
0.070676 0.072411 0.079283
0.071025 0.072412 0.079283
0.073843 0.072426 0.079283
0.163345 0.072506 0.079283
0.475020 0.072561 0.079283
0.785835 0.072658 0.079283
0.932085 0.072901 0.079283
0.963336 0.073101 0.079283
0.979591 0.073305 0.079279
0.985749 0.073664 0.079261
0.990229 0.074648 0.079240
0.993283 0.075301 0.079228
0.994565 0.076459 0.079210
0.994565 0.078679 0.079189
0.994565 0.081580 0.079164
0.994565 0.082723 0.079149
0.994565 0.084282 0.079102
0.994565 0.086730 0.079044
0.994565 0.089483 0.078932
0.994565 0.089127 0.078833
0.994565 0.089098 0.078753
0.994565 0.088116 0.078598
0.994565 0.082610 0.078173
0.994565 0.080477 0.080033
0.994565 0.073193 0.910977
0.994565 0.073140 0.905972
0.994565 0.073091 0.901006
0.994565 0.073043 0.896051
0.994565 0.655475 0.968436
0.070631 0.072478 0.079283
0.070631 0.072481 0.079283
0.070631 0.072486 0.079283
0.070631 0.072472 0.079283
0.070634 0.072447 0.079283
0.070700 0.072426 0.079283
0.071294 0.072483 0.079283
0.076089 0.072648 0.079283
0.132065 0.072684 0.079283
0.445314 0.072796 0.079283
0.825653 0.073205 0.079283
0.926216 0.073448 0.079283
0.959859 0.073774 0.079279
0.978745 0.074518 0.079262
0.986043 0.076203 0.079241
0.989984 0.077717 0.079229
0.993141 0.079310 0.079212
0.994565 0.081327 0.079191
0.994565 0.084526 0.079166
0.994565 0.086184 0.079151
0.994565 0.088610 0.079110
0.994565 0.092132 0.079053
0.994565 0.096293 0.078954
0.994565 0.095595 0.078845
0.994565 0.095447 0.078780
0.994565 0.093811 0.078636
0.994565 0.085644 0.078348
0.994565 0.082462 0.078739
0.994565 0.073168 0.908293
0.994565 0.073116 0.903514
0.994565 0.073069 0.898756
0.994565 0.073027 0.893988
0.994565 0.649973 0.967806
0.070631 0.072772 0.079283
0.070631 0.072771 0.079283
0.070631 0.072798 0.079283
0.070631 0.072734 0.079283
0.070631 0.072665 0.079283
0.070672 0.072601 0.079283
0.070911 0.072662 0.079283
0.072029 0.072893 0.079283
0.075960 0.072920 0.079283
0.137118 0.073117 0.079283
0.518509 0.073744 0.079283
0.796002 0.074309 0.079283
0.915639 0.074732 0.079278
0.958345 0.075724 0.079262
0.980040 0.079459 0.079241
0.985691 0.081210 0.079229
0.989446 0.083024 0.079214
0.992608 0.086840 0.079193
0.994443 0.093785 0.079168
0.994565 0.096695 0.079154
0.994565 0.100449 0.079119
0.994565 0.106332 0.079063
0.994565 0.111011 0.078980
0.994565 0.109969 0.078872
0.994565 0.109563 0.078801
0.994565 0.107685 0.078680
0.994565 0.093520 0.078512
0.994565 0.087239 0.078239
0.994565 0.073136 0.904787
0.994565 0.073085 0.900292
0.994565 0.073040 0.895802
0.994565 0.655628 0.891450
0.994565 0.642770 0.966974
0.070631 0.074666 0.079283
0.070631 0.074744 0.079283
0.070631 0.074784 0.079283
0.070631 0.074473 0.079283
0.070631 0.073842 0.079283
0.070672 0.073414 0.079283
0.070804 0.073215 0.079283
0.071227 0.073458 0.079283
0.072416 0.073442 0.079283
0.078739 0.073785 0.079283
0.182431 0.075042 0.079283
0.518442 0.076005 0.079283
0.780464 0.077138 0.079278
0.912826 0.079641 0.079261
0.959639 0.083663 0.079241
0.977608 0.086841 0.079229
0.985111 0.089748 0.079214
0.989225 0.096441 0.079194
0.992581 0.110141 0.079170
0.994294 0.116756 0.079156
0.994565 0.127014 0.079127
0.994565 0.140945 0.079073
0.994565 0.149623 0.079007
0.994565 0.146060 0.078904
0.994565 0.144074 0.078818
0.994565 0.139654 0.078725
0.994565 0.115776 0.078596
0.994565 0.103428 0.078093
0.994565 0.073100 0.900531
0.994565 0.073046 0.896353
0.994565 0.073006 0.892180
0.994565 0.646263 0.889115
0.994565 0.633201 0.965355
0.070631 0.088600 0.079283
0.070631 0.089284 0.079283
0.070631 0.091448 0.079283
0.070631 0.087444 0.079283
0.070631 0.083601 0.079283
0.070679 0.080994 0.079283
0.070813 0.078624 0.079283
0.071054 0.076859 0.079283
0.071470 0.074841 0.079283
0.073124 0.075327 0.079283
0.092428 0.079402 0.079283
0.209107 0.080900 0.079283
0.516249 0.081799 0.079276
0.786223 0.084576 0.079260
0.920514 0.093230 0.079240
0.957805 0.099618 0.079229
0.976149 0.105868 0.079214
0.984679 0.118499 0.079195
0.988935 0.143890 0.079171
0.992316 0.151567 0.079157
0.994163 0.161564 0.079133
0.994565 0.178571 0.079080
0.994565 0.204059 0.079027
0.994565 0.214092 0.078932
0.994565 0.226279 0.078835
0.994565 0.219863 0.078766
0.994565 0.181556 0.078651
0.994565 0.156585 0.078402
0.994565 0.073076 0.895687
0.994565 0.073006 0.891802
0.994565 0.072984 0.889126
0.994565 0.634610 0.885296
0.994565 0.620174 0.963124
0.070631 0.115896 0.079283
0.070631 0.117358 0.079283
0.070631 0.117687 0.079283
0.070631 0.111715 0.079283
0.070631 0.103838 0.079283
0.070664 0.094325 0.079283
0.070721 0.088166 0.079283
0.070942 0.084299 0.079283
0.071249 0.082254 0.079283
0.072090 0.081211 0.079283
0.076499 0.086248 0.079283
0.108427 0.089066 0.079283
0.235724 0.090742 0.079273
0.570061 0.097914 0.079258
0.825646 0.115502 0.079239
0.919395 0.124750 0.079228
0.956590 0.135594 0.079213
0.975769 0.157660 0.079194
0.984833 0.189251 0.079171
0.988754 0.208799 0.079158
0.991864 0.230221 0.079136
0.993959 0.247717 0.079085
0.994565 0.278655 0.079034
0.994565 0.284690 0.078952
0.994565 0.294892 0.078846
0.994565 0.307554 0.078792
0.994565 0.303566 0.078688
0.994565 0.304673 0.078535
0.994565 0.073877 0.891776
0.994565 0.072992 0.888313
0.994565 0.072962 0.884310
0.994565 0.618663 0.879882
0.994565 0.604997 0.960594
0.070631 0.219536 0.079283
0.070631 0.217506 0.079283
0.070631 0.208126 0.079283
0.070631 0.196067 0.079283
0.070631 0.176046 0.079283
0.070661 0.158873 0.079283
0.070702 0.137306 0.079283
0.070892 0.119988 0.079283
0.071091 0.109022 0.079283
0.071588 0.101663 0.079283
0.073543 0.112559 0.079283
0.080670 0.112338 0.079279
0.124155 0.114154 0.079269
0.298565 0.126505 0.079255
0.647286 0.161224 0.079236
0.834393 0.171490 0.079226
0.920114 0.184656 0.079212
0.957698 0.216527 0.079193
0.977158 0.268346 0.079170
0.984724 0.288979 0.079158
0.988716 0.303755 0.079138
0.991823 0.332477 0.079089
0.993827 0.370611 0.079038
0.994565 0.380249 0.078968
0.994565 0.387219 0.078866
0.994565 0.399206 0.078805
0.994565 0.389434 0.078723
0.994565 0.385966 0.078595
0.994565 0.375245 0.078259
0.994565 0.376382 0.078995
0.994565 0.369328 0.809622
0.994565 0.600743 0.876892
0.994565 0.588617 0.957804
0.070631 0.450404 0.079283
0.070631 0.445503 0.079283
0.070631 0.432991 0.079283
0.070631 0.427433 0.079283
0.070633 0.406095 0.079283
0.070670 0.369143 0.079283
0.070713 0.330348 0.079283
0.070908 0.296663 0.079283
0.071096 0.255692 0.079283
0.071573 0.225797 0.079279
0.072783 0.203025 0.079274
0.075582 0.177809 0.079269
0.086812 0.164329 0.079264
0.159193 0.181438 0.079251
0.426203 0.234963 0.079233
0.677158 0.247725 0.079223
0.845510 0.266811 0.079209
0.926440 0.300043 0.079191
0.961030 0.353458 0.079169
0.977800 0.368596 0.079157
0.984876 0.395309 0.079136
0.988646 0.432181 0.079089
0.991855 0.460038 0.079041
0.993878 0.472808 0.078978
0.994565 0.496431 0.078882
0.994565 0.527806 0.078816
0.994565 0.512198 0.078753
0.994565 0.501864 0.078641
0.994565 0.485097 0.078439
0.994565 0.473352 0.078249
0.994565 0.401538 0.630151
0.994565 0.582044 0.879585
0.994565 0.571454 0.879093
0.070631 0.594730 0.079283
0.070631 0.591079 0.079283
0.070631 0.580995 0.079283
0.070631 0.575191 0.079283
0.070634 0.558290 0.079283
0.070667 0.537440 0.079283
0.070704 0.502889 0.079281
0.070869 0.461048 0.079276
0.071047 0.421680 0.079271
0.071421 0.383178 0.079267
0.072283 0.346895 0.079262
0.073911 0.320145 0.079256
0.078677 0.281696 0.079255
0.105187 0.280034 0.079247
0.235150 0.333580 0.079230
0.486936 0.345526 0.079218
0.710913 0.359629 0.079205
0.864123 0.396452 0.079188
0.937610 0.452594 0.079167
0.962719 0.465714 0.079156
0.978868 0.494375 0.079132
0.985235 0.527971 0.079087
0.988963 0.560698 0.079041
0.991969 0.576802 0.078982
0.993830 0.588061 0.078892
0.994565 0.606530 0.078822
0.994565 0.613266 0.078774
0.994565 0.626374 0.078676
0.994565 0.624833 0.078546
0.994565 0.605128 0.078054
0.994565 0.494402 0.163544
0.994565 0.562980 0.872894
0.994565 0.553850 0.875786
0.070631 0.687530 0.079283
0.070631 0.684995 0.079283
0.070631 0.677606 0.079283
0.070631 0.671246 0.079283
0.070634 0.662784 0.079283
0.070665 0.649472 0.079279
0.070697 0.627771 0.079273
0.070825 0.597972 0.079267
0.070996 0.567017 0.079262
0.071262 0.535090 0.079258
0.071772 0.495621 0.079253
0.072915 0.461020 0.079249
0.075706 0.434175 0.079243
0.086597 0.419146 0.079238
0.150116 0.448624 0.079225
0.298895 0.458316 0.079212
0.558890 0.469092 0.079200
0.766476 0.503267 0.079184
0.892578 0.556994 0.079163
0.943474 0.565920 0.079153
0.965289 0.585274 0.079128
0.981119 0.614329 0.079084
0.985732 0.646013 0.079039
0.989457 0.653337 0.078983
0.992157 0.669971 0.078896
0.993753 0.692384 0.078826
0.994565 0.691523 0.078788
0.994565 0.696378 0.078700
0.994565 0.703828 0.078589
0.994565 0.717958 0.078295
0.994565 0.754097 0.078496
0.994565 0.544133 0.864696
0.994565 0.535827 0.873555
0.070631 0.812370 0.079283
0.070631 0.809906 0.079283
0.070631 0.802453 0.079283
0.070631 0.794608 0.079281
0.070640 0.791058 0.079274
0.070667 0.775962 0.079267
0.070696 0.756835 0.079261
0.070810 0.733764 0.079255
0.070970 0.703037 0.079250
0.071171 0.677248 0.079245
0.071572 0.652499 0.079241
0.072581 0.627742 0.079237
0.074309 0.600480 0.079233
0.080262 0.578056 0.079228
0.114462 0.600027 0.079211
0.185443 0.575452 0.079205
0.371176 0.576805 0.079195
0.628957 0.601326 0.079180
0.820025 0.644923 0.079160
0.907939 0.652044 0.079150
0.950032 0.665725 0.079120
0.968912 0.688608 0.079078
0.982327 0.715638 0.079036
0.986513 0.731610 0.078978
0.989783 0.752860 0.078896
0.992338 0.770762 0.078829
0.993927 0.780637 0.078793
0.994565 0.797198 0.078719
0.994565 0.798593 0.078621
0.994565 0.801962 0.078429
0.994565 0.820549 0.078150
0.994565 0.849574 0.113990
0.994565 0.889898 0.870161
0.070631 0.900314 0.079273
0.070631 0.899580 0.079272
0.070631 0.897294 0.079270
0.070631 0.894574 0.079266
0.070650 0.894430 0.079258
0.070673 0.888967 0.079252
0.070700 0.883972 0.079246
0.070822 0.873762 0.079240
0.070972 0.858638 0.079234
0.071164 0.842103 0.079230
0.071555 0.822924 0.079224
0.072478 0.795476 0.079218
0.073964 0.769794 0.079211
0.078681 0.747068 0.079205
0.096594 0.724112 0.079197
0.147065 0.694987 0.079193
0.248125 0.674382 0.079187
0.480557 0.685909 0.079174
0.711663 0.726317 0.079156
0.848602 0.733749 0.079144
0.920276 0.749110 0.079111
0.955111 0.772954 0.079070
0.972896 0.797637 0.079030
0.983287 0.812751 0.078970
0.987222 0.827488 0.078892
0.990214 0.844401 0.078829
0.992818 0.850817 0.078796
0.993943 0.856936 0.078730
0.994565 0.865893 0.078643
0.994565 0.877194 0.078520
0.994565 0.881073 0.078074
0.994565 0.887937 0.080026
0.994565 0.890507 0.847659
0.070631 0.927575 0.079265
0.070631 0.926935 0.079264
0.070631 0.924895 0.079262
0.070631 0.923593 0.079259
0.070651 0.923197 0.079252
0.070673 0.922036 0.079246
0.070699 0.920156 0.079239
0.070799 0.913894 0.079233
0.070941 0.906853 0.079228
0.071087 0.899083 0.079220
0.071441 0.890154 0.079213
0.072114 0.880078 0.079207
0.073133 0.865196 0.079200
0.076021 0.849738 0.079194
0.085059 0.836085 0.079187
0.117032 0.821548 0.079180
0.180606 0.795140 0.079176
0.338707 0.788282 0.079167
0.597375 0.815139 0.079151
0.765700 0.820252 0.079131
0.872570 0.829604 0.079101
0.934246 0.845104 0.079062
0.960837 0.860272 0.079020
0.976745 0.868328 0.078958
0.984348 0.879049 0.078884
0.987912 0.888646 0.078827
0.991045 0.891984 0.078797
0.993025 0.898034 0.078737
0.994018 0.902087 0.078658
0.994565 0.905243 0.078561
0.994565 0.912851 0.078265
0.994565 0.922649 0.078483
0.994565 0.912638 0.691389
0.070631 0.953023 0.079258
0.070631 0.952678 0.079258
0.070631 0.951559 0.079256
0.070635 0.950004 0.079252
0.070651 0.948982 0.079247
0.070673 0.948176 0.079240
0.070695 0.945377 0.079234
0.070776 0.942260 0.079228
0.070913 0.936417 0.079220
0.071050 0.929350 0.079212
0.071331 0.923323 0.079204
0.071780 0.918609 0.079197
0.072775 0.911195 0.079191
0.074559 0.902935 0.079184
0.079749 0.895122 0.079178
0.097992 0.888143 0.079172
0.149506 0.881526 0.079165
0.257615 0.877291 0.079157
0.480267 0.882342 0.079136
0.658930 0.877517 0.079118
0.802558 0.882383 0.079089
0.901845 0.889975 0.079052
0.947600 0.898071 0.079001
0.966232 0.901953 0.078943
0.980800 0.908338 0.078873
0.985428 0.915335 0.078825
0.989018 0.919444 0.078796
0.991497 0.922409 0.078741
0.993379 0.924209 0.078668
0.994032 0.929950 0.078583
0.994507 0.934925 0.078368
0.994565 0.942684 0.078184
0.994565 0.953013 0.137934
0.070631 0.971193 0.079250
0.070631 0.971073 0.079249
0.070631 0.970675 0.079248
0.070640 0.970097 0.079245
0.070654 0.969628 0.079240
0.070676 0.969744 0.079233
0.070695 0.968430 0.079228
0.070774 0.966818 0.079218
0.070900 0.963505 0.079209
0.071028 0.959503 0.079201
0.071263 0.955280 0.079192
0.071607 0.950666 0.079185
0.072537 0.945932 0.079178
0.073811 0.939963 0.079172
0.077417 0.932352 0.079166
0.088034 0.925068 0.079160
0.122978 0.922256 0.079153
0.194072 0.918450 0.079146
0.372516 0.921051 0.079108
0.572058 0.914843 0.079096
0.721323 0.912336 0.079077
0.852947 0.918266 0.079041
0.922065 0.922875 0.078981
0.954351 0.924093 0.078927
0.971311 0.929931 0.078859
0.982734 0.936847 0.078820
0.986830 0.941532 0.078794
0.989809 0.944862 0.078741
0.992094 0.948914 0.078674
0.993508 0.951003 0.078598
0.994062 0.955262 0.078439
0.994373 0.961812 0.078068
0.994550 0.968054 0.081457
0.070634 0.980107 0.079240
0.070635 0.980042 0.079239
0.070639 0.979825 0.079238
0.070647 0.979501 0.079235
0.070660 0.979207 0.079231
0.070679 0.979208 0.079223
0.070698 0.978660 0.079214
0.070779 0.978118 0.079204
0.070897 0.977176 0.079195
0.071025 0.976013 0.079186
0.071245 0.974531 0.079178
0.071579 0.972867 0.079170
0.072405 0.971006 0.079163
0.073503 0.969101 0.079157
0.076423 0.965608 0.079151
0.085079 0.961255 0.079137
0.111897 0.957064 0.079119
0.169088 0.953155 0.079102
0.292642 0.949971 0.079082
0.474070 0.945319 0.079072
0.643725 0.942441 0.079056
0.787467 0.941887 0.079030
0.885979 0.946368 0.078960
0.937094 0.948289 0.078908
0.960914 0.951614 0.078846
0.976613 0.955785 0.078815
0.984468 0.958361 0.078791
0.987922 0.961805 0.078738
0.990750 0.964899 0.078677
0.992601 0.967990 0.078608
0.993613 0.969881 0.078489
0.994005 0.971625 0.078127
0.994214 0.975193 0.078904
0.070636 0.984735 0.079237
0.070637 0.984677 0.079236
0.070640 0.984483 0.079235
0.070648 0.984182 0.079232
0.070659 0.983874 0.079228
0.070676 0.983756 0.079220
0.070696 0.983515 0.079210
0.070752 0.982920 0.079201
0.070872 0.982422 0.079191
0.070996 0.981760 0.079182
0.071141 0.980831 0.079174
0.071465 0.979877 0.079166
0.072073 0.978836 0.079158
0.072970 0.977506 0.079152
0.075044 0.975887 0.079140
0.080149 0.974145 0.079122
0.096732 0.972490 0.079104
0.141946 0.970966 0.079085
0.217642 0.969521 0.079068
0.374719 0.968358 0.079049
0.571293 0.965153 0.079034
0.719253 0.964375 0.078992
0.843712 0.964328 0.078937
0.912885 0.965635 0.078890
0.950264 0.968398 0.078840
0.967915 0.969907 0.078810
0.981925 0.970914 0.078787
0.985865 0.972287 0.078734
0.989231 0.973533 0.078678
0.991463 0.974848 0.078615
0.993028 0.976274 0.078519
0.993629 0.978121 0.078249
0.993894 0.980089 0.078422
0.070637 0.986941 0.079234
0.070638 0.986920 0.079233
0.070642 0.986848 0.079232
0.070648 0.986733 0.079230
0.070659 0.986607 0.079226
0.070674 0.986532 0.079217
0.070695 0.986532 0.079206
0.070734 0.986255 0.079197
0.070858 0.986148 0.079186
0.070963 0.985804 0.079178
0.071085 0.985525 0.079169
0.071390 0.985102 0.079160
0.071821 0.984248 0.079153
0.072690 0.983236 0.079143
0.074029 0.982220 0.079123
0.077603 0.981185 0.079104
0.087118 0.980128 0.079086
0.116583 0.979132 0.079068
0.174518 0.978133 0.079050
0.294145 0.977107 0.079033
0.479646 0.976078 0.079002
0.652194 0.975455 0.078952
0.789109 0.975333 0.078899
0.875689 0.974576 0.078868
0.930859 0.975228 0.078833
0.958059 0.976592 0.078804
0.974711 0.977437 0.078779
0.983674 0.978361 0.078729
0.987529 0.979294 0.078677
0.990274 0.980009 0.078620
0.992139 0.981053 0.078538
0.993220 0.982146 0.078313
0.993584 0.983988 0.078213
0.070639 0.990313 0.079230
0.070640 0.990279 0.079230
0.070644 0.990164 0.079228
0.070650 0.989978 0.079226
0.070659 0.989766 0.079220
0.070673 0.989616 0.079212
0.070693 0.989680 0.079200
0.070725 0.989273 0.079192
0.070834 0.988971 0.079181
0.070946 0.988565 0.079172
0.071066 0.988149 0.079163
0.071310 0.987528 0.079155
0.071619 0.987075 0.079145
0.072472 0.986712 0.079122
0.073529 0.986317 0.079102
0.076183 0.985916 0.079082
0.083497 0.985502 0.079063
0.104509 0.984947 0.079045
0.152330 0.984043 0.079028
0.240678 0.983248 0.078992
0.395641 0.982497 0.078955
0.583832 0.981888 0.078917
0.728712 0.981646 0.078865
0.842199 0.981142 0.078843
0.908849 0.980876 0.078824
0.947801 0.981308 0.078799
0.966556 0.981903 0.078771
0.980991 0.982570 0.078723
0.985669 0.983359 0.078674
0.988952 0.984040 0.078623
0.991235 0.984950 0.078552
0.992542 0.985546 0.078363
0.993252 0.986294 0.078103
0.070640 0.992927 0.079227
0.070641 0.992907 0.079227
0.070644 0.992838 0.079226
0.070649 0.992724 0.079222
0.070658 0.992589 0.079217
0.070672 0.992480 0.079209
0.070690 0.992476 0.079198
0.070715 0.992343 0.079187
0.070813 0.992098 0.079178
0.070932 0.991954 0.079167
0.071037 0.991604 0.079159
0.071248 0.991301 0.079150
0.071560 0.990960 0.079127
0.072251 0.990390 0.079105
0.073084 0.989714 0.079084
0.075245 0.989017 0.079064
0.080141 0.988306 0.079044
0.095472 0.987586 0.079025
0.134863 0.987060 0.078986
0.195962 0.986706 0.078948
0.325934 0.986399 0.078910
0.512868 0.986119 0.078873
0.664723 0.985890 0.078843
0.789825 0.985663 0.078831
0.876433 0.985513 0.078813
0.929604 0.985469 0.078791
0.957251 0.985534 0.078764
0.973648 0.985781 0.078719
0.983696 0.986085 0.078671
0.987485 0.986365 0.078624
0.990282 0.986700 0.078564
0.991856 0.987136 0.078404
0.992728 0.988221 0.078066
0.070635 0.995212 0.079230
0.070636 0.995195 0.079229
0.070639 0.995132 0.079228
0.070645 0.995023 0.079226
0.070653 0.994888 0.079220
0.070666 0.994761 0.079212
0.070683 0.994703 0.079201
0.070703 0.994664 0.079189
0.070778 0.994392 0.079180
0.070895 0.994258 0.079169
0.071000 0.993961 0.079160
0.071160 0.993724 0.079150
0.071441 0.993352 0.079130
0.071952 0.993001 0.079104
0.072809 0.992608 0.079081
0.074140 0.992152 0.079060
0.077564 0.991690 0.079040
0.086478 0.991223 0.079015
0.112574 0.990762 0.078974
0.163466 0.990125 0.078936
0.264210 0.989530 0.078898
0.423685 0.989000 0.078861
0.596111 0.988553 0.078838
0.733398 0.988189 0.078822
0.844486 0.987821 0.078804
0.911090 0.987645 0.078778
0.948725 0.987554 0.078753
0.965983 0.987568 0.078715
0.981564 0.988082 0.078671
0.985870 0.988581 0.078624
0.989245 0.989163 0.078571
0.991177 0.989844 0.078445
0.992220 0.990920 0.078095
0.070631 0.996677 0.079231
0.070632 0.996676 0.079231
0.070634 0.996673 0.079230
0.070640 0.996666 0.079228
0.070648 0.996659 0.079223
0.070660 0.996600 0.079215
0.070676 0.996538 0.079204
0.070699 0.996588 0.079190
0.070747 0.996356 0.079182
0.070854 0.996207 0.079171
0.070971 0.996063 0.079160
0.071079 0.995818 0.079151
0.071353 0.995585 0.079128
0.071701 0.995317 0.079101
0.072502 0.994961 0.079078
0.073534 0.994579 0.079055
0.076056 0.994171 0.079033
0.082946 0.993736 0.078998
0.101081 0.993298 0.078957
0.144078 0.992870 0.078917
0.210052 0.992464 0.078879
0.340321 0.992091 0.078845
0.517698 0.991754 0.078830
0.669807 0.991487 0.078814
0.793665 0.991268 0.078798
0.880195 0.991076 0.078767
0.932619 0.991030 0.078743
0.957933 0.990903 0.078709
0.974829 0.990953 0.078673
0.984094 0.991256 0.078630
0.988103 0.991634 0.078578
0.990488 0.992051 0.078483
0.991732 0.992734 0.078199
0.070631 0.996794 0.079234
0.070631 0.996793 0.079234
0.070631 0.996790 0.079233
0.070633 0.996785 0.079231
0.070641 0.996778 0.079227
0.070653 0.996771 0.079220
0.070669 0.996767 0.079209
0.070690 0.996769 0.079195
0.070716 0.996760 0.079184
0.070816 0.996749 0.079173
0.070945 0.996746 0.079160
0.071043 0.996728 0.079151
0.071281 0.996716 0.079127
0.071554 0.996696 0.079101
0.072269 0.996677 0.079074
0.073083 0.996655 0.079050
0.075086 0.996318 0.079028
0.079495 0.995965 0.078984
0.091167 0.995597 0.078941
0.122059 0.995234 0.078899
0.176328 0.994844 0.078859
0.285736 0.994475 0.078836
0.454086 0.994135 0.078821
0.609082 0.993833 0.078805
0.742857 0.993600 0.078789
0.848772 0.993412 0.078760
0.914438 0.993392 0.078738
0.950067 0.993219 0.078704
0.968451 0.993210 0.078672
0.982205 0.993219 0.078636
0.986785 0.993520 0.078589
0.989766 0.993901 0.078515
0.991294 0.994505 0.078275
0.070631 0.996940 0.079248
0.070631 0.996939 0.079248
0.070631 0.996936 0.079246
0.070631 0.996931 0.079244
0.070631 0.996923 0.079240
0.070635 0.996915 0.079234
0.070651 0.996908 0.079227
0.070674 0.996905 0.079211
0.070697 0.996900 0.079196
0.070751 0.996887 0.079185
0.070875 0.996879 0.079171
0.070992 0.996868 0.079159
0.071123 0.996853 0.079149
0.071431 0.996838 0.079120
0.071917 0.996820 0.079091
0.072721 0.996799 0.079065
0.074010 0.996778 0.079040
0.077161 0.996754 0.079006
0.084844 0.996728 0.078961
0.106551 0.996703 0.078917
0.151583 0.996678 0.078875
0.226271 0.996645 0.078843
0.360318 0.996349 0.078826
0.533647 0.996086 0.078810
