LUTs/velvia/Velvia50_Classic_ExtraSoft.cube
TITLE "Velvia 50 Classic ExtraSoft"
# Adobe RGB in/out. REPLACES AgX. Velvia 50 Classic ExtraSoft.
LUT_3D_SIZE 5
DOMAIN_MIN 0.0 0.0 0.0
DOMAIN_MAX 1.0 1.0 1.0
0.072578 0.069118 0.085020
0.262576 0.069118 0.085020
0.864023 0.069674 0.085020
0.914004 0.071243 0.085147
0.924614 0.272218 0.755542
0.072578 0.070704 0.085020
0.073204 0.072591 0.085020
0.692259 0.078537 0.085029
0.909089 0.095398 0.085136
0.924614 0.272256 0.755540
0.072578 0.440109 0.085020
0.072696 0.532220 0.085020
0.109635 0.598299 0.085089
0.852309 0.652158 0.085214
0.924056 0.736829 0.117055
0.072578 0.834220 0.085020
0.072657 0.849415 0.085057
0.079279 0.866997 0.085147
0.612516 0.874590 0.085405
0.921965 0.885092 0.086452
0.072578 0.903213 0.085020
0.072578 0.919017 0.085020
0.073429 0.926363 0.085034
0.223169 0.926114 0.085150
0.921640 0.928316 0.085250
0.072578 0.069118 0.086087
0.265578 0.069158 0.258269
0.872570 0.069860 0.128472
0.913915 0.071964 0.276632
0.924614 0.272255 0.755564
0.072578 0.070333 0.085650
0.079841 0.073090 0.087516
0.822169 0.079428 0.089030
0.910703 0.097075 0.099277
0.924614 0.272256 0.755540
0.072640 0.397965 0.085544
0.073405 0.472461 0.085896
0.300418 0.558807 0.086838
0.882168 0.636776 0.088741
0.924008 0.742360 0.580817
0.072649 0.823796 0.085432
0.073031 0.838787 0.085635
0.088569 0.860259 0.086453
0.729738 0.870029 0.088015
0.922475 0.884431 0.097325
0.072578 0.905322 0.085102
0.072578 0.920171 0.085102
0.073959 0.925314 0.085229
0.282910 0.925422 0.085906
0.923865 0.928144 0.086408
0.072578 0.069175 0.478563
0.095228 0.069747 0.786071
0.860011 0.071423 0.786067
0.912670 0.077588 0.801751
0.924614 0.272256 0.836811
0.072588 0.071537 0.479026
0.078599 0.074567 0.701448
0.822254 0.086587 0.751080
0.910111 0.127125 0.779933
0.924614 0.272269 0.829807
0.072974 0.384544 0.279159
0.075004 0.452042 0.397923
0.558194 0.570529 0.579269
0.894289 0.639026 0.661400
0.923830 0.757032 0.820322
0.073108 0.815179 0.184447
0.073981 0.828233 0.224307
0.145460 0.852814 0.365381
0.824405 0.865788 0.480021
0.922850 0.885198 0.741959
0.072578 0.914814 0.165740
0.072578 0.918330 0.165736
0.077354 0.923000 0.151897
0.430804 0.924147 0.217568
0.924406 0.928254 0.451073
0.072578 0.069774 0.846999
0.076088 0.071836 0.884741
0.848353 0.078303 0.886961
0.911529 0.095136 0.890544
0.924614 0.272189 0.897942
0.072618 0.074325 0.852163
0.076387 0.084946 0.877441
0.817713 0.115779 0.882978
0.909458 0.199166 0.887672
0.924612 0.271600 0.896379
0.073271 0.438040 0.822899
0.077057 0.503947 0.843893
0.630049 0.592945 0.866556
0.898141 0.665758 0.876642
0.923691 0.774937 0.895268
0.073414 0.819504 0.774653
0.075109 0.831285 0.787846
0.223544 0.854125 0.824626
0.852211 0.867060 0.846074
0.923018 0.888445 0.885825
0.072578 0.915410 0.640606
0.072578 0.919484 0.642097
0.077842 0.923894 0.753064
0.467386 0.924900 0.768780
0.924508 0.929041 0.855790
0.078677 0.070423 0.922113
0.543011 0.071009 0.922121
0.890232 0.073384 0.922184
0.915947 0.078153 0.922493
0.924614 0.272264 0.921616
0.079266 0.074745 0.921800
0.497518 0.078339 0.921839
0.885216 0.089032 0.921968
0.915470 0.108223 0.922330
0.924614 0.272355 0.922600
0.079666 0.449631 0.920976
0.205363 0.474758 0.921142
0.860871 0.536866 0.921457
0.913155 0.593672 0.921944
0.924561 0.755960 0.923306
0.074433 0.827091 0.920588
0.081975 0.833406 0.920909
0.713122 0.847726 0.921429
0.905875 0.858546 0.921984
0.924431 0.882121 0.923128
0.072578 0.912731 0.863916
0.072578 0.920171 0.882096
0.073486 0.929045 0.911049
0.387745 0.927943 0.922804
0.924614 0.930238 0.923434
