LUTs/velvia/Velvia50_Modern_ExtraPunchy.cube
TITLE "Velvia 50 Modern ExtraPunchy"
# Adobe RGB in/out. REPLACES AgX. Velvia 50 Modern ExtraPunchy.
LUT_3D_SIZE 9
DOMAIN_MIN 0.0 0.0 0.0
DOMAIN_MAX 1.0 1.0 1.0
0.070631 0.072407 0.079283
0.077426 0.072407 0.079283
0.909108 0.072442 0.079283
0.987557 0.072950 0.079277
0.994565 0.074963 0.079207
0.994565 0.081649 0.079092
0.994565 0.084698 0.078718
0.994565 0.073222 0.914112
0.994565 0.661866 0.969166
0.070631 0.072478 0.079283
0.070634 0.072447 0.079283
0.132065 0.072684 0.079283
0.959859 0.073774 0.079279
0.993141 0.079310 0.079212
0.994565 0.088610 0.079110
0.994565 0.095447 0.078780
0.994565 0.073168 0.908293
0.994565 0.649973 0.967806
0.070631 0.115896 0.079283
0.070631 0.103838 0.079283
0.071249 0.082254 0.079283
0.235724 0.090742 0.079273
0.956590 0.135594 0.079213
0.991864 0.230221 0.079136
0.994565 0.294892 0.078846
0.994565 0.073877 0.891776
0.994565 0.604997 0.960594
0.070631 0.687530 0.079283
0.070634 0.662784 0.079283
0.070996 0.567017 0.079262
0.075706 0.434175 0.079243
0.558890 0.469092 0.079200
0.965289 0.585274 0.079128
0.992157 0.669971 0.078896
0.994565 0.703828 0.078589
0.994565 0.535827 0.873555
0.070631 0.953023 0.079258
0.070651 0.948982 0.079247
0.070913 0.936417 0.079220
0.072775 0.911195 0.079191
0.149506 0.881526 0.079165
0.802558 0.882383 0.079089
0.980800 0.908338 0.078873
0.993379 0.924209 0.078668
0.994565 0.953013 0.137934
0.070637 0.986941 0.079234
0.070659 0.986607 0.079226
0.070858 0.986148 0.079186
0.071821 0.984248 0.079153
0.087118 0.980128 0.079086
0.479646 0.976078 0.079002
0.930859 0.975228 0.078833
0.987529 0.979294 0.078677
0.993584 0.983988 0.078213
0.070631 0.996677 0.079231
0.070648 0.996659 0.079223
0.070747 0.996356 0.079182
0.071353 0.995585 0.079128
0.076056 0.994171 0.079033
0.210052 0.992464 0.078879
0.793665 0.991268 0.078798
0.974829 0.990953 0.078673
0.991732 0.992734 0.078199
0.070631 0.997178 0.079283
0.070631 0.997160 0.079283
0.070658 0.997122 0.079234
0.070985 0.997085 0.079171
0.072854 0.997024 0.079079
0.111332 0.996934 0.078925
0.544393 0.996852 0.078811
0.940760 0.996812 0.078716
0.990173 0.996821 0.078515
0.070631 0.997062 0.079283
0.070631 0.997047 0.079283
0.070631 0.997332 0.079283
0.070631 0.997274 0.079283
0.071142 0.997369 0.079253
0.077297 0.997286 0.079184
0.216740 0.997213 0.079128
0.774612 0.997168 0.079063
0.989408 0.997157 0.079045
0.070631 0.072407 0.078951
0.078959 0.072407 0.125411
0.938229 0.072478 0.078147
0.989965 0.072995 0.078631
0.994565 0.074903 0.078794
0.994565 0.081381 0.078733
0.994565 0.084803 0.078253
0.994565 0.073194 0.911000
0.994565 0.655695 0.968461
0.070631 0.072427 0.079202
0.070740 0.072422 0.079210
0.488392 0.072674 0.079062
0.977445 0.073766 0.078842
0.993786 0.078684 0.078841
0.994565 0.087390 0.078788
0.994565 0.095143 0.078441
0.994565 0.073140 0.905211
0.994565 0.643911 0.967106
0.070631 0.090071 0.079166
0.070686 0.082891 0.079176
0.072105 0.076118 0.079195
0.561273 0.084104 0.079131
0.971242 0.121432 0.079023
0.992516 0.212770 0.078841
0.994565 0.283821 0.078650
0.994565 0.074247 0.890216
0.994565 0.597595 0.959342
0.070648 0.602323 0.079161
0.070690 0.567031 0.079155
0.071270 0.448804 0.079151
0.083711 0.337036 0.079140
0.691092 0.411582 0.079061
0.972746 0.553821 0.078889
0.992371 0.652365 0.078727
0.994565 0.694629 0.078266
0.994565 0.527030 0.947200
0.070660 0.936814 0.079168
0.070688 0.930320 0.079158
0.071042 0.918356 0.079108
0.073747 0.888998 0.079060
0.195831 0.850677 0.078993
0.854048 0.862916 0.078865
0.982556 0.900312 0.078739
0.993337 0.922376 0.078504
0.994565 0.952110 0.307185
0.070662 0.985951 0.079173
0.070682 0.985634 0.079163
0.070948 0.985011 0.079099
0.072286 0.981883 0.079014
0.097311 0.977768 0.078881
0.558445 0.973368 0.078807
0.941535 0.973394 0.078714
0.987970 0.978410 0.078541
0.993511 0.983667 0.078553
0.070649 0.996309 0.079187
0.070665 0.996065 0.079177
0.070818 0.995708 0.079128
0.071482 0.994885 0.079017
0.077503 0.993434 0.078843
0.246277 0.991814 0.078774
0.826263 0.990735 0.078666
0.977641 0.990532 0.078555
0.991673 0.992570 0.078091
0.070631 0.997156 0.079277
0.070631 0.997139 0.079265
0.070671 0.997100 0.079201
0.071027 0.997059 0.079126
0.073053 0.996998 0.078966
0.118359 0.996910 0.078814
0.578907 0.996833 0.078714
0.947271 0.996797 0.078606
0.990207 0.996813 0.078303
0.070631 0.997096 0.079158
0.070631 0.997081 0.079159
0.070631 0.997354 0.079163
0.070631 0.997290 0.079168
0.071195 0.997360 0.079231
0.077820 0.997278 0.079157
0.227483 0.997206 0.079058
0.784776 0.997164 0.078965
0.989742 0.997154 0.078930
0.070631 0.072407 0.090251
0.071752 0.072455 0.946568
0.919218 0.072710 0.928540
0.990893 0.073664 0.862418
0.994565 0.076685 0.711664
0.994565 0.083433 0.692028
0.994565 0.088500 0.798554
0.994565 0.073582 0.917589
0.994565 0.643001 0.967007
0.070631 0.072676 0.090625
0.071179 0.072955 0.510441
0.692347 0.073203 0.574071
0.982261 0.074679 0.481679
0.994097 0.080775 0.427694
0.994565 0.090772 0.497921
0.994565 0.101216 0.672345
0.994565 0.073746 0.913221
0.994565 0.629818 0.964782
0.070656 0.078429 0.078395
0.070763 0.076049 0.078212
0.073135 0.074446 0.078069
0.753951 0.081675 0.078914
0.981697 0.113802 0.081638
0.993270 0.197232 0.093365
0.994565 0.271489 0.149054
0.994565 0.101942 0.891036
0.994565 0.581588 0.956587
0.070718 0.427193 0.078390
0.070889 0.390248 0.078317
0.071964 0.285954 0.078135
0.120087 0.203857 0.078067
0.861950 0.318015 0.078386
0.982741 0.492140 0.079402
0.992715 0.616600 0.081257
0.994565 0.676450 0.153087
0.994565 0.507124 0.945415
0.070823 0.901148 0.078222
0.070933 0.894414 0.078222
0.071563 0.869482 0.078207
0.080193 0.810199 0.078166
0.418448 0.758233 0.078176
0.930839 0.809624 0.078452
0.985321 0.881067 0.078921
0.993188 0.911789 0.081733
0.994532 0.950635 0.787649
0.070837 0.981715 0.078071
0.070915 0.980984 0.078085
0.071368 0.979378 0.078154
0.074356 0.975097 0.078203
0.161878 0.969602 0.078247
0.738540 0.963637 0.078348
0.962303 0.968454 0.078526
0.989001 0.975086 0.079450
0.993301 0.982812 0.115709
0.070743 0.994393 0.078424
0.070810 0.994150 0.078384
0.071063 0.993679 0.078216
0.072511 0.992700 0.078067
0.090099 0.991276 0.078147
0.419712 0.989522 0.078256
0.896760 0.988493 0.078416
0.983278 0.988905 0.078735
0.991498 0.992078 0.080818
0.070653 0.997042 0.078774
0.070667 0.997029 0.078745
0.070826 0.997006 0.078606
0.071399 0.996967 0.078406
0.075368 0.996905 0.078117
0.165609 0.996825 0.078104
0.691845 0.996764 0.078240
0.961081 0.996744 0.078425
0.990263 0.996787 0.078816
0.070631 0.997071 0.079160
0.070631 0.997374 0.079161
0.070631 0.997335 0.079164
0.070631 0.997273 0.079170
0.071480 0.997322 0.078975
0.081331 0.997246 0.078730
0.283138 0.997181 0.078595
0.837839 0.997146 0.078509
0.989972 0.997146 0.078413
0.070631 0.072456 0.786147
0.070836 0.072827 0.982782
0.851797 0.073764 0.989993
0.990397 0.078362 0.989312
0.994565 0.085618 0.978474
0.994565 0.098015 0.969340
0.994565 0.108305 0.968652
0.994565 0.087215 0.977865
0.994565 0.634074 0.974245
0.070631 0.073010 0.817696
0.070974 0.074140 0.953484
0.718590 0.078554 0.982928
0.984890 0.083660 0.975139
0.994565 0.093063 0.961832
0.994565 0.112236 0.953323
0.994565 0.128134 0.958339
0.994565 0.096025 0.974830
0.994565 0.618947 0.973038
0.070694 0.083182 0.471823
0.070953 0.084198 0.518245
0.083915 0.086066 0.657660
0.859508 0.097749 0.738481
0.983569 0.147891 0.808441
0.993488 0.235064 0.856775
0.994565 0.308861 0.900293
0.994565 0.331635 0.950002
0.994565 0.569754 0.968901
0.070840 0.303266 0.175227
0.070994 0.286540 0.159214
0.072541 0.210226 0.122088
0.155344 0.160502 0.105882
0.902948 0.298293 0.246487
0.983693 0.478078 0.478193
0.992548 0.610672 0.656829
0.994565 0.683979 0.869591
0.994565 0.490456 0.958335
0.070990 0.844178 0.139477
0.071087 0.833780 0.133157
0.072347 0.787660 0.119495
0.092078 0.703767 0.103240
0.567583 0.663379 0.099082
0.950370 0.754345 0.140777
0.986049 0.857695 0.294075
0.992736 0.904253 0.570078
0.994262 0.951125 0.930733
0.071026 0.975095 0.104061
0.071095 0.974109 0.103357
0.071985 0.971665 0.103138
0.078802 0.964595 0.099711
0.262047 0.952161 0.098060
0.838794 0.946789 0.100882
0.972065 0.957244 0.125513
0.989121 0.971811 0.237328
0.992837 0.982102 0.810563
0.070961 0.992090 0.085574
0.071019 0.991869 0.085814
0.071465 0.991378 0.087211
0.073977 0.990226 0.089118
0.125990 0.988270 0.090983
0.594784 0.986905 0.093307
0.934865 0.986620 0.098599
0.985010 0.987266 0.118461
0.991204 0.991557 0.471715
0.070707 0.996933 0.079866
0.070767 0.996923 0.079963
0.071022 0.996906 0.080533
0.072016 0.996866 0.081361
0.080117 0.996806 0.082692
0.248949 0.996736 0.084106
0.792674 0.996688 0.086721
0.972008 0.996685 0.091099
0.990185 0.996759 0.149092
0.070631 0.997180 0.078600
0.070631 0.997344 0.078581
0.070631 0.997306 0.078519
0.070675 0.997343 0.078142
0.072304 0.997260 0.078726
0.091123 0.997198 0.079220
0.378085 0.997145 0.079747
0.887827 0.997120 0.080135
0.989992 0.997137 0.081664
0.070631 0.072808 0.965649
0.070678 0.073465 0.991730
0.611140 0.080582 0.993678
0.987352 0.096050 0.993685
0.994565 0.146463 0.993610
0.994565 0.162625 0.992319
0.994565 0.171460 0.991600
0.994565 0.140917 0.990684
0.994565 0.634106 0.990006
0.070631 0.073947 0.969239
0.070777 0.076371 0.989695
0.459992 0.093096 0.993550
0.984947 0.137095 0.993610
0.994565 0.169059 0.992692
0.994565 0.193109 0.991687
0.994565 0.212755 0.989616
0.994565 0.169081 0.989609
0.994565 0.618500 0.989579
0.070849 0.146952 0.957492
0.071145 0.165770 0.968571
0.120789 0.215922 0.982341
0.923335 0.231532 0.980694
0.986394 0.279337 0.976964
0.994233 0.348033 0.975767
0.994565 0.406453 0.977245
0.994565 0.443163 0.981770
0.994565 0.567722 0.984729
0.070949 0.329816 0.816197
0.071093 0.329628 0.819924
0.073874 0.326094 0.840800
0.338929 0.329073 0.863546
0.935750 0.415124 0.889918
0.985186 0.553244 0.917856
0.992919 0.651999 0.943323
0.994565 0.724854 0.963499
0.994565 0.815762 0.978542
0.071071 0.773762 0.701888
0.071273 0.765115 0.695394
0.072827 0.731062 0.676370
0.107668 0.664124 0.649203
0.616731 0.621277 0.625291
0.955899 0.744801 0.748835
0.986384 0.856875 0.848944
0.992491 0.906326 0.913429
0.994092 0.954740 0.966787
0.071189 0.966681 0.635416
0.071361 0.964823 0.630586
0.072631 0.959988 0.621270
0.085160 0.949311 0.602010
0.346195 0.934118 0.583397
0.869957 0.926972 0.591399
0.975774 0.949612 0.670514
0.988961 0.970057 0.800310
0.992443 0.981983 0.941386
0.071087 0.989592 0.519278
0.071213 0.989333 0.518141
0.071953 0.988712 0.520883
0.076368 0.987407 0.521487
0.167161 0.986384 0.521037
0.688536 0.985604 0.527604
0.950951 0.985524 0.555857
0.985682 0.986594 0.637300
0.990866 0.991245 0.882994
0.070862 0.996837 0.322149
0.070916 0.996829 0.324320
0.071219 0.996811 0.346248
0.072725 0.996774 0.370634
0.088311 0.996717 0.397109
0.342878 0.996656 0.420799
0.855697 0.996187 0.446731
0.978870 0.996361 0.481718
0.990035 0.996743 0.714957
0.070631 0.997186 0.277220
0.070631 0.997201 0.270011
0.070631 0.997226 0.247085
0.070918 0.997254 0.125857
0.072828 0.997215 0.154914
0.104338 0.997160 0.182001
0.470430 0.997116 0.206305
0.917621 0.997096 0.222808
0.989944 0.997136 0.456831
0.070631 0.074168 0.992579
0.070667 0.075458 0.994016
0.307101 0.108280 0.995241
0.983929 0.168606 0.995269
0.994565 0.302335 0.995283
0.994565 0.326466 0.994663
0.994565 0.318160 0.993613
0.994565 0.284334 0.993192
0.994565 0.642784 0.992466
0.070637 0.077506 0.992757
0.070699 0.081739 0.993929
0.248020 0.152699 0.995178
0.981982 0.247607 0.995225
0.994565 0.384931 0.995190
0.994565 0.367419 0.994198
0.994565 0.361686 0.993517
0.994565 0.324026 0.992964
0.994565 0.628389 0.992326
0.070927 0.257960 0.992868
0.071214 0.311694 0.993608
0.166425 0.510597 0.994791
0.947064 0.511334 0.994177
0.989416 0.505911 0.993539
0.994565 0.522431 0.992823
0.994565 0.546257 0.992365
0.994565 0.570915 0.992154
0.994565 0.576031 0.991865
0.071072 0.500272 0.973663
0.071369 0.514449 0.975580
0.078410 0.566677 0.982581
0.584050 0.589871 0.984380
0.958477 0.622098 0.983906
0.987657 0.667258 0.984083
0.993739 0.729377 0.985391
0.994565 0.792373 0.987942
0.994565 0.875126 0.989617
0.071213 0.777276 0.933958
0.071434 0.774804 0.934266
0.073697 0.773860 0.937982
0.152535 0.753814 0.939803
0.779021 0.756575 0.942719
0.965769 0.821607 0.949397
0.987440 0.884177 0.963346
0.992780 0.917919 0.973686
0.994090 0.961928 0.983260
0.071338 0.954558 0.897062
0.071507 0.953525 0.896307
0.073008 0.950729 0.895578
0.093117 0.942658 0.893142
0.434565 0.925032 0.889842
0.885563 0.919521 0.887784
0.978297 0.949028 0.919185
0.989000 0.970498 0.946299
0.992273 0.982650 0.973383
0.071250 0.987195 0.864453
0.071387 0.987090 0.863494
0.072396 0.986848 0.863103
0.078996 0.986278 0.862190
0.204817 0.985422 0.861541
0.747166 0.983938 0.863116
0.955774 0.983965 0.873065
0.985877 0.986231 0.901289
0.990600 0.991184 0.958099
0.070935 0.996761 0.788532
0.070988 0.996753 0.788184
0.071384 0.996738 0.792179
0.073126 0.996704 0.795724
0.099313 0.996629 0.800534
0.432582 0.995891 0.807092
0.884459 0.995522 0.818093
0.981846 0.995874 0.839639
0.989854 0.996737 0.929980
0.070631 0.997160 0.571936
0.070631 0.997173 0.581695
0.070631 0.997191 0.612189
0.070947 0.997227 0.651717
0.073017 0.997187 0.665482
0.110975 0.997137 0.682384
0.512152 0.997096 0.692043
0.928398 0.997083 0.697856
0.989866 0.997139 0.875091
0.070636 0.081203 0.995306
0.070681 0.084243 0.995619
0.123785 0.182668 0.995759
0.981692 0.311038 0.995772
0.994565 0.461464 0.995778
0.994565 0.542145 0.995666
0.994565 0.488647 0.995231
0.994565 0.441911 0.994686
0.994565 0.656323 0.993972
0.070661 0.089289 0.995344
0.070704 0.098618 0.995610
0.124202 0.254110 0.995749
0.977244 0.399449 0.995765
0.994565 0.551574 0.995772
0.994565 0.567616 0.995576
0.994565 0.533010 0.995096
0.994565 0.488612 0.994500
0.994565 0.643460 0.993821
0.070953 0.357165 0.995403
0.071166 0.405053 0.995557
0.133403 0.603508 0.995697
0.958046 0.710093 0.995727
0.992454 0.685493 0.995457
0.994565 0.670418 0.995007
0.994565 0.662201 0.994354
0.994565 0.671615 0.993789
0.994565 0.591303 0.993541
0.071339 0.685751 0.993895
0.071641 0.695240 0.994049
0.086321 0.755003 0.994321
0.730379 0.778690 0.994083
0.973325 0.786197 0.993629
0.990623 0.801458 0.993441
0.994565 0.824303 0.993115
0.994565 0.853211 0.992924
0.994565 0.916784 0.992902
0.071414 0.846704 0.988514
0.071623 0.848910 0.989234
0.075474 0.863979 0.990101
0.247903 0.873126 0.990784
0.876080 0.880796 0.990207
0.977435 0.893357 0.989991
0.989345 0.911490 0.990652
0.993490 0.931216 0.991632
0.994268 0.969627 0.991952
0.071458 0.953615 0.972163
0.071616 0.953239 0.972360
0.073524 0.953333 0.973648
0.110090 0.950489 0.974716
0.575663 0.946099 0.974509
0.930134 0.947798 0.974871
0.982426 0.960784 0.978268
0.989644 0.973268 0.983392
0.992433 0.984004 0.989244
0.071323 0.986424 0.954420
0.071460 0.986361 0.954400
0.072611 0.986236 0.955310
0.080990 0.985834 0.956862
0.250077 0.985022 0.958208
0.788141 0.983360 0.958416
0.958206 0.982495 0.958271
0.986177 0.986297 0.971141
0.990540 0.991432 0.982757
0.070939 0.996714 0.936545
0.070993 0.996708 0.936343
0.071415 0.996695 0.936774
0.073371 0.996666 0.937522
0.105384 0.996187 0.939083
0.476322 0.995513 0.941185
0.901379 0.995178 0.943894
0.982339 0.995609 0.947665
0.989708 0.996741 0.975260
0.070631 0.997114 0.829283
0.070631 0.997149 0.826582
0.070631 0.997176 0.818914
0.070830 0.997225 0.895102
0.072859 0.997179 0.896495
0.108257 0.997130 0.898249
0.502266 0.997092 0.899939
0.927337 0.997087 0.900947
0.989799 0.997147 0.966529
0.070681 0.108222 0.996010
0.070741 0.116985 0.996034
0.175695 0.271252 0.996067
0.984111 0.408795 0.996072
0.994565 0.553111 0.996075
0.994565 0.650418 0.996038
0.994565 0.590266 0.995765
0.994565 0.534289 0.995539
0.994565 0.707324 0.995143
0.070699 0.138765 0.996007
0.070827 0.156364 0.996030
0.181386 0.340611 0.996063
0.982963 0.487615 0.996069
0.994565 0.620143 0.996073
0.994565 0.668103 0.995965
0.994565 0.620710 0.995711
0.994565 0.571138 0.995472
0.994565 0.704293 0.995082
0.071080 0.498755 0.995996
0.071413 0.531891 0.996012
0.220959 0.675310 0.996044
0.971679 0.778001 0.996054
0.994565 0.810653 0.995949
0.994565 0.775071 0.995728
0.994565 0.744187 0.995511
0.994565 0.727705 0.995166
0.994565 0.785975 0.994810
0.071825 0.842340 0.995800
0.072571 0.845727 0.995792
0.149533 0.878504 0.995749
0.883527 0.882531 0.995647
0.984852 0.878289 0.995472
0.993879 0.873870 0.995175
0.994565 0.872285 0.994879
0.994565 0.882308 0.994475
0.994565 0.932641 0.994151
0.071779 0.902890 0.994609
0.072351 0.904310 0.994618
0.084260 0.915623 0.994592
0.499796 0.920590 0.994370
0.944613 0.922051 0.994041
0.985016 0.923626 0.993731
0.991958 0.930429 0.993611
0.994198 0.944690 0.993573
0.994565 0.973069 0.993492
0.071594 0.962771 0.992796
0.071970 0.962922 0.992834
0.075276 0.966081 0.992927
0.158123 0.966628 0.992829
0.744489 0.966369 0.992617
0.959023 0.968501 0.992447
0.985540 0.971383 0.992401
0.990998 0.976483 0.992476
0.992919 0.985288 0.992634
0.071357 0.986326 0.989652
0.071491 0.986292 0.989688
0.072835 0.986342 0.990792
0.085431 0.986134 0.991582
0.334611 0.985708 0.991466
0.860416 0.985327 0.990474
0.970919 0.985640 0.990176
0.987438 0.986938 0.991575
0.990821 0.991902 0.991943
0.070857 0.996716 0.978405
0.070919 0.996709 0.978483
0.071310 0.996694 0.979505
0.073148 0.996667 0.981307
0.106899 0.996251 0.983460
0.513510 0.995644 0.984882
0.915045 0.995292 0.985565
0.982554 0.995267 0.985760
0.989709 0.996753 0.990810
0.070631 0.997034 0.950463
0.070631 0.997162 0.950812
0.070631 0.997154 0.955172
0.070692 0.997225 0.962997
0.072171 0.997198 0.963337
0.095102 0.997146 0.965192
0.435670 0.997112 0.966997
0.911155 0.997108 0.967448
0.989757 0.997160 0.988793
0.193323 0.104380 0.996101
0.511664 0.108417 0.996101
0.972295 0.131108 0.996101
0.994565 0.191755 0.996101
0.994565 0.300289 0.996101
0.994565 0.408483 0.996101
0.994565 0.300951 0.996025
0.994565 0.158236 0.995787
0.994565 0.686354 0.995531
0.193465 0.125124 0.996101
0.497173 0.132376 0.996101
0.970855 0.166259 0.996101
0.994565 0.246297 0.996101
0.994565 0.363422 0.996101
0.994565 0.441229 0.996101
0.994565 0.331863 0.995977
0.994565 0.178036 0.995751
0.994565 0.673519 0.995520
0.220184 0.383007 0.996101
0.489617 0.400679 0.996101
0.964589 0.462275 0.996101
0.994565 0.563694 0.996101
0.994565 0.641607 0.996101
0.994565 0.596079 0.996032
0.994565 0.517987 0.995819
0.994565 0.374519 0.995632
0.994565 0.631060 0.995329
0.251448 0.856498 0.996101
0.423351 0.854118 0.996101
0.933060 0.849464 0.996101
0.989887 0.840678 0.996022
0.994565 0.824097 0.995878
0.994565 0.794824 0.995725
0.994565 0.754303 0.995570
0.994565 0.717985 0.995308
0.994565 0.924878 0.995039
0.104694 0.919211 0.995711
0.140849 0.918604 0.995698
0.647128 0.918023 0.995652
0.966394 0.916521 0.995571
0.988726 0.913339 0.995413
0.993738 0.909417 0.995205
0.994565 0.904430 0.995006
0.994565 0.905495 0.994710
0.994565 0.966756 0.994402
0.075786 0.968474 0.995081
0.079018 0.968283 0.995057
0.175763 0.967809 0.994977
0.847494 0.966672 0.994761
0.972148 0.964771 0.994482
0.987236 0.963948 0.994195
0.991372 0.964296 0.993955
0.993327 0.968296 0.993762
0.993529 0.982811 0.993613
0.072108 0.986368 0.994259
0.072544 0.986298 0.994215
0.077859 0.986163 0.994066
0.299546 0.985886 0.993822
0.893984 0.985451 0.993612
0.975422 0.985037 0.993513
0.986914 0.985034 0.993337
0.990368 0.985556 0.993249
0.991512 0.990844 0.993218
0.070810 0.996697 0.993612
0.070875 0.996691 0.993612
0.071247 0.996678 0.993611
0.074990 0.996588 0.993575
0.251319 0.995936 0.993344
0.882200 0.995287 0.993100
0.978402 0.994940 0.992904
0.987935 0.994999 0.992814
0.990166 0.996713 0.992834
0.070631 0.996939 0.979084
0.070631 0.997146 0.985921
0.070631 0.997124 0.985180
0.070631 0.997117 0.983986
0.071091 0.997263 0.992041
0.080547 0.997187 0.992882
0.367010 0.997146 0.992808
0.917735 0.997142 0.992738
0.989754 0.997177 0.992722
