LUTs/velvia/Velvia50_Modern_Normal.cube
TITLE "Velvia 50 Modern Normal"
# Adobe RGB in/out. REPLACES AgX. Velvia 50 Modern Normal.
LUT_3D_SIZE 5
DOMAIN_MIN 0.0 0.0 0.0
DOMAIN_MAX 1.0 1.0 1.0
0.090873 0.083221 0.090772
0.881730 0.083557 0.090772
0.989973 0.089595 0.090799
0.989973 0.109295 0.091034
0.989973 0.624454 0.943188
0.090873 0.163935 0.090772
0.092510 0.104287 0.090772
0.937171 0.187878 0.090796
0.989973 0.332064 0.090928
0.989973 0.572650 0.933000
0.090873 0.892746 0.090781
0.091617 0.870029 0.090794
0.224097 0.819661 0.090814
0.965411 0.843056 0.090917
0.989973 0.892730 0.208740
0.090873 0.972093 0.090790
0.091179 0.970744 0.090808
0.109396 0.965843 0.090860
0.760189 0.959357 0.090968
0.985536 0.962628 0.091466
0.090873 0.983990 0.090772
0.090873 0.988504 0.090772
0.092225 0.988578 0.090783
0.285672 0.988267 0.090827
0.982913 0.986941 0.090856
0.090873 0.083226 0.131406
0.894059 0.084328 0.884226
0.989973 0.093709 0.679067
0.989973 0.116424 0.761551
0.989973 0.607808 0.939701
0.090939 0.097428 0.092866
0.099816 0.088606 0.091725
0.966464 0.161237 0.106477
0.989973 0.314186 0.220311
0.989973 0.551471 0.926147
0.091378 0.836894 0.092263
0.093727 0.805663 0.092208
0.431923 0.709177 0.092099
0.976021 0.818998 0.094778
0.989902 0.888951 0.749712
0.091168 0.966342 0.091278
0.092015 0.964742 0.091452
0.144160 0.959374 0.092001
0.871329 0.953176 0.092940
0.985271 0.961164 0.102352
0.090873 0.984269 0.090815
0.090873 0.988511 0.090814
0.093381 0.988486 0.090881
0.331972 0.987715 0.091136
0.983549 0.986611 0.091288
0.090873 0.084612 0.938248
0.587125 0.101102 0.982717
0.989973 0.199557 0.982486
0.989973 0.225728 0.975639
0.989973 0.598935 0.974626
0.091449 0.200077 0.927692
0.190638 0.267976 0.964581
0.978862 0.320365 0.955826
0.989973 0.414504 0.956283
0.989973 0.538907 0.968478
0.092037 0.721023 0.667814
0.098611 0.685252 0.639192
0.592542 0.587358 0.592444
0.978836 0.792806 0.804986
0.988966 0.895480 0.939346
0.092080 0.955622 0.505610
0.095251 0.953663 0.507182
0.242684 0.948494 0.507334
0.927829 0.946590 0.534210
0.984558 0.959305 0.841485
0.090873 0.987859 0.324580
0.090873 0.988294 0.304437
0.098615 0.988273 0.226303
0.466365 0.985660 0.272911
0.983518 0.986304 0.457289
0.090885 0.102166 0.988288
0.194386 0.237647 0.989842
0.989973 0.460890 0.989908
0.989973 0.479246 0.988031
0.989973 0.619566 0.983720
0.091722 0.378704 0.988618
0.206330 0.571304 0.989627
0.986350 0.645259 0.988806
0.989973 0.624749 0.985028
0.989973 0.560265 0.982251
0.093110 0.782448 0.973797
0.107845 0.800049 0.974679
0.848339 0.818606 0.974738
0.982842 0.845755 0.974986
0.989340 0.922438 0.976837
0.092734 0.948583 0.922450
0.097776 0.948167 0.923968
0.308834 0.945478 0.928917
0.939854 0.941926 0.929025
0.984190 0.959723 0.965258
0.090873 0.985626 0.785690
0.090873 0.987549 0.778358
0.098738 0.987631 0.854008
0.493206 0.984935 0.857255
0.983354 0.986645 0.939017
0.266333 0.144582 0.991016
0.956310 0.182999 0.991016
0.989973 0.336221 0.991016
0.989973 0.336729 0.990754
0.989973 0.646015 0.989059
0.288265 0.397293 0.991016
0.947498 0.461442 0.991016
0.989973 0.606576 0.991016
0.989973 0.498698 0.990045
0.989973 0.596187 0.988365
0.168974 0.853190 0.989677
0.621999 0.852027 0.989474
0.982144 0.847446 0.988655
0.989973 0.839707 0.987258
0.989973 0.914703 0.985191
0.095843 0.948460 0.984701
0.115033 0.948005 0.984042
0.868989 0.946429 0.982491
0.980100 0.945507 0.981553
0.985287 0.958411 0.981148
0.090873 0.980173 0.959274
0.090873 0.985913 0.969214
0.092089 0.988367 0.977139
0.396317 0.986603 0.979749
0.983303 0.987587 0.979455
