LUTs/velvia/Velvia50_Classic_IlfochromeM.cube
TITLE "Velvia 50 Classic IlfochromeM"
# Adobe RGB in/out. REPLACES AgX. Velvia 50 Classic IlfochromeM.
LUT_3D_SIZE 33
DOMAIN_MIN 0.0 0.0 0.0
DOMAIN_MAX 1.0 1.0 1.0
0.118305 0.082367 0.079686
0.119516 0.083532 0.080643
0.120343 0.083681 0.080781
0.129877 0.084134 0.081128
0.170703 0.085701 0.081396
0.193712 0.087284 0.081539
0.260769 0.091025 0.081941
0.343912 0.096045 0.082940
0.389178 0.098686 0.083635
0.452061 0.102574 0.084772
0.538178 0.109954 0.086644
0.603459 0.115628 0.087887
0.661952 0.120499 0.089266
0.726384 0.127104 0.091580
0.783615 0.136309 0.094491
0.818929 0.142043 0.096938
0.842379 0.147796 0.099379
0.863844 0.155046 0.102292
0.883097 0.164728 0.106008
0.899008 0.170404 0.108730
0.907944 0.176434 0.111753
0.915317 0.183410 0.115342
0.922249 0.189341 0.119788
0.928948 0.191134 0.124208
0.933890 0.193377 0.130507
0.938302 0.194274 0.140104
0.943942 0.184927 0.159269
0.946202 0.179891 0.229620
0.949250 0.142092 0.507906
0.949250 0.142020 0.507872
0.949250 0.142015 0.507870
0.949250 0.142018 0.507869
0.950399 0.387196 0.660435
0.118516 0.084230 0.080401
0.119088 0.084395 0.080661
0.120652 0.083961 0.080688
0.130622 0.084403 0.081180
0.164297 0.086759 0.081444
0.185834 0.088073 0.081570
0.249146 0.091905 0.082022
0.334078 0.096991 0.083046
0.380432 0.099412 0.083710
0.444557 0.103353 0.084849
0.531145 0.110806 0.086708
0.597387 0.116492 0.087935
0.656763 0.121345 0.089342
0.722221 0.127936 0.091642
0.781037 0.137133 0.094542
0.817509 0.142839 0.096998
0.841276 0.148557 0.099428
0.863006 0.155858 0.102332
0.882475 0.165635 0.106044
0.898718 0.171270 0.108756
0.907733 0.177290 0.111769
0.915164 0.184245 0.115347
0.922140 0.190164 0.119778
0.928872 0.191942 0.124170
0.933837 0.194172 0.130430
0.938265 0.195062 0.139912
0.943917 0.185708 0.158592
0.946195 0.180629 0.227216
0.949250 0.142094 0.507906
0.949250 0.142020 0.507872
0.949250 0.142015 0.507870
0.949250 0.142019 0.507869
0.950399 0.387199 0.660434
0.118574 0.084718 0.080509
0.118655 0.084951 0.080753
0.119128 0.085160 0.080850
0.123571 0.087241 0.081294
0.142775 0.091299 0.081540
0.166200 0.091838 0.081674
0.213608 0.095584 0.082282
0.300221 0.100790 0.083445
0.349580 0.102606 0.083990
0.416390 0.106565 0.085135
0.505841 0.114615 0.086941
0.574358 0.119902 0.088113
0.637106 0.124517 0.089617
0.706070 0.131040 0.091868
0.771253 0.140194 0.094727
0.812121 0.145877 0.097214
0.837100 0.151366 0.099607
0.859845 0.158850 0.102477
0.880134 0.168972 0.106174
0.897627 0.174492 0.108852
0.906939 0.180430 0.111828
0.914591 0.187311 0.115367
0.921732 0.193177 0.119743
0.928589 0.194898 0.124044
0.933641 0.197078 0.130163
0.938127 0.197938 0.139249
0.943822 0.188569 0.156540
0.946168 0.183333 0.218928
0.949250 0.142100 0.507909
0.949250 0.142021 0.507872
0.949250 0.142015 0.507870
0.949250 0.142021 0.507869
0.950399 0.387205 0.660433
0.118632 0.090926 0.080889
0.118677 0.091555 0.081048
0.119117 0.092882 0.081255
0.120386 0.093405 0.081385
0.129467 0.099913 0.081721
0.142972 0.098732 0.081849
0.175810 0.102392 0.082598
0.241426 0.108444 0.083932
0.296193 0.109602 0.084560
0.364592 0.113836 0.085630
0.456942 0.122866 0.087387
0.527524 0.127592 0.088603
0.596717 0.131402 0.090145
0.672014 0.137459 0.092299
0.749881 0.146609 0.095216
0.796139 0.151912 0.097625
0.828458 0.157547 0.099946
0.853343 0.165151 0.102753
0.875351 0.175529 0.106423
0.894617 0.180810 0.109037
0.905331 0.186493 0.111949
0.913438 0.193207 0.115415
0.920916 0.198945 0.119698
0.928023 0.200544 0.123844
0.933249 0.202620 0.129716
0.937854 0.203431 0.138135
0.943634 0.194063 0.153192
0.946113 0.188552 0.205503
0.949250 0.142113 0.507915
0.949250 0.142022 0.507873
0.949250 0.142016 0.507871
0.949250 0.142032 0.507869
0.950399 0.387209 0.660433
0.118701 0.105096 0.081272
0.118860 0.106061 0.081362
0.119128 0.109110 0.081505
0.120358 0.111485 0.081708
0.125023 0.112667 0.082102
0.132106 0.109389 0.082302
0.152436 0.114588 0.083160
0.190352 0.121741 0.084612
0.236667 0.121257 0.085254
0.304514 0.124732 0.086244
0.396851 0.134288 0.088040
0.468486 0.138266 0.089489
0.537035 0.141741 0.090964
0.616302 0.148361 0.092973
0.701852 0.158718 0.096000
0.766743 0.163546 0.098273
0.812729 0.168833 0.100482
0.841617 0.176347 0.103189
0.866815 0.186463 0.106822
0.888350 0.191117 0.109339
0.902503 0.196320 0.112154
0.911431 0.202670 0.115515
0.919505 0.208169 0.119670
0.927051 0.209564 0.123624
0.932580 0.211460 0.129145
0.937388 0.212183 0.136702
0.943316 0.202862 0.149072
0.946019 0.196980 0.188983
0.949250 0.142139 0.507926
0.949250 0.142025 0.507874
0.949250 0.142017 0.507871
0.949250 0.142129 0.507869
0.950399 0.387210 0.660432
0.118832 0.114274 0.081422
0.118924 0.114954 0.081474
0.119117 0.118233 0.081577
0.119692 0.121332 0.081828
0.122211 0.123445 0.082223
0.127916 0.124547 0.082809
0.140868 0.131495 0.083844
0.167143 0.140012 0.085547
0.193112 0.137206 0.085959
0.247058 0.139907 0.086962
0.332002 0.149337 0.088925
0.402027 0.152985 0.090639
0.472043 0.156094 0.092044
0.552894 0.162353 0.093908
0.646654 0.173665 0.097076
0.721329 0.179335 0.099180
0.779111 0.185317 0.101248
0.821167 0.193993 0.103826
0.851811 0.203424 0.107412
0.877430 0.206872 0.109797
0.897626 0.211148 0.112481
0.908024 0.216845 0.115702
0.917140 0.221903 0.119707
0.925435 0.222950 0.123430
0.931480 0.224555 0.128546
0.936627 0.225145 0.135217
0.942788 0.216023 0.145324
0.945864 0.209673 0.172258
0.949250 0.142194 0.507948
0.949250 0.142031 0.507877
0.949250 0.142020 0.507873
0.950399 0.387092 0.507870
0.950399 0.387211 0.660432
0.119040 0.135403 0.081712
0.119097 0.136034 0.081763
0.119141 0.139499 0.082071
0.119784 0.143662 0.082515
0.122037 0.147246 0.083243
0.126803 0.149605 0.083921
0.134578 0.150921 0.084862
0.153948 0.162723 0.086515
0.172766 0.157674 0.086916
0.204639 0.159571 0.087814
0.276564 0.171360 0.090339
0.341845 0.174587 0.091957
0.406394 0.175836 0.093128
0.484598 0.182072 0.094951
0.578619 0.193936 0.098388
0.657622 0.199602 0.100386
0.735981 0.203118 0.102257
0.795668 0.210095 0.104686
0.834646 0.220639 0.108231
0.862608 0.225403 0.110467
0.885599 0.231365 0.112989
0.902025 0.237725 0.116030
0.913050 0.242373 0.119878
0.922669 0.242893 0.123348
0.929628 0.244120 0.128045
0.935361 0.244542 0.134027
0.941899 0.235378 0.142116
0.945601 0.228493 0.159803
0.949251 0.142335 0.508002
0.949250 0.142044 0.507883
0.949250 0.142026 0.507876
0.950399 0.387203 0.507871
0.950399 0.387211 0.660432
0.119123 0.165029 0.082418
0.119131 0.165768 0.082507
0.119353 0.170545 0.083042
0.120105 0.176177 0.083764
0.122180 0.181916 0.084623
0.126613 0.186517 0.085661
0.133312 0.189527 0.086535
0.146138 0.191355 0.087502
0.160477 0.184266 0.087837
0.183924 0.185851 0.088934
0.235042 0.198724 0.091852
0.291667 0.200250 0.093306
0.349819 0.200115 0.094382
0.422247 0.205513 0.096564
0.511240 0.216681 0.099814
0.590946 0.220377 0.101638
0.672346 0.223975 0.103421
0.752204 0.231653 0.105919
0.810783 0.242243 0.109297
0.845422 0.245279 0.111365
0.873432 0.250191 0.113739
0.895862 0.257554 0.116696
0.908143 0.265032 0.120353
0.918580 0.268969 0.123536
0.926284 0.274354 0.127793
0.933112 0.274423 0.133180
0.940294 0.266615 0.140029
0.944691 0.258862 0.152425
0.949253 0.142956 0.508186
0.949250 0.142092 0.507904
0.949250 0.142044 0.507885
0.950399 0.387209 0.507875
0.950399 0.387211 0.660432
0.119139 0.183108 0.082925
0.119145 0.183701 0.083043
0.119390 0.187102 0.083491
0.120010 0.192940 0.084176
0.121590 0.198945 0.085115
0.124733 0.204007 0.085990
0.130220 0.208082 0.086989
0.138761 0.210664 0.087853
0.152375 0.212390 0.088956
0.171065 0.214049 0.090487
0.205883 0.227856 0.093377
0.253884 0.228421 0.094686
0.305094 0.227114 0.096088
0.368604 0.231319 0.098235
0.451598 0.242394 0.101397
0.524237 0.245243 0.103084
0.604509 0.248483 0.104749
0.691672 0.255827 0.107286
0.772216 0.266431 0.110527
0.821923 0.270480 0.112458
0.853627 0.276896 0.114699
0.882275 0.282327 0.117631
0.902406 0.288447 0.121090
0.914799 0.291010 0.124070
0.923773 0.295297 0.128095
0.930874 0.300452 0.133018
0.938176 0.301285 0.139266
0.942871 0.303703 0.149138
0.949313 0.160701 0.510270
0.949252 0.142710 0.508118
0.949250 0.142168 0.507942
0.950399 0.387211 0.507892
0.950399 0.387211 0.660432
0.119281 0.209531 0.083804
0.119331 0.210035 0.083893
0.119524 0.212656 0.084301
0.120154 0.218345 0.085103
0.121533 0.224285 0.085957
0.124312 0.230173 0.086899
0.128769 0.234822 0.087848
0.135522 0.238388 0.088986
0.146959 0.241180 0.090533
0.162229 0.243218 0.092015
0.189712 0.259853 0.094831
0.223574 0.260152 0.096649
0.269246 0.257542 0.097889
0.327315 0.261166 0.099976
0.400274 0.272868 0.103039
0.467296 0.274635 0.104595
0.540011 0.276598 0.106385
0.626739 0.282945 0.108787
0.719390 0.294460 0.111932
0.787123 0.297891 0.113726
0.833451 0.301569 0.115778
0.865369 0.308979 0.118751
0.891948 0.316995 0.122037
0.908566 0.319555 0.124860
0.919763 0.321901 0.128583
0.928284 0.325444 0.133157
0.936570 0.325192 0.138749
0.941856 0.326321 0.147309
0.946277 0.326229 0.162034
0.947996 0.328680 0.209114
0.949761 0.329711 0.461514
0.950399 0.387213 0.511027
0.950399 0.387212 0.660431
0.119567 0.250235 0.085397
0.119606 0.250766 0.085495
0.119880 0.253312 0.085861
0.120580 0.260202 0.086630
0.122147 0.266971 0.087526
0.124703 0.273421 0.088593
0.129041 0.279816 0.090220
0.135353 0.284902 0.091864
0.146010 0.288859 0.093370
0.160280 0.291660 0.094871
0.179179 0.293874 0.096866
0.203825 0.293860 0.098517
0.242216 0.290570 0.099744
0.292096 0.293803 0.101709
0.358225 0.305929 0.104727
0.418833 0.306472 0.106438
0.485004 0.307169 0.108061
0.564587 0.312569 0.110337
0.657946 0.323473 0.113424
0.741107 0.325153 0.115076
0.804639 0.329552 0.117164
0.843916 0.337860 0.120072
0.877228 0.344338 0.123149
0.901738 0.347602 0.125888
0.914286 0.353279 0.129344
0.923935 0.360343 0.133550
0.933925 0.358675 0.138588
0.940232 0.358233 0.146008
0.945790 0.356685 0.157335
0.947712 0.356288 0.186946
0.949659 0.341697 0.398063
0.950399 0.387214 0.520763
0.950399 0.387218 0.524266
0.119809 0.279898 0.086383
0.119883 0.280372 0.086477
0.120160 0.282523 0.086827
0.120736 0.288583 0.087510
0.122178 0.294910 0.088378
0.124516 0.302196 0.089859
0.128295 0.309357 0.091597
0.133424 0.314619 0.093162
0.142670 0.319086 0.094660
0.154645 0.322606 0.096609
0.170814 0.325156 0.098520
0.191821 0.327304 0.100421
0.219493 0.323310 0.101478
0.265641 0.326775 0.103457
0.326039 0.339596 0.106658
0.378158 0.339027 0.108241
0.438668 0.339173 0.109830
0.510562 0.344688 0.112023
0.598703 0.355609 0.114902
0.681315 0.356599 0.116520
0.762006 0.361154 0.118775
0.820356 0.366839 0.121499
0.857688 0.374236 0.124499
0.889343 0.378760 0.127148
0.908096 0.382396 0.130371
0.919989 0.388505 0.134384
0.930808 0.391604 0.138993
0.937759 0.396981 0.145454
0.944314 0.398403 0.154848
0.947220 0.394806 0.173739
0.949416 0.367867 0.310054
0.950399 0.387219 0.520812
0.950399 0.387225 0.527578
0.120079 0.306518 0.087226
0.120140 0.306929 0.087306
0.120369 0.308711 0.087600
0.120907 0.313230 0.088194
0.122252 0.319584 0.089356
0.124367 0.326560 0.090928
0.127551 0.333558 0.092502
0.132027 0.340209 0.094066
0.139548 0.346148 0.095855
0.150095 0.350727 0.097812
0.163467 0.354035 0.099689
0.180937 0.356406 0.101451
0.204351 0.358585 0.103247
0.243983 0.361896 0.105171
0.297740 0.374325 0.108589
0.345904 0.373460 0.110092
0.399295 0.372911 0.111551
0.465587 0.377851 0.113719
0.545911 0.389206 0.116653
0.623766 0.389519 0.118294
0.708326 0.393427 0.120354
0.784524 0.400529 0.123032
0.834759 0.409779 0.126106
0.872800 0.412018 0.128517
0.899856 0.418232 0.131572
0.913703 0.426996 0.135455
0.927067 0.427487 0.139773
0.935493 0.430362 0.145618
0.942706 0.434399 0.153814
0.946559 0.439999 0.168031
0.948489 0.452461 0.203898
0.950399 0.387296 0.520871
0.950399 0.387276 0.532365
0.120401 0.339776 0.088302
0.120453 0.340180 0.088402
0.120646 0.341881 0.088766
0.121327 0.346154 0.089632
0.122616 0.353649 0.091014
0.124518 0.359955 0.092439
0.127445 0.366572 0.093920
0.131593 0.373223 0.095728
0.138043 0.379722 0.097801
0.147478 0.385199 0.099722
0.159507 0.389796 0.101545
0.174965 0.393524 0.103357
0.194780 0.396284 0.105098
0.224891 0.398796 0.107082
0.275112 0.413626 0.110390
0.320171 0.412756 0.111921
0.367260 0.411202 0.113301
0.427130 0.415780 0.115326
0.500581 0.427139 0.118505
0.571880 0.427309 0.120161
0.653049 0.430270 0.122114
0.740325 0.436724 0.124710
0.809446 0.444003 0.127726
0.851640 0.447338 0.130032
0.885663 0.453304 0.132997
0.907213 0.459177 0.136843
0.922228 0.462810 0.140866
0.931845 0.468986 0.146133
0.940610 0.470640 0.153329
0.946003 0.473289 0.164866
0.948183 0.481181 0.190202
0.949586 0.496921 0.301170
0.950366 0.524478 0.536048
0.120830 0.382871 0.090469
0.120916 0.383284 0.090588
0.121265 0.384971 0.091020
0.121953 0.388968 0.091847
0.123336 0.397509 0.093174
0.125043 0.404133 0.094466
0.127906 0.412841 0.096436
0.131842 0.420988 0.098475
0.137980 0.428528 0.100533
0.146970 0.434675 0.102484
0.158469 0.439913 0.104390
0.172835 0.444016 0.106370
0.191382 0.447234 0.108382
0.218084 0.449858 0.110265
0.257162 0.452098 0.112182
0.296635 0.450848 0.113602
0.341300 0.449667 0.115015
0.394956 0.453737 0.117137
0.462470 0.463922 0.120380
0.525583 0.463465 0.121925
0.602145 0.466018 0.123862
0.688257 0.472189 0.126584
0.771221 0.478854 0.129444
0.827539 0.482672 0.131632
0.867463 0.487258 0.134510
0.898304 0.495040 0.138462
0.916330 0.498503 0.142243
0.928357 0.502221 0.147085
0.938032 0.507814 0.153550
0.944667 0.515022 0.163048
0.947686 0.519509 0.181575
0.949331 0.527507 0.241349
0.950333 0.532346 0.525599
0.121274 0.417463 0.091856
0.121356 0.417841 0.091961
0.121660 0.419352 0.092342
0.122251 0.422814 0.093068
0.123499 0.429797 0.094219
0.125179 0.436723 0.095807
0.127922 0.445483 0.097901
0.131379 0.452122 0.099768
0.136691 0.459304 0.101736
0.144802 0.466198 0.103737
0.154835 0.471801 0.105686
0.167754 0.476469 0.107729
0.184034 0.480524 0.109714
0.205566 0.483579 0.111619
0.239569 0.486235 0.113438
0.278124 0.488531 0.115277
0.319398 0.487168 0.116675
0.367788 0.491222 0.119035
0.429739 0.501698 0.122262
0.488085 0.501061 0.123769
0.556338 0.502798 0.125742
0.638524 0.508607 0.128431
0.726996 0.515058 0.131210
0.798526 0.518042 0.133367
0.845821 0.523133 0.136244
0.882815 0.530764 0.140204
0.909331 0.533855 0.143759
0.923276 0.539975 0.148297
0.934991 0.544583 0.154259
0.943039 0.548726 0.162533
0.947115 0.557682 0.177415
0.948875 0.572411 0.212665
0.950188 0.561440 0.457266
0.121674 0.450790 0.093119
0.121747 0.451108 0.093212
0.122013 0.452361 0.093550
0.122540 0.455150 0.094192
0.123692 0.460648 0.095391
0.125391 0.468318 0.097190
0.127674 0.475046 0.099000
0.130947 0.482618 0.100922
0.135615 0.490260 0.102858
0.142941 0.497228 0.104788
0.152009 0.503437 0.106940
0.163435 0.508757 0.108970
0.178237 0.513386 0.110908
0.196129 0.517081 0.112818
0.223114 0.520097 0.114639
0.260331 0.522755 0.116425
0.299922 0.525176 0.118530
0.345167 0.529279 0.120838
0.401738 0.539405 0.124068
0.455367 0.538545 0.125673
0.517232 0.540239 0.127666
0.593416 0.545512 0.130263
0.678764 0.551879 0.133076
0.761836 0.554373 0.135156
0.822278 0.559672 0.138256
0.864218 0.566354 0.142090
0.900341 0.570732 0.145444
0.917531 0.575650 0.149707
0.931346 0.581175 0.155274
0.940545 0.588045 0.162621
0.946491 0.594322 0.174928
0.948574 0.604045 0.200837
0.949852 0.623233 0.326290
0.122131 0.488405 0.094580
0.122196 0.488707 0.094664
0.122432 0.489878 0.095061
0.123032 0.492408 0.095873
0.124039 0.497208 0.097148
0.125851 0.505719 0.098969
0.127798 0.511149 0.100565
0.131052 0.519656 0.102538
0.135278 0.527030 0.104407
0.141965 0.533882 0.106488
0.150444 0.540557 0.108637
0.161104 0.546469 0.110686
0.174538 0.551713 0.112699
0.190953 0.555740 0.114518
0.214373 0.559359 0.116415
0.247904 0.562276 0.118493
0.284398 0.564828 0.120515
0.326980 0.567356 0.122582
0.377544 0.577479 0.125980
0.427149 0.576668 0.127552
0.484334 0.577889 0.129480
0.553235 0.583083 0.132073
0.633840 0.589189 0.134963
0.717875 0.591360 0.137219
0.792244 0.596724 0.140307
0.843237 0.603055 0.144074
0.886045 0.607453 0.147211
0.910423 0.612405 0.151378
0.926544 0.619487 0.156562
0.938059 0.623699 0.163293
0.945754 0.631981 0.173889
0.948093 0.644645 0.193877
0.949661 0.657323 0.268302
0.122711 0.531361 0.096917
0.122791 0.531658 0.097026
0.123083 0.532794 0.097419
0.123641 0.535173 0.098162
0.124535 0.539508 0.099322
0.126319 0.547107 0.100992
0.128286 0.553487 0.102619
0.131367 0.561551 0.104505
0.135371 0.568799 0.106605
0.141997 0.576737 0.108809
0.150151 0.583863 0.110909
0.160325 0.590309 0.113022
0.172777 0.595721 0.114987
0.188266 0.600435 0.117006
0.209199 0.604317 0.119139
0.241153 0.607851 0.121337
0.275494 0.610712 0.123389
0.314897 0.613077 0.125515
0.357249 0.615708 0.127804
0.402549 0.615017 0.129326
0.455608 0.616477 0.131245
0.518239 0.621142 0.133931
0.593163 0.627054 0.136997
0.673088 0.629110 0.139312
0.757817 0.633782 0.142389
0.821031 0.640188 0.146077
0.867502 0.644178 0.149007
0.901679 0.650013 0.153190
0.921416 0.655617 0.157934
0.934749 0.661609 0.164265
0.944223 0.669937 0.173721
0.947703 0.678795 0.190243
0.949421 0.696160 0.236847
0.123021 0.566604 0.098109
0.123094 0.566871 0.098209
0.123359 0.567880 0.098574
0.123864 0.569965 0.099260
0.124667 0.573693 0.100328
0.126296 0.580078 0.101856
0.128297 0.587267 0.103557
0.130966 0.593716 0.105351
0.134706 0.601722 0.107534
0.140829 0.609507 0.109708
0.148027 0.616159 0.111725
0.157199 0.622795 0.113781
0.168749 0.628786 0.115785
0.182850 0.634010 0.117966
0.200572 0.638563 0.120167
0.227058 0.642301 0.122254
0.261096 0.645597 0.124405
0.297015 0.648582 0.126653
0.337197 0.651038 0.128783
0.381295 0.653833 0.131006
0.430397 0.654936 0.132954
0.488646 0.659778 0.135715
0.556846 0.665298 0.139091
0.631932 0.667321 0.141366
0.716612 0.671678 0.144439
0.792438 0.677529 0.148014
0.846892 0.681491 0.151012
0.888464 0.687366 0.155030
0.914802 0.693037 0.159531
0.930704 0.699391 0.165412
0.942226 0.706645 0.173930
0.947160 0.716594 0.188041
0.949199 0.727328 0.221122
0.123325 0.603622 0.099324
0.123391 0.603869 0.099418
0.123634 0.604797 0.099758
0.124096 0.606684 0.100399
0.124840 0.609986 0.101393
0.126353 0.615500 0.102809
0.128438 0.623464 0.104606
0.130789 0.628812 0.106383
0.134478 0.637551 0.108666
0.139596 0.643688 0.110596
0.146642 0.651264 0.112719
0.155378 0.658455 0.114805
0.165913 0.664411 0.116879
0.178908 0.669799 0.119107
0.194912 0.674752 0.121341
0.218022 0.679025 0.123481
0.249393 0.682485 0.125691
0.282601 0.685595 0.127938
0.321548 0.688649 0.130159
0.361251 0.691194 0.132282
0.408339 0.694093 0.134601
0.462539 0.698076 0.137632
0.524325 0.703656 0.141013
0.594700 0.705826 0.143375
0.675228 0.709744 0.146378
0.760728 0.715109 0.150023
0.825456 0.717976 0.152990
0.870651 0.721849 0.156805
0.906670 0.726439 0.161291
0.926053 0.730525 0.166614
0.939633 0.736593 0.174486
0.946615 0.743226 0.186824
0.948949 0.754161 0.212664
0.123660 0.642692 0.100689
0.123722 0.642931 0.100777
0.123946 0.643825 0.101099
0.124372 0.645614 0.101704
0.125144 0.648670 0.102638
0.126523 0.653628 0.103964
0.128591 0.661580 0.105953
0.130853 0.667093 0.107718
0.133942 0.674420 0.109804
0.139157 0.681729 0.111873
0.145958 0.689534 0.114009
0.153610 0.696022 0.115988
0.163642 0.702653 0.118335
0.176093 0.708600 0.120649
0.191100 0.713744 0.122836
0.211559 0.717329 0.125174
0.240702 0.720186 0.127477
0.272484 0.722662 0.129731
0.308190 0.724819 0.131933
0.347046 0.727051 0.134289
0.389805 0.728972 0.136714
0.439341 0.731119 0.139408
0.497116 0.734699 0.142850
0.560936 0.736477 0.145131
0.636986 0.739109 0.148151
0.722794 0.742940 0.152001
0.800463 0.745949 0.154874
0.851407 0.749514 0.158567
0.897231 0.753926 0.163042
0.920211 0.757978 0.167923
0.936677 0.763560 0.175202
0.945963 0.770140 0.186186
0.948666 0.780863 0.207422
0.123891 0.683345 0.101805
0.123949 0.683572 0.101890
0.124159 0.684413 0.102198
0.124556 0.686077 0.102776
0.125338 0.688870 0.103668
0.126612 0.693302 0.104983
0.128493 0.700234 0.106961
0.130905 0.706826 0.108909
0.133639 0.713078 0.110842
0.138935 0.719535 0.113089
0.144825 0.724269 0.115027
0.152590 0.729706 0.117281
0.162344 0.734948 0.119778
0.173515 0.739123 0.122034
0.187459 0.743040 0.124275
0.205339 0.746579 0.126710
0.232056 0.749696 0.129118
0.263578 0.752354 0.131421
0.296983 0.754661 0.133772
0.334665 0.756692 0.136211
0.374485 0.758822 0.138956
0.420419 0.760823 0.141707
0.472619 0.762992 0.144493
0.530663 0.764767 0.146737
0.601919 0.767120 0.149793
0.683856 0.770471 0.153752
0.769686 0.773558 0.156550
0.831252 0.776847 0.160347
0.881025 0.781016 0.164708
0.913125 0.784782 0.169280
0.933138 0.789405 0.175917
0.944801 0.795474 0.185931
0.948414 0.804134 0.204056
0.123822 0.721613 0.102062
0.123876 0.721759 0.102144
0.124075 0.722299 0.102443
0.124451 0.723360 0.103003
0.125140 0.725125 0.103866
0.126336 0.727892 0.105164
0.128006 0.732159 0.107072
0.130581 0.737416 0.109251
0.132950 0.741242 0.111063
0.137752 0.746918 0.113335
0.143404 0.751545 0.115318
0.151026 0.757051 0.117727
0.159369 0.761469 0.120047
0.170305 0.766149 0.122466
0.183676 0.770376 0.124897
0.199333 0.773832 0.127276
0.222218 0.776971 0.129685
0.252895 0.779734 0.132016
0.284348 0.782059 0.134452
0.320541 0.784058 0.137020
0.357939 0.785925 0.139763
0.400507 0.787798 0.142522
0.449174 0.789794 0.145330
0.504758 0.791935 0.148109
0.569978 0.793688 0.151325
0.647340 0.796340 0.155253
0.735596 0.799247 0.157961
0.810255 0.801910 0.161892
0.862728 0.805555 0.166035
0.904818 0.809255 0.170738
0.928780 0.813673 0.176682
0.943000 0.818941 0.185530
0.948123 0.827483 0.201577
0.123756 0.750214 0.102379
0.123808 0.750352 0.102459
0.123998 0.750861 0.102750
0.124354 0.751850 0.103294
0.124961 0.753473 0.104132
0.126091 0.755968 0.105429
0.127660 0.759733 0.107275
0.130344 0.765436 0.109715
0.132458 0.768818 0.111432
0.136564 0.773648 0.113565
0.142450 0.778993 0.115800
0.149027 0.783356 0.118114
0.157442 0.787905 0.120622
0.167845 0.792206 0.123101
0.179788 0.795850 0.125524
0.194678 0.799314 0.128045
0.215799 0.802360 0.130509
0.244647 0.804929 0.132980
0.274766 0.807172 0.135413
0.308467 0.809183 0.138236
0.344294 0.811030 0.141003
0.383947 0.812824 0.143818
0.429154 0.814591 0.146565
0.480803 0.816643 0.149422
0.540902 0.818817 0.152555
0.613471 0.820913 0.156478
0.698527 0.824099 0.159143
0.780444 0.826258 0.163051
0.843526 0.829696 0.167128
0.894370 0.833133 0.171563
0.923474 0.837445 0.177337
0.940874 0.842317 0.185188
0.947800 0.848433 0.199463
0.123581 0.778339 0.102458
0.123631 0.778471 0.102537
0.123814 0.778955 0.102824
0.124157 0.779889 0.103362
0.124693 0.781340 0.104190
0.125736 0.783440 0.105478
0.127235 0.786545 0.107298
0.129647 0.791150 0.109700
0.132051 0.794977 0.111735
0.135499 0.798873 0.113766
0.141712 0.804338 0.116295
0.147489 0.808004 0.118549
0.156057 0.812862 0.121271
0.165046 0.816575 0.123582
0.177149 0.820591 0.126301
0.191274 0.824050 0.128864
0.209622 0.827033 0.131330
0.236097 0.829644 0.133899
0.265780 0.831864 0.136574
0.297597 0.833860 0.139474
0.332981 0.835659 0.142391
0.369798 0.837384 0.145266
0.412403 0.839058 0.148056
0.460227 0.840764 0.151000
0.515274 0.842816 0.154185
0.582264 0.844989 0.157338
0.662707 0.847447 0.159989
0.750937 0.848660 0.163900
0.823705 0.850806 0.167735
0.877621 0.852927 0.172135
0.916760 0.855615 0.177508
0.938319 0.858790 0.184671
0.947554 0.863585 0.197734
0.122645 0.809522 0.100549
0.122696 0.809617 0.100633
0.122880 0.809963 0.100938
0.123229 0.810630 0.101509
0.123772 0.811701 0.102391
0.124551 0.813314 0.103636
0.125975 0.815702 0.105436
0.128061 0.819278 0.108024
0.130949 0.823250 0.110634
0.133561 0.826406 0.112653
0.138856 0.830775 0.115159
0.145132 0.834902 0.117692
0.152593 0.838865 0.120308
0.161945 0.842849 0.122938
0.173102 0.846064 0.125644
0.185982 0.848291 0.128267
0.202839 0.850391 0.130914
0.226253 0.852139 0.133514
0.255604 0.853574 0.136143
0.285482 0.854867 0.139082
0.319856 0.856056 0.142018
0.354945 0.857179 0.144935
0.395072 0.858294 0.147774
0.440355 0.859448 0.150723
