LUTs/velvia/Velvia50_Modern_Punchy.cube
TITLE "Velvia 50 Modern Punchy"
# Adobe RGB in/out. REPLACES AgX. Velvia 50 Modern Punchy.
LUT_3D_SIZE 9
DOMAIN_MIN 0.0 0.0 0.0
DOMAIN_MAX 1.0 1.0 1.0
0.098723 0.087547 0.082196
0.123644 0.087547 0.082196
0.891618 0.087685 0.082196
0.984783 0.088359 0.082200
0.991895 0.091407 0.082243
0.991895 0.099607 0.082315
0.991895 0.104112 0.082658
0.991895 0.088891 0.900102
0.991895 0.629417 0.954738
0.098723 0.087727 0.082196
0.098734 0.087692 0.082196
0.207608 0.087970 0.082196
0.950768 0.089903 0.082198
0.989683 0.096356 0.082240
0.991895 0.110138 0.082304
0.991895 0.119394 0.082567
0.991895 0.088784 0.894263
0.991895 0.619438 0.952720
0.098723 0.148959 0.082196
0.098723 0.131544 0.082196
0.101174 0.100639 0.082196
0.294800 0.112996 0.082202
0.946193 0.170245 0.082239
0.988563 0.260127 0.082288
0.991895 0.313543 0.082471
0.991895 0.090032 0.877693
0.991895 0.580367 0.946142
0.098723 0.650876 0.082196
0.098736 0.630186 0.082196
0.100163 0.544597 0.082209
0.118634 0.436454 0.082220
0.542045 0.468069 0.082247
0.958351 0.561797 0.082293
0.988820 0.636204 0.082438
0.991895 0.664456 0.082847
0.991895 0.515601 0.856577
0.098723 0.908899 0.082211
0.098802 0.903381 0.082218
0.099835 0.889344 0.082235
0.107348 0.866530 0.082253
0.225649 0.834751 0.082270
0.778824 0.835667 0.082317
0.973678 0.863464 0.082452
0.989935 0.879025 0.082731
0.991895 0.908885 0.195725
0.098747 0.965289 0.082227
0.098831 0.964696 0.082232
0.099617 0.963880 0.082256
0.103429 0.959272 0.082277
0.148964 0.951309 0.082319
0.475990 0.943513 0.082371
0.916310 0.941880 0.082490
0.984758 0.949701 0.082718
0.990275 0.958769 0.084816
0.098723 0.983159 0.082228
0.098789 0.982707 0.082233
0.099180 0.982084 0.082259
0.101590 0.980703 0.082292
0.119646 0.978174 0.082352
0.277425 0.975124 0.082449
0.770800 0.972992 0.082541
0.967778 0.972429 0.082724
0.988447 0.975606 0.083568
0.098723 0.989221 0.082196
0.098723 0.989087 0.082196
0.098829 0.988807 0.082227
0.100121 0.988537 0.082265
0.107730 0.988092 0.082323
0.184601 0.987437 0.082420
0.531915 0.986842 0.082522
0.927013 0.986479 0.082661
0.987079 0.986614 0.082955
0.098723 0.988371 0.082196
0.098723 0.988263 0.082196
0.098723 0.990339 0.082196
0.098723 0.989917 0.082196
0.100745 0.990609 0.082215
0.123264 0.990009 0.082258
0.282044 0.989471 0.082293
0.753586 0.989146 0.082333
0.986408 0.989062 0.082344
0.098723 0.087547 0.082404
0.127835 0.087547 0.179203
0.924276 0.087728 0.083689
0.986896 0.088446 0.082785
0.991895 0.091331 0.082547
0.991895 0.099150 0.082635
0.991895 0.104261 0.083441
0.991895 0.088835 0.896979
0.991895 0.624242 0.953693
0.098723 0.087660 0.082246
0.099151 0.087630 0.082241
0.484255 0.087959 0.082334
0.970363 0.089893 0.082477
0.990608 0.095777 0.082478
0.991895 0.108537 0.082556
0.991895 0.119038 0.083064
0.991895 0.088731 0.891170
0.991895 0.614344 0.951683
0.098723 0.112057 0.082269
0.098938 0.101576 0.082262
0.104477 0.092821 0.082251
0.543703 0.103279 0.082291
0.964234 0.155451 0.082358
0.989134 0.245621 0.082479
0.991895 0.303442 0.082757
0.991895 0.090501 0.876128
0.991895 0.573399 0.945136
0.098788 0.577850 0.082272
0.098955 0.544610 0.082275
0.101257 0.449728 0.082278
0.140621 0.351547 0.082285
0.674161 0.415868 0.082334
0.965720 0.532158 0.082443
0.989008 0.621447 0.082644
0.991895 0.656796 0.083410
0.991895 0.509652 0.935370
0.098837 0.889679 0.082267
0.098948 0.884192 0.082274
0.100348 0.874073 0.082305
0.112114 0.842741 0.082335
0.266460 0.810104 0.082377
0.832035 0.819405 0.082457
0.976525 0.854858 0.082627
0.989866 0.877474 0.082972
0.991895 0.907651 0.338133
0.098846 0.963529 0.082265
0.098924 0.962784 0.082271
0.099974 0.960843 0.082311
0.105148 0.954697 0.082364
0.166860 0.946761 0.082447
0.541735 0.938312 0.082528
0.927852 0.938362 0.082663
0.985146 0.947998 0.082917
0.990154 0.958147 0.086474
0.098793 0.981999 0.082256
0.098857 0.981562 0.082262
0.099458 0.980923 0.082292
0.102105 0.979450 0.082362
0.123870 0.976858 0.082476
0.301680 0.973965 0.082576
0.800184 0.972042 0.082734
0.970557 0.971678 0.082897
0.988395 0.975315 0.084186
0.098723 0.989058 0.082200
0.098723 0.988932 0.082207
0.098881 0.988646 0.082247
0.100288 0.988352 0.082294
0.108698 0.987902 0.082394
0.192540 0.987263 0.082518
0.560869 0.986700 0.082663
0.934057 0.986108 0.082822
0.987109 0.986494 0.083325
0.098723 0.988616 0.082274
0.098723 0.988509 0.082273
0.098723 0.990501 0.082271
0.098723 0.990035 0.082267
0.100956 0.990547 0.082228
0.124652 0.989951 0.082275
0.289324 0.989425 0.082337
0.762772 0.989114 0.082394
0.986701 0.989046 0.082417
0.098723 0.087550 0.122810
0.103176 0.087701 0.934861
0.903740 0.088001 0.914583
0.987711 0.089755 0.843531
0.991895 0.093488 0.686764
0.991895 0.102337 0.666942
0.991895 0.109993 0.775996
0.991895 0.089594 0.903592
0.991895 0.613578 0.951536
0.098723 0.087961 0.123582
0.100895 0.088368 0.494483
0.675348 0.088853 0.552267
0.976024 0.091048 0.474254
0.991122 0.098119 0.433747
0.991895 0.113040 0.485144
0.991895 0.127380 0.645114
0.991895 0.089867 0.899208
0.991895 0.603721 0.949504
0.098822 0.095537 0.085764
0.099241 0.092740 0.084810
0.109100 0.090752 0.084067
0.733581 0.099651 0.088351
0.974892 0.146497 0.100756
0.989796 0.232494 0.129283
0.991895 0.293422 0.207522
0.991895 0.128654 0.876950
0.991895 0.558326 0.942922
0.099065 0.430103 0.085738
0.099740 0.398262 0.085360
0.103956 0.305386 0.084409
0.194423 0.238124 0.084059
0.843388 0.334485 0.085720
0.976839 0.485758 0.090112
0.989309 0.591287 0.098593
0.991895 0.641623 0.211748
0.991895 0.496080 0.933932
0.099477 0.855754 0.084865
0.099915 0.848539 0.084861
0.102434 0.824384 0.084784
0.131379 0.769303 0.084570
0.428968 0.713708 0.084621
0.916288 0.768685 0.086057
0.981223 0.834261 0.088391
0.989724 0.867168 0.101210
0.991840 0.905638 0.763148
0.099533 0.954373 0.084082
0.099845 0.952961 0.084153
0.101651 0.949863 0.084511
0.114766 0.941628 0.084765
0.237855 0.931113 0.084994
0.719027 0.923440 0.085521
0.954192 0.928922 0.086362
0.986051 0.941607 0.090273
0.989823 0.956492 0.165584
0.099163 0.978572 0.083089
0.099426 0.978136 0.083149
0.100431 0.977295 0.083528
0.106081 0.975546 0.084061
0.153825 0.973006 0.084475
0.429912 0.969880 0.085042
0.879653 0.968048 0.085874
0.977750 0.968781 0.087346
0.988241 0.974437 0.096505
0.098809 0.988226 0.082576
0.098865 0.988132 0.082618
0.099492 0.987963 0.082821
0.101774 0.987678 0.083116
0.117659 0.987224 0.083761
0.241464 0.986648 0.084252
0.674874 0.985284 0.084955
0.952479 0.984790 0.085923
0.987158 0.985865 0.087801
0.098723 0.988436 0.082273
0.098723 0.990650 0.082272
0.098723 0.990363 0.082270
0.098723 0.989908 0.082266
0.102097 0.990272 0.082389
0.134683 0.989716 0.082639
0.326697 0.989243 0.082838
0.810598 0.988985 0.082965
0.986902 0.988985 0.083106
0.098723 0.087702 0.761381
0.099531 0.088138 0.975025
0.828811 0.089890 0.979971
0.987276 0.095458 0.979586
0.991895 0.105538 0.968591
0.991895 0.122398 0.954997
0.991895 0.137851 0.953976
0.991895 0.108308 0.967683
0.991895 0.606560 0.962290
0.098723 0.088476 0.797838
0.100078 0.090366 0.940428
0.700174 0.095656 0.975243
0.980490 0.102655 0.963620
0.991895 0.116528 0.947136
0.991895 0.144042 0.940298
0.991895 0.163278 0.944331
0.991895 0.120070 0.963160
0.991895 0.593495 0.960493
0.098970 0.101984 0.467589
0.099992 0.103411 0.501615
0.141116 0.106367 0.630865
0.839874 0.122086 0.710939
0.978245 0.181258 0.787678
0.990116 0.264098 0.836934
0.991895 0.326221 0.886236
0.991895 0.346716 0.937626
0.991895 0.547176 0.954346
0.099548 0.321153 0.234021
0.100158 0.305922 0.218197
0.106222 0.243490 0.174541
0.231450 0.194277 0.150053
0.885650 0.316637 0.291019
0.978456 0.475986 0.471902
0.989163 0.585708 0.630058
0.991895 0.647913 0.851930
0.991895 0.484592 0.944327
0.100142 0.805155 0.197375
0.100526 0.797220 0.190061
0.105375 0.745130 0.170902
0.156956 0.664405 0.145886
0.549778 0.630684 0.138517
0.937506 0.709568 0.198763
0.982462 0.815441 0.327627
0.989328 0.859082 0.548839
0.991394 0.906306 0.916784
0.100282 0.941625 0.147180
0.100558 0.939733 0.146071
0.104033 0.935053 0.145725
0.127389 0.924756 0.140080
0.311708 0.907721 0.136632
0.811457 0.900390 0.142179
0.965048 0.914674 0.179346
0.986156 0.935332 0.283716
0.989416 0.955120 0.790190
0.100026 0.974458 0.111358
0.100254 0.974064 0.111941
0.102040 0.973188 0.115850
0.113266 0.971134 0.120482
0.200785 0.967651 0.124322
0.576423 0.965225 0.129161
0.920639 0.964719 0.137475
0.980693 0.965866 0.169449
0.987983 0.973506 0.467516
0.099021 0.987433 0.091600
0.099257 0.987362 0.092119
0.100269 0.987232 0.095190
0.104146 0.986941 0.099180
0.131160 0.986308 0.103561
0.303400 0.984595 0.107814
0.769905 0.983428 0.114327
0.964991 0.983339 0.124562
0.987089 0.985170 0.207562
0.098723 0.989236 0.086668
0.098723 0.990428 0.086591
0.098723 0.990153 0.086333
0.098893 0.990421 0.083701
0.105215 0.989818 0.087296
0.155437 0.989363 0.089511
0.398410 0.988978 0.091220
0.870996 0.988792 0.093034
0.986920 0.988917 0.100907
0.098723 0.088116 0.950200
0.098905 0.089365 0.981460
0.592451 0.097792 0.988217
0.984603 0.120099 0.988239
0.991895 0.179993 0.987981
0.991895 0.196658 0.983500
0.991895 0.206543 0.981009
0.991895 0.175045 0.980362
0.991895 0.606582 0.979979
0.098723 0.090121 0.954848
0.099298 0.093118 0.979803
0.459595 0.116579 0.987770
0.980587 0.171604 0.987981
0.991895 0.203860 0.984791
0.991895 0.228963 0.981311
0.991895 0.245608 0.979758
0.991895 0.203885 0.979754
0.991895 0.593075 0.979737
0.099583 0.180426 0.943649
0.100757 0.200181 0.953856
0.195184 0.248264 0.974366
0.908183 0.261204 0.971904
0.983049 0.299812 0.966339
0.991347 0.361348 0.964555
0.991895 0.411180 0.966758
0.991895 0.444614 0.973512
0.991895 0.545261 0.976990
0.099977 0.345087 0.796683
0.100549 0.344918 0.799557
0.112748 0.341749 0.818305
0.367907 0.344421 0.844851
0.921595 0.419103 0.875829
0.980993 0.531614 0.903860
0.989488 0.621139 0.932247
0.991895 0.681919 0.948475
0.991895 0.775283 0.968693
0.100464 0.730270 0.677937
0.101270 0.721042 0.671202
0.107599 0.687063 0.649019
0.180021 0.631308 0.622660
0.597931 0.595687 0.599469
0.945227 0.699417 0.720258
0.983032 0.814817 0.827793
0.989113 0.861305 0.899416
0.991113 0.911247 0.951209
0.100934 0.927316 0.609287
0.101620 0.925070 0.604603
0.106656 0.918433 0.595570
0.144152 0.903830 0.576899
0.373636 0.887402 0.559540
0.853673 0.881362 0.566617
0.968712 0.904240 0.643336
0.986016 0.931979 0.778069
0.989071 0.954890 0.930685
0.100528 0.970005 0.502559
0.101029 0.969544 0.501520
0.103913 0.968438 0.504025
0.120550 0.966116 0.504577
0.242791 0.964298 0.504166
0.671742 0.962691 0.510161
0.938316 0.962439 0.535907
0.981838 0.964673 0.611115
0.987687 0.972951 0.867658
0.099633 0.986734 0.351546
0.099849 0.986671 0.353228
0.101055 0.986453 0.370037
0.107106 0.985527 0.388374
0.151005 0.984145 0.407891
0.371025 0.982649 0.427835
0.834400 0.981782 0.449993
0.971771 0.982093 0.474281
0.986958 0.984779 0.689735
0.098723 0.989277 0.314900
0.098723 0.989388 0.309381
0.098723 0.989569 0.291493
0.099854 0.989773 0.179829
0.107604 0.989490 0.213668
0.175826 0.989089 0.239675
0.467273 0.988762 0.259349
0.902016 0.988617 0.272220
0.986878 0.988913 0.457366
0.098723 0.090400 0.984400
0.098865 0.092034 0.989393
0.344676 0.137816 0.991815
0.978857 0.203354 0.991852
0.991895 0.320309 0.991869
0.991895 0.342083 0.991067
0.991895 0.334615 0.987990
0.991895 0.303904 0.986528
0.991895 0.613396 0.984008
0.098744 0.094453 0.985017
0.098991 0.099760 0.989088
0.302803 0.185505 0.991734
0.975551 0.274283 0.991795
0.991895 0.393919 0.991750
0.991895 0.378519 0.990027
0.991895 0.373455 0.987657
0.991895 0.339892 0.985736
0.991895 0.602377 0.983523
0.099892 0.282585 0.985402
0.101032 0.328782 0.987972
0.242162 0.498459 0.991232
0.933833 0.498963 0.989952
0.986415 0.495248 0.987733
0.991895 0.506531 0.985248
0.991895 0.525026 0.983660
0.991895 0.548270 0.982928
0.991895 0.553090 0.981926
0.100468 0.491371 0.961423
0.101651 0.501093 0.964277
0.126274 0.544276 0.974724
0.565907 0.566127 0.976792
0.948833 0.596460 0.976523
0.984871 0.633934 0.976623
0.990531 0.685667 0.977365
0.991895 0.750177 0.978810
0.991895 0.828657 0.979759
0.101029 0.734024 0.920021
0.101915 0.731383 0.920331
0.111867 0.730374 0.925642
0.228668 0.709003 0.928907
0.757572 0.711942 0.931760
0.958826 0.781572 0.937139
0.984680 0.837586 0.948352
0.989366 0.873703 0.961457
0.991111 0.921094 0.975740
0.101529 0.910997 0.882995
0.102205 0.909585 0.882237
0.108480 0.905765 0.881507
0.158938 0.894765 0.879063
0.440943 0.879722 0.875753
0.868801 0.875059 0.873291
0.971205 0.903444 0.905193
0.986049 0.932823 0.934644
0.988921 0.956180 0.961005
0.101178 0.965741 0.845913
0.101725 0.965554 0.844790
0.105558 0.965124 0.844334
0.127941 0.964111 0.843265
0.273578 0.962123 0.842506
0.727174 0.958673 0.844349
0.945052 0.958725 0.856002
0.982169 0.964028 0.887236
0.987454 0.972842 0.944137
0.099924 0.985203 0.764187
0.100133 0.985024 0.763777
0.101714 0.984658 0.768480
0.109053 0.983823 0.772659
0.169430 0.982572 0.778333
0.439477 0.981252 0.786083
0.867731 0.980591 0.798145
0.975320 0.981220 0.816953
0.986799 0.984629 0.916028
0.098723 0.989090 0.550527
0.098723 0.989184 0.558214
0.098723 0.989315 0.586767
0.099969 0.989575 0.625099
0.108523 0.989287 0.638453
0.184156 0.988918 0.654857
0.506674 0.988616 0.666961
0.913651 0.988528 0.674293
0.986809 0.988934 0.858379
0.098742 0.098847 0.991900
0.098919 0.103474 0.992304
0.198421 0.219030 0.992487
0.974879 0.328190 0.992504
0.991895 0.461182 0.992512
0.991895 0.521148 0.992366
0.991895 0.483339 0.991803
0.991895 0.443478 0.991097
0.991895 0.624769 0.989238
0.098839 0.111030 0.991949
0.099008 0.123102 0.992293
0.198869 0.279508 0.992473
0.970165 0.405197 0.992494
0.991895 0.530040 0.992503
0.991895 0.545161 0.992249
0.991895 0.513699 0.991628
0.991895 0.483314 0.990856
0.991895 0.613964 0.988714
0.099992 0.369453 0.992025
0.100842 0.409899 0.992224
0.209156 0.578966 0.992406
0.948230 0.669666 0.992445
0.989080 0.649177 0.992096
0.991895 0.636578 0.991512
0.991895 0.629697 0.990570
0.991895 0.637580 0.988603
0.991895 0.567475 0.987742
0.101531 0.649392 0.988972
0.102749 0.657305 0.989507
0.146998 0.710268 0.990454
0.711317 0.735535 0.989625
0.966292 0.743565 0.988044
0.987474 0.759918 0.987391
0.991895 0.785043 0.986260
0.991895 0.812032 0.985598
0.991895 0.872742 0.985521
0.101833 0.807080 0.979135
0.102673 0.808759 0.979542
0.117965 0.820211 0.980032
0.302728 0.827144 0.980419
0.859609 0.833971 0.980092
0.970353 0.847407 0.979970
0.986352 0.866846 0.980344
0.990119 0.884950 0.981121
0.991404 0.931160 0.982229
0.102012 0.909708 0.959191
0.102647 0.909194 0.959484
0.111011 0.909322 0.961401
0.183052 0.905438 0.962991
0.557691 0.899450 0.962682
0.915527 0.901766 0.963221
0.976304 0.919524 0.968284
0.986615 0.938122 0.975937
0.989061 0.958801 0.979547
0.101467 0.964370 0.941180
0.102019 0.964259 0.941164
0.106561 0.964036 0.941896
0.133692 0.963322 0.943143
0.304124 0.960875 0.944225
0.765812 0.957553 0.944392
0.948453 0.955880 0.944276
0.982679 0.964145 0.957672
0.987401 0.973285 0.974986
0.099938 0.984063 0.923069
0.100153 0.983910 0.922709
0.101836 0.983599 0.923479
0.110255 0.982886 0.924819
0.177147 0.981782 0.927615
0.472847 0.980575 0.930523
0.884130 0.979976 0.932707
0.976156 0.980747 0.935744
0.986671 0.984712 0.963800
0.098723 0.988754 0.806761
0.098723 0.989010 0.804683
0.098723 0.989204 0.798778
0.099505 0.989559 0.881029
0.107758 0.989223 0.882427
0.180759 0.988870 0.884186
0.497353 0.988592 0.885881
0.912505 0.988552 0.886892
0.986751 0.988993 0.950907
0.098920 0.137733 0.992811
0.099157 0.150238 0.992843
0.250000 0.293229 0.992885
0.979166 0.413321 0.992892
0.991895 0.531489 0.992896
0.991895 0.619812 0.992848
0.991895 0.566498 0.992494
0.991895 0.514563 0.992202
0.991895 0.667364 0.991689
0.098988 0.173111 0.992807
0.099495 0.189629 0.992837
0.254728 0.354738 0.992880
0.977216 0.482623 0.992888
0.991895 0.594620 0.992893
0.991895 0.634641 0.992753
0.991895 0.595153 0.992425
0.991895 0.548480 0.992114
0.991895 0.664843 0.991609
0.100498 0.490326 0.992793
0.101831 0.512943 0.992814
0.284923 0.640671 0.992855
0.964666 0.734799 0.992868
0.991895 0.769791 0.992732
0.991895 0.731668 0.992446
0.991895 0.698765 0.992165
0.991895 0.684282 0.991719
0.991895 0.743327 0.991257
0.103443 0.803754 0.992539
0.106366 0.806335 0.992529
0.225677 0.831522 0.992474
0.866827 0.835825 0.992341
0.980426 0.831293 0.992114
0.990761 0.827706 0.991730
0.991895 0.826507 0.991347
0.991895 0.835587 0.990823
0.991895 0.886154 0.989861
0.103276 0.857620 0.990997
0.105390 0.859143 0.991009
0.141956 0.871759 0.990975
0.495022 0.875963 0.990625
0.931181 0.877199 0.989479
0.980705 0.878532 0.988399
0.988645 0.884285 0.987985
0.991289 0.897531 0.987850
0.991895 0.937740 0.987572
0.102557 0.922252 0.985153
0.103979 0.922459 0.985284
0.117394 0.926799 0.985606
0.234185 0.927274 0.985269
0.724646 0.927070 0.984533
0.949597 0.929012 0.983942
0.981596 0.934514 0.983784
0.987802 0.944290 0.984044
0.989489 0.961705 0.984592
0.101603 0.964196 0.979778
0.102142 0.964135 0.979799
0.107641 0.964225 0.980423
0.144814 0.963855 0.980947
0.364750 0.963013 0.980804
0.841179 0.961828 0.980243
0.963914 0.962801 0.980075
0.984679 0.965284 0.980924
0.987648 0.974122 0.982198
0.099615 0.984106 0.968487
0.099858 0.983944 0.968604
0.101418 0.983572 0.970129
0.109160 0.982898 0.972820
0.179055 0.981895 0.976038
0.507954 0.980809 0.977076
0.899237 0.980178 0.977463
0.976521 0.980135 0.977574
0.986672 0.985012 0.980433
0.098723 0.988170 0.937996
0.098723 0.989105 0.938277
0.098723 0.989046 0.941785
0.098963 0.989561 0.948072
0.104723 0.989361 0.948345
0.162733 0.988984 0.949833
0.441760 0.988734 0.951520
0.893720 0.988705 0.952190
0.986714 0.989085 0.979292
0.264449 0.132308 0.992930
0.506215 0.138010 0.992930
0.965274 0.166160 0.992930
0.991895 0.227799 0.992930
0.991895 0.318451 0.992930
0.991895 0.413037 0.992930
0.991895 0.319052 0.992831
0.991895 0.191733 0.992522
0.991895 0.649895 0.992191
0.264563 0.159767 0.992930
0.492547 0.167319 0.992930
0.963851 0.200729 0.992930
0.991895 0.273226 0.992930
0.991895 0.374990 0.992930
0.991895 0.442860 0.992930
0.991895 0.346920 0.992769
0.991895 0.213877 0.992476
0.991895 0.639173 0.992177
0.284396 0.392232 0.992930
0.485412 0.406120 0.992930
0.957398 0.461915 0.992930
0.991895 0.541465 0.992930
0.991895 0.612406 0.992930
0.991895 0.571972 0.992839
0.991895 0.503506 0.992564
0.991895 0.384775 0.992322
0.991895 0.604575 0.991929
0.305001 0.814531 0.992930
0.432624 0.812722 0.992930
0.918688 0.809181 0.992930
0.986828 0.802486 0.992828
0.991895 0.784744 0.992640
0.991895 0.752804 0.992442
0.991895 0.709523 0.992241
0.991895 0.676220 0.991903
0.991895 0.879591 0.991554
0.176276 0.874797 0.992424
0.216905 0.874282 0.992407
0.627735 0.873791 0.992348
0.959443 0.872519 0.992243
0.985809 0.868965 0.992039
0.990529 0.864621 0.991769
0.991895 0.859272 0.991511
0.991895 0.860414 0.991127
0.991895 0.927374 0.990729
0.118863 0.928961 0.991608
0.128004 0.928596 0.991577
0.250058 0.928205 0.991473
0.822658 0.927308 0.991194
0.965129 0.924998 0.990832
0.984482 0.923867 0.990015
0.988131 0.924345 0.989180
0.989851 0.928621 0.988508
0.990184 0.956492 0.987990
0.104488 0.964271 0.990237
0.106237 0.964147 0.990085
0.124730 0.963906 0.989566
0.339058 0.963414 0.988718
0.876963 0.962213 0.987987
0.968364 0.960923 0.987644
0.983934 0.960915 0.987031
0.987250 0.962540 0.986727
0.988254 0.972236 0.986619
0.099429 0.983651 0.987986
0.099686 0.983502 0.987987
0.101166 0.983167 0.987985
0.116574 0.982499 0.987860
0.304919 0.981331 0.987055
0.865541 0.980170 0.986209
0.971309 0.979550 0.985526
0.985115 0.979655 0.985217
0.987073 0.984044 0.985284
0.098723 0.987475 0.969501
0.098723 0.988983 0.977665
0.098723 0.988821 0.977245
0.098723 0.988772 0.976568
0.100542 0.989838 0.982537
0.132405 0.989281 0.985451
0.389874 0.988983 0.985195
0.902139 0.988957 0.984951
0.986711 0.989213 0.984895
