LUTs/velvia/Velvia50_Modern_IlfochromeM.cube
TITLE "Velvia 50 Modern IlfochromeM"
# Adobe RGB in/out. REPLACES AgX. Velvia 50 Modern IlfochromeM.
LUT_3D_SIZE 5
DOMAIN_MIN 0.0 0.0 0.0
DOMAIN_MAX 1.0 1.0 1.0
0.118305 0.082367 0.079686
0.707086 0.125119 0.089766
0.971268 0.227755 0.119883
0.977914 0.281643 0.172933
0.976445 0.527008 0.835520
0.120406 0.326872 0.088118
0.170997 0.271307 0.094480
0.817477 0.341348 0.118749
0.972279 0.405822 0.156179
0.974299 0.504695 0.816044
0.126891 0.721903 0.108613
0.151610 0.696923 0.117468
0.355587 0.626290 0.128819
0.895677 0.656529 0.154300
0.968928 0.721888 0.377212
0.128004 0.904098 0.115026
0.142210 0.899368 0.125001
0.255884 0.883186 0.144538
0.595975 0.863370 0.164122
0.957182 0.873325 0.211066
0.118317 0.933038 0.079918
0.118314 0.954483 0.080263
0.167155 0.957571 0.109871
0.391322 0.944612 0.134594
0.949218 0.939997 0.143160
0.119146 0.100920 0.337621
0.727602 0.157107 0.743901
0.971788 0.241764 0.550732
0.976703 0.292021 0.595891
0.975645 0.518597 0.829284
0.130983 0.251475 0.245437
0.220717 0.218764 0.220972
0.898830 0.325280 0.308077
0.971319 0.397627 0.381765
0.973491 0.496523 0.806729
0.146115 0.648194 0.234552
0.183783 0.617737 0.233243
0.449554 0.564294 0.230852
0.924131 0.625886 0.268823
0.968175 0.718473 0.589094
0.142003 0.884723 0.199684
0.162638 0.879799 0.210420
0.303628 0.863423 0.228748
0.690399 0.849333 0.246741
0.956376 0.868859 0.299311
0.118309 0.933630 0.129955
0.118315 0.954759 0.128910
0.180170 0.953716 0.148160
0.412518 0.942037 0.186762
0.951145 0.939126 0.200282
0.122377 0.165188 0.826692
0.506940 0.262186 0.952998
0.974957 0.347485 0.948749
0.977274 0.361666 0.908655
0.975286 0.514853 0.902232
0.147728 0.347751 0.808827
0.337666 0.377602 0.875065
0.931740 0.399521 0.859887
0.971637 0.442479 0.860800
0.972997 0.491591 0.882048
0.163310 0.570531 0.546269
0.212251 0.554099 0.535167
0.509126 0.510300 0.511517
0.931672 0.609855 0.631465
0.967250 0.724375 0.828650
0.164696 0.854463 0.477060
0.192535 0.850353 0.477555
0.368112 0.831717 0.477602
0.796906 0.820854 0.488106
0.954209 0.863214 0.668706
0.118306 0.942417 0.416162
0.118312 0.945721 0.409973
0.212281 0.944826 0.384050
0.462230 0.936627 0.400282
0.951050 0.938321 0.457982
0.128563 0.265538 0.981491
0.339751 0.366362 0.987618
0.973776 0.459395 0.987618
0.979258 0.467232 0.980545
0.976214 0.524552 0.957656
0.154100 0.428593 0.982706
0.344239 0.504180 0.987618
0.959662 0.537302 0.983396
0.974669 0.527155 0.963761
0.973860 0.499937 0.947086
0.177383 0.603486 0.893064
0.250403 0.614299 0.902560
0.666192 0.625647 0.902927
0.949003 0.660195 0.904466
0.967619 0.748816 0.917343
0.173663 0.832226 0.801720
0.206306 0.829839 0.803776
0.402052 0.816134 0.810490
0.822111 0.802497 0.810637
0.953089 0.864479 0.876241
0.118407 0.936536 0.614895
0.118615 0.941598 0.608542
0.213138 0.941816 0.692762
0.471832 0.935045 0.698611
0.950554 0.939218 0.828062
0.382065 0.315016 0.989434
0.865698 0.338642 0.989434
0.981008 0.408066 0.989440
0.981944 0.408339 0.988104
0.977447 0.537673 0.984539
0.392490 0.435905 0.989407
0.840608 0.459633 0.989410
0.979775 0.517970 0.989267
0.978982 0.475354 0.987618
0.975177 0.513777 0.981775
0.322246 0.670336 0.987618
0.520834 0.668746 0.987496
0.946891 0.662495 0.982842
0.968882 0.651993 0.976346
0.969180 0.741791 0.964524
0.195332 0.831519 0.962231
0.267132 0.828916 0.959159
0.687132 0.819943 0.950736
0.935446 0.816243 0.943952
0.956425 0.860506 0.942137
0.118310 0.924949 0.866782
0.118319 0.937291 0.883378
0.165031 0.948769 0.919544
0.437712 0.939105 0.935891
0.950399 0.941699 0.934580
