LUTs/velvia/Velvia50_Classic_ExtraPunchy.cube
TITLE "Velvia 50 Classic ExtraPunchy"
# Adobe RGB in/out. REPLACES AgX. Velvia 50 Classic ExtraPunchy.
LUT_3D_SIZE 9
DOMAIN_MIN 0.0 0.0 0.0
DOMAIN_MAX 1.0 1.0 1.0
0.070631 0.072407 0.079283
0.071241 0.072407 0.079283
0.210532 0.072407 0.079283
0.872431 0.072426 0.079283
0.965195 0.072630 0.079283
0.983012 0.072968 0.079245
0.986696 0.073344 0.079157
0.989417 0.072575 0.615664
0.989754 0.237648 0.876851
0.070631 0.072410 0.079283
0.070631 0.072415 0.079283
0.074108 0.072427 0.079283
0.682955 0.072572 0.079283
0.954929 0.072862 0.079283
0.982228 0.073411 0.079243
0.986512 0.074049 0.079163
0.989417 0.072576 0.615718
0.989754 0.237680 0.876850
0.070631 0.073100 0.079283
0.070631 0.073471 0.079283
0.070925 0.074100 0.079283
0.090916 0.074910 0.079283
0.802693 0.077895 0.079275
0.968808 0.083430 0.079233
0.985270 0.090023 0.079168
0.989436 0.072739 0.621958
0.989754 0.237683 0.876849
0.070631 0.096967 0.079283
0.070631 0.108481 0.079283
0.070704 0.144022 0.079283
0.072536 0.165834 0.079282
0.241139 0.203028 0.079246
0.909973 0.254733 0.079205
0.981845 0.325604 0.079153
0.987927 0.377574 0.078881
0.989754 0.237834 0.668583
0.070631 0.432867 0.079283
0.070631 0.465736 0.079283
0.070687 0.564013 0.079283
0.071434 0.629956 0.079248
0.088049 0.657726 0.079215
0.637693 0.692304 0.079170
0.958263 0.746820 0.079090
0.986338 0.800593 0.078858
0.989594 0.878059 0.085544
0.070631 0.846921 0.079283
0.070631 0.857084 0.079283
0.070681 0.891917 0.079258
0.071107 0.914777 0.079223
0.075386 0.924281 0.079179
0.271139 0.934025 0.079128
0.883829 0.945368 0.079008
0.982829 0.956172 0.078814
0.989329 0.971128 0.078157
0.070631 0.970021 0.079283
0.070631 0.970935 0.079278
0.070669 0.975201 0.079246
0.070996 0.979693 0.079204
0.072957 0.982469 0.079157
0.133525 0.984114 0.079065
0.691132 0.985335 0.078901
0.965587 0.986224 0.078775
0.988993 0.988300 0.078429
0.070631 0.991020 0.079283
0.070631 0.991055 0.079283
0.070631 0.991582 0.079270
0.070829 0.992895 0.079221
0.071903 0.994139 0.079164
0.086609 0.994845 0.079068
0.420030 0.995344 0.078900
0.924138 0.996053 0.078791
0.988708 0.996691 0.078579
0.070631 0.993789 0.079283
0.070631 0.993790 0.079283
0.070631 0.996842 0.079283
0.070631 0.996850 0.079283
0.071030 0.997062 0.079269
0.075142 0.997057 0.079203
0.176445 0.997055 0.079154
0.739828 0.997074 0.079086
0.988899 0.997120 0.079055
0.070631 0.072407 0.079252
0.071197 0.072407 0.078308
0.316592 0.072407 0.079147
0.914622 0.072432 0.079177
0.969242 0.072648 0.079195
0.983228 0.072991 0.079170
0.986696 0.073393 0.078965
0.989417 0.072576 0.615725
0.989754 0.237679 0.876852
0.070631 0.072409 0.079277
0.070740 0.072422 0.079210
0.119161 0.072431 0.079216
0.847091 0.072601 0.079197
0.962219 0.072890 0.079197
0.982579 0.073441 0.079172
0.986525 0.074151 0.079026
0.989417 0.072577 0.615810
0.989754 0.237682 0.876850
0.070631 0.072961 0.079283
0.070631 0.073229 0.079266
0.071386 0.073648 0.079237
0.214578 0.074760 0.079205
0.897637 0.077905 0.079189
0.973062 0.083334 0.079165
0.985428 0.090091 0.079060
0.989441 0.072831 0.624688
0.989754 0.237683 0.876849
0.070631 0.091412 0.079277
0.070631 0.099787 0.079262
0.070895 0.124451 0.079232
0.074553 0.150871 0.079196
0.437989 0.188165 0.079168
0.934178 0.246265 0.079140
0.982526 0.320973 0.079034
0.987959 0.377275 0.078748
0.989754 0.237727 0.876846
0.070631 0.406111 0.079270
0.070631 0.436414 0.079258
0.070748 0.535051 0.079227
0.071845 0.600876 0.079183
0.111865 0.640390 0.079144
0.721504 0.681307 0.079067
0.964069 0.739410 0.078925
0.986532 0.796594 0.078755
0.989591 0.879280 0.115250
0.070631 0.836040 0.079260
0.070631 0.846348 0.079251
0.070700 0.885266 0.079219
0.071293 0.908247 0.079172
0.077382 0.922059 0.079105
0.340457 0.929210 0.078982
0.907631 0.943438 0.078828
0.983475 0.954994 0.078701
0.989336 0.971157 0.078161
0.070631 0.969099 0.079256
0.070631 0.970028 0.079248
0.070683 0.974238 0.079216
0.071050 0.979002 0.079166
0.073379 0.981774 0.079078
0.150299 0.983520 0.078914
0.734216 0.985047 0.078793
0.969055 0.986097 0.078654
0.989030 0.988253 0.078161
0.070631 0.990813 0.079283
0.070631 0.990867 0.079283
0.070637 0.991419 0.079246
0.070874 0.992705 0.079189
0.072121 0.993925 0.079113
0.090159 0.994648 0.078956
0.463151 0.995206 0.078807
0.932180 0.995947 0.078681
0.988799 0.996689 0.078413
0.070631 0.994422 0.079201
0.070631 0.994423 0.079201
0.070631 0.996877 0.079201
0.070631 0.996877 0.079201
0.071052 0.997058 0.079248
0.075438 0.997053 0.079176
0.183830 0.997051 0.079096
0.757003 0.997072 0.079014
0.989251 0.997119 0.078950
0.070631 0.072407 0.078582
0.070770 0.072407 0.349019
0.213423 0.072413 0.207927
0.909237 0.072476 0.113924
0.970224 0.072716 0.091437
0.983408 0.073188 0.100786
0.986670 0.073668 0.228770
0.989427 0.072670 0.653530
0.989754 0.237683 0.876874
0.070631 0.072412 0.078579
0.070687 0.072423 0.078795
0.119007 0.072468 0.081271
0.861951 0.072663 0.080880
0.965716 0.073001 0.080707
0.982948 0.073696 0.083680
0.986530 0.074586 0.128033
0.989431 0.072704 0.656155
0.989754 0.237683 0.876854
0.070631 0.072931 0.078767
0.070670 0.073139 0.078655
0.073135 0.074446 0.078069
0.514267 0.074803 0.078095
0.939584 0.078455 0.078285
0.978530 0.084067 0.078697
0.985739 0.091578 0.080141
0.989350 0.076308 0.649651
0.989754 0.237683 0.876850
0.070636 0.087830 0.078798
0.070679 0.092561 0.078745
0.071229 0.110463 0.078601
0.091899 0.132639 0.078393
0.751222 0.175543 0.078056
0.960512 0.240234 0.078207
0.983831 0.315062 0.078481
0.988058 0.378776 0.082841
0.989754 0.237689 0.876853
0.070661 0.370237 0.078812
0.070687 0.400031 0.078788
0.071019 0.478219 0.078663
0.073815 0.554919 0.078517
0.251227 0.603590 0.078267
0.883969 0.660002 0.078084
0.975844 0.719455 0.078246
0.987047 0.784756 0.078974
0.989580 0.884034 0.628024
0.070672 0.810378 0.078814
0.070690 0.825084 0.078796
0.070949 0.863185 0.078687
0.072224 0.892685 0.078550
0.100785 0.909769 0.078298
0.614083 0.921921 0.078067
0.949770 0.935687 0.078192
0.985067 0.951153 0.078604
0.989360 0.971292 0.088664
0.070665 0.964313 0.078875
0.070679 0.966636 0.078842
0.070844 0.971496 0.078773
0.071466 0.976424 0.078626
0.077092 0.979695 0.078428
0.260500 0.981732 0.078112
0.851747 0.983713 0.078148
0.979407 0.985641 0.078444
0.989139 0.988098 0.079737
0.070631 0.989076 0.079058
0.070631 0.989324 0.079037
0.070697 0.990558 0.078846
0.071066 0.991887 0.078725
0.073071 0.993061 0.078562
0.119133 0.993866 0.078287
0.610317 0.994593 0.078070
0.954359 0.995520 0.078245
0.989030 0.996678 0.078652
0.070631 0.994423 0.079201
0.070631 0.996877 0.079201
0.070631 0.996877 0.079201
0.070631 0.996877 0.079201
0.071273 0.997031 0.079076
0.077540 0.997030 0.078808
0.230242 0.997034 0.078658
0.806362 0.997060 0.078561
0.989539 0.997115 0.078447
0.070631 0.072407 0.083116
0.070631 0.072416 0.678310
0.136324 0.072460 0.779107
0.872490 0.072622 0.756368
0.967501 0.072942 0.747031
0.983092 0.073602 0.764251
0.986521 0.074625 0.820704
0.989020 0.074095 0.895050
0.989754 0.237681 0.902617
0.070631 0.072423 0.085869
0.070654 0.072474 0.408285
0.089942 0.072626 0.680427
0.829157 0.072824 0.673324
0.963239 0.073364 0.684054
0.982680 0.074498 0.717310
0.986389 0.075972 0.795212
0.988971 0.074829 0.891399
0.989754 0.237682 0.902888
0.070631 0.073157 0.081271
0.070690 0.073416 0.085929
0.072999 0.074322 0.171912
0.553731 0.075474 0.311085
0.943715 0.080340 0.414519
0.979049 0.087012 0.507330
0.985710 0.099419 0.656526
0.988558 0.110547 0.847119
0.989754 0.237683 0.903875
0.070674 0.087454 0.079573
0.070732 0.091731 0.080158
0.071566 0.108769 0.082876
0.155344 0.160502 0.105882
0.840660 0.179093 0.122655
0.966175 0.246958 0.178923
0.984243 0.325632 0.352262
0.988046 0.406666 0.677646
0.989754 0.237734 0.904171
0.070703 0.352786 0.079089
0.070809 0.378364 0.079370
0.071332 0.451606 0.080409
0.078639 0.531322 0.082675
0.471487 0.586027 0.087628
0.929004 0.651530 0.099827
0.980872 0.712429 0.134857
0.987252 0.786947 0.351594
0.989558 0.890816 0.879191
0.070749 0.790538 0.078771
0.070833 0.804873 0.078884
0.071173 0.846553 0.079534
0.073561 0.881933 0.080661
0.160763 0.900177 0.082757
0.776505 0.915761 0.087089
0.963330 0.929893 0.097618
0.985852 0.949028 0.140060
0.989371 0.971903 0.725109
0.070728 0.959700 0.078548
0.070794 0.961938 0.078611
0.071038 0.969244 0.078888
0.072322 0.973873 0.079692
0.088693 0.977823 0.080925
0.462839 0.980243 0.082945
0.915469 0.982534 0.087405
0.983075 0.985241 0.098996
0.989217 0.988069 0.392514
0.070672 0.988113 0.078216
0.070685 0.988401 0.078251
0.070864 0.989677 0.078454
0.071414 0.991192 0.078787
0.075295 0.992330 0.079589
0.171468 0.993206 0.080713
0.735628 0.994055 0.082569
0.967216 0.995143 0.086070
0.989195 0.996672 0.130661
0.070631 0.996661 0.078075
0.070631 0.996877 0.078075
0.070631 0.996877 0.078075
0.070657 0.996996 0.078521
0.071762 0.996983 0.078338
0.083871 0.996995 0.078690
0.320392 0.997009 0.079201
0.875434 0.997041 0.079746
0.989645 0.997112 0.081452
0.070631 0.072416 0.489763
0.070631 0.072444 0.809163
0.080393 0.072664 0.909803
0.826837 0.072901 0.910014
0.962826 0.073425 0.909799
0.982610 0.074716 0.914679
0.986309 0.077299 0.925740
0.988763 0.077917 0.942410
0.989754 0.237683 0.950781
0.070631 0.072467 0.527952
0.070631 0.072580 0.774328
0.075679 0.072873 0.897708
0.776608 0.073278 0.901077
0.958950 0.074218 0.902383
0.982219 0.076296 0.909006
0.986181 0.080416 0.921750
0.988718 0.080971 0.941271
0.989754 0.237684 0.949644
0.070636 0.073476 0.490620
0.070691 0.073954 0.613796
0.072741 0.075465 0.816290
0.518275 0.078992 0.859306
0.939659 0.083302 0.872367
0.978320 0.095176 0.886501
0.985567 0.114153 0.903554
0.988426 0.143551 0.932661
0.989754 0.237695 0.946140
0.070698 0.092796 0.351588
0.070826 0.099216 0.417950
0.071945 0.121664 0.582578
0.163609 0.157708 0.699482
0.856378 0.201865 0.763441
0.967740 0.283185 0.813068
0.984298 0.359104 0.864105
0.987990 0.448679 0.908070
0.989754 0.569407 0.946155
0.070817 0.354064 0.231776
0.070929 0.379001 0.265512
0.071587 0.449443 0.375591
0.086107 0.530772 0.498113
0.616731 0.621277 0.625291
0.943956 0.657126 0.668073
0.981980 0.723688 0.755035
0.987313 0.802437 0.860137
0.989529 0.899864 0.940787
0.070894 0.784316 0.171828
0.070970 0.797817 0.186665
0.071484 0.839975 0.252370
0.075871 0.875987 0.354675
0.247129 0.896585 0.457540
0.849880 0.913646 0.533821
0.970053 0.928679 0.621557
0.986235 0.949437 0.732903
0.989363 0.973089 0.916014
0.070880 0.957508 0.133676
0.070941 0.959679 0.140363
0.071280 0.967808 0.170283
0.073141 0.972491 0.238795
0.116060 0.976614 0.332683
0.608420 0.979473 0.424268
0.941543 0.981972 0.492466
0.984260 0.985029 0.592691
0.989247 0.988332 0.863191
0.070705 0.987703 0.102162
0.070758 0.987982 0.104996
0.071001 0.989160 0.119325
0.071826 0.990762 0.148422
0.079079 0.991863 0.203329
0.255359 0.992787 0.284552
0.824561 0.993722 0.359862
0.975317 0.994915 0.442317
0.989277 0.996676 0.693928
0.070631 0.996715 0.119347
0.070631 0.996747 0.119347
0.070631 0.996821 0.119344
0.070836 0.996925 0.091037
0.072341 0.996961 0.107547
0.091455 0.996978 0.132385
0.413143 0.996996 0.164283
0.912125 0.997032 0.196695
0.989694 0.997118 0.448600
0.070631 0.072475 0.862618
0.070631 0.072552 0.921101
0.073766 0.073004 0.956195
0.747919 0.073491 0.957412
0.958461 0.074669 0.957992
0.982109 0.077743 0.959583
0.986089 0.082242 0.962957
0.988600 0.085452 0.968067
0.989754 0.237684 0.968946
0.070631 0.072604 0.871362
0.070631 0.072687 0.918155
0.073110 0.073374 0.953505
0.692193 0.074245 0.955512
0.955216 0.075937 0.956437
0.981745 0.080794 0.958265
0.985968 0.086251 0.962015
0.988558 0.091842 0.967769
0.989754 0.237684 0.968946
0.070645 0.074316 0.875602
0.070686 0.074759 0.899561
0.072498 0.079255 0.943203
0.463455 0.083274 0.946988
0.935393 0.091531 0.949665
0.977409 0.110405 0.952727
0.985414 0.143577 0.957773
0.988316 0.189032 0.965624
0.989754 0.237695 0.968946
0.070721 0.103032 0.835690
0.070860 0.109429 0.856511
0.072172 0.144916 0.903498
0.172799 0.187721 0.930146
0.864448 0.244027 0.939521
0.968150 0.316677 0.944239
0.984288 0.406628 0.949138
0.987932 0.503128 0.959830
0.989709 0.643906 0.969197
0.070904 0.388292 0.771618
0.071001 0.409914 0.787811
0.072017 0.483090 0.844025
0.097201 0.560672 0.886026
0.657967 0.621409 0.906046
0.950122 0.673621 0.921277
0.982309 0.746355 0.937752
0.987341 0.825436 0.949424
0.989500 0.910360 0.968336
0.070982 0.790417 0.706997
0.071056 0.803807 0.719481
0.071773 0.842582 0.765274
0.079114 0.877948 0.817001
0.329868 0.898110 0.859666
0.885563 0.919521 0.887784
0.973401 0.931440 0.903918
0.986442 0.951898 0.934674
0.989357 0.974674 0.962930
0.070974 0.957978 0.655577
0.071032 0.960023 0.659939
0.071495 0.967710 0.693165
0.074390 0.972281 0.741388
0.150746 0.976382 0.789737
0.692323 0.979388 0.832595
0.952915 0.982009 0.861635
0.984891 0.985146 0.892104
0.989264 0.988790 0.950648
0.070791 0.987827 0.592064
0.070848 0.988090 0.598217
0.071079 0.989181 0.626712
0.072336 0.990675 0.659415
0.084341 0.991758 0.704882
0.333631 0.992698 0.750793
0.865482 0.993678 0.787024
0.980180 0.994930 0.824981
0.989316 0.996690 0.924817
0.070631 0.996736 0.380074
0.070631 0.996764 0.398985
0.070631 0.996826 0.456233
0.070874 0.996934 0.528165
0.072593 0.996963 0.591356
0.099084 0.996979 0.634040
0.470356 0.996999 0.659741
0.924299 0.997037 0.683462
0.989710 0.997128 0.873360
0.070631 0.072676 0.959018
0.070631 0.072727 0.971845
0.071931 0.073611 0.978833
0.684243 0.074753 0.979481
0.955913 0.077748 0.979780
0.981832 0.082485 0.980262
0.985978 0.089780 0.981305
0.988506 0.101657 0.983078
0.989754 0.237621 0.984441
0.070631 0.072817 0.960655
0.070631 0.072925 0.971391
0.071935 0.074292 0.978299
0.640839 0.075899 0.979103
0.953254 0.080471 0.979466
0.981507 0.086249 0.979990
0.985867 0.098858 0.981072
0.988467 0.114291 0.982935
0.989754 0.237597 0.984322
0.070650 0.075299 0.963182
0.070683 0.076062 0.969191
0.072028 0.082243 0.975710
0.441426 0.089792 0.977378
0.935676 0.105834 0.978080
0.977422 0.133674 0.978820
0.985377 0.174830 0.980083
0.988262 0.243746 0.982161
0.989753 0.237074 0.983780
0.070761 0.117570 0.953943
0.070880 0.125416 0.959647
0.072161 0.168228 0.970350
0.187516 0.229252 0.973932
0.877468 0.297073 0.975442
0.969401 0.366432 0.976665
0.984402 0.447924 0.978278
0.987931 0.550503 0.980792
0.989639 0.723394 0.984432
0.070956 0.430011 0.942245
0.071043 0.448077 0.944865
0.072245 0.523582 0.956509
0.109371 0.593780 0.967461
0.712493 0.651337 0.971023
0.954164 0.700966 0.973132
0.982707 0.767058 0.975367
0.987420 0.841485 0.978611
0.989489 0.919476 0.983309
0.071043 0.813392 0.921051
0.071132 0.824878 0.925563
0.072122 0.855371 0.939735
0.083677 0.886694 0.949595
0.434385 0.905296 0.960354
0.909715 0.921606 0.967220
0.976177 0.936096 0.970710
0.986647 0.954782 0.975090
0.989367 0.976185 0.981816
0.071024 0.960927 0.898173
0.071081 0.962897 0.900876
0.071618 0.969069 0.911609
0.075600 0.973129 0.928956
0.176764 0.977157 0.943220
0.754798 0.979890 0.950205
0.958206 0.982495 0.958271
0.985336 0.985445 0.968552
0.989295 0.989321 0.979296
0.070812 0.988548 0.877642
0.070870 0.988785 0.879396
0.071123 0.989768 0.887561
0.072562 0.991030 0.896817
0.088317 0.992028 0.911184
0.397784 0.992940 0.926572
0.888618 0.993922 0.939092
0.981980 0.995172 0.945976
0.989349 0.996709 0.974251
0.070631 0.996733 0.724208
0.070631 0.996787 0.724286
0.070631 0.996856 0.726332
0.070767 0.996974 0.861549
0.072498 0.996988 0.874362
0.098606 0.997000 0.885506
0.472609 0.997018 0.892184
0.924603 0.997056 0.897664
0.989723 0.997142 0.966103
0.070631 0.073003 0.989571
0.070631 0.073110 0.989680
0.072605 0.074397 0.990620
0.753346 0.076180 0.990802
0.959933 0.080525 0.990930
0.982325 0.085979 0.991146
0.986149 0.096897 0.991557
0.988591 0.111398 0.991711
0.989754 0.277809 0.991796
0.070631 0.073289 0.989558
0.070631 0.073398 0.989661
0.072663 0.075104 0.990485
0.719738 0.078480 0.990692
0.957986 0.082873 0.990833
0.982103 0.091400 0.991060
0.986068 0.107595 0.991493
0.988558 0.127884 0.991700
0.989754 0.288233 0.991796
0.070675 0.078859 0.989356
0.070701 0.079823 0.989581
0.072958 0.086289 0.989777
0.587384 0.097939 0.990141
0.949186 0.117031 0.990366
0.980057 0.154091 0.990653
0.985681 0.199888 0.991138
0.988390 0.270659 0.991643
0.989754 0.408506 0.991796
0.070836 0.139846 0.987825
0.070942 0.148502 0.988490
0.072977 0.196371 0.989580
0.313274 0.252032 0.989661
0.916592 0.316665 0.989708
0.974001 0.389889 0.990039
0.984953 0.465952 0.990610
0.988129 0.561239 0.991569
0.989646 0.759732 0.991796
0.071015 0.471278 0.985016
0.071095 0.486537 0.985818
0.072876 0.555445 0.987894
0.153016 0.615115 0.989259
0.817155 0.664597 0.989585
0.962811 0.714846 0.989652
0.983662 0.776494 0.989877
0.987731 0.843676 0.990977
0.989531 0.922668 0.991709
0.071088 0.836234 0.980031
0.071243 0.842703 0.981198
0.072589 0.871095 0.984346
0.095210 0.893035 0.986774
0.580471 0.910071 0.988316
0.936383 0.923003 0.989346
0.980964 0.938844 0.989612
0.987131 0.955095 0.990125
0.989439 0.976967 0.991626
0.071050 0.965767 0.971844
0.071118 0.967495 0.972905
0.071882 0.970925 0.976917
0.077194 0.974628 0.981747
0.233843 0.978064 0.985017
0.826782 0.980476 0.987022
0.966545 0.982896 0.988460
0.986062 0.985545 0.989609
0.989382 0.989618 0.991342
0.070746 0.990061 0.958189
0.070811 0.990238 0.959278
0.071080 0.990924 0.964481
0.072537 0.991732 0.970213
0.090648 0.992604 0.975761
0.454153 0.993443 0.980611
0.909068 0.994362 0.983898
0.982554 0.995267 0.985760
0.989417 0.996727 0.990211
0.070631 0.996704 0.930639
0.070631 0.996853 0.932261
0.070631 0.996875 0.940097
0.070682 0.997014 0.947997
0.071869 0.997043 0.952304
0.088607 0.997044 0.958192
0.406689 0.997056 0.963754
0.908823 0.997089 0.966811
0.989737 0.997158 0.988744
0.072766 0.072972 0.992597
0.076771 0.073005 0.992597
0.593083 0.073238 0.992598
0.954690 0.073672 0.992600
0.980543 0.074649 0.992604
0.984903 0.076170 0.992612
0.987257 0.077654 0.992633
0.989103 0.075854 0.992677
0.989754 0.237691 0.992550
0.072767 0.073188 0.992593
0.076601 0.073246 0.992593
0.579826 0.073472 0.992594
0.953424 0.074232 0.992596
0.980044 0.075371 0.992600
0.984841 0.078206 0.992609
0.987235 0.079918 0.992630
0.989089 0.077846 0.992675
0.989754 0.237694 0.992643
0.072953 0.075588 0.992568
0.076480 0.075931 0.992569
0.511891 0.077771 0.992571
0.946068 0.080896 0.992577
0.977622 0.084921 0.992584
0.984540 0.092225 0.992595
0.987120 0.099750 0.992618
0.989015 0.096576 0.992663
0.989754 0.237775 0.992643
0.073388 0.123472 0.992526
0.075912 0.126296 0.992528
0.336850 0.140541 0.992535
0.920276 0.164340 0.992545
0.972400 0.201884 0.992557
0.983863 0.243607 0.992572
0.986865 0.289612 0.992598
0.988875 0.326445 0.992641
0.989754 0.718098 0.992704
0.073080 0.446079 0.992490
0.074505 0.452968 0.992494
0.161815 0.481488 0.992506
0.852484 0.528176 0.992520
0.963334 0.570874 0.992535
0.982728 0.615217 0.992554
0.986450 0.652205 0.992581
0.988728 0.697251 0.992625
0.989739 0.898708 0.992710
0.072408 0.828152 0.992466
0.072934 0.832003 0.992471
0.088655 0.845957 0.992489
0.629187 0.865784 0.992508
0.943873 0.884198 0.992526
0.978991 0.896705 0.992547
0.985750 0.909162 0.992575
0.988524 0.922648 0.992617
0.989710 0.971080 0.992694
0.071416 0.966909 0.992453
0.071577 0.967857 0.992461
0.073804 0.969757 0.992484
0.171328 0.972146 0.992510
0.833401 0.974498 0.992533
0.965167 0.976994 0.992556
0.984335 0.978988 0.992585
0.988213 0.980942 0.992623
0.989701 0.987391 0.992693
0.070710 0.990678 0.992316
0.070778 0.990797 0.992366
0.071065 0.991220 0.992461
0.073415 0.991832 0.992518
0.186253 0.992360 0.992557
0.858179 0.992901 0.992585
0.975371 0.993586 0.992613
0.987363 0.994223 0.992648
0.989717 0.996674 0.992703
0.070631 0.996641 0.969881
0.070631 0.996877 0.977703
0.070631 0.996877 0.977704
0.070631 0.996913 0.977724
0.071057 0.997142 0.991517
0.079151 0.997111 0.992577
0.346475 0.997109 0.992662
0.916722 0.997133 0.992699
0.989754 0.997177 0.992722
