LUTs/velvia/Velvia50_Modern_Punchy.cube
TITLE "Velvia 50 Modern Punchy"
# Adobe RGB in/out. REPLACES AgX. Velvia 50 Modern Punchy.
LUT_3D_SIZE 5
DOMAIN_MIN 0.0 0.0 0.0
DOMAIN_MAX 1.0 1.0 1.0
0.098723 0.087547 0.082196
0.891618 0.087685 0.082196
0.991895 0.091407 0.082243
0.991895 0.104112 0.082658
0.991895 0.629417 0.954738
0.098723 0.148959 0.082196
0.101174 0.100639 0.082196
0.946193 0.170245 0.082239
0.991895 0.313543 0.082471
0.991895 0.580367 0.946142
0.098723 0.908899 0.082211
0.099835 0.889344 0.082235
0.225649 0.834751 0.082270
0.973678 0.863464 0.082452
0.991895 0.908885 0.195725
0.098723 0.983159 0.082228
0.099180 0.982084 0.082259
0.119646 0.978174 0.082352
0.770800 0.972992 0.082541
0.988447 0.975606 0.083568
0.098723 0.988371 0.082196
0.098723 0.990339 0.082196
0.100745 0.990609 0.082215
0.282044 0.989471 0.082293
0.986408 0.989062 0.082344
0.098723 0.087550 0.122810
0.903740 0.088001 0.914583
0.991895 0.093488 0.686764
0.991895 0.109993 0.775996
0.991895 0.613578 0.951536
0.098822 0.095537 0.085764
0.109100 0.090752 0.084067
0.974892 0.146497 0.100756
0.991895 0.293422 0.207522
0.991895 0.558326 0.942922
0.099477 0.855754 0.084865
0.102434 0.824384 0.084784
0.428968 0.713708 0.084621
0.981223 0.834261 0.088391
0.991840 0.905638 0.763148
0.099163 0.978572 0.083089
0.100431 0.977295 0.083528
0.153825 0.973006 0.084475
0.879653 0.968048 0.085874
0.988241 0.974437 0.096505
0.098723 0.988436 0.082273
0.098723 0.990363 0.082270
0.102097 0.990272 0.082389
0.326697 0.989243 0.082838
0.986902 0.988985 0.083106
0.098723 0.088116 0.950200
0.592451 0.097792 0.988217
0.991895 0.179993 0.987981
0.991895 0.206543 0.981009
0.991895 0.606582 0.979979
0.099583 0.180426 0.943649
0.195184 0.248264 0.974366
0.983049 0.299812 0.966339
0.991895 0.411180 0.966758
0.991895 0.545261 0.976990
0.100464 0.730270 0.677937
0.107599 0.687063 0.649019
0.597931 0.595687 0.599469
0.983032 0.814817 0.827793
0.991113 0.911247 0.951209
0.100528 0.970005 0.502559
0.103913 0.968438 0.504025
0.242791 0.964298 0.504166
0.938316 0.962439 0.535907
0.987687 0.972951 0.867658
0.098723 0.989277 0.314900
0.098723 0.989569 0.291493
0.107604 0.989490 0.213668
0.467273 0.988762 0.259349
0.986878 0.988913 0.457366
0.098742 0.098847 0.991900
0.198421 0.219030 0.992487
0.991895 0.461182 0.992512
0.991895 0.483339 0.991803
0.991895 0.624769 0.989238
0.099992 0.369453 0.992025
0.209156 0.578966 0.992406
0.989080 0.649177 0.992096
0.991895 0.629697 0.990570
0.991895 0.567475 0.987742
0.101833 0.807080 0.979135
0.117965 0.820211 0.980032
0.859609 0.833971 0.980092
0.986352 0.866846 0.980344
0.991404 0.931160 0.982229
0.101467 0.964370 0.941180
0.106561 0.964036 0.941896
0.304124 0.960875 0.944225
0.948453 0.955880 0.944276
0.987401 0.973285 0.974986
0.098723 0.988754 0.806761
0.098723 0.989204 0.798778
0.107758 0.989223 0.882427
0.497353 0.988592 0.885881
0.986751 0.988993 0.950907
0.264449 0.132308 0.992930
0.965274 0.166160 0.992930
0.991895 0.318451 0.992930
0.991895 0.319052 0.992831
0.991895 0.649895 0.992191
0.284396 0.392232 0.992930
0.957398 0.461915 0.992930
0.991895 0.612406 0.992930
0.991895 0.503506 0.992564
0.991895 0.604575 0.991929
0.176276 0.874797 0.992424
0.627735 0.873791 0.992348
0.985809 0.868965 0.992039
0.991895 0.859272 0.991511
0.991895 0.927374 0.990729
0.104488 0.964271 0.990237
0.124730 0.963906 0.989566
0.876963 0.962213 0.987987
0.983934 0.960915 0.987031
0.988254 0.972236 0.986619
0.098723 0.987475 0.969501
0.098723 0.988821 0.977245
0.100542 0.989838 0.982537
0.389874 0.988983 0.985195
0.986711 0.989213 0.984895
